Xixo99/comfo/baselines/comfo7_perterbation_both_actor_and_critic/20230224_alphaQ0.0001/halfcheetah-medium-replay-v2/COMFO7_s1_20230225_011831_halfcheetah-medium-replay-v2_54.54.csv
,step,reward,actor_loss,alpha,alpha_loss,avg_conservative_loss,avg_smooth_loss,conservative_weight,critic_loss,max_actor_loss,max_alpha_loss,max_critic_loss,max_mle_prob,max_q1,max_q2,max_target_q,max_v,max_value_loss,max_weight,min_actor_loss,min_alpha_loss,min_critic_loss,min_mle_prob,min_q1,min_q2,min_target_q,min_v,min_value_loss,min_weight,mle_prob,q1,q2,target_q,v,value_loss,weight,eval_time,time
0,0,2.255768880548912,,,,,,,,,,,,,,,,,,,,,,,,,,,,,,,,,,,,
1,10000,-1.0283415910968818,-23.340948,0.072689734,-4.8538475,0.00081682525,0.8705117,1.0,1.8327416,6.3524623,19.069613,46.952976,10.451765,39.717037,40.40536,40.104412,39.240353,4.414395,0.7,-40.302948,-29.144365,0.0015738023,-73.205025,-7.034826,-6.6556063,-6.8004923,-6.976903,1.21762875e-08,0.3,-9.453394,23.09853,23.060131,22.892956,22.576538,0.1167756,0.475,5.5711376667022705,2.726454261938731
2,20000,1.4664852208773895,-38.86835,0.07597758,0.2237961,-0.0010316378,1.8561041,1.0,4.8406796,5.92372,23.51305,206.00015,12.927782,64.16948,64.260086,66.3403,63.40104,6.0160522,0.7,-63.535553,-33.643673,0.0011198107,-213.41467,-5.5859594,-5.533513,-4.704979,-5.758494,6.9849193e-07,0.3,-8.931893,38.63802,38.64634,39.04344,38.5217,0.22234604,0.4734375,5.615086555480957,3.7546993851661683
3,30000,16.451505282996454,-44.672016,0.07980586,-0.9687528,0.00013445718,2.2660167,1.0,3.6300304,15.090718,33.820965,103.52899,12.428732,72.366776,72.02931,72.33222,71.50743,3.3339794,0.7,-71.49784,-29.122728,0.0025600456,-114.08023,-15.140802,-15.027871,-14.631496,-15.156134,8.339304e-07,0.3,-6.6073527,44.60924,44.540176,44.732197,44.63096,0.26224738,0.4921875,5.603475093841553,4.781537795066834
4,40000,24.52880475194526,-52.43988,0.08048987,-0.4099326,-0.0080001755,2.7253382,1.0,3.5350997,13.766956,25.506935,150.38864,12.23007,81.54932,81.27484,81.06242,80.70078,5.214695,0.7,-81.28708,-27.84392,0.0009183382,-239.02187,-14.148968,-13.473031,-15.009988,-14.603366,1.3247616e-05,0.3,-9.662029,52.301758,52.212147,52.06779,51.957436,0.35002354,0.459375,5.905656337738037,5.815259071191152
5,50000,37.110730541121136,-57.631363,0.078820966,-0.4836678,-0.0021733814,3.3908505,1.0,4.1320386,8.30379,28.594875,109.48338,13.93146,85.04047,85.41355,84.66016,84.6771,11.978843,0.7,-84.34073,-27.74802,0.014388023,-190.77179,-8.45645,-9.014311,-10.336242,-9.153072,2.514571e-09,0.3,-10.460283,57.436146,57.414894,57.483467,57.582775,0.3808248,0.44687498,5.587895393371582,6.841823410987854
6,60000,44.71897171725958,-56.704453,0.07668034,-1.0081539,-0.0007668258,3.2665212,1.0,4.212435,12.500778,25.101639,141.59186,14.564632,86.78892,86.05235,86.543106,86.252716,13.891599,0.7,-85.62379,-29.232374,0.010447065,-643.72943,-12.1347685,-11.847209,-11.257405,-10.757117,1.5926315e-06,0.3,-17.782751,56.48089,56.53882,56.879646,56.92109,0.3925666,0.42812496,5.548106670379639,7.873564875125885
7,70000,48.72607846807833,-60.460625,0.07595173,0.5911742,-0.013462717,3.6314652,1.0,5.4325075,14.290729,47.04304,156.44,11.954489,86.17266,86.74239,89.03367,87.92049,25.452833,0.7,-86.330635,-28.226278,0.0025117802,-435.11612,-14.386367,-14.559475,-14.410605,-13.284107,2.766098e-06,0.3,-15.493826,60.09266,60.099937,60.886307,60.98882,0.6713728,0.40625,5.551291227340698,8.901871248086293
8,80000,49.432071479910924,-62.136055,0.072284505,-0.14834225,-0.007045151,3.605325,1.0,4.1231437,12.608516,23.615864,86.46124,12.131552,87.01972,87.045006,86.32039,86.4853,8.352569,0.7,-85.90967,-31.33969,0.0013464233,-183.01141,-10.674193,-12.190251,-11.221895,-10.328917,3.4226106e-09,0.3,-13.735142,61.85016,61.837692,61.675564,61.947777,0.4573173,0.4265625,5.496788263320923,9.931849579016367
9,90000,50.22360586710194,-56.61846,0.07082287,-1.7045733,-0.0015143987,3.2256622,1.0,2.8680372,12.582232,31.29035,74.164665,13.150576,87.65271,87.317505,87.679535,87.96042,47.789337,0.7,-87.43634,-29.006262,0.0059184097,-626.63257,-12.604602,-12.507503,-12.8076105,-12.814386,2.249537e-07,0.3,-25.144558,56.197258,56.151794,56.21412,56.15525,0.58704424,0.48125,5.564399719238281,10.95789110660553
10,100000,51.20229931909708,-63.096466,0.069582164,0.34721938,-0.004371328,3.7402,1.0,3.801479,11.925594,25.927326,61.658478,13.919717,87.17584,86.76338,87.391594,86.68788,31.695986,0.7,-86.63304,-35.103878,0.0007350567,-543.73145,-11.148176,-11.724704,-9.508824,-9.235962,7.5605467e-06,0.3,-17.267197,62.73604,62.76252,62.829903,62.63622,0.5110914,0.4765625,5.515036106109619,11.986463518937429
11,110000,48.76410340954752,-61.13996,0.069122024,-0.45310146,-0.005331457,3.3754232,1.0,2.67186,9.124218,32.53574,49.086105,14.35432,87.16113,87.05265,86.54497,87.52515,4.490738,0.7,-86.54436,-31.528809,0.0028828885,-236.26984,-8.708651,-8.9756,-8.73823,-8.48438,1.494118e-05,0.3,-17.346527,60.765408,60.795547,60.85757,60.912487,0.36422226,0.421875,5.521893739700317,13.011854712168375
12,120000,49.30333887821896,-64.28856,0.06697632,-0.23925057,-0.009964776,3.548175,1.0,3.844119,9.575947,29.901142,390.248,12.33718,88.98286,88.38462,87.74176,87.94126,11.584099,0.7,-87.51943,-30.700775,0.01723873,-354.16705,-10.799151,-11.433505,-9.067396,-10.752332,2.7166963e-05,0.3,-17.283373,64.05788,64.127,63.686317,63.752632,0.4330424,0.4765625,5.498577117919922,14.040278089046478
13,130000,54.43249927183419,-60.745445,0.06704458,-0.7329043,-0.0066893655,3.797744,1.0,3.7904959,6.635184,32.222954,115.66434,10.634929,87.5042,87.551094,88.13573,88.42084,38.11591,0.7,-88.13617,-29.54002,0.0058021825,-255.80545,-8.317615,-7.823341,-7.152292,-6.7592897,3.5773166e-05,0.3,-21.11666,60.275032,60.089493,60.31847,60.48399,0.7416026,0.4265625,5.452792167663574,15.065381999810537
14,140000,52.018507406197514,-63.95614,0.0675467,-0.5482918,-0.0064676777,3.9198613,1.0,3.2089274,6.25471,46.048603,74.30197,12.4769,87.76136,87.60814,87.174706,87.3246,11.509607,0.7,-86.59916,-30.91438,0.001821652,-1300.4409,-7.602442,-7.821904,-8.419088,-8.53607,3.9290174e-07,0.3,-29.052324,63.578075,63.413406,63.03415,63.160572,0.44807217,0.5125,5.535382270812988,16.093759206930795
15,150000,52.44842996108581,-60.157135,0.06680014,-1.6676905,-0.004665665,3.8777082,1.0,2.5715923,6.9462132,29.835394,70.44014,11.607746,87.49086,87.135475,87.50561,87.23411,9.761138,0.7,-86.204124,-31.936886,0.0015726979,-416.18713,-8.721751,-7.8865294,-7.19649,-6.7952604,6.880539e-07,0.3,-24.10268,59.650032,59.618484,60.127502,59.933613,0.44235015,0.40625,5.480738401412964,17.118262243270873
16,160000,53.192794719957426,-61.98761,0.066706955,-0.58335996,-0.010018743,3.7532432,1.0,2.5521507,4.5206656,30.286755,43.00885,13.515455,88.21794,89.2629,89.21258,88.41445,11.280959,0.7,-87.38659,-31.408464,0.0014182236,-484.44476,-4.793358,-4.7799406,-5.4586196,-4.5151153,3.551849e-06,0.3,-22.10424,61.528328,61.69519,61.798286,61.778175,0.44075924,0.43125,5.492620944976807,18.14485156138738
17,170000,52.80727588826502,-64.44096,0.065518804,0.84987247,0.0015391365,3.7993772,1.0,2.7317047,5.9282174,44.1071,32.003433,12.807057,87.26294,86.90945,88.070946,87.177826,50.13482,0.7,-87.147064,-33.87768,0.0067445617,-447.8673,-8.78484,-8.028378,-9.504287,-8.703202,9.538081e-07,0.3,-24.984688,63.838715,63.75007,64.02103,63.919872,0.7328624,0.5078125,5.495097398757935,19.172752074400584
18,180000,55.55787186333181,-60.72423,0.06593921,-0.2979657,-0.0055454364,3.5216157,1.0,2.307119,5.864992,37.848724,35.3776,12.910418,87.011826,86.944725,86.65669,86.77489,8.256996,0.7,-86.326126,-33.67085,3.3956603e-05,-719.417,-7.942101,-7.7433043,-8.548541,-6.854573,1.5757731e-06,0.3,-27.320038,60.14982,60.1356,60.222855,60.274273,0.44459504,0.440625,5.492196083068848,20.197502036889393
19,190000,52.888423821866304,-65.451225,0.06561682,0.8063544,-0.009184641,3.6632733,1.0,1.7192923,6.315242,26.194506,19.614677,13.842197,87.44263,87.29836,87.596634,87.858795,3.0769403,0.7,-86.88719,-34.7991,0.0076862695,-430.9627,-8.545955,-6.8504643,-7.7213535,-7.8619275,7.722265e-06,0.3,-30.538742,65.20842,65.12724,65.15586,65.125046,0.2996778,0.434375,5.588435173034668,21.224878696600594
20,200000,53.42243641688875,-58.273155,0.06539176,0.21786244,-0.009036436,3.7889497,1.0,2.1226633,7.2258673,30.808252,55.009117,10.561378,87.97935,88.41549,88.454796,87.68726,6.4410024,0.7,-87.65909,-33.421944,0.00027343334,-1168.2163,-6.455082,-7.02328,-6.5756497,-6.39274,1.1353908e-06,0.3,-37.758255,57.708977,57.637024,57.76111,57.85752,0.38001728,0.4140625,5.491208553314209,22.254377023379007
21,210000,52.312988554219345,-62.48157,0.06504476,0.08170277,-0.008270815,3.6929173,1.0,3.7963204,4.273715,32.85408,106.6606,12.617815,85.65938,86.0528,86.14555,85.37092,11.264221,0.7,-86.54996,-34.816948,0.0013140036,-842.41327,-7.4635997,-5.3731713,-6.819807,-6.271324,2.135774e-05,0.3,-28.912544,62.06656,62.09457,61.854336,61.523518,0.6123066,0.5328125,5.477160692214966,23.281715373198193
22,220000,51.51610247408591,-64.288376,0.06486949,0.53507227,-0.018002464,3.457361,1.0,2.2293065,3.057287,42.083767,53.707542,10.901706,87.45581,87.05389,87.08372,86.59135,6.4565315,0.7,-86.5963,-30.673891,0.004982322,-429.40317,-5.58841,-5.5154786,-5.9978986,-6.2844296,2.6696537e-06,0.3,-22.481129,63.81399,63.770115,63.432144,63.432564,0.39139843,0.4953125,5.530531644821167,24.308357803026833
23,230000,52.943389650113495,-62.181656,0.06551392,-0.4896911,-0.006404248,3.9467123,1.0,3.9581213,5.666097,40.04076,218.43823,11.98249,88.402016,88.563736,88.118904,86.553566,28.459044,0.7,-88.00089,-31.8013,0.004658337,-530.7451,-6.739294,-8.485583,-7.4411225,-7.780216,3.6209823e-07,0.3,-30.872475,61.532913,61.426804,61.26967,61.38815,0.7763021,0.434375,5.530095815658569,25.334842296441398
24,240000,52.83339519448771,-61.178673,0.064694196,0.9853029,-0.01450622,4.0308337,1.0,3.5102663,6.1498966,65.63514,132.7606,12.762033,87.7484,87.38264,87.348495,87.14857,24.004745,0.7,-86.98023,-34.324524,0.00029217458,-409.66324,-9.595141,-8.169982,-7.48105,-10.225128,1.2915017e-05,0.3,-32.48778,60.34626,60.35334,60.02079,60.099102,0.6645185,0.49375,5.896606683731079,26.371250621477763
25,250000,52.567162953372716,-62.775417,0.06589358,0.24979615,-0.018725136,3.6780698,1.0,2.9410067,3.356001,48.121864,57.065628,11.77593,86.95682,86.52966,86.843254,86.21676,20.254911,0.7,-86.96163,-34.256413,0.00089582574,-264.1099,-4.8166914,-4.915871,-4.944447,-4.701614,1.8901367e-06,0.3,-25.48796,62.01037,62.08184,62.110138,62.07238,0.42818883,0.4828125,5.956504821777344,27.406321918964387
26,260000,52.08804501243173,-62.440887,0.06430524,0.29676044,-0.008959053,3.951432,1.0,2.2503762,7.018446,36.56917,29.957397,18.754566,85.11566,85.79088,85.95729,85.25589,23.314772,0.7,-85.143616,-32.47171,4.4660796e-05,-640.88184,-6.8569756,-6.560008,-9.634669,-8.810296,3.716079e-05,0.3,-38.7376,61.91617,61.864723,61.955753,62.062195,0.54721427,0.46249998,5.865434646606445,28.43326861858368
27,270000,53.17296640119531,-61.732452,0.06497557,-1.3263279,0.00014537424,3.4324872,1.0,2.783038,4.7139397,27.70675,38.88678,11.247163,86.87576,87.82932,87.90223,88.1185,20.858112,0.7,-87.33326,-34.38445,0.003883076,-478.07416,-7.1653953,-6.483055,-6.980903,-6.9308515,2.6970347e-06,0.3,-29.839897,61.165024,61.340202,61.64573,61.62558,0.50482285,0.4140625,5.858214855194092,29.462069698174794
28,280000,52.317634958027504,-63.554638,0.06552212,1.243956,-0.017644286,3.8623435,1.0,2.3291616,5.4107227,46.94955,63.153637,10.62887,84.90277,84.81853,84.9542,85.00244,24.935535,0.7,-85.06585,-31.616821,0.0039541535,-538.6889,-6.1759167,-5.7425323,-7.2732406,-6.0505395,8.886115e-06,0.3,-29.784319,62.866722,62.90606,62.933804,63.180763,0.44934204,0.42031246,5.784285545349121,30.493364695707957
29,290000,53.62863022914443,-60.994656,0.06478781,0.0778887,-0.012264881,3.7645643,1.0,2.8408985,5.7845607,26.6545,28.252682,9.24704,86.25844,87.40962,86.18177,86.43651,25.133266,0.7,-87.29058,-32.70953,0.003956843,-590.5662,-7.1400537,-7.0254817,-6.05085,-6.2179213,6.4339665e-06,0.3,-40.239914,60.429825,60.358757,60.289875,60.2778,0.56066334,0.453125,5.988687515258789,31.510093303521476
30,300000,53.645647408244244,-60.561565,0.064416796,0.505301,-0.013108322,3.6045876,1.0,2.5669758,5.3784466,44.459484,43.097397,13.817015,85.92592,85.75905,85.77202,86.72829,15.154992,0.7,-85.51308,-29.96157,0.005391958,-458.71017,-13.994294,-14.590751,-11.174611,-13.872844,7.2835144e-05,0.3,-29.642445,60.072414,60.060753,60.55764,60.46417,0.4642376,0.44687498,5.491286039352417,32.50912062327067
31,310000,53.760423494058294,-61.820297,0.06490738,1.3194888,-0.006956073,3.8645585,1.0,2.3214445,3.3090217,39.318848,25.290022,12.987821,85.644875,85.127625,84.99313,84.42873,18.628561,0.7,-85.13311,-30.921885,0.005543183,-651.9415,-4.860463,-4.628274,-7.1149826,-7.286468,2.9785879e-05,0.3,-39.068306,61.329735,61.101055,61.04003,60.8983,0.6055275,0.49374998,5.72018575668335,33.53550070126851
32,320000,53.20242352501605,-61.217876,0.065679446,-1.2898308,-0.011556107,4.003853,1.0,2.337614,4.009836,45.497574,52.185646,12.283049,87.82777,87.2304,87.5843,87.06857,7.8393006,0.7,-86.74527,-30.841219,0.0008224092,-508.98334,-6.4769287,-6.2336426,-7.2459764,-5.2989497,2.9354126e-06,0.3,-30.609104,60.66957,60.6094,60.492287,60.572136,0.43499327,0.4515625,5.511649131774902,34.56246468226115
33,330000,53.54487893796151,-60.74295,0.06551463,-0.29957327,-0.006091942,4.173841,1.0,2.5143952,5.1343117,47.492153,31.61903,11.433129,87.097984,86.80998,86.308105,87.40911,61.668037,0.7,-86.4961,-29.891642,0.00087900186,-584.64825,-4.9875183,-4.6464534,-6.7214613,-6.570603,3.8001847e-06,0.3,-30.208525,60.181343,60.23332,60.065044,60.16233,0.87004155,0.5203125,5.547655344009399,35.590101909637454
34,340000,54.48995928063365,-58.994667,0.064317994,-1.4699254,-0.0019161511,3.3889759,1.0,1.9052436,4.73542,43.297962,25.843298,12.170699,86.75549,87.010605,86.47351,85.220215,12.760704,0.7,-85.92223,-31.51106,0.0019462584,-1930.7657,-5.495102,-5.344008,-5.495554,-5.304298,3.080928e-05,0.3,-46.656517,58.501343,58.502617,58.319992,58.407875,0.47397888,0.4421875,5.574573278427124,36.61246680816014
35,350000,52.09919793575127,-60.106346,0.06509481,-2.0388796,-0.0062577757,4.0176625,1.0,2.7034717,3.6322477,33.410732,77.95625,10.661724,85.20357,85.58986,85.044685,85.3449,15.539959,0.7,-85.873474,-30.916422,0.00654397,-453.9672,-4.2349753,-5.1019583,-5.004988,-4.331949,5.9030004e-08,0.3,-25.53164,59.435486,59.442898,59.033356,59.32188,0.4727778,0.43281248,5.501734972000122,37.64164322217305
36,360000,54.696413772161634,-60.33639,0.06543814,0.46739095,-0.0045690476,4.219688,1.0,3.8444576,4.892794,33.86424,110.38312,14.041756,85.32783,85.0107,85.4617,85.18005,29.175478,0.7,-84.09463,-29.619762,0.007184428,-740.6652,-6.134435,-5.454977,-5.097935,-6.1969934,1.6298145e-08,0.3,-34.547073,59.786575,59.60505,60.382317,60.28367,0.6408191,0.44375002,5.506582021713257,38.670076358318326
37,370000,54.0797951927903,-63.524876,0.06561513,0.6484478,-0.009546933,4.5137115,1.0,3.252041,3.1371336,25.333141,74.46712,14.122332,85.06958,85.02003,85.43392,85.09641,34.429733,0.7,-85.0124,-31.621801,0.0012638131,-2249.0288,-5.0815096,-6.9015703,-6.0322733,-5.5681863,4.0338927e-07,0.3,-43.19944,63.07703,62.97055,62.70617,63.008743,0.7078055,0.471875,5.5154619216918945,39.698715364933015
38,380000,52.99354357966533,-61.860966,0.065694146,-0.6915934,-0.013257648,3.976069,1.0,2.684094,4.6152496,33.860138,72.077675,12.75068,85.89026,86.385086,86.43649,86.13734,10.378261,0.7,-85.89915,-29.677555,0.00038775388,-785.843,-6.0817823,-5.349255,-7.2874007,-6.1546597,5.906878e-06,0.3,-26.667236,61.53462,61.418163,61.044052,61.313828,0.509683,0.48125,5.490210771560669,40.72271182537079
39,390000,54.22109352280443,-61.114265,0.06594979,-0.70862305,-0.012465156,3.7312143,1.0,2.7116718,5.1014147,49.124367,32.13492,10.842836,85.756325,84.44556,84.81792,85.14677,7.519869,0.7,-84.74452,-33.037674,0.0027187564,-366.07727,-4.7766867,-5.408263,-4.924779,-6.1761017,3.9815788e-07,0.3,-27.503494,60.67945,60.65622,60.859924,60.93804,0.39862117,0.44375,5.400936841964722,41.74989810387294
40,400000,53.91642596103695,-62.84707,0.06601085,0.69216,-0.0069736973,4.292789,1.0,3.1959243,4.309217,41.2063,55.511456,13.290409,86.71641,86.67068,87.21551,87.15326,47.95501,0.7,-86.281235,-31.614334,0.021277867,-822.52234,-7.857267,-6.1758432,-5.566655,-6.158781,2.3763612e-06,0.3,-40.76236,62.243217,62.385284,62.77768,62.65357,0.69436246,0.45468748,5.691148281097412,42.78007731437683
41,410000,53.64223643292774,-59.53429,0.06529361,-1.1676613,-0.012765436,3.7856624,1.0,2.101696,3.7406998,45.7047,41.277145,10.897234,86.245026,86.27858,86.754456,85.338356,5.1456695,0.7,-85.92973,-30.4054,0.0017234228,-765.43896,-4.6051865,-4.2644453,-3.930255,-3.7050276,2.2631139e-06,0.3,-32.74202,58.946655,58.972824,59.15425,59.05547,0.34133944,0.5046875,5.944565057754517,43.81365566253662
42,420000,53.159686393235575,-59.9774,0.06564659,-0.10631168,-0.00094312354,4.273009,1.0,2.4767156,5.9200106,50.126633,44.03547,13.19764,85.9866,85.73977,85.62164,86.09912,40.016487,0.7,-85.443695,-35.42166,0.005594206,-378.82336,-5.379279,-6.721736,-5.780331,-6.606375,9.915791e-07,0.3,-36.340572,59.26152,59.32733,59.550083,59.668087,0.7215163,0.4359375,5.457221746444702,44.837741525967914
43,430000,53.83435619673887,-61.82473,0.06592291,0.43749198,-0.014448668,4.492521,1.0,3.2480893,1.8190186,50.36809,73.02934,12.40354,86.07678,85.66744,86.27252,85.3688,22.282501,0.7,-85.5226,-36.251205,9.292533e-05,-2622.2412,-4.3208184,-4.1927223,-5.567434,-5.8204846,2.1129383e-09,0.3,-54.836372,61.124786,61.169006,60.913322,61.13051,0.64317954,0.44375,5.445658922195435,45.86360307534536
44,440000,54.00257068943125,-62.269043,0.065752536,0.37280467,-0.0017452383,3.9402413,1.0,2.3260229,5.9675307,47.79727,55.289173,10.140654,86.45433,86.72607,87.799065,86.60334,8.228952,0.7,-86.62924,-30.790642,0.0020090987,-438.04092,-7.617647,-6.1156707,-7.256899,-6.038276,1.6860755e-05,0.3,-31.797709,61.62783,61.660034,61.58369,61.67913,0.42364788,0.4578125,5.5250701904296875,46.89107818206151
45,450000,52.624488105675624,-62.744354,0.06627042,1.3992976,-0.00981097,4.9599724,1.0,4.154102,-1.2200466,58.11021,188.89146,11.134333,84.52991,84.86938,86.25154,85.29412,26.85644,0.7,-84.83278,-29.900133,0.001909297,-439.3403,1.6749197,1.4319317,1.1791523,2.1462018,2.5752088e-05,0.3,-35.725155,62.003574,61.934227,62.05903,62.13232,0.61695933,0.4671875,5.613872528076172,47.91780701478322
46,460000,54.11865524900079,-63.230732,0.06510439,1.4042214,-0.0043626064,3.983228,1.0,3.016181,2.7613132,40.43045,71.175255,12.319505,87.59327,86.66764,87.427925,86.69505,29.757582,0.7,-87.20949,-45.029827,0.009943343,-477.82275,-7.4179974,-6.534504,-10.267642,-6.008956,1.491456e-06,0.3,-34.766846,62.621983,62.482338,62.191113,62.460182,0.6828884,0.4703125,5.529717445373535,48.94677348534266
47,470000,54.100238694425485,-58.528854,0.06649643,-1.2575421,-0.010454099,4.096377,1.0,2.682508,4.2454243,43.747578,49.57356,12.278381,86.25841,86.96131,86.37859,85.584404,12.395907,0.7,-86.225426,-31.124416,0.0013932812,-1078.778,-4.55604,-3.9646997,-5.267323,-5.199882,3.9815788e-07,0.3,-46.977486,57.549217,57.63623,57.615623,57.527332,0.59281266,0.47656247,5.925713777542114,49.98254454135895
48,480000,53.95310355611136,-63.00483,0.06518717,-0.8556838,-0.021775533,4.0998363,1.0,2.2561493,4.5386276,37.28456,37.23951,8.936207,87.33247,86.08059,85.87001,88.08135,13.499939,0.7,-87.50649,-37.728848,0.0018878232,-731.54767,-6.192767,-6.219185,-4.0697384,-5.653315,3.3003744e-07,0.3,-33.17828,62.36158,62.482513,62.52117,62.25866,0.43465632,0.48593748,5.964102029800415,51.016726434230804
49,490000,54.41612897994656,-62.357822,0.064945586,-0.7671757,-0.0030046252,4.29071,1.0,2.5048234,5.006726,61.325783,62.365005,12.12636,86.76695,86.0539,86.917694,86.58732,9.0564165,0.7,-86.502914,-31.743643,6.62618e-05,-1136.0446,-7.761281,-7.2820134,-13.100633,-6.642908,6.564467e-08,0.3,-48.738686,61.75692,61.65296,61.42534,61.44892,0.42382434,0.48281252,6.143366575241089,52.048851279417676
50,500000,54.0411633589879,-60.20646,0.06639539,-0.015001476,-0.010779609,3.9468598,1.0,2.662406,4.5103054,50.18627,39.183647,13.965983,86.774086,86.27467,86.62412,87.51389,34.17437,0.7,-85.48087,-30.717403,0.017828764,-590.91534,-5.5124855,-4.9575844,-2.53945,-2.5047216,1.6578884e-06,0.3,-39.92465,59.469986,59.52086,59.421844,59.38202,0.7136625,0.4984375,5.66908073425293,53.07416575352351
51,510000,55.11733492840142,-64.888016,0.066122584,0.48525506,-0.0089851245,4.39747,1.0,2.7918482,4.675816,36.69036,121.739,12.153503,85.865845,85.6055,86.766785,86.58785,48.84016,0.7,-85.753845,-30.344894,0.0049694404,-631.65784,-4.931713,-4.4445324,-3.869402,-3.595302,1.4492329e-05,0.3,-31.52057,64.19998,64.20734,64.19943,64.50856,0.7656126,0.4125,5.705624103546143,54.10395081837972
52,520000,53.63015144086569,-61.839966,0.06511274,0.047017246,-0.016390977,3.9309204,1.0,3.0657034,3.481965,51.612278,91.11128,11.105555,87.25266,86.93999,87.12262,87.82844,119.82516,0.7,-86.48584,-32.31684,0.0016631756,-1680.8059,-3.7247753,-4.0040307,-4.468311,-2.7861984,8.761883e-07,0.3,-52.55114,60.936523,60.99962,60.878548,61.259552,1.0548899,0.43281248,5.783487796783447,55.13599341710408
53,530000,54.89275318837337,-60.528854,0.06710405,-0.16044785,-0.009968955,4.237424,1.0,2.485323,2.751535,35.926857,63.348,11.072899,84.890785,85.32453,84.892235,83.972534,14.339285,0.7,-85.528435,-31.004896,6.961162e-05,-1837.8304,-7.4656663,-5.3838058,-11.955601,-6.8457923,1.0430813e-06,0.3,-43.982616,59.736225,59.82524,59.299957,59.545555,0.51165056,0.44062498,5.962254524230957,56.16768787701925
54,540000,53.94417362901906,-60.844536,0.066815905,-0.8919841,-0.0060994127,3.9345784,1.0,2.8768554,1.5709416,40.880512,108.81749,11.930265,86.94581,86.9658,87.418236,86.74153,23.942402,0.7,-85.997406,-30.875626,0.006689652,-776.8288,-2.2924986,-3.1995952,-3.2570827,-3.328171,4.831399e-06,0.3,-32.93279,60.243828,60.233376,60.034885,60.181694,0.48724896,0.47812498,5.425003290176392,57.196442770957944
55,550000,54.28062623059363,-61.418877,0.066712104,-0.41594222,-0.013738302,4.131349,1.0,2.588502,3.888311,38.645325,104.59515,9.960012,85.23246,85.35545,85.75904,85.22095,9.499798,0.7,-86.194664,-33.93654,0.0009268522,-1212.8217,-3.1933732,-2.8889556,-5.125719,-3.6841831,2.1391315e-08,0.3,-42.261017,60.73858,60.824524,60.718376,60.67035,0.4016025,0.51875,5.544947385787964,58.229703863461815
56,560000,55.01386522155243,-61.0446,0.0650134,1.4134512,-0.020290421,3.94672,1.0,2.3310304,3.8440683,48.874413,37.339996,11.359525,85.692375,85.48204,85.85545,84.748886,9.276175,0.7,-85.25125,-31.241096,0.00018524524,-624.614,-7.776169,-5.797278,-6.160521,-4.8873343,1.8659746e-06,0.3,-52.101746,60.194584,60.345505,60.44349,60.352173,0.3418747,0.421875,5.479324102401733,59.25896076361338
57,570000,55.11230821804496,-59.65975,0.06562458,-1.0459596,-0.013257799,3.981109,1.0,3.3056087,2.9608219,36.157284,155.63177,11.641913,85.432396,85.24004,84.99654,85.94313,18.512985,0.7,-85.38081,-35.367424,0.0017079528,-609.2033,-2.3604722,-3.7025561,-3.9449685,-3.4227903,8.696853e-06,0.3,-52.42863,58.786324,58.737225,58.431423,58.68363,0.43944246,0.434375,5.5866148471832275,60.284674016634625
58,580000,54.25709388684494,-62.367218,0.06606735,0.07300985,-0.018961204,4.62464,1.0,3.6256232,4.9441056,31.693375,84.27287,12.91933,85.72858,85.24778,87.17744,86.06639,8.554311,0.7,-84.90354,-34.54036,0.0057469886,-540.8192,-6.7063527,-4.653771,-4.223143,-3.49642,3.4323966e-05,0.3,-47.190025,61.678493,61.588013,62.27069,62.11201,0.4871269,0.471875,5.443365097045898,61.3124783039093
59,590000,53.649515158392134,-62.20965,0.06569514,0.23025611,-0.01758493,4.097554,1.0,2.2927637,2.8679588,45.34752,25.915138,11.975721,85.050186,85.254196,86.108505,85.83834,6.273592,0.7,-84.569626,-31.344526,0.00032314725,-1864.0648,-4.1885505,-5.0126605,-4.003725,-4.0658326,3.1944364e-06,0.3,-39.023308,61.620544,61.64466,61.788605,61.563797,0.40008223,0.465625,5.497033596038818,62.340643239021304
60,600000,54.70299957663025,-60.425568,0.06642885,0.41131634,-0.008226975,3.6728184,1.0,2.1442204,5.0873704,37.983097,26.791126,12.013798,84.98983,84.59564,85.00299,85.185165,11.235938,0.7,-84.58188,-32.282913,0.0057912795,-611.33466,-4.96941,-4.446492,-4.538461,-3.742549,3.7270453e-07,0.3,-46.72827,59.73124,59.586327,60.00122,60.24887,0.5828705,0.40781248,5.495696306228638,63.37429946263631
61,610000,54.609503603880995,-62.19994,0.065823555,-0.8459072,-0.01063627,4.119751,1.0,2.2044897,3.5555227,29.810337,23.971598,10.189724,84.275696,84.692055,84.35134,84.809975,14.826329,0.7,-83.78601,-33.41421,0.0020435753,-503.68182,-3.822917,-4.120968,-1.9082445,-1.674074,2.0186418e-08,0.3,-35.89744,61.702297,61.626064,62.02305,61.9357,0.41859013,0.42031246,5.450782060623169,64.40324321985244
62,620000,54.53065837178119,-61.390503,0.06565644,-0.28034663,-0.0017076463,3.7814846,1.0,3.8025203,1.1949449,41.768158,81.90051,10.755451,85.706184,85.91953,85.850876,86.08425,17.858171,0.7,-85.40054,-30.2054,0.0004039228,-526.80865,-1.5599334,-1.8755546,-4.4937515,-3.7675004,2.5348447e-06,0.3,-39.591354,60.783752,60.701393,60.24331,60.5455,0.45720482,0.44843748,5.443873405456543,65.43019778331121
63,630000,54.27693221901144,-61.465714,0.065071926,-0.38399577,-0.017015401,3.571104,1.0,2.4165492,1.7059416,40.28619,68.78661,10.846647,87.53204,87.312836,86.8934,86.3653,5.495162,0.7,-87.17391,-30.685856,0.0027211462,-919.9689,-4.8829966,-3.477987,-5.137804,-5.74425,1.7427443e-05,0.3,-45.080704,60.94664,60.92309,60.586773,60.460697,0.4632253,0.528125,5.4008870124816895,66.45987575848898
64,640000,53.97651842268208,-58.583008,0.0652822,-1.5354941,-0.015259695,3.8279247,1.0,1.8398383,1.2172897,38.96451,27.723215,10.755009,86.15683,85.48122,86.55594,85.617195,8.11623,0.7,-85.25405,-35.08671,0.0018939615,-2673.8066,-1.0681343,-2.3618753,-2.6713624,-1.5563776,7.1805385e-07,0.3,-52.103996,57.6978,57.680847,57.609543,57.725044,0.40281,0.459375,5.442815542221069,67.48966993093491
65,650000,54.78667636424601,-64.18039,0.06550806,0.88904345,-0.018340427,4.1525626,1.0,2.1988316,0.97271866,34.135197,29.451586,11.61228,85.58207,85.65559,84.9855,84.82203,6.4464164,0.7,-84.879395,-30.709217,0.0016089249,-1071.3336,-0.24498379,-0.806852,-1.8783661,-2.6223207,9.489001e-06,0.3,-42.501602,63.551476,63.56056,63.045822,63.061485,0.48957172,0.51874995,5.455559253692627,68.51832191546758
66,660000,55.43113896952995,-62.165733,0.064883664,0.50572884,-0.01226107,4.6993985,1.0,2.3271594,1.9924796,71.27808,87.10419,11.6115265,85.3907,84.6035,84.957214,84.95095,17.706326,0.7,-84.26858,-32.619827,0.0012313103,-1393.4633,-3.8944569,-4.4997973,-3.5638793,-3.044081,3.1944364e-08,0.3,-61.506466,61.322193,61.294205,61.316616,61.49346,0.5084156,0.4578125,5.485029220581055,69.54419773817062
67,670000,54.124751523079205,-64.40791,0.06499128,-1.113294,-0.00782575,3.919305,1.0,2.5414546,1.2136312,36.750725,40.047573,12.354355,85.91602,84.94288,85.69016,84.89276,51.961857,0.7,-84.700836,-31.752867,0.009311088,-540.36884,-2.4931614,-2.0046864,-1.5905502,-1.8641682,7.92247e-07,0.3,-40.537693,63.783066,63.772156,64.043045,63.87822,0.8360101,0.50312495,5.434211015701294,70.56749478181203
68,680000,55.07232927095712,-60.760902,0.066461466,0.44980264,-0.0060265283,4.3506045,1.0,2.436739,0.41104096,42.464455,32.97452,11.769436,85.84331,85.359436,85.56339,85.586,20.140038,0.7,-85.12082,-34.2487,0.0015320093,-953.9597,-1.506232,-1.2591602,-2.961329,-3.3754423,7.1532963e-06,0.3,-53.431488,60.166656,60.05828,60.285633,60.050465,0.56805193,0.51875,5.460803270339966,71.59903582334519
69,690000,54.93404061516408,-64.461006,0.06669701,0.554219,-0.010541375,4.202161,1.0,3.3949866,-2.2182043,83.31595,103.40338,14.193224,85.98694,85.63305,85.521194,85.78768,17.43184,0.7,-85.276184,-33.44444,0.0016653335,-2045.1205,-0.66092455,-0.8989599,-5.181012,-3.5571532,7.394305e-06,0.3,-53.9514,63.600838,63.59359,63.350143,63.57546,0.61763394,0.446875,5.515274524688721,72.62902323007583
70,700000,54.294292997636674,-62.271515,0.065488026,0.38725835,-0.0075605037,3.7795758,1.0,2.8067532,4.0972996,38.213165,37.27304,13.286825,86.402176,86.18379,86.96859,86.48621,14.985261,0.7,-85.57633,-31.428194,0.0004645568,-1214.0531,-6.245286,-4.6765966,-3.3918262,-3.4656422,9.538081e-07,0.3,-53.73239,61.656075,61.679066,61.903263,62.004105,0.4888632,0.4421875,5.562420606613159,73.65983876784642
71,710000,54.674823311196505,-64.855965,0.06514305,1.5243479,-0.007814121,4.458017,1.0,2.5442958,3.318399,45.244244,86.21731,11.621849,84.45377,85.40924,84.64681,85.29467,10.969841,0.7,-84.9516,-29.923725,0.0001881579,-728.35046,-3.2575893,-2.8182373,-1.3324935,-3.0505006,2.3862115e-06,0.3,-36.976692,64.366165,64.4698,64.16292,64.23281,0.32506716,0.465625,5.51158332824707,74.69069049755733
72,720000,54.860371996022025,-62.186054,0.066165924,0.042080224,-0.0109459935,3.8253834,1.0,2.3501797,0.4760034,49.55631,66.004295,14.749046,85.02927,84.77609,84.87723,84.21441,11.088118,0.7,-84.39042,-29.903114,0.002051768,-2476.098,-1.3426518,-1.8760811,-2.1477869,-1.9784698,4.9301887e-09,0.3,-67.98566,61.43682,61.485577,61.40273,61.420998,0.4122736,0.446875,5.586333990097046,75.7174310763677
73,730000,54.438249379098956,-61.82151,0.06635352,0.20904592,-0.017241241,3.9069371,1.0,2.8739667,2.6019335,35.850433,72.973656,10.931432,85.05734,84.58841,86.40132,84.52266,5.2026916,0.7,-84.55963,-30.781195,0.0027659375,-731.2976,-3.590798,-4.025585,-4.078851,-3.3691862,1.7080241e-05,0.3,-45.269855,61.257065,61.12932,60.963093,61.12767,0.3308605,0.4765625,5.957522630691528,76.74836165904999
74,740000,54.723498876915514,-62.654232,0.06602254,-1.2772262,-0.015779788,3.990216,1.0,2.3497925,2.949679,49.3959,37.631317,13.099105,85.54491,85.49411,85.54971,84.81106,12.759764,0.7,-84.88518,-33.171432,0.0004431256,-1076.1996,-2.2647533,-3.2408998,-3.395168,-2.7792497,1.5414072e-06,0.3,-44.783333,62.21814,62.050068,61.90734,62.02813,0.4392642,0.4796875,5.957752227783203,77.78346617221833
75,750000,54.65059871055446,-64.36652,0.06634595,0.52879137,-0.0146478,5.047672,1.0,2.8321247,0.9430563,74.81828,44.14767,10.321661,85.08939,85.056145,84.68836,85.010445,26.075487,0.7,-85.8887,-29.444338,0.014974618,-1148.5319,-5.1328697,-5.722739,-6.2438316,-2.465857,1.5926315e-06,0.3,-43.6339,63.557655,63.325996,63.176735,63.68504,0.7518463,0.4046875,5.7347424030303955,78.81272394657135
76,760000,54.6153330858894,-58.58725,0.06651552,-0.5490553,-0.0073165274,3.9143257,1.0,2.6859336,1.4543245,44.771576,99.77625,13.049844,85.26764,85.22573,85.96774,85.73587,18.423697,0.7,-85.07067,-33.08392,0.0007287671,-3893.0693,-1.9842746,-1.8917308,-3.1943703,-2.0506139,8.451753e-09,0.3,-67.93115,57.95049,58.109077,58.188633,58.183613,0.46406716,0.42343748,5.699589490890503,79.84397835731507
77,770000,54.469871926534985,-61.13174,0.06449082,-0.87017506,-0.010482312,4.219333,1.0,2.7230768,2.8601353,43.725693,35.368504,11.586082,84.57253,84.748146,85.421135,84.94651,12.713005,0.7,-84.43839,-29.75959,0.003453336,-2381.5708,-3.2211921,-4.0451956,-3.782099,-3.6325574,1.8834544e-06,0.3,-66.874504,60.22006,60.37452,60.79887,60.69162,0.5076062,0.4171875,5.860147714614868,80.87354595661164
78,780000,54.20769328473882,-63.15424,0.06597541,0.36910886,-0.011238511,4.5719943,1.0,2.4310849,1.2894716,33.77899,62.543785,10.987387,86.182625,86.53522,85.78529,86.34776,14.460529,0.7,-85.69918,-30.963217,0.000101768936,-409.91412,-2.2509303,-1.5255302,-2.722279,-1.5972061,2.346933e-06,0.3,-38.041756,62.25942,62.45468,62.071312,62.305416,0.5542836,0.42343748,5.999035835266113,81.90679090420404
79,790000,54.45532710006004,-64.13482,0.06672488,0.76800907,-0.008901495,4.161022,1.0,1.9015926,1.8749114,70.13089,26.647709,10.031141,84.364815,83.89129,84.546844,83.87077,5.54523,0.7,-84.44058,-29.371151,5.5435674e-05,-1275.2694,-3.0184345,-1.9558432,-3.0627518,-4.080257,5.446907e-10,0.3,-60.963593,63.60579,63.686394,63.63867,63.420223,0.4128158,0.48125,5.44966721534729,82.93431885639826
80,800000,54.938006360266144,-60.655857,0.06669973,-0.7740689,-0.008347252,3.9453988,1.0,2.8564763,2.398828,34.155804,97.90737,10.267635,84.63021,84.55624,84.32029,83.64028,14.146961,0.7,-85.367775,-29.740648,0.001090643,-436.63907,-1.1584611,-2.445681,-0.421391,0.08307272,1.980602e-06,0.3,-33.324078,59.74375,59.835716,59.580494,59.695396,0.5269239,0.4640625,5.460351228713989,83.96136349439621
81,810000,54.84744220505976,-61.338627,0.06684325,-0.8061612,-0.01363598,3.9314802,1.0,2.9985104,4.643846,50.75832,53.886745,11.828911,85.60379,85.538666,85.91748,85.487404,14.460832,0.7,-84.958725,-32.395947,0.0008756673,-1742.9878,-5.0588593,-5.2432494,-3.6652281,-1.5814885,2.4067867e-05,0.3,-45.48678,60.836773,60.844303,61.16263,61.2416,0.4261552,0.3984375,5.5209267139434814,84.98838503360749
82,820000,55.11943725358367,-62.769318,0.065725625,1.841519,-0.012636456,4.002403,1.0,2.24233,1.9589291,39.60617,31.37664,10.156546,87.62431,87.98808,87.43898,86.54214,46.513893,0.7,-87.48744,-29.52617,0.0038395636,-1699.2546,-3.1174178,-2.9922523,-3.1822443,-4.9370646,2.4314505e-07,0.3,-68.86974,61.940186,62.043427,61.486923,61.382072,0.7614951,0.4875,5.456464052200317,86.01711954275767
83,830000,54.41127661736497,-64.22795,0.065325625,-0.2760738,-0.010992828,4.237161,1.0,1.8978837,-1.2684386,42.901432,35.59894,11.763425,85.256996,85.05056,85.36849,86.235374,31.478436,0.7,-84.437996,-30.690186,0.002147764,-1264.5615,-1.8090407,-0.42832053,-1.008364,-1.2087175,2.4283583e-05,0.3,-41.76404,63.308365,63.275803,63.290802,63.63382,0.6021884,0.40937498,5.502058029174805,87.04733714660009
84,840000,54.358145879671426,-58.02792,0.06683195,-0.12582591,-0.008964563,4.1438103,1.0,2.5166621,2.7410324,49.988907,26.60331,14.235866,87.88808,87.86864,87.986305,87.176476,11.529012,0.7,-87.569275,-31.340225,0.009035848,-433.4895,-2.5835328,-2.8934107,-3.626235,-3.3066895,1.4830337e-07,0.3,-41.674343,57.457294,57.35303,57.11434,57.23149,0.47958493,0.43281248,5.485157489776611,88.076125673453
85,850000,54.31442001410517,-64.19693,0.066843964,0.48198646,-0.012193811,4.9590783,1.0,2.602034,1.9416361,28.802794,49.334053,10.1236515,85.99811,85.35171,86.45296,86.47839,42.087177,0.7,-84.99171,-34.72154,0.008241913,-1957.015,-3.5246193,-6.020668,-2.6829076,-1.7997317,2.1515298e-07,0.3,-57.829132,63.14813,63.07501,63.159203,63.485123,0.6466406,0.4171875,5.611828327178955,89.10360133647919
86,860000,54.33182774663459,-62.404594,0.065794386,0.920025,-0.0060049198,4.50789,1.0,2.724028,1.8314826,48.500282,113.72233,9.675143,84.998024,85.422775,86.37444,86.26401,42.65789,0.7,-85.87947,-29.350769,0.003311573,-863.7102,-4.1908503,-2.254074,-1.4254485,-1.7168193,3.79431e-07,0.3,-46.172585,61.294586,61.64052,61.45026,61.514977,0.6729605,0.49374998,5.453430652618408,90.13514718214671
87,870000,51.609619865557974,-64.51381,0.066141486,1.8577924,-0.013489549,4.7940073,1.0,2.922406,2.095897,44.003475,146.12282,12.531437,84.40896,84.32418,85.366035,83.91349,16.445282,0.7,-83.92832,-29.017057,0.0052557364,-1560.5286,-2.3269472,-3.5103765,-2.4056382,-2.97494,2.0830048e-05,0.3,-54.98811,63.773613,63.84059,63.864063,63.70558,0.5042259,0.48593748,5.480246305465698,91.16662917137145
88,880000,55.30623441613446,-63.115707,0.06615606,0.39828756,-0.004250248,4.657107,1.0,2.260504,4.121025,38.38867,27.385036,12.795065,84.64308,85.23661,86.778915,86.83363,35.433556,0.7,-86.31878,-29.743229,0.0047798366,-375.75943,-4.8718643,-3.9288845,-2.193809,-1.7893851,4.599988e-06,0.3,-34.1409,62.347115,62.535145,62.663532,62.699455,0.57403076,0.4875,5.495211362838745,92.19508817990621
89,890000,55.06008923620618,-59.270287,0.06636841,-1.1795398,-0.008791468,4.241264,1.0,2.1586852,3.3436875,31.962,40.44956,8.2122755,84.07786,84.21941,84.68485,84.243385,11.484698,0.7,-83.85182,-33.525635,0.004675485,-1243.6055,-3.2376766,-3.5989547,-2.6909864,-1.1340835,1.0624063e-07,0.3,-52.641266,58.702538,58.561035,58.609596,58.655136,0.4595418,0.45937502,5.519936800003052,93.22663251161575
90,900000,54.87952817962406,-60.88375,0.0674789,-0.13890845,-0.0052651702,3.7550933,1.0,1.6601835,0.7059511,32.885353,18.077293,9.679767,85.946846,86.46561,86.04028,85.99686,7.2791557,0.7,-85.8339,-32.32086,0.0023241392,-859.14233,-1.6301516,-1.745416,-2.5641825,-1.0068102,4.0737623e-06,0.3,-46.0072,60.305847,60.30345,60.20325,60.428802,0.4355113,0.3984375,5.462176322937012,94.26080366373063
91,910000,54.56141123066577,-63.38852,0.06788129,0.66059613,-0.011252709,4.4279094,1.0,3.2248511,0.6287955,41.208935,55.503242,11.201231,85.38158,86.13995,84.55284,85.42439,8.66287,0.7,-84.82246,-31.874731,0.0020012045,-722.5061,-0.57800305,-1.0166523,-1.7518896,-1.2200001,6.455183e-06,0.3,-51.519386,62.553253,62.60356,62.656006,62.47343,0.51675457,0.4484375,5.467756748199463,95.29288682937622
92,920000,54.72743051153807,-62.76001,0.067226715,1.5752773,-0.01870725,5.2009993,1.0,3.272429,0.5265988,77.611626,212.48155,9.879587,84.45706,84.20578,84.96938,84.235535,30.788784,0.7,-83.77352,-28.906233,0.0012584664,-888.6358,-0.75421214,-0.21118712,-0.09856189,0.68346417,1.7056374e-05,0.3,-58.85926,61.86573,62.02672,62.261406,62.10624,0.62735844,0.46249998,5.45865535736084,96.31920515696207
93,930000,54.483175758560584,-62.20365,0.06732428,-0.26550108,-0.011624988,3.7280571,1.0,2.4020343,2.770829,41.83164,70.00881,13.542071,84.7359,84.54799,85.081436,85.33318,6.325937,0.7,-84.305244,-29.729416,0.0082294755,-1165.0902,-4.7498035,-3.5517507,-3.1826682,-1.9737926,6.727976e-05,0.3,-50.918373,61.34127,61.413322,61.441467,61.38439,0.43323928,0.47031248,5.358999967575073,97.34594664573669
94,940000,55.035047027760484,-62.797623,0.06688594,0.86709756,-0.0055585126,4.9412146,1.0,3.4552314,-2.0530808,49.455585,187.40413,11.958221,85.2307,84.84124,84.38116,84.70363,232.04176,0.7,-85.25957,-30.24437,0.00044155237,-1362.7446,-1.8833115,-0.80143785,-2.7659104,-2.3280864,6.640039e-07,0.3,-56.024376,61.599014,61.710632,61.506153,61.6306,1.3873327,0.4546875,5.439566612243652,98.3696548183759
95,950000,54.640091199609955,-58.39897,0.068382,-0.37276787,-0.009989944,3.9491189,1.0,2.2034163,2.3818226,49.34984,25.620409,11.536566,85.440125,85.05651,85.888695,85.31243,17.431858,0.7,-85.059326,-29.890078,0.009626509,-862.22516,-6.0625515,-5.620628,-3.8895717,-4.315231,4.6134696e-06,0.3,-56.570595,57.661415,57.548065,57.5584,57.764565,0.53261375,0.4421875,5.524754762649536,99.3941477338473
96,955000,54.16054533956762,-63.33008,0.065646805,-0.24084175,-0.023538144,4.281317,1.0,2.7725902,3.244462,40.65436,61.62346,9.911603,85.502335,85.53333,85.25485,85.17966,39.90108,0.7,-85.43008,-31.642443,0.00021837372,-827.5636,-2.5905137,-2.3915725,-4.3578978,-2.2755752,3.5204168e-06,0.3,-47.380203,62.670006,62.62703,62.39679,62.309334,0.62521005,0.465625,5.3984129428863525,99.94960370461146
97,960000,54.482936506187144,-62.829445,0.06595792,0.18992454,0.004256351,4.4035106,1.0,2.6210485,2.6289675,31.921684,74.132645,11.63903,86.2712,85.95722,85.271515,84.92123,226.10153,0.7,-85.21789,-28.476437,0.0030646212,-1019.32434,-2.582225,-3.321519,-4.619241,-1.4688301,4.146739e-05,0.3,-50.108128,61.981766,62.058655,61.874878,62.10843,1.3435445,0.4828125,5.467193841934204,100.50628633499146
98,965000,54.68262056179167,-63.696144,0.06507985,0.16561717,-0.02224403,4.2168403,1.0,2.0954208,1.6982484,36.022263,24.976524,10.8916025,84.39177,84.44746,84.666504,84.48915,7.526139,0.7,-84.51867,-32.930836,0.0025978843,-1052.246,-3.0120597,-1.8118174,-2.791709,-3.924941,3.5699456e-06,0.3,-66.74234,62.700237,62.898186,62.95684,62.973167,0.46208674,0.4421875,5.517772197723389,101.06642711559931
99,970000,54.36630355824429,-62.74386,0.06723684,0.8690004,-0.017900568,4.2993646,1.0,2.2334034,6.2288203,35.22259,31.974785,10.964896,86.21186,85.94213,86.1856,85.53186,18.72629,0.7,-85.058876,-28.655313,0.0007094653,-850.56366,-3.35996,-3.202653,-2.9265003,-3.0634549,3.876805e-07,0.3,-48.112385,62.205795,62.145924,62.155926,61.95217,0.5630168,0.51718754,5.584600210189819,101.62574704488118
100,975000,54.74973553308825,-61.79875,0.069296636,-0.6960777,-0.011889514,3.75149,1.0,2.0936193,3.5490777,34.421955,23.118101,10.835545,84.84801,84.43083,85.76757,85.11415,20.819693,0.7,-83.94476,-30.209297,0.003196702,-893.5914,-4.8176966,-3.5706303,-3.3113694,-2.6302657,4.631438e-06,0.3,-49.65605,61.257713,61.222816,61.578964,61.616024,0.51215225,0.45,5.410351514816284,102.17186151742935
101,980000,54.36507469940297,-62.614937,0.0639576,-0.33093667,-0.0027396919,4.4448695,1.0,2.4319146,2.1532161,46.435547,38.35013,9.361979,84.28434,84.12534,84.14856,83.99099,8.52796,0.7,-83.46163,-30.178446,0.00460417,-966.87366,-2.9075584,-1.5086323,-0.99772537,-1.6060673,6.9307866e-08,0.3,-57.65866,61.6903,61.712456,61.5155,61.669308,0.40114754,0.46250004,5.686100006103516,102.72148973941803
102,985000,54.478491702101174,-62.196434,0.06766941,0.5536918,-0.014683075,4.4377184,1.0,2.6504774,3.8495712,40.764103,41.906845,10.793883,85.80022,85.95128,86.13963,86.30892,13.692511,0.7,-85.59484,-32.31254,0.024117881,-2185.5095,-3.4311247,-4.182205,-5.8914704,-3.516489,4.4357034e-06,0.3,-61.41342,61.46634,61.60446,61.467674,61.451363,0.5333079,0.48125,5.4133100509643555,103.27211368481318
103,990000,54.681280283614655,-63.88824,0.0705264,-0.09246749,-0.015466826,3.9127023,1.0,2.6253204,-2.3165104,29.258938,29.703482,11.721029,85.55039,85.96772,85.26613,86.01859,3.9693556,0.7,-85.37744,-30.506853,8.240107e-05,-958.20337,2.9254289,2.3948174,2.9778297,2.4588287,6.1820906e-08,0.3,-47.38373,63.126015,63.080757,62.680866,62.79765,0.35587066,0.47812504,5.467768907546997,103.83243298927943
104,995000,55.0438914591532,-61.949726,0.065565884,-0.95598567,-0.017042644,3.825609,1.0,1.9367416,-2.65187,64.791504,22.454548,13.678644,86.012596,85.41807,85.47073,85.627014,9.028922,0.7,-84.57367,-30.349218,0.0009482251,-612.32996,0.18333113,-0.28388727,-1.2904655,-1.498486,1.3055221e-06,0.3,-41.052383,61.231453,61.265724,61.14586,61.132217,0.40119448,0.465625,5.4812867641448975,104.39325487613678
105,1000000,54.39633450055285,-60.375313,0.060421683,-0.64336574,-0.015361755,3.8847625,1.0,2.881042,3.1842992,45.52212,33.81425,10.983492,84.167755,84.2213,84.19718,84.186844,18.97569,0.7,-84.64319,-30.335783,0.0022174115,-693.22797,-1.4773337,-2.3725686,-2.95912,-4.1830354,1.7288112e-05,0.3,-48.07672,59.61125,59.729317,59.6896,59.659492,0.5462794,0.45,5.463769912719727,104.95369454622269
