Xixo99/comfo/baselines/comfo7_perterbation_both_actor_and_critic/20230224_alphaQ0.0001/halfcheetah-medium-replay-v2/COMFO7_s2_20230225_030338_halfcheetah-medium-replay-v2_56.34.csv
,step,reward,actor_loss,alpha,alpha_loss,avg_conservative_loss,avg_smooth_loss,conservative_weight,critic_loss,max_actor_loss,max_alpha_loss,max_critic_loss,max_mle_prob,max_q1,max_q2,max_target_q,max_v,max_value_loss,max_weight,min_actor_loss,min_alpha_loss,min_critic_loss,min_mle_prob,min_q1,min_q2,min_target_q,min_v,min_value_loss,min_weight,mle_prob,q1,q2,target_q,v,value_loss,weight,eval_time,time
0,0,2.256728500198936,,,,,,,,,,,,,,,,,,,,,,,,,,,,,,,,,,,,
1,10000,-0.47271185476988237,-21.881144,0.07213717,-4.784321,-0.0012987257,0.823907,1.0,1.6180404,4.4976535,19.60681,60.336082,9.666431,39.47662,39.35192,39.94749,38.76201,2.01836,0.7,-38.750114,-33.94382,0.0008127121,-98.57012,-4.7511506,-4.0498767,-4.791202,-5.268204,5.64208e-07,0.3,-8.14781,21.60948,21.66462,21.832287,21.505318,0.096305385,0.4375,6.438208103179932,2.8930159409840903
2,20000,1.4065784713163778,-38.271904,0.07520961,1.3097697,0.0024440212,1.7241137,1.0,3.8792896,10.512361,29.941744,246.22917,9.899836,63.41068,63.52524,63.149853,63.080795,11.162325,0.7,-63.062416,-30.173851,0.0013426191,-363.069,-10.4346695,-10.849781,-12.766724,-12.531766,4.685554e-06,0.3,-10.8923435,37.917557,37.875866,37.41878,37.383263,0.2516029,0.48125,6.5486977100372314,3.944475758075714
3,30000,12.132644648983858,-44.670403,0.077799775,-1.8307681,-0.007741996,2.3700516,1.0,3.413187,8.335041,26.117477,70.0529,14.866969,76.007645,76.31996,75.012405,76.12922,4.113665,0.7,-75.98884,-36.921795,0.00079034694,-118.7622,-8.85916,-8.294736,-7.0799513,-7.2120776,1.0442669e-05,0.3,-7.680112,44.541866,44.52263,44.87702,44.8055,0.24219361,0.42343748,6.311544895172119,4.989255658785502
4,40000,27.096872113039883,-55.050823,0.079180494,-0.14722979,-0.004172646,2.8106956,1.0,4.4176216,11.0658245,31.100826,198.67053,12.600022,80.59427,80.96215,80.90411,79.91621,6.608533,0.7,-79.7268,-29.108192,0.00018716045,-80.951775,-9.929378,-8.466556,-8.5456,-10.014673,1.8944206e-08,0.3,-6.90099,55.159924,54.90811,54.886845,54.60724,0.35560805,0.5046875,6.15999436378479,6.032761561870575
5,50000,37.425617123639555,-56.906918,0.0782889,1.1086634,0.0006671731,3.1391294,1.0,3.9352326,8.1821375,24.542286,102.18023,14.146765,82.592285,83.205124,83.16493,83.98686,6.279669,0.7,-82.11153,-28.44398,0.001178693,-949.1968,-8.954109,-8.811025,-9.264561,-9.2189865,1.664958e-06,0.3,-13.711482,56.763836,56.795914,57.23812,57.162964,0.32753146,0.45156246,6.339535236358643,7.08084690173467
6,60000,44.809969629418084,-61.726753,0.0764066,0.86620295,-0.0075679407,3.5427835,1.0,5.143508,17.18777,30.74038,144.28683,12.713734,86.79386,86.40338,85.372955,86.45264,11.448191,0.7,-86.22388,-28.679619,0.001905012,-145.84018,-17.245066,-17.28237,-18.09087,-18.576982,9.2375565e-09,0.3,-12.920626,61.31051,61.252472,60.557983,60.9189,0.5740516,0.4921875,6.2931482791900635,8.126680358250935
7,70000,48.09111611935582,-61.57728,0.073898874,0.9879828,-0.0022574042,3.387231,1.0,3.3281512,16.017313,26.841518,71.77885,14.697232,89.34702,88.9636,87.550476,87.64939,4.9419246,0.7,-88.16581,-27.510954,0.0015811343,-595.778,-16.493177,-16.09715,-15.4879265,-14.8897705,2.7263699e-05,0.3,-16.459375,61.38897,61.39624,60.945763,61.28358,0.3963381,0.4265625,5.641263484954834,9.16433524688085
8,80000,50.04793962513951,-60.826584,0.07171588,-0.91318643,-0.009541749,3.2592525,1.0,4.5255003,14.964041,34.588547,385.45087,13.876831,88.58406,88.40524,87.970825,88.17987,27.934534,0.7,-88.57712,-39.010883,0.0086843325,-229.33867,-14.941716,-15.266971,-13.673315,-15.121846,4.3592883e-07,0.3,-13.803635,60.50863,60.541534,60.392456,60.26021,0.5474421,0.5281249,5.6582465171813965,10.197650428613027
9,90000,48.84819673831516,-60.236546,0.06948439,-2.1486106,-0.009432488,3.571856,1.0,5.1041374,13.181581,34.873085,221.12933,12.764423,88.618065,88.30964,87.80644,88.02088,20.696472,0.7,-87.623314,-30.433254,0.0015861229,-374.76526,-13.455125,-13.54095,-14.033783,-14.240105,1.2765114e-06,0.3,-23.591156,59.51095,59.41946,59.176735,59.48769,0.55971706,0.47187498,5.736847400665283,11.232492097218831
10,100000,51.214512855846635,-64.28266,0.06800564,1.6570163,-0.005817995,3.4554431,1.0,3.313204,8.862556,28.222063,131.14026,13.383647,89.97419,90.26862,90.49841,90.849365,6.976274,0.7,-89.86233,-32.506233,0.018128054,-1004.66583,-10.7753,-11.805799,-10.855864,-8.418119,2.3093891e-07,0.3,-29.768532,64.020645,63.95997,63.718018,63.945984,0.46029028,0.45625,5.712857007980347,12.264530336856842
11,110000,52.61347962503987,-60.278305,0.066784784,-1.6788805,-0.0152218295,3.3904443,1.0,2.6843252,7.123883,25.94782,80.1342,10.763346,88.49267,89.25046,90.51947,88.53217,6.108231,0.7,-88.872505,-33.739666,0.001023256,-892.0733,-8.951256,-8.215131,-9.451517,-9.3133335,1.8167776e-07,0.3,-34.10249,59.94623,59.99952,60.343803,60.169037,0.3569631,0.44843748,5.666700839996338,13.299421997865041
12,120000,50.88389253676361,-62.84356,0.067154065,-0.6767278,-0.010989383,3.178387,1.0,2.8477907,7.1209826,46.76486,73.37047,12.309694,88.02096,88.04225,88.70192,88.01212,27.15107,0.7,-87.46053,-29.250204,4.8658596e-05,-630.81537,-9.576651,-9.350995,-9.04489,-9.898495,1.4576317e-06,0.3,-23.014244,62.62079,62.345673,62.455868,62.359104,0.5898231,0.51093745,5.741270303726196,14.338316412766774
13,130000,50.497985229576244,-60.690285,0.06599836,-0.7303487,-0.008063114,3.1714249,1.0,4.4145947,6.672906,29.986332,279.82196,11.40557,88.1664,88.17085,87.783714,86.84004,25.566393,0.7,-88.04529,-30.81105,0.0036496785,-674.0356,-8.933842,-9.282481,-8.816152,-10.325049,1.128791e-05,0.3,-29.470848,60.06485,60.16884,60.154007,60.084328,0.4753369,0.45468748,5.641899585723877,15.36802480618159
14,140000,51.95078782143443,-64.439354,0.06550934,0.9727979,-0.0051778196,3.8426137,1.0,3.8627791,4.537718,27.537619,104.87976,14.689123,89.968925,90.12483,89.95339,89.8334,33.66887,0.7,-89.47564,-34.69799,0.0028139588,-395.91693,-6.51596,-7.519776,-6.768528,-6.7569075,8.606119e-07,0.3,-24.754745,63.910168,63.906494,63.990395,64.12079,0.57551396,0.41718748,5.727046489715576,16.399162658055623
15,150000,53.03198855971368,-61.539192,0.06479799,-0.5420782,-0.004088297,3.3411984,1.0,2.3554811,4.294855,27.762768,59.30729,14.601163,88.08783,88.05496,87.64511,87.86322,15.026516,0.7,-88.100365,-32.479477,0.0001604004,-405.13702,-9.361651,-7.989267,-7.1826153,-7.127304,1.8042755e-07,0.3,-27.34051,60.987656,60.947556,60.91705,60.91642,0.42739865,0.440625,5.735167741775513,17.43297859430313
16,160000,51.84613728841369,-63.05787,0.06487104,0.5623007,-0.000104765364,4.086325,1.0,3.8700442,6.3820224,34.828613,300.95288,12.0373535,88.13558,88.28024,87.52865,88.18357,13.685302,0.7,-87.93523,-32.71498,0.0035975608,-749.21735,-7.63103,-7.6082044,-8.214228,-7.5881143,7.854006e-06,0.3,-30.159584,62.59974,62.555977,62.70146,62.533638,0.4917431,0.484375,5.785720109939575,18.470670835177103
17,170000,53.726448563824725,-64.11247,0.06594707,0.92008007,-0.008715046,3.578872,1.0,3.0975332,5.668289,35.249554,63.754944,13.782237,88.46304,88.69248,88.29717,88.33967,11.773553,0.7,-88.23315,-29.512455,0.008035364,-780.34106,-7.436252,-7.9210978,-7.467285,-7.203935,7.759547e-07,0.3,-30.09078,63.68042,63.629436,63.914894,63.789577,0.5054728,0.45624998,5.776065826416016,19.51042104959488
18,180000,53.49060478037401,-62.049927,0.06534876,-0.74596477,-0.0074936734,3.6041608,1.0,3.1134133,4.6343036,37.755775,38.173817,12.687657,87.13069,87.07733,87.2325,86.40873,9.471529,0.7,-87.26532,-31.49632,0.02068551,-424.67477,-7.3508415,-7.461709,-8.260748,-7.8032594,2.0905165e-06,0.3,-29.655008,61.694965,61.526978,61.07612,61.327053,0.38707823,0.453125,5.697686672210693,20.546237444877626
19,190000,53.61431190929101,-66.92084,0.063368134,2.6507206,-0.0051947315,3.9362924,1.0,2.871005,5.1235967,46.797127,62.632168,11.145816,87.42705,87.581795,86.296776,86.682106,22.6554,0.7,-87.36171,-32.69946,0.01267428,-711.39795,-7.072593,-7.299768,-7.249065,-8.152648,1.3985381e-06,0.3,-32.690193,66.382614,66.47471,66.01143,66.07518,0.5810807,0.4796875,5.6361165046691895,21.579782684644062
20,200000,53.871512147221715,-65.10339,0.065382436,1.274256,-0.0073223407,3.6372147,1.0,2.1055224,4.824144,32.4084,31.278286,10.691233,87.45775,87.79432,87.34881,87.2695,9.120439,0.7,-86.952324,-33.655983,0.003981854,-284.53885,-6.6754894,-7.08715,-6.6758347,-6.165363,6.9849196e-11,0.3,-22.88064,64.64248,64.67489,64.62084,64.38318,0.47014904,0.51874995,5.67600417137146,22.616218701998392
21,210000,55.72474610937371,-63.497566,0.065342836,0.39377818,-0.008396442,4.279164,1.0,3.8736477,2.237475,22.690783,114.363235,11.184082,91.53652,91.20852,90.211624,90.0407,29.500845,0.7,-91.14299,-28.922962,0.003755578,-824.3958,-4.772736,-4.5376782,-5.1863394,-3.2999125,3.8246626e-06,0.3,-28.63516,62.873314,62.92206,62.305515,62.430397,0.6526961,0.47187498,5.6980249881744385,23.651415197054543
22,220000,53.06221824569716,-59.550285,0.06508668,-0.3848917,-0.0138050495,3.4896538,1.0,2.9486988,6.0328093,41.682884,70.21983,13.35878,87.26041,87.580086,88.58172,88.44786,11.842989,0.7,-87.0119,-32.224808,0.0015511492,-625.3707,-6.5781927,-6.3405104,-9.691535,-5.6667533,2.941871e-06,0.3,-34.440884,58.96183,59.008514,59.065174,59.300392,0.47779572,0.4125,5.65464186668396,24.68486976226171
23,230000,54.05393001649711,-63.189804,0.06557152,1.9386775,-0.013070509,3.991441,1.0,3.1391134,3.1639605,34.313606,144.69666,13.8546715,86.79018,86.61881,87.07959,87.05652,6.4090815,0.7,-85.83571,-28.89811,0.00044048677,-459.89026,-5.5996094,-6.233151,-6.045465,-6.3611345,9.692012e-06,0.3,-29.891205,62.722115,62.707497,62.563328,62.64288,0.3757826,0.4515625,5.748314142227173,25.719175148010255
24,240000,55.01300739401136,-63.242012,0.06570508,0.65287,-0.012312233,3.8042042,1.0,2.0880907,3.801117,50.59383,32.68233,14.083351,89.40707,89.679375,88.218796,89.48482,8.174618,0.7,-88.88838,-30.208721,0.00010420481,-464.89832,-4.9047713,-6.391082,-6.322753,-5.2693176,1.5367684e-06,0.3,-26.308472,62.74652,62.771008,62.57962,62.646458,0.3981257,0.4875,5.6752355098724365,26.7548792441686
25,250000,53.59113095973556,-60.900124,0.06421584,0.49100584,-0.0086497925,3.8930233,1.0,2.5322943,7.3060303,36.31377,147.86917,13.562971,87.07567,86.89988,86.59331,86.71916,20.976788,0.7,-86.49796,-31.290749,0.00017997914,-505.09433,-6.6070056,-5.049624,-4.1492395,-5.623109,1.2542122e-06,0.3,-35.122166,60.13349,60.14666,60.401764,60.204384,0.5106337,0.46249998,5.732117652893066,27.790243256092072
26,260000,53.712479865404774,-61.857864,0.064408444,0.38864034,-0.005675775,3.605475,1.0,2.6604471,3.078517,48.82256,61.56231,12.388241,87.37135,87.632805,87.9754,87.2855,7.813666,0.7,-87.15359,-32.702606,0.00020571992,-599.7801,-5.324184,-5.1191416,-4.9049683,-5.2810493,9.259905e-06,0.3,-39.047653,61.10252,61.15259,60.95501,60.972267,0.433994,0.503125,5.6698949337005615,28.822431496779124
27,270000,52.383330781125046,-63.15429,0.06440904,-0.71836245,-0.008895296,3.9366307,1.0,2.5599394,3.7953956,43.610977,67.53099,12.276274,86.300514,86.96294,87.308174,86.100845,5.988315,0.7,-85.661606,-31.516365,0.0011891956,-506.21368,-4.1751423,-3.403784,-3.553398,-3.7492886,3.4716797e-07,0.3,-32.743694,62.60251,62.646362,62.894753,62.664192,0.40776092,0.4828125,6.131399393081665,29.862946597735085
28,280000,52.39264319670508,-63.545086,0.065256074,0.7999925,-0.007326348,3.6767347,1.0,2.9535055,1.5612651,78.52714,60.21791,10.683861,87.856186,88.04252,87.65897,87.529686,5.3704157,0.7,-88.061806,-31.14941,0.0019700043,-631.26965,-4.1015687,-3.5061476,-3.6881206,-3.1975188,2.1399157e-05,0.3,-29.179544,62.96962,62.992065,62.82791,62.89364,0.40125835,0.41718748,5.817721128463745,30.897145108381906
29,290000,54.126303827403234,-63.444984,0.06427826,0.49715638,-0.014337403,3.7745922,1.0,2.288501,2.3154228,26.128601,62.0446,12.171807,88.78836,88.6069,87.35323,87.98214,9.3647995,0.7,-87.76785,-29.281815,0.009346691,-1676.7625,-3.7841265,-5.1574593,-4.660617,-3.342097,2.6560156e-06,0.3,-44.12339,62.915997,62.845413,62.758286,62.946793,0.45253557,0.4109375,6.053562641143799,31.935596430301665
30,300000,54.07937091346176,-63.412216,0.06542613,0.7594074,0.0032789966,5.0874763,1.0,2.9840543,2.1340048,56.361633,68.967026,13.457235,88.43799,88.55115,87.65174,87.68808,47.81288,0.7,-88.758705,-30.73411,0.001181006,-482.13348,-5.4346027,-4.2223744,-4.831866,-4.575547,1.774868e-07,0.3,-35.825207,62.529167,62.53862,62.48256,62.78157,0.8656051,0.47187498,5.8058180809021,32.967783602078754
31,310000,54.23391866531504,-64.23748,0.06490604,0.7185592,-0.004523102,4.2639,1.0,3.8280692,2.848953,28.839277,53.025497,14.702296,87.81755,87.36902,87.25226,85.67121,26.528173,0.7,-87.47686,-30.12765,0.0028576725,-328.9608,-2.753275,-3.5051277,-4.880985,-4.11156,9.052455e-06,0.3,-26.199133,63.583237,63.57603,62.906376,63.19204,0.46194157,0.459375,6.051786422729492,34.00459540287654
32,320000,53.03642377674059,-61.777466,0.06499322,-0.9706682,-0.006382412,3.6331909,1.0,2.6916192,3.120026,30.264486,110.853516,11.632799,87.04058,86.22661,86.296036,86.19944,32.620052,0.7,-86.16722,-30.443811,0.00076462945,-610.84515,-4.3718214,-4.2894115,-3.5346901,-4.3004827,8.802745e-06,0.3,-30.06179,61.249664,61.173775,61.229774,61.306374,0.5052319,0.42499998,6.113509893417358,35.0453116218249
33,330000,55.23333017019827,-67.67924,0.06486252,0.9172689,-0.0056058457,4.438825,1.0,2.6425438,1.0536069,38.276985,24.917744,11.173336,87.062195,86.83483,88.39452,87.01032,11.133276,0.7,-86.23265,-30.827322,0.002049884,-1046.2853,-3.9386554,-3.0457678,-3.6968603,-3.4584246,0.00019189714,0.3,-33.31763,67.18773,67.243576,67.17668,67.2604,0.50220644,0.4125,5.893484592437744,36.079817378520964
34,340000,54.69834368711868,-62.876785,0.06525679,-0.22678795,-0.016704632,3.8775933,1.0,2.1828501,3.1481812,41.308876,19.946955,11.537889,87.25731,87.19072,88.12691,86.93417,17.31662,0.7,-86.5066,-31.939129,0.0038836668,-1098.702,-3.6826496,-3.4149709,-4.1215396,-4.0715756,1.8887222e-07,0.3,-35.79886,62.407227,62.321198,62.61908,62.576492,0.417893,0.4328125,5.914072275161743,37.116682426134744
35,350000,53.29729586730439,-62.259224,0.06573664,-1.0119929,-0.009249009,4.3004513,1.0,2.8913724,-1.6791987,31.560703,96.7618,12.518331,86.355934,86.34322,88.24766,86.83883,32.724243,0.7,-85.89132,-31.06072,0.00031645485,-1556.7587,-1.0947857,-1.3702335,-1.2164894,-0.92444664,5.657785e-09,0.3,-40.057438,61.727722,61.664337,61.925465,62.08692,0.5635446,0.41562498,6.084130525588989,38.15417241652806
36,360000,55.12887513282819,-65.15378,0.06649876,-0.042469785,-0.010699383,3.9754055,1.0,2.2451968,1.6296484,30.987133,74.9742,14.686561,87.24683,87.43344,87.28172,87.0748,4.713101,0.7,-86.49379,-29.998415,0.0046238266,-345.8195,-3.4018035,-2.904457,-3.8509266,-2.6863997,9.41512e-05,0.3,-30.674076,64.7872,64.738884,64.70552,64.85926,0.40201202,0.43906248,5.723628520965576,39.19055236975352
37,370000,55.688746092369826,-63.044285,0.0655496,-0.81490886,0.0028536997,3.625531,1.0,2.505914,2.8451824,42.28501,27.94654,12.869133,85.42311,85.25736,86.281624,86.37607,19.55928,0.7,-84.79239,-31.39431,0.0026606515,-778.318,-3.3981168,-4.109972,-4.32655,-4.706192,8.1472103e-07,0.3,-33.24172,62.560467,62.56635,63.1129,63.13898,0.4061886,0.403125,5.644068717956543,40.219497215747836
38,380000,56.308205603291775,-63.31569,0.0658981,-0.37418562,-0.007982132,4.0967,1.0,2.696544,4.308975,38.708347,40.51498,11.771786,86.60828,86.55479,87.18237,88.14349,15.162666,0.7,-86.40171,-31.898783,0.006806223,-2508.9897,-4.581517,-5.127709,-3.212946,-2.8484545,1.0825057e-05,0.3,-43.859962,62.785576,62.875496,62.803993,63.080765,0.5934565,0.42812496,5.718081474304199,41.254390343030295
39,390000,55.286771241880494,-62.507523,0.066151924,0.5781242,-0.009266286,3.7879136,1.0,2.437491,1.1940866,47.094067,52.480038,10.3838825,87.2629,87.58926,88.18365,88.956116,19.241327,0.7,-86.57188,-30.438618,0.0014884819,-1171.9148,-3.7700331,-4.020162,-3.030881,-3.2966182,3.9934528e-07,0.3,-36.92524,61.732533,61.848473,61.95695,62.274055,0.5478935,0.40937498,5.664954900741577,42.286381316185
40,400000,56.437030914444755,-62.631466,0.06584172,-0.2898227,-0.005695197,3.6427155,1.0,1.9144772,2.4861434,39.0677,39.51609,11.006134,84.874374,84.99009,85.179474,84.855995,5.1421533,0.7,-85.0102,-33.37134,0.00015681675,-1219.3398,-3.6810784,-4.2577662,-3.0145679,-3.3655996,2.8298162e-05,0.3,-37.420868,62.024837,62.0343,62.133347,62.12735,0.3299778,0.4734375,5.715595245361328,43.32117698987325
41,410000,54.47864967961159,-65.989624,0.066334374,0.6095226,-0.011709402,4.026792,1.0,2.4817178,4.017908,37.440956,62.279106,13.685198,87.57895,87.46489,86.24202,87.1089,46.656563,0.7,-88.23999,-35.100468,0.0035875803,-629.25946,-4.3168592,-6.4264793,-6.1290517,-5.6959615,2.5364843e-05,0.3,-34.03523,65.30276,65.493996,64.924324,65.274284,0.6536916,0.48593748,5.735158205032349,44.35286678075791
42,420000,55.632612643064284,-62.858383,0.06621835,1.5233881,-0.015423893,4.394352,1.0,3.189577,3.376963,44.31889,146.63205,11.066101,86.08264,86.716995,87.528244,86.936165,18.672325,0.7,-86.67943,-33.84482,0.0014722834,-894.2034,-3.213072,-3.4069247,-4.2551227,-3.4044816,6.171875e-07,0.3,-48.91472,62.22335,62.30892,62.184143,62.26238,0.5653696,0.44375,5.674878120422363,45.388529404004416
43,430000,56.26881383378187,-62.852264,0.06751949,0.43325824,-0.0068712602,3.8121755,1.0,3.266056,2.2486987,55.194454,143.09383,14.090126,87.94701,87.55294,87.07603,87.86141,14.216375,0.7,-87.07829,-31.208158,0.0008991824,-512.5665,-3.878169,-2.8447876,-4.0035453,-2.915244,1.2915116e-07,0.3,-34.762344,62.423958,62.3273,62.250908,62.198223,0.47469556,0.46875,5.730085611343384,46.42162996133168
44,440000,55.86585037896214,-62.165283,0.06666557,-1.1613071,-0.011422696,3.4828327,1.0,1.7927493,0.96930283,47.947685,26.224092,11.473796,87.468124,87.031685,86.81178,86.269066,9.19795,0.7,-86.41255,-31.655163,0.00062171463,-288.79993,-1.9515171,-2.7733545,-1.0365303,-1.8839024,2.8749926e-07,0.3,-31.97402,61.69805,61.7221,61.515327,61.38851,0.43287814,0.51250005,5.6588239669799805,47.45336211125056
45,450000,56.441551398174106,-64.6889,0.06625285,0.7681159,-0.010675366,4.2230535,1.0,2.888989,1.6072206,29.950993,48.434322,11.624439,87.55553,87.52733,87.14145,87.44663,35.439674,0.7,-87.815544,-32.203175,0.00021627784,-580.72235,-2.126647,-2.6267369,-3.8353837,-3.1378832,1.0284601e-05,0.3,-33.566353,64.21858,64.19855,64.36842,64.44278,0.7538924,0.434375,5.642215013504028,48.48119883139928
46,460000,55.37887262533019,-63.665455,0.06775196,0.42041644,-0.005631971,4.701034,1.0,2.319862,3.498661,42.71161,39.434086,13.065811,87.803825,86.94132,87.389496,87.66885,10.409825,0.7,-87.442566,-33.903095,0.00065622764,-476.45267,-3.5076492,-3.7738347,-4.409061,-2.7268784,1.4248245e-06,0.3,-37.723167,62.9905,62.84172,62.719322,63.021027,0.54600775,0.4671875,5.60588526725769,49.51348762512207
47,470000,54.76400066944135,-62.523403,0.06761307,-0.18421388,-0.02314164,5.3037505,1.0,3.492985,3.5598154,48.704582,202.98029,12.22972,86.65348,86.02457,85.76415,86.272316,64.3283,0.7,-86.6482,-33.53177,0.0047653746,-482.503,-1.2777148,-2.9494672,-3.7998204,-2.542196,3.8612096e-05,0.3,-35.00754,61.81666,61.637802,61.658287,61.846245,0.8945277,0.4984375,5.650019407272339,50.54516446193059
48,480000,54.088535014641984,-61.80941,0.06745671,1.5367498,-0.011181071,3.9377205,1.0,3.0691535,0.930503,46.9584,43.76539,13.761122,85.583786,86.9782,86.117035,85.78598,12.774598,0.7,-86.61509,-29.388405,0.00034191547,-489.1064,-2.9269567,-2.928133,-2.363943,-2.7010336,4.056911e-06,0.3,-41.294292,61.077187,61.088745,61.32794,61.27175,0.414771,0.45,5.7532219886779785,51.577887042363486
49,490000,54.765566388907516,-63.342777,0.06750937,0.53631055,-0.012976828,4.540574,1.0,2.911471,1.3526483,34.403587,54.87133,11.986584,86.733635,86.86232,88.35564,86.24195,7.280541,0.7,-85.967445,-29.3725,0.011545369,-708.2812,-2.020475,-2.2598088,-1.758352,-2.0235786,6.519258e-08,0.3,-45.738808,62.576332,62.5846,62.827545,62.73761,0.45856673,0.4875,5.66266655921936,52.60695779323578
50,500000,54.982197962114796,-63.21073,0.06873581,0.2913652,-0.0031572257,3.9391422,1.0,3.1230888,2.1250286,39.50286,207.4552,12.915763,86.74562,86.715935,86.31457,86.36413,21.944199,0.7,-87.05573,-30.162092,0.0033520581,-241.9935,-3.330825,-3.7574563,-3.475987,-4.8613653,1.323241e-05,0.3,-31.21991,62.57992,62.52193,62.73771,62.59729,0.4100008,0.4796875,5.6799726486206055,53.642801292737325
51,510000,53.49952510708028,-63.418533,0.06744503,0.51087856,-0.0090213325,3.9735444,1.0,3.1157334,1.0647317,56.006245,79.63354,13.677076,88.29802,87.818275,87.642845,88.0154,9.663595,0.7,-87.875084,-28.669094,0.0028676256,-619.3352,-1.7512313,-1.7043056,0.08680372,-0.39057076,5.769951e-07,0.3,-44.269413,62.53256,62.850647,62.83109,62.91549,0.5340677,0.4609375,5.6651451587677,54.675106386343636
52,520000,57.62077131290173,-62.17216,0.06701059,-1.1897042,-0.011929343,3.8883877,1.0,2.1898215,1.113045,28.404797,54.674488,12.914027,85.1993,85.99011,86.115166,85.76953,24.951792,0.7,-85.09098,-33.542397,0.0031112707,-589.4785,-3.053512,-3.2549505,-4.158995,-3.3060594,2.8642537e-06,0.3,-36.14821,61.693634,61.59832,61.90953,61.858177,0.5520238,0.45468748,5.799277067184448,55.7103015422821
53,530000,54.483769748069,-60.340042,0.06793904,-0.9582776,-0.009235616,3.9933763,1.0,2.3217928,-1.2440045,42.861614,48.600456,10.946307,86.873116,86.70301,86.76579,87.00787,26.220709,0.7,-86.8732,-29.842077,0.00018202711,-447.0357,-1.5492853,-1.1047351,-1.9980332,-1.6775604,1.3495563e-06,0.3,-38.090317,59.55282,59.57911,59.39686,59.65093,0.5341296,0.425,5.59504508972168,56.74271275599798
54,540000,55.15185112120322,-64.07922,0.06893531,0.658916,-0.0022006896,4.106544,1.0,2.6112542,-1.2704482,53.48244,43.718124,10.870174,86.53747,86.206116,87.047485,85.99711,31.23003,0.7,-85.714195,-31.476185,0.009282425,-925.96,-0.7432618,-0.5669497,-0.38702214,-0.5141696,1.2089981e-06,0.3,-40.376156,63.130714,63.25344,63.568176,63.435265,0.8205359,0.4765625,5.599736452102661,57.77543858289719
55,550000,53.45228484570414,-65.1096,0.06803395,0.83806086,-0.017047947,4.3552504,1.0,2.3556304,-0.6116068,34.876537,52.092903,13.759832,86.89748,89.352974,87.97818,87.548874,32.261707,0.7,-87.65791,-33.008408,0.00032953458,-655.31964,-1.7988012,-1.2959077,-1.359166,-0.9538575,8.298783e-07,0.3,-33.887474,64.34393,64.341415,64.567535,64.61423,0.654003,0.45624998,5.5958311557769775,58.81082545121511
56,560000,55.8784334231174,-63.376072,0.06739465,0.015602112,-0.02048408,4.5934334,1.0,2.4887006,-0.50190085,45.737553,35.4464,13.636847,86.41942,86.6871,86.35754,86.3247,11.334944,0.7,-85.679955,-30.869251,0.0013778633,-1006.90784,-2.6759744,-2.1196022,-1.3705815,-2.3512197,8.214306e-06,0.3,-43.83324,62.616447,62.66405,62.78563,62.74921,0.5402225,0.515625,5.600209951400757,59.840960975488024
57,570000,56.90613341520593,-64.30286,0.06819417,0.91556275,-0.005177232,4.1024966,1.0,3.017587,1.2318889,30.791187,63.803715,14.47303,85.05108,85.1845,85.235245,84.81783,17.637428,0.7,-84.8856,-29.053463,0.001522739,-1377.6997,-2.636796,-2.1542678,-3.8876073,-2.6368313,2.52296e-05,0.3,-49.89812,63.731102,63.68244,63.62223,63.51183,0.4816991,0.46718752,5.675577163696289,60.87764232556025
58,580000,54.72995883751087,-61.782776,0.06907815,-0.9636283,-0.0070678443,4.154102,1.0,1.8569353,0.50350827,50.833817,26.629051,11.673725,89.09689,88.7828,89.40344,89.75773,9.141463,0.7,-87.898254,-34.445736,0.0062320186,-604.1334,-1.303958,-1.47841,-1.3582428,-1.2736785,4.383549e-06,0.3,-29.878157,61.209137,61.19079,61.268356,61.472095,0.40851632,0.40156248,5.667590618133545,61.9094328602155
59,590000,54.479088663037736,-63.82509,0.06790413,-1.0578403,-0.017372679,4.184028,1.0,2.0135872,-1.2714975,39.1606,77.17023,14.053028,87.95456,88.11927,87.70666,87.7008,9.163372,0.7,-87.25136,-31.665104,0.0003976536,-994.75934,-0.9972663,-0.5041876,-1.0917678,-0.40409505,5.638506e-06,0.3,-37.972862,63.242832,63.332447,63.16864,63.238014,0.451845,0.46093747,5.767094850540161,62.94005370140076
60,600000,55.6595538164844,-64.061386,0.0685811,0.29476997,-0.0008554451,4.4717784,1.0,2.878797,0.4603797,53.795513,118.87914,13.670828,88.14558,88.22649,88.558945,88.5627,16.955978,0.7,-88.919876,-28.751066,0.0020415438,-811.16455,-0.2814046,-0.5389116,-3.3357968,-0.943834,8.472428e-06,0.3,-40.393593,63.446175,63.503185,63.199265,63.140015,0.5572267,0.4671875,5.710971355438232,63.966838630040485
61,610000,55.285172360962044,-63.065544,0.067874365,-0.16480848,-0.0093683675,4.295196,1.0,2.2584195,0.79313505,32.28268,59.03276,11.134136,86.61071,87.22926,87.23103,86.36502,34.106983,0.7,-87.69859,-29.443161,0.004581567,-1948.0786,-1.7087017,-1.7078415,-1.7107414,-2.056126,9.553673e-11,0.3,-50.950794,62.148808,62.1736,61.800983,61.90014,0.6577966,0.47031248,5.774463176727295,64.99776527086894
62,620000,55.60984543762243,-62.314568,0.06747876,-1.6196911,-0.0039530843,3.6566868,1.0,2.2361298,0.41375214,40.724236,33.60128,12.129469,86.01264,86.629196,86.50547,85.54775,8.048157,0.7,-85.30538,-33.97726,0.00013314153,-517.0584,-1.5743144,-2.1052794,-0.43048674,-1.1264021,1.8382143e-05,0.3,-31.248037,61.821877,61.945896,62.028503,62.10141,0.46959662,0.4421875,6.143577337265015,66.03514655431111
63,630000,56.654188006129644,-65.14023,0.06766101,1.2618362,-0.015116001,4.302628,1.0,2.3183267,2.830435,53.492146,38.179665,11.15667,85.9149,86.31817,85.63406,85.65751,28.835619,0.7,-85.53886,-29.310616,0.01054346,-789.6504,-1.4559839,-2.868361,-0.97668624,-2.9203205,9.280472e-06,0.3,-41.131783,64.474525,64.52438,64.42331,64.318634,0.5703517,0.490625,6.222623109817505,67.06132862965266
64,640000,55.31024332568782,-59.981876,0.06770108,-1.0308914,-0.010940471,3.4956346,1.0,2.859845,1.1161451,49.473907,62.94762,14.415195,86.28491,86.65303,86.51575,86.639244,10.5639715,0.7,-85.46692,-30.740572,0.0018790101,-672.1358,-2.989361,-2.558802,-2.0507576,-1.4482963,6.311108e-06,0.3,-44.767643,59.24904,59.31166,59.311295,59.585903,0.5513385,0.40625,6.33959436416626,68.08099753459295
65,650000,54.633238643024185,-62.014877,0.068909116,0.5738374,-0.013197469,4.223328,1.0,2.8190975,1.5718355,49.261395,77.70115,12.4966345,86.28358,86.4556,86.10798,86.904655,13.776771,0.7,-86.58924,-33.55843,0.0006011,-630.3789,-1.7267241,-2.0426593,-1.9993496,-2.4590306,4.9726626e-11,0.3,-46.88555,61.192238,61.228725,61.7726,61.637383,0.43968123,0.45624998,6.097442150115967,69.12733057339986
66,660000,54.80187202302328,-66.14775,0.068479046,0.8287812,-0.012807219,5.037951,1.0,1.9316896,4.268799,41.148643,20.437267,11.822141,86.36207,86.009,87.23292,87.07067,5.1754713,0.7,-86.29987,-31.419245,0.0007824307,-807.11884,-3.7125087,-3.1223354,-3.6850908,-3.289249,6.7776245e-06,0.3,-45.9633,65.662964,65.65042,65.70918,65.870384,0.4325872,0.44531247,6.213157415390015,70.17675719658534
67,670000,54.71706775542091,-63.10685,0.067672245,-0.99615103,-0.0057724398,4.569058,1.0,2.2731686,1.4014705,35.53875,39.024853,12.457523,86.26212,86.00355,85.656815,86.09684,14.596363,0.7,-85.5213,-36.071106,0.0020976202,-1335.0243,-2.688026,-2.7201347,-1.2063708,-1.2574197,1.870605e-05,0.3,-37.605877,62.613556,62.68773,62.84761,63.033104,0.48140097,0.41249996,6.174569845199585,71.22415422201156
68,680000,55.47468678355656,-61.036495,0.068463914,0.7962849,-0.0051573287,4.7818246,1.0,2.6233616,3.1709394,39.249504,68.89283,11.540908,86.24858,86.475006,86.17488,86.23788,20.209953,0.7,-86.65554,-29.893858,0.0039273365,-777.61334,-2.159998,-3.0618935,-0.7073061,-2.2478256,1.695659e-06,0.3,-51.3922,59.89249,60.07158,60.209175,60.155174,0.59611446,0.43906248,6.1417236328125,72.26999532779058
69,690000,54.69474622839311,-65.29234,0.06923538,1.5317526,-0.0141280815,4.2040105,1.0,1.788904,3.240471,46.31413,18.179651,10.339106,85.89721,86.41333,86.24139,85.42477,8.109063,0.7,-85.52061,-29.814674,0.0019090124,-413.78186,-3.020676,-1.6856515,-1.2330356,-1.0084515,2.4165029e-06,0.3,-39.28102,64.79155,64.78105,64.585434,64.854935,0.41453025,0.4265625,6.380702018737793,73.31801503896713
70,700000,53.917739656305365,-62.98781,0.06909911,0.23588794,-0.020236336,4.4779863,1.0,2.2910028,1.6848273,51.252544,54.08338,12.931765,85.46669,85.3083,85.822,85.51245,35.214005,0.7,-84.636375,-30.397797,0.0016850424,-782.159,-3.1245856,-4.405783,-2.7751248,-2.4133859,2.0539737e-07,0.3,-42.70144,62.391975,62.253456,62.263367,62.37713,0.66772616,0.4578125,5.980096101760864,74.36070136229198
71,710000,54.65871282135928,-63.470333,0.069501325,0.18951163,-0.011833736,4.7260957,1.0,2.2434227,2.0497763,31.341026,58.046074,12.852015,86.20928,86.3413,85.99072,85.81167,31.951262,0.7,-86.124855,-29.806744,0.0011600903,-429.51352,-1.2944732,-1.4544933,-2.381183,-5.26114,2.4035282e-06,0.3,-41.137276,62.718742,62.718784,62.670334,62.59675,0.7222667,0.48125,5.946890830993652,75.40087866385778
72,720000,54.55386455994261,-61.486916,0.070173584,-0.8214356,-0.02091414,4.2085586,1.0,2.9156384,-0.2949065,42.224754,76.41069,10.235976,85.534775,85.92319,85.36295,85.728775,23.352236,0.7,-84.88585,-30.451878,0.0004153669,-372.87204,-1.4689397,-0.94284976,-0.6321851,-0.323142,6.078626e-08,0.3,-36.878876,60.805893,60.705776,60.93317,61.291122,0.533249,0.4109375,5.921830654144287,76.44285179376602
73,730000,55.896809794607364,-62.0168,0.06803097,0.5426475,-0.0074222065,3.7264009,1.0,2.4730473,2.872089,42.13675,41.974815,12.488544,87.26825,86.83771,88.732864,87.09993,6.2108626,0.7,-86.42924,-30.745935,0.0017426625,-828.95294,-4.162716,-2.973379,-0.4633968,-0.8561493,1.3014477e-06,0.3,-42.831642,61.543556,61.642246,61.827652,61.809753,0.38415688,0.390625,5.969967603683472,77.481918267409
74,740000,55.41045417184913,-63.597225,0.06868113,-0.52356446,-0.012442091,4.271535,1.0,1.7612631,1.6781131,50.395588,35.118813,11.793641,87.35703,86.999985,87.002815,86.65105,8.5366745,0.7,-87.77684,-33.600975,0.0007753142,-364.77863,-3.1945758,-2.8538752,-4.060336,-1.9392526,1.3201498e-08,0.3,-31.039179,63.062088,63.044815,63.167267,63.305305,0.42803097,0.44062498,5.808743476867676,78.52273570696512
75,750000,55.10088987716153,-58.51651,0.068565875,-1.1299049,-0.003004629,4.0457735,1.0,2.692236,3.516448,40.65523,41.536503,11.959133,85.70129,86.41135,85.656944,85.66777,105.16633,0.7,-85.703926,-30.45415,0.0024399695,-674.4169,-2.82759,-3.4160776,-3.2054796,-2.0706065,4.6347395e-05,0.3,-49.607372,57.47757,57.518215,57.64721,57.996937,1.1210885,0.4421875,4.503653287887573,79.54253977139791
76,760000,56.089992127608404,-63.483887,0.06979389,-0.45319772,-0.013439896,4.1958356,1.0,2.82515,-0.9295819,32.71359,41.488045,11.985462,87.556694,87.34165,87.20435,86.52007,7.2424917,0.7,-86.86997,-30.537539,0.006910556,-784.8998,1.2398956,1.6457916,-1.3498607,0.5685974,1.7149392e-05,0.3,-46.16323,62.624916,62.69635,62.491165,62.58165,0.49740767,0.5,6.119804382324219,80.58786831299464
77,770000,55.40321265243271,-63.94123,0.07004556,0.8332331,-0.011316344,4.538568,1.0,2.0798335,-1.085226,58.19518,20.849892,14.591481,86.024376,86.30377,86.582344,86.246284,8.19783,0.7,-86.08822,-28.575432,0.0034092185,-669.3215,-0.65197694,-0.94068027,-2.1394646,-1.6300033,2.4022613e-08,0.3,-51.80301,63.24522,63.386955,63.276363,63.448883,0.45649526,0.4640625,6.369921922683716,81.63424416383107
78,780000,55.38676262750592,-62.276333,0.069629215,0.057589307,-0.010637259,4.206842,1.0,2.5442624,1.1673094,44.991158,43.98049,14.252907,87.53536,86.94216,87.89178,87.23899,11.186323,0.7,-87.87882,-35.451424,0.009674074,-666.43164,-1.8816476,-0.12659276,-1.0545449,0.97762066,8.074567e-08,0.3,-35.590607,61.571716,61.731728,61.832767,61.89501,0.4704852,0.42343748,5.8671674728393555,82.67474046945571
79,790000,55.454961409476475,-62.980278,0.069524415,-0.112000585,-0.014883243,3.9585454,1.0,2.1424427,0.55000734,49.702045,37.950977,10.61889,86.4673,86.59811,86.43467,86.55805,32.057983,0.7,-86.176445,-32.124966,0.0017059995,-848.8243,-2.9184284,-1.5971329,-2.5420845,-0.28824466,6.041257e-07,0.3,-47.590324,62.258778,62.348816,62.210255,62.293713,0.55377764,0.4484375,5.903665065765381,83.71522436936696
80,800000,55.40814180682442,-60.591095,0.07039542,0.54331815,-0.0127386125,4.18413,1.0,3.0038104,1.8805294,52.683537,46.20916,12.169643,86.129875,85.96002,85.9586,85.92969,19.52697,0.7,-86.864716,-30.524267,0.0006820678,-1005.57904,-2.3147454,-3.088257,-0.75798535,-0.19227535,2.7939677e-06,0.3,-47.466785,59.907078,59.86251,60.022915,59.98011,0.44154942,0.4578125,5.8503968715667725,84.75377949476243
81,810000,55.9432101839276,-61.51145,0.069429845,-0.22963305,-0.005362114,3.9680347,1.0,2.2830856,0.047472894,41.931313,39.048332,11.898481,85.022224,85.260025,85.08303,85.626976,39.271927,0.7,-85.580345,-29.27366,0.0012682248,-660.3467,-3.5846572,-2.7716339,-1.8312713,0.111180365,1.0992309e-06,0.3,-57.52778,60.639065,60.806545,60.79153,60.43863,0.79330456,0.5078125,5.868028163909912,85.79344141483307
82,820000,55.6740948659447,-61.599728,0.069105886,0.046171427,-0.016622415,4.2897973,1.0,1.9541521,1.0163797,53.50678,24.77167,12.064472,85.70475,87.16208,86.19615,86.26971,9.139601,0.7,-85.88926,-34.02244,0.00084467535,-894.6029,-1.8471359,-1.324404,0.543073,-1.0024318,1.1488603e-05,0.3,-48.153477,60.89022,60.95323,60.82833,60.72834,0.44779575,0.525,5.812380313873291,86.83198880751928
83,830000,55.27758901730054,-61.22894,0.06940223,0.12812102,-0.010852845,4.079669,1.0,2.6146193,1.3379207,34.399097,87.74693,9.261394,86.34353,86.16254,86.39188,87.06098,114.8205,0.7,-85.932274,-32.781807,0.00025774358,-1420.7781,-2.4518301,-2.28053,-1.4604803,-2.0128815,5.286886e-07,0.3,-50.94506,60.283108,60.393055,60.313095,60.57085,0.81891996,0.46249998,6.014129638671875,87.87564556598663
84,840000,55.9690033921087,-64.47838,0.069759436,0.5410068,-0.013492361,3.8089077,1.0,2.3289583,-0.17937122,39.552307,51.744102,15.106948,86.90952,86.741356,87.21066,86.85969,14.333161,0.7,-86.23551,-32.356495,0.003235592,-1305.252,-0.21069443,-0.13449872,0.124705955,1.0365593,3.865268e-06,0.3,-46.64318,63.83644,63.792564,63.708946,63.91534,0.47272035,0.43749997,5.8396897315979,88.91313916842142
85,850000,56.19631459525789,-62.524197,0.06998809,0.5353404,-0.013349758,4.220004,1.0,2.0525546,0.6174052,56.95606,33.890053,13.134905,86.71524,86.241066,86.66092,86.55946,12.531399,0.7,-85.87265,-28.836695,0.0040735686,-1338.8379,-4.475462,-4.261036,-4.461723,-2.2139318,2.6118867e-05,0.3,-59.07991,61.783775,61.89132,62.048836,62.23391,0.40701723,0.3859375,5.868060350418091,89.95331808328629
86,860000,56.541354567430645,-63.57834,0.07091787,-0.4088454,-0.014046635,4.3459296,1.0,2.1632204,3.0230541,50.75394,30.636717,11.651623,86.016785,86.82553,87.772995,86.40827,8.888874,0.7,-85.69161,-31.662584,0.0005216311,-1371.7787,-2.4311864,-2.8834965,-2.9212306,-2.2408996,8.8046653e-07,0.3,-44.703205,62.83365,63.04528,63.07242,63.019436,0.458317,0.48281252,5.938062429428101,90.99422600666682
87,870000,55.7919220402868,-61.41537,0.06936903,-0.4229282,-0.01607586,4.8162246,1.0,3.3164806,0.798751,37.71489,164.70312,11.438725,85.98747,86.256714,86.87342,86.25905,53.192947,0.7,-85.47264,-30.990345,0.0016253004,-983.90656,-1.6987344,-0.5147666,-2.992313,-2.0876868,7.675885e-06,0.3,-48.72638,60.85251,60.72973,60.77282,60.535164,0.7992613,0.45624998,5.808831214904785,92.02967726389566
88,880000,54.81427717708643,-62.734554,0.06931931,-0.96481717,-0.024013003,4.446363,1.0,2.1283545,-1.0651855,38.06653,36.429504,10.164205,85.93496,85.6935,86.57107,86.28178,6.724276,0.7,-85.87357,-31.326988,9.25833e-05,-492.9003,-1.8010937,-2.1789155,-0.13836183,-0.59348243,2.231053e-06,0.3,-38.92444,62.055542,62.20213,62.485237,62.330826,0.37904775,0.4671875,5.795969486236572,93.06413960854212
89,890000,56.60598866294148,-58.9731,0.06926642,-0.18832782,-0.02174428,3.654956,1.0,2.0276995,0.4625662,54.65996,51.231827,13.344039,88.43288,87.38403,87.5304,86.370415,9.749521,0.7,-87.048134,-31.330954,0.0010051497,-759.6147,-0.57259905,-0.39413226,-2.088719,-1.0746508,5.0145077e-06,0.3,-44.06643,58.341618,58.322525,58.358955,58.175823,0.38711536,0.4375,6.276536464691162,94.10488409598669
90,900000,56.06867001909352,-63.145687,0.06945694,0.51916987,-0.018953295,3.9437256,1.0,1.8504522,-2.9810665,66.03223,29.254505,13.561617,87.39354,86.52918,86.725426,86.99963,19.219341,0.7,-85.60831,-31.165577,0.00041724887,-1119.8264,1.8764492,0.9668951,1.2549803,0.5843964,6.455183e-06,0.3,-48.45498,62.214016,62.12606,62.19983,62.426193,0.49094114,0.4296875,6.304969310760498,95.153810830911
91,910000,56.21109544355446,-64.13196,0.07051031,1.1543925,-0.009640086,4.439304,1.0,3.994668,2.013554,39.4152,340.82568,11.25978,87.44963,86.69756,85.81402,86.27321,23.284178,0.7,-85.60644,-30.328096,0.0020772603,-680.72107,-1.4660738,-3.8982573,-2.0696194,-1.9363866,7.95626e-06,0.3,-47.625572,63.464012,63.246857,63.699806,63.346916,0.48593643,0.4765625,6.051795959472656,96.19146074851353
92,920000,56.15999131397378,-63.336567,0.07007944,-0.57382977,-0.020037796,3.8413785,1.0,2.5644891,2.7223623,30.006142,38.660454,12.145695,85.28565,85.635796,86.18707,86.86129,15.760289,0.7,-86.21304,-29.061352,0.000855825,-1816.0919,-3.356966,-2.9927115,-1.4105484,-1.2728086,6.114351e-07,0.3,-63.443512,62.613567,62.699516,63.099937,63.084587,0.38002363,0.409375,6.11030387878418,97.23368128538132
93,930000,56.201548950838124,-63.96348,0.06859318,2.101997,-0.019569708,4.771085,1.0,2.067411,1.6096116,39.237774,25.033289,10.401541,86.53402,86.46512,85.816536,86.30315,50.491604,0.7,-86.51153,-30.544037,0.0010028239,-1848.1707,-1.7861178,-1.734339,-0.386995,-0.98310316,0.00013119567,0.3,-61.498306,63.353832,63.200714,63.09501,63.40971,0.7018579,0.4453125,6.014489412307739,98.27273980379104
94,940000,56.64245808698423,-63.305443,0.06941452,1.8910996,-0.008564074,5.063186,1.0,2.546267,-2.677537,62.212227,33.364746,13.194444,85.93832,85.80669,84.49215,84.896965,40.603195,0.7,-85.31795,-28.792213,0.0040147603,-596.8623,0.5077077,1.6122706,1.3617918,0.8020689,1.430206e-05,0.3,-60.433277,62.436157,62.388977,62.00875,62.2852,0.7009474,0.43281248,6.2767014503479,99.31631550788879
95,950000,56.613112174731164,-61.274364,0.06922095,-0.048896313,-0.013969508,3.9800274,1.0,2.5283432,0.15812644,48.699684,37.597275,11.995867,86.6566,87.07629,86.73134,86.85159,6.1214237,0.7,-86.926575,-30.477137,0.010445343,-1325.4216,2.0757918,1.6961696,1.8860098,2.842952,6.4977215e-08,0.3,-56.03369,60.519665,60.507652,60.358482,60.445694,0.42944658,0.48281252,5.799587726593018,100.34945458173752
96,955000,56.17972311090892,-61.449783,0.071628064,0.43752813,-0.007689029,4.333181,1.0,2.2979472,0.5364766,46.902515,49.931,11.129373,85.817474,86.10049,88.050804,87.06818,7.892608,0.7,-85.640724,-31.288551,0.0025982545,-1124.0531,0.22046769,0.029495716,0.53431815,-0.4203704,2.6763488e-05,0.3,-51.224335,60.883724,60.819107,60.664894,60.777084,0.4702709,0.45468748,5.903750896453857,100.91970789432526
97,960000,56.6136087978257,-61.157265,0.0704429,0.17723972,-0.008881147,4.1240726,1.0,2.3981845,1.6445456,40.145813,36.386154,11.73528,86.326866,85.42653,85.283066,86.392296,3.9686244,0.7,-88.13297,-29.309324,0.004344379,-1881.5009,-1.1930221,-2.0977273,-1.7557361,-1.4436827,1.2058783e-05,0.3,-66.89795,60.106003,60.254677,60.113297,60.428825,0.49684817,0.39999998,6.014695882797241,101.48689736127854
98,965000,56.63383752915493,-65.23317,0.070645414,-0.6795209,-0.013062055,4.3094997,1.0,2.3433487,-2.6754978,40.48361,49.02944,10.887764,88.04224,86.60905,87.815544,87.10357,61.605145,0.7,-86.31193,-30.12757,0.014603339,-1335.578,1.0556874,0.8864348,-0.3081727,-0.79640096,1.6298145e-08,0.3,-47.324314,64.63366,64.48333,64.45421,64.3073,0.7462827,0.52343744,5.967396259307861,102.05373361110688
99,970000,56.23365683238072,-63.78345,0.07298062,0.22867993,-0.016011318,4.3546634,1.0,2.1644373,1.4696164,42.144707,27.220486,13.143534,85.94289,88.110504,87.19628,85.398346,12.998099,0.7,-85.97978,-27.946424,0.00045537163,-2347.6665,-0.8059124,-3.009191,-2.289568,-2.1582887,2.6005491e-06,0.3,-40.440887,63.367657,63.419548,63.39359,63.40152,0.5654264,0.46249998,6.0107526779174805,102.61886008183161
100,975000,56.20342718174164,-63.414383,0.07105416,-0.3638088,-0.00903524,3.8213978,1.0,2.2733333,-2.2120285,39.45565,57.134228,11.608542,86.74394,85.2308,86.21415,85.501564,8.500951,0.7,-85.00508,-37.700504,0.00054766436,-443.21255,-0.55255115,-0.21517146,-0.15815547,0.609289,1.4709076e-08,0.3,-34.561005,62.825844,62.81525,62.982628,62.91318,0.45614606,0.44375,6.106468200683594,103.1929987112681
101,980000,55.88616306342088,-60.165024,0.06779798,0.6215415,-0.009550004,4.5622,1.0,2.921016,0.46005994,43.214752,97.32646,12.084976,86.01629,85.487526,85.79892,86.06589,10.719347,0.7,-84.90459,-29.415943,0.005203729,-590.337,-0.80696213,-0.3671744,-1.8513789,-0.051567018,6.244588e-06,0.3,-53.40494,59.403072,59.319885,58.983128,59.07879,0.42452782,0.5078125,5.924499273300171,103.76362891594569
102,985000,56.2828861469983,-63.524952,0.07141524,-0.7703669,-0.0128969075,4.3641143,1.0,2.0788183,-0.20913225,31.589,46.842945,10.512369,87.070724,86.00238,87.85471,87.71686,11.005769,0.7,-86.16114,-31.029007,0.004113652,-831.90204,-1.4774354,-2.6183724,-0.36329693,-1.1695307,1.9597064e-06,0.3,-45.263237,62.673862,62.845955,62.685005,62.67369,0.5249953,0.48593748,6.379392385482788,104.33824787139892
103,990000,56.211772819472195,-61.344727,0.06921475,-0.77141917,-0.018575532,4.04651,1.0,1.5695689,-0.30522117,30.133116,15.979446,13.397529,86.032295,85.804726,86.12336,86.869316,7.6422777,0.7,-85.78772,-30.858747,0.00034019822,-1222.0424,-0.16970193,-0.87539876,-0.7425386,-0.34720713,4.6824975e-06,0.3,-44.604374,60.813435,60.888783,60.840675,60.956047,0.40816766,0.4109375,5.968737840652466,104.90497035980225
104,995000,56.57782635442942,-64.5133,0.07121888,0.092004955,-0.020727664,4.467533,1.0,2.4476469,-1.3032441,51.92858,59.35557,11.48948,85.56354,85.12662,84.91892,84.706375,14.624699,0.7,-84.696625,-28.459015,0.00045764627,-1398.3193,0.11030698,-0.15599537,-0.113757215,-0.5390161,1.1531915e-05,0.3,-50.321503,63.89773,63.838425,63.884747,63.901287,0.45701408,0.43124998,5.861997604370117,105.47210987011591
105,1000000,56.58949211467459,-64.67999,0.07428439,0.3770588,-0.013766127,4.1321077,1.0,1.7955455,-3.1873941,62.11562,29.22593,12.028909,86.881874,86.27452,86.47253,85.82461,25.142483,0.7,-86.031204,-29.673836,0.00018533663,-635.2697,2.9797077,2.9319801,2.6633186,2.4740078,3.9853894e-05,0.3,-41.061623,64.03619,63.974693,63.73566,63.411316,0.7397585,0.5640625,5.644899606704712,106.0401517510414
