Xixo99/comfo/baselines/comfo7_perterbation_both_actor_and_critic/20230223_alpha1=alpha2=1/halfcheetah-medium-v2/COMFO7_s0_20230223_224846_halfcheetah-medium-v2_6.29.csv
,step,reward,actor_loss,alpha,alpha_loss,avg_conservative_loss,avg_smooth_loss,conservative_weight,critic_loss,max_actor_loss,max_alpha_loss,max_critic_loss,max_mle_prob,max_q1,max_q2,max_target_q,max_v,max_value_loss,max_weight,min_actor_loss,min_alpha_loss,min_critic_loss,min_mle_prob,min_q1,min_q2,min_target_q,min_v,min_value_loss,min_weight,mle_prob,q1,q2,target_q,v,value_loss,weight,eval_time,time
0,0,2.255366238394461,,,,,,,,,,,,,,,,,,,,,,,,,,,,,,,,,,,,
1,10000,-4.422369387613617,-35.85686,0.0895928,-0.87086535,0.00021800176,0.5534587,1.0,1.466945,-15.024917,18.475103,156.29184,12.923685,44.332447,43.8672,43.79399,43.167896,2.6001177,0.7,-43.763767,-21.263144,0.0031224713,-11.264789,12.001637,11.696835,10.3376875,12.552034,8.157902e-06,0.3,4.0745482,35.62108,35.437958,35.356533,34.95326,0.101000085,0.42031246,6.297302484512329,3.0293994188308715
2,20000,-5.232528102154671,-58.585953,0.09970258,-0.68290704,-0.00011145007,0.730773,1.0,1.2127731,-7.6568036,20.234833,28.276121,15.375138,67.449905,67.980736,67.561676,67.61391,6.175412,0.7,-68.02804,-26.53103,0.00079658825,-9.376444,7.7763553,6.6067386,7.4400916,7.20324,5.1487414e-06,0.3,3.486861,58.16163,58.24302,58.203648,58.16469,0.18782917,0.39218748,5.8598809242248535,4.068282993634542
3,30000,-2.5582750620844683,-71.42558,0.095489845,-0.049018383,-0.00031952542,0.74763614,1.0,1.9502153,-4.2859316,25.614891,77.44565,13.833196,82.85403,82.51625,82.977974,82.41532,2.1405175,0.7,-82.81532,-21.810144,0.000554384,-13.853389,3.2164962,2.7928925,4.845138,3.9081447,1.466833e-09,0.3,3.899408,70.98977,70.949814,71.13152,70.86268,0.13861573,0.459375,5.3066182136535645,5.091888387997945
4,40000,-2.9692580088064346,-80.26507,0.08511451,0.29674897,-0.0009280282,0.6987068,1.0,1.9925172,-4.80334,19.41476,100.1097,13.002979,88.7578,88.639305,88.35655,88.35594,1.9270494,0.7,-88.6371,-24.698872,0.00017023145,-6.919525,3.2206278,3.106289,5.988784,3.9800532,7.197331e-06,0.3,4.310398,80.139244,79.7271,79.90015,79.630585,0.09143774,0.48593748,5.807789087295532,6.123455882072449
5,50000,0.0059569615684589555,-83.890884,0.07451519,0.084356636,-0.00040072502,0.6844387,1.0,1.6491196,-3.60746,24.82525,69.956566,13.993954,91.0701,91.394646,91.29932,90.97992,3.1147592,0.7,-91.401764,-33.765945,0.00046108442,-10.161948,5.341479,5.0670757,3.2480345,5.031669,5.912036e-07,0.3,3.9233506,83.45068,83.32425,83.35254,83.309006,0.104043685,0.4984375,5.854997158050537,7.154993569850921
6,60000,-2.4864379275304542,-87.24835,0.0675957,0.38990343,-0.00054015074,0.5668503,1.0,1.086001,-59.281994,23.03462,23.478167,14.870704,93.53002,92.91576,92.60024,92.84517,1.150376,0.7,-93.33204,-34.761425,0.0025048552,-7.8097525,55.652718,54.7194,53.851135,56.813484,4.710164e-08,0.3,4.7597084,87.09987,86.798935,86.95321,86.89562,0.06571474,0.45156252,5.887649059295654,8.19020125468572
7,70000,-1.3944202584392502,-88.44006,0.06036398,0.22099692,4.3654814e-05,0.5335323,1.0,1.2960963,1.1439815,26.285303,41.180138,15.068283,94.81864,94.41663,94.09512,94.23033,2.100098,0.7,-94.72177,-33.853756,0.001128169,-10.821578,-1.8392062,-1.2445469,-4.589525,-1.7061228,7.152558e-08,0.3,4.722028,87.9541,88.06587,87.917175,88.00228,0.052900556,0.5078125,5.900742769241333,9.227009753386179
8,80000,-0.4944269879081256,-88.829865,0.054820865,-0.27262524,8.198042e-05,0.5237318,1.0,1.6999352,2.3872037,26.281658,161.4663,16.998455,94.91393,94.85765,94.587364,94.87751,3.0884311,0.7,-95.206825,-29.12652,0.0032300788,-13.311651,-1.528692,-2.884564,-2.0124872,-4.029678,2.1122396e-07,0.3,4.955652,88.36555,88.5729,88.684814,88.49742,0.072514504,0.49531248,5.914832830429077,10.262775075435638
9,90000,0.681555943060374,-90.105156,0.051892616,0.61031604,-0.00028355885,0.47305608,1.0,0.804543,-19.798828,33.906246,53.14511,16.051884,95.29128,95.19962,95.21905,95.29984,12.036807,0.7,-95.408424,-29.815348,0.00073962595,-9.673838,9.810667,7.766479,6.2316732,13.649037,1.8140242e-06,0.3,5.7242494,89.514725,89.69528,89.5803,89.692154,0.09393964,0.465625,5.884005784988403,11.300366139411926
10,100000,0.2003585051549543,-91.19074,0.049600657,-0.64025736,-0.00033909082,0.43637314,1.0,0.5706781,-81.181145,34.11065,8.924881,14.651993,96.072876,95.21813,95.88006,95.35318,1.1517913,0.7,-95.75429,-32.626022,0.00050850504,-6.6341248,81.27465,81.56136,80.93262,81.508896,7.019076e-06,0.3,5.415616,90.739975,90.63792,90.75598,90.521614,0.049183458,0.5234375,5.955862760543823,12.337278227011362
11,110000,2.4719727513772196,-90.60832,0.04704553,-0.44488934,-0.0003150571,0.43824244,1.0,1.0596057,0.43223196,32.284668,38.74804,15.080839,96.55633,95.40333,95.85024,95.764915,0.7372507,0.7,-95.81311,-36.481323,0.0015908561,-4.875206,-1.1774781,0.21097195,-1.8592769,-1.6956737,1.466833e-07,0.3,5.5079026,90.37026,90.08769,90.07165,90.12516,0.04894529,0.4875,5.9401326179504395,13.376422468821207
12,120000,3.4229456567873404,-91.05802,0.04448968,0.20701864,-0.00065437856,0.43521196,1.0,0.9437684,-69.31014,32.990078,41.652905,16.068665,95.24111,95.06635,95.53119,95.302574,14.023545,0.7,-95.60776,-28.978884,0.0013443597,-11.753126,67.12414,66.63485,68.75826,61.55956,1.7968704e-08,0.3,5.4535885,90.523636,90.54401,90.53433,90.70766,0.11113888,0.35625,5.975410223007202,14.413812522093455
13,130000,2.9554924780942113,-90.07903,0.042871833,0.41069606,-6.48059e-05,0.44374457,1.0,0.7646495,10.91238,29.404636,21.584728,17.225622,94.56976,95.03733,94.59239,94.87356,1.8975968,0.7,-95.81758,-35.69698,0.0013541386,-7.248789,-11.76469,-14.099555,-13.3504305,-11.952618,4.3592883e-07,0.3,6.1461673,89.49071,89.76073,89.80467,89.802536,0.042029765,0.3828125,5.897284984588623,15.450231023629506
14,140000,1.594226525377053,-88.814575,0.043088924,0.6139699,7.7692464e-05,0.44140697,1.0,0.7168865,2.1189692,49.076958,10.821181,15.368272,94.76134,94.33228,95.197495,94.2845,3.073843,0.7,-94.682915,-42.785778,0.0028870555,-7.4642024,-1.9677051,-1.8894511,-2.734777,-2.4271183,3.60026e-07,0.3,6.0708423,88.37749,88.32416,88.503456,88.28407,0.06466916,0.5453125,5.950292110443115,16.48988992770513
15,150000,2.768828350342741,-90.31315,0.041662075,0.14751768,-0.0011473134,0.43103752,1.0,1.3242431,-63.73537,27.732603,41.796497,14.683282,96.12346,95.800064,95.627945,95.19806,2.6176243,0.7,-96.364395,-30.406382,0.00057529064,-9.123209,57.60979,59.18877,61.44265,57.796967,1.10175456e-07,0.3,5.6717896,89.7262,90.264435,89.9825,89.88736,0.05506159,0.4953125,6.211162090301514,17.526612786451974
16,160000,2.425987296770919,-90.99851,0.0418075,-0.5444764,-0.00027647466,0.422427,1.0,0.9002716,-61.54328,25.726658,36.67188,14.043718,94.89609,95.3894,94.41682,94.38634,1.1608202,0.7,-95.47499,-42.82805,0.005282796,-8.186165,56.54078,56.806705,56.377937,55.734703,2.212025e-06,0.3,5.6461535,90.33417,90.82684,90.412125,90.534836,0.03465191,0.428125,6.4455790519714355,18.571148904164634
17,170000,4.706625036304689,-90.09222,0.039609686,1.4666293,-0.00028657168,0.41875005,1.0,0.69443214,2.4689333,48.227562,18.142967,15.000161,94.38342,94.47501,94.607796,94.27665,2.4515252,0.7,-94.72789,-30.51748,0.0010462606,-8.942941,-2.1650052,-2.252511,-1.4816535,-2.962142,9.789073e-07,0.3,6.114584,89.49969,89.73532,89.668976,89.642975,0.034728855,0.4296875,6.377431631088257,19.615258038043976
18,180000,1.5192486239877587,-89.64899,0.039289854,0.16641349,0.00031992682,0.4103244,1.0,1.0185847,3.0611901,38.208263,22.68998,16.220476,93.850075,94.128365,94.098595,93.77204,0.8990281,0.7,-94.46544,-35.745724,0.00074745074,-6.289468,-1.477838,-2.6878152,-3.6698778,-1.548058,8.998148e-07,0.3,5.8621674,89.048584,89.394226,89.22714,89.33767,0.045111757,0.44062498,6.2274250984191895,20.654807631174723
19,190000,2.8620590210066874,-89.57197,0.03839799,-0.30131623,0.00040982943,0.39476308,1.0,0.7721869,0.8004235,31.65934,20.015152,14.773119,94.52863,94.28826,95.09418,94.63937,0.55974513,0.7,-95.01851,-36.096653,0.0001946307,-6.918418,-0.19465089,-0.46616602,-2.2107599,-1.4406731,8.6217185e-08,0.3,5.8412313,89.11299,89.09991,89.21945,89.12779,0.035463557,0.453125,6.256735801696777,21.695189932982128
20,200000,2.8620629848158727,-89.40598,0.03877289,0.48234218,0.00030189494,0.41483694,1.0,0.76465917,6.1846285,31.128618,27.00766,15.454788,93.747246,94.56939,94.373505,93.891716,1.2495928,0.7,-94.23767,-37.90183,0.0008690695,-11.432513,-6.197353,-5.744756,-4.483384,-7.4097786,5.784212e-07,0.3,5.5078187,88.796234,89.073586,88.84755,88.96217,0.041263185,0.40937498,6.6898815631866455,22.74233128229777
21,210000,1.8190997613896314,-89.350746,0.0384069,0.9484162,0.00015062392,0.408087,1.0,0.75449914,2.7840154,43.473057,14.53842,15.567982,93.738785,94.3542,94.06829,93.854355,6.34468,0.7,-94.381485,-32.037537,0.0047468534,-6.60888,-3.2849078,-2.3710632,-1.7541335,-2.2149363,6.640039e-07,0.3,6.2074723,88.79305,89.10884,88.99538,88.91173,0.05433063,0.54375,6.4359824657440186,23.787012835343678
22,220000,3.083448237538062,-89.49356,0.038149178,-1.0571194,-0.00097236334,0.41423997,1.0,0.9929681,3.75326,31.350273,51.38758,14.483231,93.47692,94.26304,94.27482,94.26376,39.320763,0.7,-94.16886,-42.216854,0.0057359603,-12.463982,-3.458574,-2.7361872,-2.7967777,-2.541978,2.521556e-08,0.3,5.742387,88.79775,89.2541,89.2741,89.18334,0.18691397,0.38906246,6.020201683044434,24.827579891681673
23,230000,2.8110877500635176,-90.458855,0.038300816,1.0957129,-1.808852e-05,0.39356002,1.0,1.1728069,-59.40904,28.817648,161.43054,14.281556,93.57615,94.41708,93.94287,93.80511,0.47481775,0.7,-93.96929,-28.257694,0.0014681828,-7.072949,57.828846,60.991943,50.56653,57.96149,9.822543e-06,0.3,6.3101006,89.940384,89.895096,89.905045,89.92605,0.033347934,0.49531248,5.90549111366272,25.86693394581477
24,240000,3.8444056623111558,-88.86763,0.038536076,-0.936304,0.00034528645,0.42007884,1.0,0.5672569,9.778065,34.479324,9.09274,15.484568,94.221535,94.15357,94.24126,93.890114,1.6673717,0.7,-94.12952,-38.07799,0.001356909,-9.051261,-9.958582,-10.856946,-10.756808,-10.687132,1.1175871e-09,0.3,6.051401,88.38476,88.296814,88.33122,88.20513,0.05076342,0.52968746,5.955851316452026,26.91024347146352
25,250000,4.0698907458816365,-89.884026,0.03738639,1.1816558,-0.00035357216,0.3696103,1.0,0.75322044,3.4226348,28.294468,75.85663,14.694632,93.306786,93.477684,94.03072,93.27266,0.5142154,0.7,-93.88194,-31.562574,6.8178633e-06,-4.621873,-2.4522076,-3.1418185,-2.6414,-3.9261734,7.92247e-07,0.3,6.3162966,89.35816,89.29988,89.23197,89.27222,0.025043305,0.43906248,5.960652112960815,27.953718996047975
26,260000,2.8585947111816377,-89.841034,0.03764302,0.22952753,0.00019068066,0.3844385,1.0,0.7191196,2.592703,29.214893,31.008999,15.796005,93.68675,93.23603,93.64343,93.33831,6.5374074,0.7,-93.83784,-36.257168,0.00054413266,-10.56548,-1.8347334,-1.9159644,-2.9078531,-2.0200527,2.4789477e-07,0.3,6.0725265,89.49488,89.229324,89.300575,89.34895,0.05488422,0.45312497,5.9899537563323975,28.9938716451327
27,270000,2.7826919230724974,-89.04797,0.037869684,1.291725,-0.00042040218,0.39874777,1.0,0.82817304,1.2737476,61.57713,42.868484,17.118961,93.5262,94.204445,94.22913,93.988,10.065332,0.7,-93.918526,-32.164528,0.0005852101,-15.500205,-0.013935089,-0.4411143,-1.4051759,-0.30096263,3.9934528e-07,0.3,6.015028,88.42615,88.45168,88.49369,88.656296,0.088033274,0.3484375,5.792095184326172,30.03277605374654
28,280000,4.144632786384118,-90.171196,0.03722367,0.47100514,-0.0002140239,0.39938584,1.0,0.5264196,-60.62161,50.088535,18.334858,15.948228,93.33755,93.68365,93.30754,93.36657,7.0522294,0.7,-93.603645,-27.957853,0.00020017411,-9.965114,59.76144,57.555946,58.05737,54.219013,6.2864275e-10,0.3,6.243451,89.566055,89.68172,89.60716,89.583206,0.057133466,0.4609375,5.804277420043945,31.070061508814494
29,290000,1.7525122425764987,-89.45818,0.03714277,-1.8286681,-0.0001785595,0.37412426,1.0,0.6830231,2.0622802,34.190723,12.985376,15.451675,93.30915,93.148506,93.64981,93.55504,0.701956,0.7,-93.48859,-35.77795,0.0021340684,-10.1991825,-1.3041201,-1.9591658,-1.4799966,-1.4238911,2.8501265e-06,0.3,5.765945,88.992645,88.99812,88.97756,88.99332,0.03437933,0.453125,5.801069021224976,32.107447485129036
30,300000,3.7021125083922484,-88.62077,0.037513826,-0.051988512,-0.0007595142,0.4337946,1.0,2.845251,2.9722056,37.42461,456.1001,15.805189,93.90259,93.17484,93.385185,93.08025,3.1280286,0.7,-93.92978,-32.974876,0.00089492375,-20.21694,-2.144942,-2.4069316,-2.269747,-1.7198135,6.106391e-07,0.3,5.5332727,88.256485,87.97542,88.08097,88.04793,0.05263692,0.490625,5.849527835845947,33.14366870323817
31,310000,2.319248288471504,-89.47044,0.0369177,0.20450425,-0.0002678767,0.40161973,1.0,0.5458911,-58.653076,27.306992,11.064354,15.569601,92.943634,93.40605,92.93093,92.84557,1.3904946,0.7,-93.85023,-34.13471,0.00056765904,-6.037115,56.523335,56.137203,54.452335,57.64701,1.4709076e-08,0.3,5.874674,88.794655,89.11713,88.95266,88.9071,0.040375095,0.4890625,5.932614803314209,34.18337603012721
32,320000,3.4226495072439627,-88.96337,0.03618072,0.42228812,0.00071454607,0.42210245,1.0,0.7504587,-0.20221716,42.90222,11.821974,15.323588,93.094154,93.515335,93.36729,92.947685,1.6126993,0.7,-93.88998,-32.312,6.421405e-05,-6.7957873,0.029648125,1.3928165,-1.3675902,-1.7862563,6.540399e-06,0.3,5.792475,88.37288,88.5983,88.25828,88.371826,0.04407335,0.4625,5.959014177322388,35.22321700255076
33,330000,7.0883940539236026,-89.51748,0.037412297,-0.058534145,-0.0010279268,0.39425394,1.0,0.84156156,8.366622,25.514801,64.30223,14.392406,92.714775,92.72356,93.22104,92.71245,0.28318256,0.7,-93.27403,-33.090614,1.31462e-06,-9.70941,-10.450386,-9.95656,-15.86829,-11.751371,1.9965227e-09,0.3,5.990488,88.932205,88.91533,88.980286,89.06472,0.02497842,0.40624997,6.2674970626831055,36.26749190092087
34,340000,0.7398828996592117,-89.617355,0.03615788,-0.7926207,-4.1402505e-05,0.35989124,1.0,0.6152631,0.5863227,28.596016,30.642458,17.48227,93.10935,93.78058,93.66602,93.18024,0.3070985,0.7,-93.86511,-42.54912,0.00048366713,-5.4327245,0.2838946,-0.33093548,0.036481112,-0.34293562,1.7290702e-06,0.3,6.2764077,89.057945,89.20147,89.13732,89.047295,0.026092358,0.47031248,5.910285472869873,37.30105657577515
35,350000,-1.299637189883449,-89.55437,0.035895377,0.6491805,0.00031509102,0.37895814,1.0,0.95922405,-69.336075,28.144289,66.62981,15.734948,93.62078,92.757065,93.57754,93.11678,1.3377566,0.7,-93.69405,-32.649494,0.0006835459,-10.725134,68.57247,69.28769,69.17506,69.498375,1.8887222e-07,0.3,6.097577,89.193535,88.94915,89.038376,89.11232,0.032314315,0.40624997,5.9342041015625,38.33666816155116
36,360000,4.356669053471726,-89.44566,0.036361836,-0.2500832,2.4400651e-05,0.35728484,1.0,0.8107579,0.72283816,28.494816,51.326874,14.939782,92.95947,92.70317,92.94631,92.67221,3.6622436,0.7,-93.39569,-43.426712,0.00034190278,-10.449892,-0.3047583,0.86157346,-1.5391644,-0.9965516,4.4146438e-07,0.3,6.0856113,88.959946,88.91747,88.72527,88.81325,0.045194734,0.5,5.878082036972046,39.36901477972666
37,370000,5.549520409311934,-89.21103,0.035575505,-0.6967776,1.1814758e-06,0.35574412,1.0,0.44880858,2.9622574,35.5219,6.7411346,15.8082075,93.41881,93.09278,93.9558,93.17877,0.45823824,0.7,-93.9553,-36.085308,0.0009015655,-6.7916627,-0.59336925,-2.9225616,-1.8928617,-2.265213,8.074567e-08,0.3,5.9735246,88.84139,88.598694,88.8163,88.77632,0.032216754,0.44687498,5.817373514175415,40.40529929002126
38,380000,4.757878062572363,-89.54622,0.03612945,-0.21360947,-0.00047330558,0.38705903,1.0,0.4445204,-60.19302,26.944115,25.451775,13.892897,93.46212,93.86199,93.99649,93.58867,2.3911936,0.7,-94.13138,-38.21145,0.0002793803,-14.799123,59.449066,58.615044,55.526867,58.238033,1.0913936e-08,0.3,5.835396,88.941986,89.09888,89.00378,88.92103,0.033900037,0.5453125,6.046863317489624,41.445882586638135
39,390000,4.287557111516805,-88.89557,0.036417365,-1.1215189,7.27497e-05,0.38556632,1.0,0.75728226,1.5003409,34.31813,32.32842,16.487883,93.02672,92.80357,93.51376,92.82228,1.0186936,0.7,-93.71228,-50.77879,0.0016341317,-10.934389,-0.8977668,-1.519247,-1.1959033,-0.91852653,4.6395581e-07,0.3,6.0212493,88.532036,88.29392,88.53119,88.4055,0.03166244,0.503125,5.977739095687866,42.48651912609736
40,400000,4.38661167179024,-89.022675,0.036325514,0.11102406,-0.00051380805,0.40481725,1.0,0.6489606,17.81388,28.36427,22.399916,16.210262,93.20411,93.42065,93.2232,92.91912,1.7365106,0.7,-93.741776,-29.58879,0.0010445673,-10.222622,-18.205742,-18.84276,-17.18483,-19.67,1.9965227e-09,0.3,6.1827507,88.395645,88.43387,88.398315,88.35007,0.035870384,0.459375,5.955893039703369,43.528607134024305
41,410000,3.72975374460529,-89.44441,0.03694843,1.0529157,-0.00022049509,0.44440994,1.0,0.92834395,1.163718,41.409626,20.633759,15.974987,93.44844,93.32924,93.363335,93.07189,12.150901,0.7,-94.10775,-36.64031,0.005336365,-9.025274,-0.5074692,-1.3630848,-1.5432943,-1.3113098,1.3886719e-06,0.3,6.1895165,88.840385,88.758675,88.436935,88.738846,0.0882391,0.396875,6.393139839172363,44.576586385567985
42,420000,3.869660810266563,-88.70143,0.03619244,-0.20668492,-0.0009832502,0.38973075,1.0,0.7193692,1.2351379,31.790382,36.167133,13.877973,92.50792,92.70589,92.82459,92.397285,1.7076062,0.7,-92.92958,-37.936768,0.00090065063,-5.851431,-0.18914652,-0.65567803,-0.97809225,-1.281373,9.562355e-08,0.3,6.0560255,88.34351,88.146866,88.2806,88.26851,0.046104953,0.3734375,5.925044059753418,45.616273589928944
43,430000,3.948998211985371,-90.03627,0.03573111,1.6465487,-0.00012250245,0.3530899,1.0,0.45260054,-77.243835,32.66853,19.57368,15.476298,93.07035,93.25645,92.93604,93.17302,0.5316004,0.7,-93.62915,-31.658268,0.000105798536,-7.2289076,77.003456,77.754944,75.75359,77.23114,3.7222637e-07,0.3,6.3896723,89.46644,89.571304,89.35161,89.308334,0.026462294,0.5234375,5.995772123336792,46.6565503915151
44,440000,3.11209163880486,-89.2594,0.035979215,-0.061926186,-3.922321e-05,0.35021678,1.0,0.5714414,1.7766573,35.80433,24.320646,14.948362,92.546585,92.85364,92.89997,92.67908,0.35408348,0.7,-93.61693,-38.42293,0.00070860726,-8.240097,-1.4619181,0.25502145,-0.6288976,-1.0111332,9.782961e-08,0.3,6.157436,88.66278,88.78922,88.50069,88.6188,0.024272801,0.4890625,6.341994524002075,47.704098308086394
45,450000,4.891529092544965,-88.94771,0.03575084,0.40217376,-0.00052414014,0.40153965,1.0,0.72573024,1.9824721,31.390217,22.082582,16.648548,93.097664,92.74028,93.25556,92.815765,2.982177,0.7,-93.39808,-38.10047,0.0017372888,-8.836241,-1.1134228,-2.429606,-0.6281942,-0.90454674,7.759547e-07,0.3,6.241482,88.479004,88.39866,88.48254,88.6254,0.04820595,0.41249996,5.923869848251343,48.74326457977295
46,460000,4.522779950165927,-89.33117,0.035864633,2.0048454,-0.00049746933,0.37219086,1.0,0.444366,-73.022194,57.99254,5.6600437,15.836652,92.58275,92.87495,92.52352,92.7481,0.4653521,0.7,-93.29938,-26.628714,0.0007969757,-11.857362,72.23187,72.79896,73.023926,73.24798,8.777966e-06,0.3,6.3367434,88.837906,88.78339,88.950615,88.8169,0.03690137,0.509375,5.879607677459717,49.781214427948
47,470000,4.424756942596099,-88.80046,0.03486408,0.42860562,-0.00017073714,0.3709571,1.0,0.6042585,14.818709,39.750378,25.162516,18.798298,92.65244,92.897224,92.88135,92.66183,1.4947392,0.7,-93.201775,-37.09037,0.0006405863,-8.537984,-13.1562395,-12.632811,-11.240154,-11.879707,5.955622e-06,0.3,6.1902905,88.26927,88.36882,88.14972,88.21229,0.030964376,0.440625,6.346123695373535,50.82695160706838
48,480000,4.11750285554928,-88.16971,0.035475,0.07473047,-0.00032231474,0.42850557,1.0,0.5961114,1.2061577,49.337307,26.320015,13.762321,92.5471,92.363945,93.146034,92.44455,33.103928,0.7,-93.13608,-34.471508,0.00012450875,-7.6683807,-0.9754025,-1.0564836,-1.4385374,-1.7335975,1.1804514e-06,0.3,6.1903563,87.62749,87.49095,87.71706,87.613976,0.1514566,0.41562498,6.437182903289795,51.870972228050235
49,490000,2.5076380327311587,-89.05476,0.035138905,1.0946329,-0.0005174793,0.39589348,1.0,0.646703,2.9394379,33.501286,40.3322,15.429369,92.45604,92.51502,93.34668,92.51241,0.46772063,0.7,-93.009186,-33.55901,0.00021280965,-3.6705434,-2.7204456,0.7810037,-2.5651922,-2.7139132,4.541944e-08,0.3,6.583996,88.467545,88.46972,88.58303,88.55272,0.024173407,0.44375,6.165637493133545,52.908439032236735
50,500000,4.263045612791242,-88.79666,0.034727793,0.56871486,-0.00037166997,0.37338534,1.0,0.7540487,2.4084663,37.819683,30.611336,15.394283,92.71882,92.5129,92.55622,92.317215,0.6874212,0.7,-92.94338,-39.067562,0.012927867,-5.9843936,-1.8966682,-2.1824446,-0.12520051,-0.39551812,1.466833e-09,0.3,6.226359,88.62402,88.27911,88.64144,88.583496,0.026701681,0.45468748,6.378941297531128,53.94819606145223
51,510000,4.726119737399562,-88.08273,0.035741735,-0.3458834,0.0001086425,0.36011592,1.0,0.53317344,2.2872124,37.059113,8.466555,16.885284,92.22524,92.580666,92.47247,92.24569,0.57202137,0.7,-93.03309,-33.801983,0.003979515,-14.8755665,-2.4566455,-1.8459874,-1.0535741,-0.87192863,2.4258159e-06,0.3,5.9324107,87.45696,87.65645,87.65717,87.55986,0.03174919,0.5078125,6.186564683914185,54.98751935164134
52,520000,7.39427537326427,-88.328064,0.035316616,-0.66618484,8.18098e-05,0.37323886,1.0,1.0504769,1.8081199,42.4,42.03237,16.97415,92.9969,92.33013,92.68292,92.49328,1.1040548,0.7,-92.84887,-35.99518,0.0014721375,-22.772285,-1.2080555,-1.6953971,-1.3107096,-1.0483993,6.712508e-08,0.3,6.080722,88.24104,87.66098,87.7257,87.84802,0.032549486,0.4921875,6.3780035972595215,56.029341741402945
53,530000,6.604781039563753,-89.401245,0.035629056,-1.0648117,-0.00048457386,0.37682572,1.0,0.4540245,-67.729805,77.577415,7.8896933,18.697971,93.07294,92.8206,93.5749,92.821915,2.525831,0.7,-93.42832,-38.226223,9.0993126e-05,-6.874021,67.82293,68.393616,68.110535,68.102554,4.754111e-07,0.3,6.10678,88.87685,88.84938,88.926186,88.81036,0.06477536,0.5328125,6.16506028175354,57.06689321200053
54,540000,5.73570712529,-88.22624,0.03524522,-0.032792598,-0.00037186444,0.3667638,1.0,0.5043224,2.4948685,32.56157,7.282416,15.13057,92.896416,92.42673,93.05859,92.71371,0.93166053,0.7,-93.07774,-32.696407,0.0018526232,-11.114568,-2.315168,-0.616122,-2.2182536,-2.029469,4.991307e-08,0.3,5.760281,87.89229,87.61423,87.81388,87.77065,0.03146769,0.453125,6.102488279342651,58.10492227872213
55,550000,5.5641833772498694,-89.51234,0.034777682,-0.06668011,-0.00022693277,0.35428354,1.0,0.4495177,-63.011658,25.01602,11.527521,16.103527,92.19575,92.30061,92.152855,92.3844,1.5962036,0.7,-92.67301,-27.84639,0.00029736204,-4.360002,61.785614,62.06115,62.332504,60.376694,4.3655746e-08,0.3,6.4883547,88.97475,88.94925,88.897896,88.91372,0.035060614,0.4578125,5.860940456390381,59.145782891909285
56,560000,7.554262179125207,-89.07724,0.03510618,-0.62719107,-0.00045929253,0.34664765,1.0,0.6407823,-68.85455,30.170519,9.767757,15.623564,92.67348,92.30724,92.28761,92.204796,0.27606735,0.7,-92.98718,-36.537136,0.00042182393,-3.752808,68.62253,67.58437,67.62703,67.66093,3.9934528e-07,0.3,6.1467314,88.58261,88.59436,88.80328,88.64105,0.017161315,0.47499996,5.903292179107666,60.18401015202205
57,570000,4.522806128397777,-89.04451,0.035387762,0.89631706,-0.00022984818,0.36403844,1.0,0.65113896,1.9455866,39.202778,15.342109,14.978798,92.3945,92.348495,92.57231,92.55371,0.28598166,0.7,-92.800064,-38.823025,0.0008073729,-9.015479,1.8055633,-0.34227526,-1.2043091,-1.4057268,2.3093891e-07,0.3,6.463477,88.626945,88.56056,88.532425,88.55859,0.024331054,0.496875,5.965417385101318,61.22338212331136
58,580000,4.308227549213258,-87.98999,0.034524288,-1.7036545,-0.0008908555,0.4536663,1.0,0.64270586,20.798584,43.87877,19.290102,16.561337,92.175896,92.10144,92.51454,92.36703,4.2315702,0.7,-92.81504,-43.24035,5.2193645e-05,-9.119119,-20.358252,-20.997114,-20.687725,-18.531794,3.0803496e-06,0.3,5.8845396,87.57489,87.29671,87.473465,87.521194,0.06423111,0.4203125,6.048719644546509,62.265473103523256
59,590000,3.5959369316152534,-87.49263,0.034243025,-0.058828436,-0.00019677576,0.38100377,1.0,0.45577952,1.7488928,49.36416,9.811766,15.177394,92.39964,92.21717,92.267456,92.32448,0.9616408,0.7,-93.08116,-42.74194,0.00027520512,-12.636532,-1.4161028,-1.7624071,-1.2133654,-1.2076173,7.888302e-08,0.3,5.687999,86.89875,86.94579,86.80666,86.84639,0.031319253,0.54375,6.033741474151611,63.30975181261699
60,600000,5.24530050476399,-88.59894,0.03520347,-0.8853543,-0.00065840076,0.41608486,1.0,0.7827064,2.2669046,56.22199,55.20086,15.742552,92.48144,92.34471,92.478,92.44007,2.962552,0.7,-93.01608,-44.069427,0.0028687671,-14.972486,-1.161221,-2.2174168,-1.8970623,-1.5037591,7.627707e-07,0.3,5.891515,88.003296,88.1405,88.14312,88.16159,0.05345895,0.434375,6.008793354034424,64.34843845367432
61,610000,4.465580124347643,-89.23804,0.034981564,0.83115876,-0.0007531613,0.37901574,1.0,0.5298103,-59.915695,93.71451,16.948019,17.468988,93.22937,92.658554,92.91504,92.63818,1.0259415,0.7,-93.59725,-26.368261,0.0002219152,-11.709626,49.534626,48.851173,50.326225,49.15299,2.3469328e-08,0.3,6.2569113,88.72901,88.56605,88.61549,88.66032,0.03810875,0.43124998,6.017167091369629,65.3871941169103
62,620000,5.628140017912342,-88.07101,0.03535596,0.61953825,0.0003253382,0.40591812,1.0,0.68341994,15.506428,51.25847,50.844337,14.967784,92.885056,92.315926,92.74019,92.354706,0.9697838,0.7,-93.12579,-36.993156,0.00046771497,-6.367132,-16.982487,-14.016237,-16.758007,-16.059084,7.1874815e-08,0.3,6.103427,87.812645,87.4501,87.600296,87.557465,0.033053197,0.4875,5.943410634994507,66.42619752486547
63,630000,5.829433085866873,-88.61218,0.035216235,0.3945751,-0.0004057847,0.37618342,1.0,0.52376235,1.9819076,37.57367,14.718353,15.425406,92.25253,93.36104,93.35574,92.84306,4.548153,0.7,-92.795525,-35.345863,0.0038208077,-8.251674,-1.1887968,-2.1819978,-0.8914365,-0.06218642,9.167707e-09,0.3,6.3563905,88.005135,88.29692,88.293976,88.16349,0.04665544,0.4328125,6.0340001583099365,67.4672342936198
64,640000,4.4947735841085565,-88.936295,0.034471896,0.4533425,-0.00067234976,0.33988163,1.0,0.7312572,-0.24237278,35.804592,32.33253,14.830398,92.26791,92.206856,92.54121,92.14119,0.9752074,0.7,-92.88062,-33.48594,0.0005775288,-4.64895,0.42127395,0.41363084,-0.44770354,-1.2112823,2.542918e-07,0.3,6.362847,88.45796,88.48345,88.53725,88.42115,0.030735563,0.5015625,6.117234468460083,68.50365682045619
65,650000,7.865837579498962,-89.37931,0.035162017,1.1281172,-0.00060896575,0.36066896,1.0,0.66539145,-68.384476,38.03373,30.158012,15.165943,92.76177,92.51366,92.54772,92.185646,1.5879415,0.7,-93.417984,-27.738083,0.00062881183,-8.044484,67.69544,66.46794,66.80308,66.7525,2.0186418e-08,0.3,6.618161,88.745346,88.81765,88.65407,88.62831,0.038062997,0.4765625,5.954643726348877,69.54176176389059
66,660000,5.016091462692689,-88.55657,0.034746956,0.3190977,-4.1816013e-05,0.37311703,1.0,0.76897794,2.797935,31.200413,58.850727,16.86183,92.65408,92.63588,92.64838,92.30922,10.8859005,0.7,-92.884705,-49.469624,0.0027394937,-6.95674,-1.5786601,-2.6805644,-0.79489714,-0.81474555,6.30389e-09,0.3,6.137356,88.20442,88.07991,88.2386,88.15548,0.07264629,0.43593746,5.870303392410278,70.57773046890894
67,670000,6.458499507853658,-87.87739,0.034580503,0.17687804,0.00040800124,0.39468154,1.0,0.85212517,2.0207987,33.618084,39.581608,15.754636,92.96163,92.67675,93.38777,92.969185,5.764339,0.7,-93.09996,-36.17422,0.0057459758,-8.526388,-1.5270375,-1.6368121,-1.171487,-1.642226,1.7881394e-08,0.3,6.055628,87.32824,87.44571,87.566315,87.51796,0.064986154,0.46875,5.857404470443726,71.61789644956589
68,680000,5.587903596711944,-88.4236,0.035467178,-0.80165595,-0.00037210976,0.3989019,1.0,0.64325285,2.2767365,34.235435,11.999132,14.534729,92.12835,92.22659,92.26868,92.18687,0.5526645,0.7,-92.835655,-40.559383,0.00033262302,-7.3653774,-1.7559903,-1.9428262,-1.4806129,-1.1655368,4.5781488e-07,0.3,6.219953,87.77164,87.9294,87.77191,87.83975,0.033284694,0.3640625,6.004897594451904,72.65888548692068
69,690000,4.966826289854823,-88.60472,0.03616132,0.70831394,0.0005230293,0.46573257,1.0,1.6049917,-55.55084,71.996445,157.02982,15.8549385,92.6503,92.39308,92.45496,91.99166,1.2450051,0.7,-92.73233,-37.94639,0.0017185705,-4.9858255,53.387222,54.071384,52.28881,52.326073,9.1574043e-07,0.3,6.34975,88.18989,87.95465,88.02012,87.96767,0.03494872,0.54218745,5.979862689971924,73.70218758980432
70,700000,3.3311007225950955,-88.700165,0.035554543,-0.21777016,-0.0006700212,0.32990262,1.0,0.5443077,2.4159927,35.029934,15.288328,14.7595005,92.190094,91.96797,92.16797,91.87956,1.7294747,0.7,-92.476555,-47.340187,5.460909e-05,-6.6757374,-1.6901808,-2.3938897,-1.1920773,-1.1252596,2.3469328e-08,0.3,6.2252336,88.3865,88.0719,88.1743,88.20676,0.043230265,0.4875,5.916465520858765,74.74362527529398
71,710000,5.322046776030445,-88.03252,0.0349316,-0.30016533,0.00027625263,0.40577736,1.0,0.5609671,1.6895756,34.85346,23.345104,16.879547,91.8895,92.06739,92.24777,92.05474,1.6007552,0.7,-92.583855,-41.627857,0.0007856387,-8.6039715,-1.6170442,-1.0884929,-1.3677058,-1.10722,5.5941523e-06,0.3,6.063667,87.51871,87.38969,87.450874,87.49725,0.03399828,0.41249996,5.9806602001190186,75.78679879903794
72,720000,4.617643875096676,-89.15695,0.034922317,-1.1885023,-0.000682731,0.35268137,1.0,0.85455465,-56.87094,28.884474,80.782875,14.033907,92.54923,92.78405,92.64854,92.51163,0.5386219,0.7,-92.978745,-32.096172,0.0008625912,-2.4483566,51.440258,53.319073,50.689766,53.238342,6.849295e-08,0.3,6.2873693,88.54306,88.68028,88.59621,88.68271,0.026629921,0.38124996,6.3150904178619385,76.83449740012487
73,730000,5.372124382914372,-88.005325,0.034995843,-0.53504544,-0.00011255518,0.3355298,1.0,0.6940042,0.64470816,30.100975,39.37683,15.189155,91.87489,92.1804,92.0273,91.91607,0.81357837,0.7,-92.51672,-34.206142,0.0035790624,-9.990509,-0.5055678,0.04525137,-0.9148405,-0.74545276,1.7968704e-08,0.3,6.431513,87.32451,87.6907,87.374084,87.40894,0.030417284,0.49843746,6.39757513999939,77.87426334222158
74,740000,6.84037782830557,-86.35468,0.03417482,-0.5952574,-0.0011978478,0.41262203,1.0,1.2177148,2.8252764,49.511223,68.35047,16.140856,91.98422,92.6198,92.152016,92.297806,6.102235,0.7,-92.69935,-39.09219,0.001582731,-15.602486,-7.8046346,-0.4957621,-1.1254061,-3.6025867,9.8225435e-08,0.3,5.814624,85.68224,86.17627,85.84651,85.93481,0.04976861,0.4296875,6.325475454330444,78.91376948356628
75,750000,6.287042951957068,-88.22356,0.03535168,-0.43423975,-0.00040909444,0.3598871,1.0,0.6254819,1.4298229,34.35992,33.93463,14.533346,92.12012,92.19279,92.38464,92.254906,0.38452014,0.7,-92.4671,-37.919975,0.0008228152,-6.3643208,-0.84499323,-1.0106643,-0.96455544,-0.89930063,6.640039e-07,0.3,6.1935024,87.59244,87.73051,87.787994,87.85418,0.035655394,0.3671875,6.41046404838562,79.95299900372824
76,760000,6.463683932779671,-88.683044,0.035378635,-0.23885405,-0.00033751279,0.38971922,1.0,0.5945395,1.8422363,45.033287,27.206581,17.926733,92.11473,92.15004,92.245964,91.63656,4.3877997,0.7,-93.23761,-46.00487,0.002397539,-16.145506,-1.2772411,-0.5116385,-1.686398,-2.4255843,2.3497269e-07,0.3,6.2758164,88.02998,88.281944,88.20865,88.0976,0.08148685,0.48125,6.135216236114502,80.989990568161
77,770000,7.186301609661151,-88.22365,0.03460329,-1.3069853,-0.00049532764,0.39379272,1.0,1.3295321,16.116438,38.968464,107.68198,17.339539,92.39636,92.34623,92.45188,92.53318,2.6139731,0.7,-93.05761,-35.803593,0.00013239612,-15.273715,-14.121035,-16.402061,-15.052053,-16.50768,3.168988e-06,0.3,5.935986,87.611664,87.849915,87.45786,87.583435,0.05273045,0.50312495,6.222543478012085,82.02955872615179
78,780000,6.2022297450823745,-87.56008,0.035056163,-0.07726273,0.00030213743,0.3680769,1.0,0.63658667,20.66306,51.257774,27.809942,15.87707,92.03108,92.34122,92.140015,92.08049,0.53686905,0.7,-92.38831,-36.13449,0.0014923955,-12.22248,-23.041895,-18.965433,-17.881071,-19.943956,1.0430813e-08,0.3,6.176983,86.95191,87.244064,87.20919,87.1308,0.020699242,0.4375,6.242024898529053,83.06335634787878
79,790000,5.259684230818353,-88.22925,0.034358047,-0.3027359,-0.000103504215,0.36402997,1.0,0.47479457,3.4578042,33.4803,10.678299,15.893961,92.32216,92.34255,92.3829,92.63893,0.77860886,0.7,-92.85572,-34.838146,0.00011490483,-15.678041,-4.3948793,-2.1979342,-1.3752702,-1.9829559,3.929017e-09,0.3,6.1492996,87.8385,87.635864,87.71566,87.73865,0.032464337,0.44374996,6.622852802276611,84.08396754264831
80,800000,4.546117890856186,-88.44826,0.03556208,-0.16941363,0.0007344395,0.41352692,1.0,0.6295264,21.778711,28.066357,24.149738,16.784016,92.19897,92.73525,92.77041,92.6315,5.659774,0.7,-92.48874,-38.708996,0.0004491309,-12.362207,-22.652596,-19.588072,-19.939188,-20.803705,3.0840164e-07,0.3,6.2603803,87.85007,87.924576,87.87216,87.846756,0.045694333,0.4609375,6.351886749267578,85.1141612847646
81,810000,4.138493386133048,-88.1038,0.034202848,-0.947451,0.00022548913,0.38725057,1.0,0.59360415,2.0249882,48.539757,16.951591,15.97212,92.08764,92.095314,92.05524,92.018875,1.2386394,0.7,-92.660965,-36.787666,0.00017314852,-6.766591,-1.0099574,-1.6961598,-0.9960437,-1.312361,1.3302081e-06,0.3,6.103757,87.4995,87.593254,87.54632,87.66733,0.03936633,0.4203125,6.364123344421387,86.16761930386225
82,820000,4.560630275576786,-88.2713,0.03373358,1.25719,-0.00066947885,0.3866314,1.0,0.65986586,1.0283443,33.880474,29.47711,16.278515,92.42759,92.915695,92.69846,92.43676,6.9927073,0.7,-93.27588,-35.002045,0.00023326726,-14.379496,-0.6663475,-0.29297197,-2.2276566,-2.6507502,1.4144462e-09,0.3,6.0503263,87.61594,87.71841,87.639175,87.66614,0.062437482,0.4546875,6.422884941101074,87.21997003157934
83,830000,8.103573392778562,-87.9342,0.03456649,0.92204237,0.00039972513,0.36839342,1.0,0.74181736,2.0858493,31.191492,22.343353,15.197398,92.09597,92.20626,92.08375,91.947136,0.99948496,0.7,-92.720764,-36.92294,0.00015625224,-12.632507,-1.887822,-1.5852042,-0.15160184,-0.3296479,3.4226106e-09,0.3,6.103093,87.34918,87.40823,87.30682,87.29845,0.035514936,0.515625,6.474685907363892,88.27217096885046
84,840000,8.255318398447702,-87.94579,0.03423611,-1.3002188,-0.00025793686,0.3884449,1.0,0.89962685,1.0904099,30.603308,88.958534,15.954222,91.80497,92.41943,92.49143,92.044205,0.5828536,0.7,-92.59063,-36.50955,0.00086356443,-7.609849,-1.0940464,0.3923297,-0.552213,-0.4762324,1.6430278e-07,0.3,5.8814535,87.38867,87.75885,87.65532,87.67838,0.025191842,0.43124998,6.628099679946899,89.330441904068
85,850000,5.92200953006923,-89.19876,0.035354342,0.22271109,0.00042068362,0.3823231,1.0,0.6526857,-65.69517,58.11389,19.442728,14.900063,92.3708,92.199425,92.17077,91.98582,1.6688678,0.7,-92.6224,-32.631115,0.0005477374,-12.92624,64.35313,62.660908,61.597893,63.41455,2.542918e-07,0.3,5.907916,88.68213,88.58792,88.48935,88.54961,0.038172536,0.503125,6.476728439331055,90.3857300321261
86,860000,10.222685463245181,-88.494156,0.03521232,-0.3771652,-0.00052949955,0.34306383,1.0,0.5756896,1.0551025,29.067638,28.862316,15.638786,92.03643,92.28095,92.251305,92.22893,0.50785375,0.7,-92.76674,-33.99672,0.0006657258,-4.150127,0.14274287,-0.95532,-0.38508472,-0.46554947,3.1355304e-07,0.3,6.179693,87.91926,87.992584,87.897766,88.01669,0.031503085,0.4140625,6.335826873779297,91.43821280797323
87,870000,8.511670595041528,-88.59431,0.03472007,-0.028484643,-0.00021959991,0.38743544,1.0,0.38899013,1.0889838,69.37873,7.583533,22.0173,92.085335,92.02855,92.27738,92.115906,1.5891898,0.7,-92.43294,-35.246937,0.000541989,-7.682502,-0.27753294,-0.5026834,-0.46777818,-0.41053915,2.9059012e-07,0.3,6.363043,88.026,87.9182,88.005005,88.129486,0.042072017,0.3734375,6.288680076599121,92.48859498898189
88,880000,7.431915354166761,-87.09262,0.034666676,-0.81945145,-0.00014050379,0.44076428,1.0,0.6853548,25.010675,37.458897,16.705584,16.599669,91.534065,92.05139,92.00118,91.69299,3.6835606,0.7,-92.13067,-38.739933,0.00021077343,-16.74472,-25.349737,-27.963139,-26.407639,-24.666157,1.5759724e-07,0.3,6.1950293,86.46684,86.49213,86.53859,86.53593,0.062519856,0.4875,6.11526346206665,93.53728847106298
89,890000,6.898580105902494,-88.174805,0.03445378,-0.53565466,0.00015155897,0.35961342,1.0,0.8015486,0.42650855,29.458193,13.287767,17.728226,92.04131,92.52279,92.33682,91.96304,2.1516976,0.7,-92.871735,-41.202168,0.00045075512,-10.144221,0.21674263,-0.16478777,-0.2672618,-0.16951144,2.673303e-07,0.3,6.206563,87.49518,87.839264,87.35979,87.449875,0.04408191,0.46406248,5.72153377532959,94.5754166841507
90,900000,4.327479192374046,-88.71629,0.03430829,-0.4687865,-0.0006928742,0.37300587,1.0,0.62511736,19.475735,32.4343,32.14029,14.094015,91.69441,92.23251,92.28701,91.86097,10.5827875,0.7,-92.42898,-37.338966,0.00026782748,-5.7702785,-18.328167,-18.99522,-19.599667,-21.510117,3.4716797e-07,0.3,6.2036276,88.0867,88.33888,88.146515,88.11035,0.07268265,0.48749998,5.682845592498779,95.60789550940196
91,910000,5.3960716642748165,-88.255356,0.034403123,-1.2387588,-0.00038385895,0.36944738,1.0,0.603461,-0.50987923,27.228174,18.814442,14.209171,91.466896,92.0846,91.80369,91.81503,0.43015411,0.7,-92.04575,-38.417713,0.00032292685,-7.259464,0.392282,0.21971738,-0.055339772,-0.21483362,5.2262914e-07,0.3,6.2377334,87.64813,87.83911,87.79196,87.846436,0.025214821,0.39999998,5.666754484176636,96.63528322378794
92,920000,7.220544717378479,-87.62181,0.034412485,0.23508993,-0.00021589361,0.42579708,1.0,1.2324406,1.1966982,37.25094,118.32907,15.127777,91.747986,92.20898,92.50199,92.16677,2.1188314,0.7,-92.674576,-36.734745,0.00027292338,-19.706478,-0.6387291,-0.38294458,1.3339034,1.370785,3.4226105e-07,0.3,6.3202524,86.999084,87.124756,87.0484,87.0798,0.042683408,0.45624998,5.685925722122192,97.66858387390772
93,930000,6.318911227082789,-88.66478,0.03384139,0.9705851,0.00018799082,0.35494938,1.0,0.71391875,22.749102,36.04859,81.92659,16.294697,92.29166,92.04324,92.08219,91.79855,1.4025091,0.7,-92.513725,-33.472874,9.2974224e-05,-17.169231,-23.659218,-22.218246,-21.760384,-22.850216,2.4728362e-07,0.3,6.0202923,88.124565,88.0348,87.88888,87.934265,0.02646058,0.49375,5.604104042053223,98.69952914714813
94,940000,4.115907783359645,-88.844955,0.03454218,-0.62475646,-0.0004589811,0.37363586,1.0,0.92436326,-62.0132,60.579,121.486374,14.8580475,92.52525,92.58746,92.41358,92.64809,1.123309,0.7,-92.98357,-36.09626,0.000308892,-12.231865,53.633205,53.78215,52.99607,55.20707,1.174165e-07,0.3,6.087265,88.2054,88.43211,88.27768,88.419876,0.032875124,0.3984375,5.622835874557495,99.72766469319662
95,950000,6.301884202940765,-87.11685,0.034504894,-0.97675765,-0.0006366274,0.4042804,1.0,0.7789554,1.1466054,31.902475,32.622284,16.090368,91.929245,92.009415,92.30818,91.66002,0.83303344,0.7,-92.558525,-36.159317,0.0007368012,-13.276831,-0.95030046,-0.79325104,0.74146473,0.6326983,3.9815788e-07,0.3,5.9670744,86.609375,86.45402,86.62981,86.60765,0.040362895,0.38593748,5.624372482299805,100.76036158800125
96,955000,6.620880739742302,-88.36984,0.03380396,-0.28917027,0.00010671169,0.36995068,1.0,0.4489243,15.889736,29.89754,11.581454,16.970888,91.87148,92.54041,91.996414,91.993416,0.6638118,0.7,-92.51954,-34.493935,0.0040055728,-12.406515,-17.028627,-17.317776,-16.33358,-16.972889,1.5161349e-07,0.3,6.326625,87.71958,87.95303,87.8576,87.807495,0.026984323,0.47968748,5.60073709487915,101.32330116033555
97,960000,8.492215613808987,-86.50986,0.03414079,-1.1570812,0.00023675524,0.45269805,1.0,1.6303505,16.622147,31.506327,164.08969,14.236355,91.933426,92.018196,92.35578,91.98004,1.2635585,0.7,-92.49099,-39.61371,0.0011752334,-11.798288,-11.674135,-16.13996,-16.083261,-15.789862,2.5558098e-05,0.3,5.4876313,85.94205,85.91588,86.037094,86.021484,0.048932727,0.38437498,5.591562509536743,101.8819524804751
98,965000,7.042431193918652,-88.07309,0.034947474,-0.29029837,-7.843785e-05,0.3718934,1.0,0.5343653,2.5094056,26.04623,12.696843,15.241604,92.19026,92.49142,92.91919,92.54066,1.3684164,0.7,-92.84711,-34.860676,0.0006793831,-8.531031,-1.6410618,-2.00701,-0.19782877,-0.17104805,2.673303e-07,0.3,6.382695,87.71503,87.44789,87.56787,87.53461,0.038669128,0.4453125,5.520878314971924,102.44217300017675
99,970000,6.581468678100884,-88.150475,0.03398007,1.237607,-0.0002117455,0.41671467,1.0,0.6926453,16.283056,35.336597,22.348206,16.035707,91.78856,92.249054,92.35665,91.92834,0.91701514,0.7,-92.3907,-34.718754,5.3778407e-05,-7.307371,-16.369078,-17.332237,-18.620438,-18.860104,3.7222637e-07,0.3,6.2080226,87.55284,87.5435,87.44032,87.50006,0.03469245,0.43124998,5.60131049156189,103.00285245974858
100,975000,5.383736470883428,-89.004974,0.033826888,0.29932213,-0.00037494005,0.41353226,1.0,0.7630347,-68.31634,58.84343,27.237392,15.930085,92.19064,91.61752,92.11207,92.153145,0.82241124,0.7,-92.7398,-51.21229,0.00083201105,-7.0411444,66.90891,66.32926,66.683395,67.00389,1.4144462e-09,0.3,6.376819,88.62496,88.318375,88.48573,88.504364,0.03088358,0.43124998,5.518523216247559,103.56264717181524
101,980000,4.413954371761884,-87.5741,0.03402985,-0.54334795,3.9165094e-05,0.40264845,1.0,0.6412581,3.603988,33.62239,32.214283,15.595177,91.936165,92.252686,92.1663,92.03125,2.6582773,0.7,-93.2447,-43.47746,0.0002474595,-8.747458,-3.4043357,-3.05601,-2.2669053,-2.163811,5.1660464e-07,0.3,6.2637258,87.01181,86.97639,86.983025,86.95941,0.045665435,0.49218747,5.734848499298096,104.12748669783274
102,985000,6.43406496173629,-88.51625,0.03397989,0.6088693,-0.00012209751,0.38715622,1.0,1.0907614,3.0411255,27.929628,129.97058,15.045176,91.67511,91.66623,91.93595,91.634476,2.5585184,0.7,-92.25702,-33.359287,0.00068727846,-5.227334,-2.9476461,-2.4729245,-2.3201332,-1.9001588,1.4144462e-09,0.3,6.2453375,87.904305,88.0069,87.99325,87.96289,0.037709244,0.4828125,5.7656636238098145,104.68819450139999
103,990000,5.205719906754414,-88.52599,0.033431936,0.61972344,-0.00052838476,0.43445435,1.0,0.9453526,1.293383,35.911243,48.603806,14.977523,91.64223,91.897995,92.10292,91.62248,0.51248896,0.7,-92.335724,-34.92921,0.0012787387,-9.762287,-0.9682045,-0.8621068,-1.9704099,-1.7456338,4.4641024e-06,0.3,5.918718,87.94799,87.993286,88.038345,87.93564,0.0295894,0.465625,5.567176103591919,105.25189020236333
104,995000,6.774085691471026,-88.2348,0.034672115,0.20325732,-0.00016100743,0.34932634,1.0,0.5309385,1.8312938,43.266216,21.243458,16.394352,91.9715,91.88018,92.10409,91.822464,0.68729424,0.7,-92.70786,-35.837837,0.0014097535,-10.542918,-1.6616244,-0.99516237,-1.4640899,-0.87589765,5.2823456e-08,0.3,5.8049726,87.751175,87.69959,87.803955,87.723816,0.025177935,0.47031248,5.662174463272095,105.81588597297669
105,1000000,5.968272185686547,-88.84305,0.035436384,-0.3824792,-0.00070806,0.36056978,1.0,0.6856371,-52.70708,28.008772,16.565044,16.126987,91.79139,91.751274,92.275345,91.903824,0.6422759,0.7,-92.465775,-36.12798,0.00020406488,-10.5566635,52.842,50.8251,49.252293,52.393543,9.2375565e-09,0.3,6.0489855,88.264755,88.30043,88.39264,88.36635,0.03743668,0.40156248,5.6056435108184814,106.37949936389923
