Xixo99/comfo/baselines/comfo6_perterbation_actor/20230225_noise0.01/halfcheetah-medium-v2/COMFO6_s1_20230224_173233_halfcheetah-medium-v2_55.86.csv
,step,reward,actor_loss,alpha,alpha_loss,critic_loss,max_actor_loss,max_alpha_loss,max_critic_loss,max_mle_prob,max_q1,max_q2,max_target_q,max_v,max_value_loss,max_weight,min_actor_loss,min_alpha_loss,min_critic_loss,min_mle_prob,min_q1,min_q2,min_target_q,min_v,min_value_loss,min_weight,mle_prob,q1,q2,target_q,v,value_loss,weight,eval_time,time
0,0,2.2541077255375264,,,,,,,,,,,,,,,,,,,,,,,,,,,,,,,,,
1,10000,-1.5131428804490716,-36.49768,0.09229188,-1.8192879,0.9311505,-2.1944642,24.80913,8.022754,12.52903,43.92884,43.883106,43.909355,42.88263,2.4214032,0.7,-44.149117,-27.494669,0.00077060144,-13.589577,-0.1355755,1.1116148,2.3913078,1.7007881,1.446053e-07,0.3,3.3316865,35.87248,35.909477,35.974854,35.363945,0.12350596,0.42343748,5.916390419006348,2.1912194728851317
2,20000,-1.4850717706980245,-58.160946,0.10995188,-0.3484309,2.0353522,1.3827996,20.684666,42.314125,12.468356,69.30371,69.49374,69.47903,69.01193,2.7050202,0.7,-69.27284,-24.013828,0.0007252521,-13.581568,-0.12807643,-1.7090154,-1.1439328,-1.1521025,2.0557054e-07,0.3,2.1899893,57.467613,57.45894,57.770573,57.330944,0.18589759,0.434375,5.703204154968262,2.8816301862398785
3,30000,-3.529268239948831,-71.956436,0.101861514,-0.52255315,2.1542978,-15.5506115,22.137524,107.24431,13.755845,82.645386,82.30307,82.420876,82.0749,4.0289164,0.7,-83.79061,-25.424015,0.0023074532,-14.669169,11.846855,11.860436,11.459905,11.070244,1.11758716e-07,0.3,2.7625573,71.25444,71.25003,71.21611,71.15755,0.20455852,0.4421875,6.050370216369629,3.5740931669871014
4,40000,-1.7614887547235885,-79.26761,0.08846329,0.5022845,2.1260364,3.0197027,34.612465,132.43443,12.653732,88.64352,88.66671,88.36931,89.44165,2.6908631,0.7,-90.289925,-24.710447,0.00016224536,-11.143486,-2.7696857,-2.1975927,-4.2096677,-4.877936,2.6018126e-06,0.3,3.2853386,78.49831,78.5238,78.42223,78.211655,0.18531474,0.5171875,5.520512342453003,4.25838045279185
5,50000,-1.750306599239383,-83.84147,0.07886177,-0.1734589,1.8536655,5.1753592,31.804878,84.652596,14.688254,95.11942,94.24365,94.06226,93.60166,4.798572,0.7,-94.33816,-28.862339,1.9462896e-05,-12.3629055,-4.026185,-6.7329063,-2.5893555,-3.00662,4.8409566e-07,0.3,4.2234097,83.27823,83.224174,83.434395,83.111206,0.16567323,0.5046875,5.6716601848602295,4.944687672456106
6,60000,0.4779229904693914,-86.742744,0.0689869,0.024987042,1.9482327,6.5527415,26.817537,69.87764,13.934731,94.76952,94.284584,94.54783,94.28061,2.398197,0.7,-95.95746,-28.565533,0.0005276487,-10.155231,-6.9058447,-5.890294,-5.6018457,-7.7908645,6.712508e-08,0.3,4.3489485,86.25545,86.20378,86.013985,85.98457,0.09213683,0.47187498,5.913676977157593,5.634794243176779
7,70000,1.036429985684737,-88.23973,0.06057315,-0.2515201,1.3921299,-65.26976,30.345123,36.537605,15.099412,96.78655,96.65617,95.62001,96.60609,1.5290375,0.7,-97.45727,-33.041214,0.00025996618,-6.2572165,65.62339,65.921684,66.14292,66.678474,7.0856595e-06,0.3,5.00879,87.72977,87.71451,87.770966,87.621315,0.1140346,0.4859375,5.871734857559204,6.326884702841441
8,80000,1.3938024392961859,-88.66824,0.054028798,0.44408548,1.4631171,4.8512354,37.61405,82.36612,15.741135,95.38059,95.108734,96.71477,94.66073,0.9972698,0.7,-95.505684,-30.400099,0.0013587116,-6.842104,-5.4322815,-5.222969,-5.333787,-6.0198746,1.0086224e-07,0.3,5.1831565,88.25328,88.143326,88.23991,88.11234,0.08155316,0.48749998,5.828824520111084,7.018759532769521
9,90000,7.642575162990638,-88.76647,0.05006963,0.7747019,2.024792,1.9665091,31.025877,218.32858,13.938937,96.58286,96.31895,96.166695,96.03921,2.541349,0.7,-96.98662,-26.814598,0.0009198198,-10.032963,-1.6506796,-1.7440562,-2.3884149,-1.9338024,1.0913936e-08,0.3,5.8084517,88.33125,88.2377,88.15637,88.3,0.111571655,0.4375,5.792839050292969,7.710212934017181
10,100000,4.862845601867984,-89.65128,0.048149217,-0.45116207,0.9066851,3.8027668,29.1529,39.787655,15.363977,96.651924,96.82527,96.590614,96.4253,1.1147448,0.7,-97.142265,-35.94701,0.00084574195,-7.7482605,-4.3938,-3.6118097,-8.445884,-3.3375468,4.710164e-08,0.3,5.6810207,89.13821,89.14404,89.120605,89.11961,0.077448696,0.4984375,6.187901496887207,8.402504825592041
11,110000,8.814647365173817,-88.30317,0.046650782,-1.6462915,2.0261412,1.5992098,27.87655,34.518227,15.170836,95.5119,95.78258,95.46354,95.25991,1.792566,0.7,-96.024506,-35.634056,0.0029494476,-8.901215,-0.9507704,-0.5489823,-3.147605,-2.2837353,2.7723146e-07,0.3,5.065443,87.78195,87.89358,87.34258,87.47814,0.0858051,0.47031248,5.618762493133545,9.091849839687347
12,120000,41.20747555540692,-88.84541,0.04486101,0.063353926,1.0465368,-0.8833123,28.10813,46.70335,15.7783985,97.15196,97.80605,98.39636,97.241356,1.1056801,0.7,-97.94838,-32.936447,0.0012811387,-11.654144,0.9620583,2.3528705,-1.4829924,-0.50255054,5.760416e-06,0.3,5.4432206,88.307304,88.36226,88.33354,88.39631,0.07586868,0.428125,5.577200889587402,9.776738782723745
13,130000,50.74988033602419,-89.76293,0.045091923,0.13661537,1.2621143,-66.50027,41.038555,33.979095,19.586258,96.1491,96.14374,95.934166,96.33373,3.5510929,0.7,-96.68296,-33.39722,6.867974e-05,-4.5422454,66.12986,64.06155,66.94172,63.936848,1.6565435e-06,0.3,5.9747705,89.290405,89.22455,89.18323,89.43482,0.096873775,0.3953125,5.556642293930054,10.463081041971842
14,140000,50.9173847080467,-88.89551,0.043980762,0.15270543,1.1495993,-0.033032775,32.63966,49.28347,16.933346,97.03581,96.74056,96.37385,96.36567,2.1999655,0.7,-97.09671,-35.339268,0.0001247577,-8.40189,0.27990043,-0.26590598,-0.8804189,0.6074033,1.418346e-07,0.3,5.4595513,88.33614,88.383835,88.291824,88.51065,0.09026759,0.434375,5.660406589508057,11.154213694731395
15,150000,51.46050828181591,-89.204666,0.043328088,0.11448163,1.6585636,-0.10525215,33.2841,38.22857,15.068109,95.14805,94.70829,95.96181,95.593765,1.8187041,0.7,-95.65935,-43.600746,0.0020207143,-8.836214,0.004262686,-0.6584359,-0.34674007,0.19432306,1.710764e-06,0.3,5.6242266,88.7397,88.68082,89.2816,88.927986,0.087608315,0.525,5.600875377655029,11.84332886536916
16,160000,52.316339498631415,-89.46152,0.043144684,0.43719548,1.1841586,0.94535047,40.055336,46.949066,18.09239,96.37372,96.46289,96.443085,96.484856,1.317131,0.7,-96.893105,-38.51846,0.0020621587,-14.136653,-0.3977036,-0.20507175,-2.3328087,0.43804753,7.9970346e-07,0.3,6.107993,88.93768,88.95984,89.12028,89.10847,0.07077417,0.4453125,5.542852401733398,12.527739902337393
17,170000,53.106017935136244,-90.11729,0.043742064,0.7981484,0.8701378,-0.7878772,27.63297,16.339617,15.173005,97.6081,97.354225,97.6305,97.464264,1.2787035,0.7,-97.761375,-37.237362,0.001223068,-6.0711083,0.6839727,0.37093288,-0.50911176,-0.46060044,1.0380307e-05,0.3,5.8296475,89.620026,89.5844,89.66495,89.57094,0.074752964,0.50625,5.672922611236572,13.219750634829204
18,180000,52.49954197518982,-88.29964,0.042307958,0.06642145,1.0073706,-0.016358554,22.418978,31.313654,15.660545,95.84881,95.783676,97.03855,96.00661,1.0796993,0.7,-96.460915,-33.66497,0.0013188147,-11.296524,0.17824918,-0.20850646,-2.633768,-0.94881755,8.840289e-07,0.3,5.5289865,87.779106,87.75145,87.8024,87.70639,0.085796885,0.5109375,5.560648202896118,13.906977379322052
19,190000,51.183452143491714,-89.992645,0.042083517,0.37799674,1.3127539,-5.291678,60.333363,51.879395,15.173178,97.170456,97.09509,97.64719,96.98888,2.7611706,0.7,-98.00161,-36.109737,0.0007973442,-8.909932,4.008913,4.1731157,3.09409,1.5480843,3.0840164e-07,0.3,5.9527764,89.3867,89.40444,89.628105,89.41084,0.089199506,0.49531248,5.6030402183532715,14.593359915415446
20,200000,53.54246778540022,-89.27258,0.040813405,-0.6801204,0.91829276,0.91255283,24.573174,56.514397,15.197488,96.48171,96.05868,96.20248,95.72483,1.1583496,0.7,-96.38321,-38.756775,0.00058837637,-12.311765,-0.621481,-0.5114468,1.0165794,0.30463564,2.3102986e-05,0.3,5.826913,88.725746,88.78836,88.72776,88.68593,0.071511365,0.48125,5.691831350326538,15.279692510763804
21,210000,54.39788311833188,-89.67135,0.04182027,0.5784201,1.4989877,-0.40325904,29.956926,33.863155,15.32083,96.95944,97.055695,97.4783,97.1348,1.4044627,0.7,-98.11295,-34.291496,0.0023617903,-10.121298,1.8131686,0.6760357,0.29247862,1.5080941,3.3807012e-08,0.3,5.941558,89.107025,89.090775,89.41608,89.41796,0.082468584,0.4203125,5.533835172653198,15.964677786827087
22,220000,53.82252373030975,-89.92679,0.04103261,-0.055641517,0.87717617,1.9254544,29.804346,22.184645,14.236318,96.74013,96.798996,96.954506,96.61983,1.7304639,0.7,-97.605415,-34.452084,1.4221587e-05,-7.510335,-1.9478683,-1.3569168,-2.1077087,-1.4607936,1.7462299e-11,0.3,5.8301754,89.35625,89.48082,89.306015,89.384254,0.07876472,0.4375,5.586682081222534,16.65693259636561
23,230000,49.69336277515672,-90.740814,0.041763328,0.6549467,1.9535263,2.0590305,30.206865,125.12578,15.629553,97.55416,97.43827,97.50254,97.49322,13.51162,0.7,-98.166176,-28.965801,0.0017202355,-8.962328,-1.9202819,-4.035057,-4.6559854,-3.1239133,9.027328e-06,0.3,6.1131754,90.11844,90.10186,89.61668,89.997604,0.19419572,0.403125,5.7370147705078125,17.35162345170975
24,240000,53.731338589888836,-89.44861,0.04021889,0.8720779,1.247521,-2.698438,37.315716,84.09769,13.598343,97.19288,97.69228,97.64442,97.151215,1.1020972,0.7,-98.49077,-37.822388,0.0021916372,-8.042769,3.8101385,3.320528,2.8118527,3.2538586,8.5287616e-07,0.3,5.9711437,88.928925,88.98986,88.90082,88.79121,0.08041651,0.5140625,5.665946960449219,18.043008732795716
25,250000,54.50044197440689,-89.946686,0.040649157,0.42849392,1.2878945,-53.796787,28.109982,31.607239,13.839983,95.644936,95.52696,95.90077,95.547,5.9883204,0.7,-96.21836,-26.444227,0.00027453643,-4.9063,45.73296,49.07867,46.303967,47.833263,2.552431e-05,0.3,5.209194,89.31335,89.357574,89.33098,89.38612,0.13633782,0.421875,5.535025119781494,18.731046720345816
26,260000,53.76051906083443,-88.99483,0.039678164,-0.39881986,0.97981143,1.7698071,23.745867,18.697994,14.72757,98.012375,98.165535,98.053925,97.85883,2.9793634,0.7,-98.13524,-39.5488,9.492796e-06,-6.464409,-0.54589105,-1.2331321,0.97565365,0.19734293,3.3545006e-05,0.3,5.466077,88.36496,88.391655,88.47427,88.51685,0.10867048,0.41562498,5.493123769760132,19.421040308475494
27,270000,52.97216281214757,-90.27908,0.040323615,2.11749,1.0047007,-0.20247787,35.803078,39.61239,14.895481,97.04477,96.88787,97.29867,96.901054,0.8674639,0.7,-97.9409,-28.687824,0.00047345558,-9.85387,-0.5863793,1.5268414,1.1720598,1.3534647,1.0300835e-06,0.3,5.7350855,89.75878,89.76767,89.89595,89.8678,0.08192028,0.36093748,5.588547945022583,20.107541656494142
28,280000,53.76040879106703,-90.250305,0.039938543,-0.9581392,0.72210455,-0.9395766,26.211672,8.909806,15.277058,97.05575,96.53088,97.577065,97.25573,1.1157154,0.7,-96.95524,-31.72743,0.0027947791,-7.387538,0.8385375,1.2640636,1.4994032,-0.32674313,1.6770792e-07,0.3,5.6577406,89.733185,89.71443,89.91005,89.86996,0.073927045,0.44375,5.424115180969238,20.79632734855016
29,290000,52.92189326964134,-88.76747,0.03964401,0.83143806,1.2785399,-0.8488616,35.72002,122.90703,18.03948,96.35899,96.30871,97.290535,96.51126,2.7930682,0.7,-96.44994,-36.60982,0.0013489393,-14.029218,1.1359413,0.9223773,0.6133126,0.33767742,5.9148997e-06,0.3,5.7407966,88.27356,88.10274,88.18261,88.17113,0.08263089,0.41406247,5.526890277862549,21.486226685841878
30,300000,54.129433231398636,-90.11046,0.03976113,0.019202054,1.0186031,-1.9187582,31.170004,60.028954,17.828247,98.09473,97.80906,97.86472,97.53986,6.573121,0.7,-97.94943,-39.457756,0.0013546685,-7.0475492,3.5516438,2.384715,1.1914274,2.5817766,1.6565435e-06,0.3,5.4949636,89.54238,89.462456,89.45672,89.44952,0.14208508,0.4734375,5.572407484054565,22.174624967575074
31,310000,53.97036647592813,-89.51749,0.039539065,-0.43601465,2.6100364,-1.0137794,35.544155,409.15314,15.864763,96.86472,96.33664,96.29534,96.71011,2.9165845,0.7,-97.36118,-33.697014,0.00024780683,-8.277549,1.3668212,1.4366143,2.5834033,2.98471,9.544846e-06,0.3,5.4681654,88.91779,88.951324,88.84812,89.12952,0.08533,0.4078125,5.651753187179565,22.865798544883727
32,320000,54.66166075069274,-90.17404,0.03734617,0.1709512,1.4491441,-3.051686,45.54729,82.83965,22.016224,96.589195,96.72918,97.40622,96.67485,1.6508577,0.7,-97.45724,-39.393936,0.0004478172,-11.364986,3.5614626,2.9973047,3.083689,4.1001415,1.3690443e-08,0.3,6.150087,89.68491,89.60039,89.74428,89.89116,0.08717753,0.43281248,5.5206685066223145,23.555981675783794
33,330000,52.82273066874723,-90.43325,0.03872205,0.44101402,0.7552759,-0.26837346,33.86828,12.313904,14.385408,97.68228,97.79986,97.73502,97.11458,1.3051497,0.7,-98.30836,-35.330254,0.0007509871,-5.50988,0.6227108,1.5178881,2.3158484,2.452709,3.5361154e-08,0.3,6.123337,89.88719,89.87491,89.787476,89.74315,0.07374862,0.4578125,5.565365552902222,24.244268532594045
34,340000,53.99633965948399,-90.682465,0.038886942,0.8156517,0.72625446,-67.46545,32.742058,10.57881,14.46139,97.05408,96.99018,96.9254,96.82465,1.4596801,0.7,-97.77863,-33.708782,0.0005046637,-5.9765234,67.31941,67.755196,67.70248,67.73934,7.647497e-07,0.3,5.850341,90.12488,90.03552,90.1941,90.303986,0.08487484,0.43124998,5.483272075653076,24.93398891290029
35,350000,55.11851925393978,-90.48866,0.038242567,0.64315224,1.1094811,-2.6525686,36.39997,25.560886,14.998306,98.28511,98.03941,97.8132,97.9056,0.87550217,0.7,-98.4728,-31.817745,0.0005484596,-11.329983,3.1450317,2.476162,4.0449553,4.579994,1.6244304e-06,0.3,5.497962,89.90036,89.9017,89.59735,89.61298,0.08032638,0.4875,5.600575685501099,25.625398286183675
36,360000,54.11134527075527,-90.61292,0.038405217,0.66068804,1.0513525,-3.6574125,34.259693,26.191174,22.248383,96.7592,96.751465,97.34705,96.9892,1.9783533,0.7,-97.40684,-37.821156,0.0033423495,-12.797115,3.6439445,3.6797137,3.3014617,3.5922804,6.9849193e-07,0.3,6.0302324,90.024345,89.99585,90.00099,90.04198,0.10173609,0.4171875,5.58344578742981,26.314926008383434
37,370000,50.74519468492979,-89.74344,0.036877938,0.88222075,1.4921894,-3.0464168,57.413536,72.99228,14.079664,98.203636,98.40186,97.37071,98.04263,10.858691,0.7,-99.043976,-38.780304,7.2748517e-06,-9.945777,3.5812876,3.2370775,2.1824648,2.678862,1.7462298e-07,0.3,5.580228,89.067184,89.14789,88.825195,89.11794,0.17351191,0.41562498,5.583181619644165,27.003438663482665
38,380000,55.687399337480194,-89.83786,0.03817619,-1.3671468,1.2197232,-2.2473636,30.865559,49.707184,14.942652,95.915474,95.72657,95.91917,95.495155,4.0620975,0.7,-96.79506,-45.042133,0.0010585452,-9.731414,3.154307,2.8611856,3.0298414,2.1482298,2.231216e-07,0.3,5.4686794,89.19162,89.25704,89.242226,89.1612,0.1417723,0.4875,5.675274848937988,27.697179583708444
39,390000,53.781218923047106,-90.89438,0.038042262,-0.49522763,0.6661842,-68.00237,34.162464,21.698275,14.893606,97.36918,97.043785,97.11997,96.74785,3.8910792,0.7,-97.332504,-42.693794,0.00018719817,-5.201833,67.62066,67.26147,66.9629,67.81903,1.561147e-06,0.3,5.776244,90.30619,90.25844,90.293365,90.3371,0.10491291,0.4171875,5.557270526885986,28.382097605864207
40,400000,54.24763075205825,-90.17603,0.037752744,0.86586785,0.87446666,-3.4317853,33.191307,13.909718,16.777225,96.67007,96.798096,96.87866,96.58636,2.3467765,0.7,-96.88089,-32.542217,0.0017827442,-9.364894,3.1571574,2.3912582,2.9053667,2.0098171,3.5240663e-07,0.3,5.325044,89.53173,89.54244,89.68866,89.55818,0.11461231,0.5015625,5.405522108078003,29.068439678351083
41,410000,55.3416396599412,-89.99986,0.037647847,-0.35234594,0.904397,-67.60031,26.31126,28.253597,17.202513,95.935585,95.66797,96.43053,96.05065,4.8468976,0.7,-96.61498,-34.532097,0.004064488,-7.935116,66.93195,66.98804,66.37615,67.97269,2.5465852e-08,0.3,6.0049534,89.43637,89.40529,89.60835,89.70401,0.115342796,0.40781248,5.536272764205933,29.75561324755351
42,420000,53.78313918093676,-89.74063,0.036661167,0.8794329,1.1438775,-1.1576751,56.78529,50.39366,16.97805,96.48485,96.701515,96.41252,96.373535,24.788778,0.7,-97.37343,-37.662167,8.841569e-05,-7.8997536,1.4380171,1.9992666,2.7662427,3.1651843,2.7939679e-08,0.3,6.2699676,89.257256,89.15214,89.352036,89.19783,0.19230068,0.46875,5.568368673324585,30.445135144392648
43,430000,55.30003972137371,-88.77929,0.038377993,-0.22781026,1.9298925,-2.8847368,37.444645,150.01752,18.037476,97.57325,97.173294,97.02534,98.26276,3.7397707,0.7,-97.87743,-35.703175,0.0015522488,-11.474852,2.9846344,3.4566755,4.5885835,5.1071997,3.2402343e-06,0.3,5.673538,88.150444,88.16821,88.073456,88.34641,0.15886606,0.38124996,5.502946138381958,31.132569992542265
44,440000,54.83082314899711,-90.131325,0.037230074,0.46933457,1.3811885,-2.766669,39.86014,19.668633,16.559193,96.10364,96.62089,97.05142,96.52067,1.348139,0.7,-96.70052,-34.66596,0.0019308357,-6.9391317,2.4021552,4.5019565,5.272426,5.526161,1.0226621e-06,0.3,6.0590725,89.410355,89.459496,89.84579,89.871826,0.08841039,0.38437498,5.582364082336426,31.818740125497182
45,450000,56.19138882995271,-89.31575,0.0371768,-0.9155458,1.2478223,-3.4020588,45.75559,58.871555,14.800671,96.49102,96.1338,96.271614,96.08834,1.5010202,0.7,-97.01681,-35.952034,0.0014914658,-9.43574,4.7728615,4.82372,4.212419,4.973434,5.0466045e-09,0.3,5.776263,88.75302,88.7594,89.12839,88.9552,0.075603664,0.4484375,5.655301809310913,32.50584951241811
46,460000,53.88620684646309,-89.83723,0.036964327,1.5675535,0.7258389,-3.3210716,30.345133,21.546104,16.03299,97.023994,96.705345,96.46999,97.076164,2.221034,0.7,-97.816414,-32.652893,0.0028613494,-5.4905624,3.7393847,3.6228323,3.5613167,3.0462966,1.2448698e-06,0.3,6.261488,89.22422,89.14322,89.22818,89.25398,0.093092054,0.4359375,5.623283386230469,33.19677531719208
47,470000,54.811897585630035,-89.83252,0.03736083,0.29439807,1.2125489,-4.042146,42.021187,104.00155,16.786331,96.71666,96.539116,96.74664,97.337944,5.6677094,0.7,-96.94988,-34.580544,0.0012708526,-10.603271,4.376064,4.2318115,4.802204,4.7976823,1.7881395e-06,0.3,5.849284,89.24283,89.160675,89.493225,89.54576,0.12580547,0.3921875,5.57801628112793,33.887748996416725
48,480000,55.83555912132705,-90.36127,0.037308816,-1.0602349,1.2636184,-68.207634,29.205732,111.79416,16.806824,96.154274,96.249176,96.27846,96.322205,14.743291,0.7,-96.850204,-37.900757,0.0004443793,-11.477318,64.95544,64.88051,57.44163,68.40318,7.9970346e-07,0.3,5.9757433,89.69469,89.728806,89.58711,89.91487,0.18523753,0.42031246,5.506750106811523,34.57237550814946
49,490000,55.034089901527274,-89.90613,0.03672926,0.50657725,0.9150712,-3.8189702,35.04644,68.71118,14.582195,96.09462,95.85545,95.99836,95.5625,10.65525,0.7,-96.58981,-30.708614,0.00033908756,-8.071866,3.4983702,4.3084416,4.1837144,4.390745,1.7462299e-11,0.3,5.9061165,89.26778,89.25545,89.27341,89.14765,0.14490552,0.52187496,5.530510902404785,35.26047848860423
50,500000,55.25149881002209,-88.23925,0.03639819,-2.1409774,1.0196396,-4.7610664,28.449553,46.15599,16.449211,96.24824,96.14488,96.70412,95.821106,8.465824,0.7,-96.34869,-40.414787,0.00026471034,-5.9899764,4.9543705,4.9976616,3.1202703,4.081331,5.3208323e-06,0.3,5.4919834,87.699005,87.643524,87.842285,87.78477,0.1523552,0.5078125,5.579500436782837,35.948218643665314
51,510000,54.93917219427536,-89.91383,0.036715336,0.04632026,1.1148579,-0.6505493,42.58666,24.92151,15.459745,96.975174,96.785225,97.03846,97.08859,3.5390172,0.7,-97.535385,-37.33245,0.0016417147,-7.9096756,0.6891047,2.0244765,4.8230495,4.4937963,1.418346e-07,0.3,6.107903,89.343445,89.3169,89.04515,89.19208,0.096804164,0.4765625,5.559954404830933,36.63663016955058
52,520000,55.03736706392262,-90.53929,0.03664136,0.049564622,0.7747786,-68.57115,29.987177,12.8994255,14.886967,96.21135,96.112686,96.34826,95.29667,1.4502332,0.7,-96.27621,-41.27461,0.0012344273,-10.185137,67.32026,67.45871,67.45471,68.023315,5.657785e-09,0.3,6.136245,89.95589,89.93567,90.17305,90.03319,0.072755046,0.48125,5.624916315078735,37.32480238278707
53,530000,55.43163556263499,-89.96945,0.036907006,-1.0563844,1.0310694,-4.1490664,42.769737,15.22542,17.452824,97.341125,97.55203,96.931885,97.12317,3.197633,0.7,-98.36364,-36.619442,0.0012446679,-13.325583,4.6459475,4.7195363,4.513573,5.23736,2.0539737e-07,0.3,5.6150227,89.32977,89.33125,89.20719,89.39143,0.095096916,0.45624998,5.553037643432617,38.01236874659856
54,540000,54.25547700815947,-90.025566,0.03677543,0.6130357,0.67418003,-4.921264,49.67236,6.0635347,20.236536,97.435234,97.031265,97.20015,97.20341,1.6411287,0.7,-97.724075,-35.176426,5.3123862e-05,-6.038107,5.2965336,4.441302,3.5010226,3.6251109,1.8840656e-07,0.3,5.828227,89.42218,89.40842,89.42971,89.51194,0.101265326,0.428125,5.5492377281188965,38.69723515113195
55,550000,55.88480174583748,-89.78888,0.03637752,-0.5291882,0.96085197,-4.988386,40.151886,22.89936,14.881904,96.60507,96.3821,96.66494,96.10752,3.3508945,0.7,-97.30559,-34.20704,0.0018104451,-9.390978,5.259941,4.958066,3.8790603,3.2786653,4.599988e-06,0.3,5.3827276,89.14339,89.18597,89.02432,89.03705,0.13621825,0.47968748,5.6325318813323975,39.38527263800303
56,560000,54.76961494587387,-89.733444,0.03625544,0.46135378,1.01825,-2.340148,88.01066,34.571426,17.731733,96.84153,96.36949,96.865715,96.83455,1.510162,0.7,-96.73528,-45.232937,0.00033776567,-10.815345,3.2843013,2.7326212,3.9343565,4.3217015,1.9720755e-08,0.3,5.72038,89.17119,89.14785,89.16266,89.140594,0.105563134,0.42812496,5.6223061084747314,40.07186795473099
57,570000,55.90890595576228,-89.54964,0.036493234,0.81015134,0.8738885,-3.5444026,42.25258,13.715359,16.435406,95.94889,96.061005,96.64387,96.50582,2.94809,0.7,-96.61791,-33.984806,0.0038506864,-6.649186,5.012558,3.613555,5.6827035,5.35519,9.8225435e-08,0.3,5.9384136,88.921844,88.91645,89.25529,89.11925,0.09805222,0.421875,5.567927837371826,40.761022512118025
58,580000,55.933718898528106,-89.41761,0.036579132,-0.4665297,0.8487237,-3.148473,28.319376,22.082977,14.9591255,96.043495,95.79019,95.872246,96.3381,2.0676563,0.7,-96.65086,-35.443256,0.001228991,-6.2028985,3.6842186,3.025065,5.2727966,4.3404713,1.9252185e-07,0.3,5.9586716,88.7796,88.75015,88.57933,88.637856,0.060193907,0.4484375,5.692681312561035,41.44881169001261
59,590000,55.37575856588708,-88.98987,0.036592275,-1.4074976,0.9985663,-3.830996,35.841972,16.942453,17.353119,96.36642,96.019226,96.38235,96.12411,1.3982118,0.7,-96.424385,-35.285248,0.0001876551,-6.7912574,4.3608828,4.126989,4.4326425,4.313061,9.97464e-07,0.3,5.5417166,88.4771,88.38509,88.6704,88.78761,0.11091999,0.36093748,6.051539659500122,42.13819122314453
60,600000,54.80080114352761,-90.14825,0.03666919,-1.3021092,0.7681762,-6.124398,36.92603,30.051826,15.551219,96.71265,96.290825,96.71362,96.53053,4.1233144,0.7,-96.771255,-33.829582,0.0008326082,-6.2966003,6.1501913,6.239569,6.83002,8.412508,4.3655746e-08,0.3,5.7851124,89.56595,89.606285,89.7581,89.733604,0.10966102,0.46249998,5.761417627334595,42.81278160413106
61,610000,55.74515057181513,-89.34512,0.036380604,-0.6467165,1.0020792,-3.3402357,35.41544,46.580017,14.735061,96.58031,96.22024,96.1739,96.02758,3.0207062,0.7,-96.25061,-29.509768,0.001471621,-9.469695,3.4439511,3.7803879,4.7933807,4.83312,2.4728362e-07,0.3,5.9054055,88.79825,88.75553,88.68119,88.7162,0.11149612,0.49531248,5.812575340270996,43.488841251532236
62,620000,55.14665781600515,-90.11541,0.036611002,0.88802785,1.0358951,-50.95865,29.832731,38.910984,13.712427,95.78128,96.01697,96.65794,96.19918,13.286718,0.7,-96.47733,-30.236694,0.0029948254,-14.070163,31.126394,30.539927,32.197643,42.742367,1.6137958e-06,0.3,5.8880186,89.46135,89.4636,89.703674,89.77212,0.1496057,0.3984375,5.9583940505981445,44.1704407175382
63,630000,55.45671274088999,-89.818985,0.036651485,-1.0219315,1.422199,-3.7920933,31.288998,93.366295,14.242485,96.77524,96.615036,96.76975,96.30199,10.292844,0.7,-96.62628,-38.674377,0.0017313303,-9.135067,4.988163,4.6122828,3.8066,2.2050543,1.261651e-07,0.3,5.6833167,89.19241,89.16446,89.15819,89.271164,0.14207143,0.40937498,6.051518678665161,44.870895679791765
64,640000,56.269836493722615,-90.42822,0.036289074,2.2281296,1.0396692,-67.217926,32.415657,47.38039,16.59599,96.54292,96.29063,96.358505,95.90949,5.0813756,0.7,-97.27489,-35.98071,0.00065909076,-12.398956,66.78502,66.559654,65.47532,66.38152,1.3522805e-07,0.3,5.990349,89.726456,89.7651,89.54009,89.55319,0.10890082,0.5046875,5.994518280029297,45.5661120891571
65,650000,55.8211073846812,-90.545685,0.036782324,1.6949341,1.090267,-66.96775,39.978626,61.451744,13.578433,97.55112,97.34347,97.753365,96.990105,3.5667624,0.7,-98.11928,-37.044064,0.00031263527,-9.343397,67.32461,68.193535,67.41607,66.40926,8.222822e-07,0.3,6.0063252,89.85034,89.9294,89.73491,89.70415,0.10440703,0.4765625,5.808497667312622,46.25980061292648
66,660000,54.54719198211859,-90.39497,0.036618378,0.8122974,0.9339858,-76.40312,26.561779,54.878292,16.234264,95.796,95.93367,96.29521,96.35849,6.2385116,0.7,-95.88584,-36.195328,0.0014236106,-7.300884,75.097496,75.210175,74.26308,76.23561,1.7462298e-07,0.3,6.005945,89.71355,89.716194,89.89277,89.87775,0.09684289,0.4578125,5.920050382614136,46.95565116405487
67,670000,56.33725056684447,-90.30513,0.036349226,-0.74689615,1.0710633,-4.8890414,34.78803,13.582757,14.633861,97.894905,97.48498,96.73397,96.81356,8.156708,0.7,-98.45843,-38.572277,0.0014080387,-12.819599,3.6581945,3.8767571,3.7982178,5.33427,4.3568607e-06,0.3,5.396374,89.68743,89.68239,89.369644,89.490005,0.14446503,0.4734375,5.98990535736084,47.65028798182805
68,680000,55.534938569145794,-89.942726,0.036956616,-0.055176742,0.98750275,-1.6819097,36.874878,34.25669,15.824507,95.738846,96.055275,96.507065,96.43038,1.4930488,0.7,-96.87668,-34.769222,0.0002531805,-3.7548788,2.201021,1.5939068,5.6567574,4.564252,5.0731646e-06,0.3,5.6495905,89.341385,89.35831,89.58461,89.71828,0.1150149,0.3765625,5.744318246841431,48.34175404707591
69,690000,55.70482328191968,-89.81171,0.0359926,-0.05394946,0.9217355,-5.2151656,32.00481,30.010618,19.110172,97.14815,96.7607,96.677345,96.926056,1.8543435,0.7,-97.28855,-36.13975,3.153109e-05,-7.78257,5.840479,5.8548026,5.335434,5.2674093,3.7222637e-07,0.3,6.176667,89.2025,89.248146,89.10504,89.06629,0.083340585,0.48749998,5.992346525192261,49.04298144578934
70,700000,55.95841262811271,-88.87783,0.036358345,0.817335,1.8336247,-3.572803,61.567448,129.76054,17.34643,96.48322,96.25188,97.24888,96.41358,9.308747,0.7,-97.0505,-33.861202,0.0045133554,-14.985012,4.6212406,3.64821,4.4864917,3.7514992,1.69985e-06,0.3,6.144102,88.220276,88.27184,88.670135,88.484764,0.17338084,0.48125,5.959709882736206,49.74056011041005
71,710000,55.426202701192686,-89.82948,0.03638249,0.7929229,1.1395543,-2.84135,28.997482,91.12365,14.551973,96.19373,96.12119,96.26185,95.734985,4.3931737,0.7,-96.49187,-32.38555,0.0023469196,-4.3788204,3.2120466,3.180263,4.3626785,4.988546,2.3274158e-06,0.3,5.7301435,89.2094,89.29739,89.17202,89.283035,0.10498877,0.434375,5.894243955612183,50.43935111363729
72,720000,55.19054885938589,-90.17636,0.03590531,0.13953617,0.95904374,-7.4671226,32.053616,27.29604,14.685403,97.34946,97.20755,97.96858,97.214386,4.3269606,0.7,-97.82078,-35.511925,0.0058792103,-5.40845,7.8258696,7.7460055,5.9432187,6.3250055,3.3807012e-08,0.3,6.224893,89.58801,89.54913,89.393814,89.38342,0.11063572,0.465625,5.943512201309204,51.13894120852152
73,730000,55.70422560733176,-90.406265,0.0365101,0.43373573,0.63592815,-3.8846138,43.113083,13.406115,15.605817,96.83514,96.74084,96.76001,96.92208,2.4623458,0.7,-97.25109,-37.183895,5.049468e-05,-4.1593804,3.9491997,4.723753,4.4361625,4.521712,2.521556e-08,0.3,5.9364653,89.80556,89.76541,89.81914,89.87754,0.07647306,0.41875,5.58459210395813,51.82939182917277
74,740000,55.167228750431775,-90.27797,0.036731604,-0.363919,1.0737631,-42.046005,48.965927,16.304451,17.067406,95.57213,95.94328,96.20331,95.41321,12.341208,0.7,-96.42409,-46.81311,0.00012269785,-9.397885,35.89709,34.829754,36.283375,35.210014,4.6649365e-07,0.3,6.006089,89.6142,89.674484,89.32469,89.334564,0.14894345,0.4484375,5.637731552124023,52.51965274016062
75,750000,55.997526403724876,-88.859276,0.037064515,-0.7975433,0.9096786,-3.8768797,32.999886,11.755955,14.580517,96.84236,96.67046,97.2219,97.1682,2.2431297,0.7,-97.027916,-35.039455,0.0009318502,-6.629453,4.530597,3.8261461,3.323436,3.0215695,1.2478267e-06,0.3,5.786726,88.27188,88.1604,88.553345,88.39127,0.09938772,0.4890625,5.514896869659424,53.20579721530279
76,760000,55.460420878799646,-89.65225,0.036302786,-0.23252976,0.6574683,-1.7719121,28.307161,18.731035,17.392403,97.54786,97.537125,97.38875,96.66966,1.0703512,0.7,-97.984436,-41.20608,0.00024904334,-10.352516,2.608335,3.8488908,4.18215,4.2284164,2.231053e-06,0.3,6.05244,89.07173,89.09565,89.23952,89.175575,0.07033886,0.4671875,5.4522833824157715,53.88980928659439
77,770000,55.59569032669119,-89.44966,0.036658227,-0.17220306,1.5486764,-11.691228,29.827158,54.444565,17.354721,96.31613,96.347824,96.747734,96.494514,5.6314163,0.7,-96.94712,-37.696644,0.0016615409,-6.2903194,12.58227,12.225429,7.189403,7.646127,1.0353397e-07,0.3,6.0427394,88.82611,88.780846,89.11342,89.14503,0.11211443,0.45,5.553146839141846,54.58074272871018
78,780000,55.40523252335724,-89.27264,0.035962418,-1.2617489,1.092289,-2.9220042,22.501066,76.56274,14.80746,95.51623,95.120895,95.85916,95.35022,7.4968195,0.7,-96.313614,-34.799778,0.0018809186,-11.1792755,3.3060718,3.0605502,3.6723666,3.9275155,7.0856595e-06,0.3,5.941732,88.678986,88.638855,88.71273,88.75278,0.10060213,0.46875,5.504495143890381,55.26585536797841
79,790000,54.903458901106326,-90.017975,0.03648222,-1.1765335,1.1471286,-3.9450355,40.302414,87.440094,15.499265,96.98006,97.11072,96.77535,96.73496,4.1616664,0.7,-97.665054,-43.156815,0.00073260145,-8.377806,4.3411913,4.655812,4.485103,4.8166103,5.476177e-08,0.3,5.708495,89.398605,89.38411,89.30413,89.29015,0.103283964,0.4734375,5.524170875549316,55.949495911598206
80,800000,55.47715751442236,-88.732216,0.036585696,-0.44728065,0.79928476,-3.5226572,41.840633,13.952328,15.752297,95.27237,95.392555,95.90242,95.27723,1.491354,0.7,-96.091095,-41.833694,0.0003841567,-10.016047,3.8484564,4.1021132,3.487443,3.2599964,7.1532963e-06,0.3,5.683117,88.128586,88.122826,88.15838,88.140884,0.09163718,0.48906252,5.584150314331055,56.64245614210765
81,810000,55.434283057526635,-90.47206,0.036144458,-1.1358968,0.79887056,-73.74541,29.097202,20.092335,14.935648,96.030876,95.711494,95.939804,95.41477,1.0301046,0.7,-96.17417,-36.83364,0.000861636,-4.510351,73.31652,74.32619,74.83146,72.65179,9.387731e-08,0.3,5.726617,89.997314,89.95706,89.90016,89.95106,0.080491245,0.43124998,5.496916055679321,57.330648624897
82,820000,55.653821939418144,-89.70589,0.035790276,0.6261966,0.9276034,-3.576451,32.069683,22.399258,17.954647,95.770645,96.02371,95.612366,95.382675,3.7603087,0.7,-96.32626,-38.36476,0.00078249286,-6.02831,3.9583628,3.8068051,5.8515515,5.696834,1.2777745e-07,0.3,5.8350477,89.02583,89.01636,89.14885,89.20412,0.1250956,0.44062498,5.5239715576171875,58.01091197331746
83,830000,56.313643568364114,-89.30168,0.035455715,0.13291062,1.4043392,-3.0332184,37.422,54.641205,21.641651,96.49255,96.02008,96.30094,95.82293,5.1128564,0.7,-96.78223,-33.257637,0.00022715615,-16.211895,3.4682584,4.04369,4.4724007,4.513251,3.1838836e-06,0.3,6.049694,88.57485,88.621475,88.28588,88.379105,0.1178568,0.509375,5.577267169952393,58.702925185362496
84,840000,55.59070725570656,-90.129166,0.036004666,0.97512513,1.0704817,-5.7261724,29.41934,80.565186,20.204815,97.21101,97.19311,97.72127,97.74606,4.8659787,0.7,-97.77029,-34.822468,3.1146337e-05,-16.989006,6.4795976,6.4020286,5.449495,5.238213,8.6217185e-08,0.3,6.1009855,89.48584,89.419815,89.67302,89.755936,0.1086877,0.421875,5.572932720184326,59.38999118010203
85,850000,56.25668041236891,-89.400116,0.035595853,0.64345837,1.3374944,-4.855316,58.52198,103.49434,14.580228,96.07561,95.82682,95.88832,96.68367,4.021604,0.7,-96.37538,-34.15437,0.0009822056,-8.264666,5.3476562,5.29568,4.1559286,4.641,2.7899445e-05,0.3,5.9432445,88.81072,88.72107,88.668495,88.79645,0.14705206,0.403125,5.584876537322998,60.076931158701576
86,860000,55.964579945816425,-89.891754,0.035582658,0.32509178,0.5712412,-4.431816,31.026627,9.612813,22.361454,96.829666,96.76236,97.32492,96.59785,2.0279095,0.7,-97.02786,-33.210438,0.00018802495,-6.391093,5.257482,4.894883,5.3100295,6.513264,1.8840656e-05,0.3,5.8407993,89.30647,89.25744,89.30887,89.32494,0.08164761,0.47187498,5.585923671722412,60.770166329542796
87,870000,55.977644505390685,-90.13433,0.03564321,-0.43872648,0.7312212,-66.66096,59.05775,19.559221,16.685465,95.9779,95.376595,95.174164,95.677376,4.611854,0.7,-96.89077,-33.24586,0.00041919533,-5.962707,66.48563,66.28841,65.78446,66.25851,2.0539737e-07,0.3,5.7811785,89.4966,89.48002,89.664024,89.584885,0.116305545,0.509375,5.636247634887695,61.460838043689726
88,880000,55.745618109889335,-88.71893,0.0356318,-0.73364174,0.8719741,-2.9224494,32.134377,16.558537,14.863995,95.74384,95.23737,95.6754,95.59949,4.3848567,0.7,-95.910034,-33.36087,0.0022606938,-11.180795,3.50617,3.2627146,3.931752,5.116131,1.3398648e-06,0.3,5.7936535,88.17958,88.16406,88.46259,88.39439,0.10812561,0.434375,5.590019464492798,62.14780745903651
89,890000,55.77278785037868,-89.27817,0.035690535,-0.4804779,0.8933812,-4.1760554,43.46648,36.64199,16.427923,96.53044,96.38342,96.576996,96.47997,1.1913376,0.7,-96.83901,-41.161076,0.00030552904,-4.242252,4.6531725,4.97766,4.673937,4.1723194,6.370526e-06,0.3,6.0903425,88.68515,88.64903,88.61241,88.605804,0.08618958,0.51250005,5.556528568267822,62.83915886084239
90,900000,55.60974247349718,-90.42551,0.035947997,0.14223409,0.6846193,-5.9380913,28.577013,19.709332,15.572951,96.614815,96.63129,96.40255,96.26384,0.8440512,0.7,-97.75059,-43.33871,0.0003303506,-5.839172,7.009914,6.3840337,5.866773,5.1740603,1.2478267e-06,0.3,6.214752,89.8458,89.75049,89.648285,89.53732,0.08091672,0.5078125,5.62544322013855,63.529480616251625
91,910000,55.254613120337815,-89.36209,0.03603395,0.38582575,0.90102136,-4.0317364,27.908932,22.434212,15.511314,97.02564,97.44991,97.2016,97.53313,7.7785015,0.7,-97.85839,-37.86976,0.00042000995,-8.409822,4.808961,4.156971,4.1351943,4.236487,2.949749e-06,0.3,5.709724,88.79133,88.762726,88.93458,88.92459,0.12947959,0.45156252,5.525531530380249,64.21718705495199
92,920000,55.40456606402435,-89.67171,0.03678363,-0.08499989,0.9311596,-5.7270026,36.328793,22.951778,14.648157,96.26507,96.273544,96.78521,96.55476,10.563673,0.7,-96.88342,-32.83175,0.0012118262,-7.3272552,5.9929748,6.2114305,4.940729,5.95745,2.1437836e-05,0.3,5.971163,89.15388,89.10757,89.25942,89.005844,0.15874958,0.5546875,5.520198583602905,64.90674230655034
93,930000,55.740573598258194,-88.79696,0.036034375,0.07357842,0.7939495,-4.297446,30.189775,15.94047,17.57246,96.66022,97.01464,96.24675,96.13567,2.7496648,0.7,-96.77177,-34.81225,0.0026308415,-4.221897,4.7689586,4.456544,4.139433,4.581655,2.9967052e-07,0.3,5.8268466,88.134224,88.14284,88.16415,88.21921,0.101511925,0.4671875,5.480834245681763,65.5929212808609
94,940000,55.424453757711056,-89.93063,0.03701111,-0.01845625,0.9467764,-10.035266,30.48428,24.435991,15.534569,96.06631,95.88934,95.10101,95.57256,1.798649,0.7,-96.533424,-32.694527,0.0019905102,-11.237347,10.14335,9.525786,6.3528085,6.4745865,1.9016444e-08,0.3,5.6805153,89.34787,89.31933,88.98079,89.03739,0.10313854,0.4484375,5.513949155807495,66.28260143995286
95,950000,55.69512540854973,-89.314,0.036178306,-0.28269535,0.76612896,-4.640328,40.85825,15.303546,14.981398,96.9004,96.411385,96.482834,95.62535,5.487164,0.7,-98.08429,-33.848454,0.00091543247,-4.910459,5.9444876,5.1648846,6.860591,7.1472807,9.29035e-07,0.3,6.0045733,88.743,88.7133,88.77443,88.666824,0.10209365,0.446875,5.6077423095703125,66.97445677518844
96,955000,55.64764245626053,-90.17636,0.03572302,0.9085964,1.5033655,-4.668038,28.673141,66.86022,14.842394,96.07878,96.208786,96.28844,96.25706,3.524197,0.7,-96.83449,-36.71327,0.00061560917,-7.2268558,4.960717,4.56112,4.9822636,5.2604117,4.4357034e-06,0.3,6.0491056,89.52136,89.45825,89.39647,89.7108,0.14317712,0.36093748,5.448651552200317,67.36325272719066
97,960000,56.28259949441312,-89.79257,0.035786178,0.38607195,0.6597807,-4.512477,32.526527,20.406755,14.940459,95.80357,96.02695,95.549225,95.717064,13.987551,0.7,-96.30089,-45.80799,3.3385877e-05,-4.5291653,4.856229,4.316312,4.739471,4.9556694,3.4486874e-07,0.3,5.983381,89.0121,89.07696,89.04059,89.026245,0.14567268,0.49375004,5.5297534465789795,67.7529908021291
98,965000,55.80427960092378,-90.04703,0.035418488,0.5878115,0.91878533,-51.974964,81.7997,13.912189,15.247998,95.28312,95.51728,95.46734,95.3622,1.7828822,0.7,-95.814575,-35.8936,2.4734589e-05,-8.215657,49.777336,49.54737,48.692436,49.035656,1.6839314e-05,0.3,5.777065,89.37476,89.34207,89.494644,89.36752,0.10660283,0.5390625,5.511181116104126,68.14393268028896
99,970000,55.97691411093078,-89.31981,0.03427006,-0.2724473,0.70141494,-6.6934314,42.075382,9.904539,15.858974,95.11608,95.19608,94.9758,95.363785,1.6716563,0.7,-97.083374,-36.45704,0.0013949363,-14.095409,6.4677324,6.74386,5.237794,5.419945,1.1713885e-06,0.3,5.987207,88.71326,88.68912,88.59183,88.738434,0.08999758,0.421875,5.539767026901245,68.53029142220815
100,975000,55.6459197564085,-90.10149,0.033970907,0.0767647,1.0638853,-63.451637,33.770767,52.535217,16.084558,96.22492,95.66155,95.4891,95.47817,2.8092227,0.7,-96.57459,-34.399143,0.00034842233,-11.656167,60.55535,62.944286,56.76576,65.728546,5.2823452e-06,0.3,6.009099,89.47307,89.43241,89.30433,89.36605,0.103658035,0.49999997,5.5649120807647705,68.92123250166576
101,980000,55.899371736097855,-89.88789,0.036689978,0.8704746,0.7469404,-5.7511826,29.394777,22.681095,15.900631,96.058205,95.92878,95.95833,96.23338,1.865033,0.7,-96.75774,-38.189186,0.0016380858,-6.490569,5.666698,6.7328243,5.731119,5.729828,4.710164e-08,0.3,6.103873,89.3414,89.22362,89.34096,89.25433,0.10056818,0.4984375,5.439549207687378,69.3110408703486
102,985000,55.90458906146475,-90.689926,0.034422725,0.457117,0.5425292,-68.236694,30.50616,6.1373014,14.117737,95.98964,96.15729,96.10183,95.975975,2.0822954,0.7,-96.35285,-33.981827,0.0010818682,-4.6091413,67.04929,67.03604,67.620674,68.20683,3.4716797e-07,0.3,6.0858946,89.99136,90.02509,90.07347,90.02227,0.096463196,0.47499996,5.5500571727752686,69.69882754484813
103,990000,56.07814157859347,-89.23108,0.035637103,0.69714844,1.0101657,-4.63255,38.459167,14.758455,18.752293,97.00864,96.58866,97.66457,96.49036,4.7763925,0.7,-97.02205,-36.008705,0.0004530638,-5.355773,5.8592453,5.595175,4.78709,4.2863183,4.3592883e-07,0.3,6.1178427,88.634964,88.606186,88.965225,88.859375,0.09726346,0.440625,5.56805682182312,70.09055908123652
104,995000,55.308439380317644,-89.52107,0.04052634,-0.3449024,0.91870797,-5.155308,32.578255,26.752777,14.190244,95.67451,95.87291,96.4595,95.78796,2.70011,0.7,-96.55047,-35.592403,0.0016254338,-8.218327,5.6823473,5.5188565,4.760584,4.609405,3.5708655e-07,0.3,5.9802275,88.85838,88.793564,88.80826,88.797104,0.098759405,0.49062502,5.481651544570923,70.4804213643074
105,1000000,56.040190512679466,-89.50711,0.042429876,-0.9702287,0.71578634,-4.7626553,23.3024,14.986855,15.553532,95.091515,95.118095,95.27534,95.125,1.3448364,0.7,-96.0482,-31.175814,0.0010813402,-8.417532,5.4264927,5.1076865,6.248283,6.3603425,4.4703485e-09,0.3,6.0203085,88.891075,88.951965,89.08584,89.08172,0.08438127,0.42499998,5.566205739974976,70.87098935047786
