Xixo99/comfo/baselines/comfo6_perterbation_actor/20230225_noise0.01/halfcheetah-medium-v2/COMFO6_s2_20230224_184335_halfcheetah-medium-v2_55.43.csv
,step,reward,actor_loss,alpha,alpha_loss,critic_loss,max_actor_loss,max_alpha_loss,max_critic_loss,max_mle_prob,max_q1,max_q2,max_target_q,max_v,max_value_loss,max_weight,min_actor_loss,min_alpha_loss,min_critic_loss,min_mle_prob,min_q1,min_q2,min_target_q,min_v,min_value_loss,min_weight,mle_prob,q1,q2,target_q,v,value_loss,weight,eval_time,time
0,0,2.2551437047935607,,,,,,,,,,,,,,,,,,,,,,,,,,,,,,,,,
1,10000,-2.2450093830390956,-35.68384,0.09329631,-2.0286493,1.1215837,0.3274657,26.907667,38.594322,12.278196,43.990665,44.01011,44.31934,43.634113,3.2764583,0.7,-44.44224,-32.298313,9.314428e-05,-11.06563,0.047901183,0.47150537,-0.19916146,-1.7932341,1.3201498e-08,0.3,3.0951927,35.025223,35.05235,35.128464,34.59631,0.13530241,0.45,6.347334623336792,2.1967997193336486
2,20000,-2.299297198095039,-59.7583,0.11525065,0.043970883,2.0464122,-6.1911826,20.351597,33.431137,13.51463,69.42285,69.43237,68.88071,68.36855,3.179185,0.7,-69.600174,-31.979916,0.000151604,-21.60817,3.6957355,5.901841,3.9790404,7.9916425,9.967135e-06,0.3,2.7999496,58.966934,59.01138,58.5786,58.60372,0.18505384,0.440625,6.22649884223938,2.8765961726506553
3,30000,-1.1330716066794768,-73.06462,0.104216024,0.4898234,2.4340549,-42.25823,25.916626,31.225685,14.06191,81.773735,81.740814,82.66378,81.56004,3.6609857,0.7,-83.24463,-22.105322,0.0045598187,-10.336516,44.697964,40.030823,44.554897,43.415947,1.4522014e-05,0.3,3.3016639,72.34454,72.24997,72.5296,72.36987,0.1778728,0.49062496,7.13690185546875,3.5728630860646566
4,40000,-0.04471198239170726,-79.64136,0.091598794,-0.9496381,2.1557002,2.6661167,28.008135,29.697746,13.762403,88.82558,88.81679,88.385445,88.20833,1.7344574,0.7,-89.787704,-24.619068,0.00028496992,-17.722752,-3.352336,-2.6096523,-2.0855618,-1.9153156,1.2102391e-05,0.3,3.8304443,79.14402,79.13841,78.94147,79.03593,0.12147973,0.41875,6.198953866958618,4.249684043725332
5,50000,0.8400763456140014,-82.575516,0.08082006,-0.60775536,2.5953083,2.1593933,35.62602,146.39015,13.794267,93.73032,93.02524,92.81111,93.831566,7.1629777,0.7,-93.93733,-30.100368,0.004741832,-32.87506,-3.4461665,-3.5111125,-6.194249,-4.925894,6.780436e-07,0.3,3.9297643,82.05261,82.14981,82.36865,82.33888,0.19409662,0.3984375,6.125431776046753,4.925197927157084
6,60000,1.3586920786844219,-87.542625,0.06922367,0.19937426,1.1898108,-63.356422,23.36333,22.772509,13.988036,94.557686,94.33748,94.350945,93.65258,2.0691197,0.7,-94.93672,-30.899298,0.0032908448,-6.975548,62.500427,62.322647,61.468307,62.69265,1.7462299e-09,0.3,4.7404346,87.038864,86.95475,86.77415,86.67004,0.10655076,0.4890625,6.146275520324707,5.606377593676249
7,70000,2.1698358992823414,-88.1318,0.060094085,0.8034843,1.6242613,7.563284,23.87013,70.11949,15.661108,95.51644,95.56928,95.394196,95.62916,2.0947723,0.7,-95.8376,-26.417353,0.0037127857,-10.516073,-9.482721,-8.253969,-7.9398565,-7.80899,1.678127e-08,0.3,5.081238,87.655,87.71904,87.76997,87.61225,0.10530797,0.5109375,6.648993015289307,6.290137294928233
8,80000,2.6659326921969013,-88.58922,0.053731974,-0.4667963,1.5298084,2.6056046,31.346783,59.12719,13.877121,95.285675,95.25996,95.6271,95.92136,7.0182343,0.7,-95.82382,-30.468433,0.00023322325,-11.987628,-2.4423358,-2.4669118,-3.1328716,-3.9218123,1.5334924e-06,0.3,5.0870714,88.08754,88.13264,88.41599,88.466774,0.11517188,0.3953125,6.252332448959351,6.9671524127324425
9,90000,1.9800289940937552,-89.42744,0.05002636,-1.3781621,0.8452415,-65.87139,25.061598,9.465754,15.047687,95.674194,95.64821,95.930305,95.810745,1.1371641,0.7,-95.86204,-28.674618,0.0021641867,-6.845681,65.15416,65.41788,65.33446,65.80927,2.9059012e-07,0.3,5.1598177,89.047844,89.00316,89.10423,89.04686,0.06754932,0.46875,6.17641019821167,7.652516130606333
10,100000,1.0734492750485585,-89.76758,0.047408182,-0.105820596,1.5396143,-68.35267,28.7705,36.56529,16.06231,95.526054,95.54783,95.492966,95.133415,1.40011,0.7,-96.11682,-36.170456,0.00031923514,-5.401445,68.38915,67.74589,65.70932,68.15296,2.6077032e-09,0.3,5.000528,89.34938,89.31295,88.969894,89.14346,0.07978286,0.48125,6.159865856170654,8.335214483737946
11,110000,10.274726811057603,-89.583435,0.04611688,1.3962103,1.3581607,-70.11694,38.11237,33.072315,14.636884,95.99996,96.25598,96.74255,96.72834,0.9836371,0.7,-96.96999,-30.239998,0.00027378515,-4.8642626,70.023315,69.894104,69.73434,69.543945,1.2078498e-06,0.3,5.7011166,89.14271,89.107895,89.5146,89.38733,0.06221678,0.47031248,5.92501425743103,9.014414775371552
12,120000,23.869447808361,-89.39976,0.045391038,-0.4007989,2.0095253,0.7817,42.936325,195.74463,16.077858,95.61094,95.66766,95.92862,95.574905,1.4298425,0.7,-96.025085,-46.027657,0.0019219173,-9.753365,-0.09625077,-0.69141716,-0.77452624,-0.9945853,1.688971e-06,0.3,5.0002832,88.916115,88.94566,88.91896,88.90041,0.07895259,0.45,6.020880699157715,9.696699305375416
13,130000,39.393004078150234,-90.83419,0.044452306,0.3869934,0.8516613,-68.990715,42.26813,21.002378,16.930878,97.121124,97.223404,96.997116,96.76073,0.96459347,0.7,-97.38516,-32.50849,0.00080870494,-6.748524,68.96885,69.39169,69.46956,69.43013,2.508302e-06,0.3,5.8382907,90.34456,90.32073,90.21746,90.17571,0.0548295,0.48281246,6.234250783920288,10.377189648151397
14,140000,37.539923850345396,-88.42697,0.044283807,-1.0561483,1.1255144,-0.54694504,46.52435,50.511417,16.005644,96.27412,96.64892,96.93972,96.38117,10.097861,0.7,-97.35338,-36.488804,0.000279275,-10.660984,-0.33442134,0.39269304,-2.789778,-3.670204,1.4483929e-06,0.3,5.0481634,87.87514,87.86028,88.04324,87.959755,0.11365573,0.4734375,6.066552400588989,11.058040797710419
15,150000,48.901167489961495,-89.37041,0.04411257,-0.9994526,1.8334997,-1.1893485,32.214733,262.69223,17.222595,95.44362,95.74225,95.71528,95.44409,9.002297,0.7,-96.2289,-31.009518,0.0019726753,-9.697161,0.44936693,0.5921084,-0.27211148,0.15375042,5.0466045e-09,0.3,5.4052343,88.879456,88.88107,89.06107,88.88377,0.10053854,0.4703125,6.362107992172241,11.742128610610962
16,160000,53.373498229661166,-90.14357,0.043491706,0.46366075,1.108558,0.809215,29.851397,23.656788,16.207022,97.314674,96.98762,97.27006,96.174675,2.1616085,0.7,-98.33608,-33.823833,0.00035760843,-8.971799,-0.21124756,-1.8824611,-3.0974636,-2.8291917,1.11758716e-07,0.3,5.809304,89.63221,89.61958,89.4636,89.3356,0.11572457,0.5234375,6.110332012176514,12.424313473701478
17,170000,50.72659564967136,-89.82387,0.04240104,-1.2722242,0.92198473,-2.1366842,31.031311,18.999552,16.550987,96.91645,97.06594,97.62604,96.6432,1.8787093,0.7,-97.59947,-38.306072,0.0011600787,-7.3353367,2.4585223,1.9122756,2.1434965,3.3215532,5.847949e-07,0.3,5.3724995,89.38641,89.35024,89.28996,89.20106,0.10329168,0.4828125,6.105997562408447,13.105456654230753
18,180000,53.45165786789937,-90.25569,0.041375034,0.04184714,0.94071835,-4.8622727,32.00512,58.68646,16.13028,97.62567,97.139565,97.00742,96.73768,3.3812966,0.7,-97.61534,-28.781631,0.0028491393,-7.6911893,4.2067065,4.7338543,4.817526,4.182978,3.0589988e-06,0.3,5.780554,89.71119,89.680954,89.676414,89.524956,0.11870292,0.52656245,6.267269134521484,13.788689510027568
19,190000,53.50095610555739,-89.49291,0.041916847,-1.4244101,0.86144435,-3.086702,30.059284,54.342934,14.719553,95.87379,95.715515,96.07574,96.08958,3.478626,0.7,-96.77661,-32.38994,0.0009276058,-7.573185,2.9561858,2.9509294,3.382493,2.8807511,7.710041e-06,0.3,5.8818903,88.91406,88.97637,88.95331,88.93224,0.113921665,0.5015625,6.088565349578857,14.471285339196523
20,200000,53.162185015378405,-90.27183,0.04142708,0.34426352,0.7250116,-3.1243513,28.098719,18.95882,16.031223,97.61843,97.93753,97.669586,97.954094,4.4651275,0.7,-98.34552,-34.500046,0.00022950867,-4.5216055,3.4973605,3.979255,3.1394289,3.1441345,2.1554296e-08,0.3,6.185853,89.78581,89.76814,89.64664,89.73229,0.09342962,0.4265625,6.237217426300049,15.155575188000997
21,210000,53.61490695382547,-89.594696,0.041972313,-0.100875944,0.7663028,-1.8260299,52.70684,17.649109,13.995859,96.72115,96.77677,97.60282,96.952614,1.0107042,0.7,-97.44081,-29.91062,0.0041837306,-9.569792,1.910002,2.10751,4.0774302,4.5310125,5.2823456e-08,0.3,5.3806973,89.078224,89.074684,89.31393,89.15653,0.08416231,0.415625,6.280335903167725,15.833656958738963
22,220000,52.57956840235983,-90.448784,0.04094327,0.69825834,1.3003438,-54.813187,28.784924,28.329298,16.329601,97.80413,97.90354,96.75485,97.02949,1.9559351,0.7,-98.69413,-33.428528,0.0013515877,-7.881373,51.10114,52.643894,53.19086,53.999954,1.9900442e-06,0.3,5.589922,89.930626,89.913574,89.55473,89.782234,0.093132995,0.4296875,6.061327934265137,16.518396107355752
23,230000,53.40211740053056,-90.32674,0.040652223,0.263255,0.90875125,-0.95719814,29.72807,51.14173,14.941366,96.24311,96.51264,96.67045,96.21992,1.1070079,0.7,-96.76524,-42.53039,0.00027001486,-5.319438,2.892611,1.687656,1.1800014,2.4192052,2.1129382e-07,0.3,5.743767,89.79593,89.79974,89.928444,89.80017,0.093234144,0.46875,5.851064443588257,17.19824806849162
24,240000,53.22789580917255,-89.6694,0.040322077,0.0934155,1.4402179,-2.0803685,28.958109,91.44403,13.37646,96.41742,96.86109,96.878494,97.274475,2.985837,0.7,-97.84289,-33.137123,6.744667e-05,-12.048348,1.901056,1.8220453,3.991142,3.6937428,3.8246626e-06,0.3,5.7304997,89.068924,89.09225,89.23181,89.16028,0.081921175,0.4640625,6.058530569076538,17.87777365843455
25,250000,53.65034387789663,-89.36592,0.040827006,0.18288931,0.9731833,-1.9384475,49.52811,13.318205,17.329573,96.300865,95.966125,96.298904,96.02567,8.96934,0.7,-97.6256,-31.152271,0.0035365059,-5.9372196,2.6377068,2.27804,2.5188458,2.7430894,2.346933e-06,0.3,5.53044,88.809296,88.824486,88.66799,88.72538,0.15229203,0.5109375,6.299015045166016,18.568678561846415
26,260000,54.37653954351733,-89.21669,0.03968779,0.21877503,1.5728602,-0.7831046,32.754066,38.71348,14.787291,95.992874,95.849396,96.50231,96.253105,3.186643,0.7,-96.587715,-33.42234,0.0012597763,-12.104794,1.7877982,1.3599861,2.608738,3.0504751,8.451753e-07,0.3,5.3814616,88.70199,88.678986,89.112595,89.219315,0.095568046,0.375,6.034438371658325,19.245775667826333
27,270000,54.053577402927466,-89.52437,0.039745662,0.83386177,1.1819229,-2.5263538,43.481953,39.47772,16.48436,97.04698,97.226616,97.12991,97.57933,3.6997955,0.7,-97.890625,-33.26619,0.0011927532,-10.729435,2.2947187,2.3937366,2.1148264,2.2652097,6.468734e-07,0.3,5.7269096,88.96019,88.97268,88.73647,88.90663,0.103113204,0.4453125,6.15011191368103,19.92513588666916
28,280000,53.859347912571984,-90.50434,0.040075064,-1.9049058,0.89107263,-70.62366,22.976656,65.939835,16.247026,97.12215,96.869576,97.31361,96.82422,1.7380124,0.7,-97.555176,-35.82156,6.5092056e-05,-6.589357,70.28772,69.62453,70.27665,69.812126,1.4889055e-06,0.3,5.877199,89.91702,90.01665,89.97333,89.91333,0.087679,0.496875,6.083272695541382,20.61047222216924
29,290000,53.86330557571228,-89.72987,0.039028473,-1.3323032,0.87689304,-3.5118403,41.94204,44.644844,14.75703,96.33338,96.77621,96.70314,96.37649,2.0230317,0.7,-97.14263,-49.70166,0.00033126125,-7.596443,3.1602485,4.9104056,3.6430278,4.292733,1.4483929e-06,0.3,5.5137033,89.139305,89.18445,88.96732,89.03476,0.076527625,0.471875,5.984066486358643,21.288400773207346
30,300000,53.207713252506416,-90.6857,0.03822593,0.20857331,0.69506145,-56.748512,33.411167,15.468612,16.220276,96.82082,96.87822,96.77059,96.87867,1.395614,0.7,-97.63688,-32.246067,0.00020043482,-16.497477,55.096394,58.34223,57.182407,57.278484,3.5240663e-07,0.3,5.7080584,90.12656,90.065,90.09332,90.10104,0.09512457,0.4546875,5.886295318603516,21.966900471846262
31,310000,53.72026513126835,-90.19209,0.03891135,1.9550148,0.78079367,-3.9947567,61.232227,12.22229,14.527035,97.13241,97.33371,98.17157,97.02103,2.0967014,0.7,-97.75157,-28.29895,0.0007416651,-6.7345524,4.3324857,4.188107,4.6577463,5.0307255,2.0664186e-06,0.3,6.0630484,89.617615,89.543785,89.476685,89.50766,0.08705514,0.49374998,5.938338994979858,22.646045998732248
32,320000,53.903433449925565,-90.41754,0.038941447,-0.8108273,1.3308737,3.834922,28.997765,125.66739,15.333133,96.8973,96.58207,97.11384,96.794586,2.278363,0.7,-97.17407,-32.56569,0.0036478457,-10.768323,-0.7191742,-2.7932649,-3.830013,-1.3649116,2.6424125e-06,0.3,5.6817255,89.89206,89.891556,89.82396,89.8064,0.071846835,0.50468755,5.906611204147339,23.323472380638123
33,330000,53.87910677904808,-89.61557,0.038778573,-1.2945597,0.7837337,0.76808256,28.101362,15.583238,14.057852,97.782104,97.79139,97.942215,97.46011,2.0499442,0.7,-98.41437,-37.785614,0.0004383801,-5.520439,0.7167281,-0.5937018,0.86169136,-0.5119463,1.8887222e-07,0.3,5.630293,89.12363,89.00748,89.08423,89.13867,0.08291577,0.4359375,5.919882297515869,24.006179388364156
34,340000,54.086241430493196,-89.61493,0.03883115,-0.74345636,0.91811746,0.32219163,27.59921,49.689667,17.094627,96.71264,96.49731,98.064285,96.65746,3.540807,0.7,-97.323555,-34.577335,0.00015433237,-7.374995,-0.5362068,0.3115762,0.9958683,2.830446,2.5566553e-07,0.3,5.624218,89.065125,89.0099,89.05252,89.181854,0.10411806,0.42499998,5.969249963760376,24.689956080913543
35,350000,53.83878509170679,-89.7101,0.038446095,-0.27169782,0.8898568,-2.5687065,31.43526,16.902142,16.507177,95.5822,95.93803,96.073296,96.15706,1.672234,0.7,-96.199486,-32.883213,0.0032456245,-5.6594734,2.5752087,2.5777175,1.590958,2.0737138,9.2375564e-07,0.3,5.97569,89.12518,89.142685,89.3013,89.185524,0.08748227,0.49843746,5.963202238082886,25.367042330900826
36,360000,54.27721221495278,-90.32297,0.03738796,-0.6358856,0.68823075,-67.08852,33.778408,11.271875,14.156506,96.14512,96.35945,95.821945,96.51846,10.468308,0.7,-96.36125,-35.733562,5.0014874e-05,-5.4921155,66.9355,66.73864,64.47993,65.92477,9.822543e-06,0.3,5.7095375,89.73619,89.79906,89.78729,89.80189,0.114335604,0.49687505,5.88537859916687,26.04724235534668
37,370000,54.05513381948133,-89.793686,0.037717186,-0.67501426,1.196701,-51.58138,38.903824,48.110332,14.6632185,96.25647,96.57343,96.76017,96.92229,9.148742,0.7,-97.182274,-36.41236,0.002009936,-9.360913,47.680096,50.98623,49.674667,52.048935,3.8152325e-06,0.3,5.6269894,89.136475,89.20026,89.427,89.55119,0.16163734,0.3796875,6.188361644744873,26.72918433745702
38,380000,54.10471677697962,-89.793495,0.03765238,1.2208377,1.1951818,-2.980789,32.128334,80.74942,14.399541,96.36459,96.535034,96.47333,96.202354,9.217707,0.7,-96.994576,-36.500546,0.00026780326,-6.514147,3.198673,3.577154,4.9869003,4.497087,1.3201498e-08,0.3,5.8567634,89.194275,89.19435,89.283806,89.27395,0.11574429,0.44375,5.905723810195923,27.40738400220871
39,390000,53.65715483815827,-89.17732,0.037691098,-0.42937857,0.95422256,-4.2570934,32.85761,23.108463,16.176914,96.72052,96.746605,96.76249,96.5773,0.68085325,0.7,-97.28068,-34.154846,0.00045707682,-10.223212,4.666638,4.557881,3.1914217,3.6709478,2.1129382e-07,0.3,5.5755568,88.68561,88.64292,88.62545,88.48127,0.06250425,0.54375,6.354586362838745,28.08990072409312
40,400000,55.23239635488554,-89.00084,0.03748532,-0.067394614,1.2571746,-2.4428306,57.67557,47.890522,17.506512,96.83672,96.71216,96.572685,96.036415,12.211047,0.7,-97.128334,-38.767002,0.0008799453,-13.963066,3.4934926,3.156845,2.3822987,1.3118515,4.9051597e-08,0.3,6.0339193,88.359695,88.37625,88.47565,88.34697,0.110351235,0.503125,6.245000600814819,28.768822824954988
41,410000,54.962087346788636,-89.69037,0.037434362,0.9968805,0.71170926,-2.5995336,35.250107,14.929264,16.045353,96.66477,96.58088,96.43001,96.39595,1.6727457,0.7,-97.11248,-41.636303,0.0005768604,-13.126348,2.668347,3.393874,3.3296955,2.949555,1.4584687e-06,0.3,5.82603,89.14728,89.114426,89.071106,88.98827,0.09227334,0.4375,6.3152265548706055,29.45225179195404
42,420000,54.48611355561922,-90.14879,0.037699234,0.8639107,0.91045,-3.6072245,31.080019,27.879456,16.78371,96.63447,96.65035,96.137794,96.31109,1.769302,0.7,-97.37628,-33.568207,0.00091759284,-5.7664495,4.2081485,3.9342415,1.6202829,3.1732116,2.07845e-06,0.3,6.0144944,89.59044,89.583664,89.60199,89.68239,0.06724781,0.40937498,6.364676237106323,30.13594582080841
43,430000,54.35270303424937,-89.204926,0.03688595,-0.52347416,1.4464592,-3.6808443,25.563221,67.76062,21.948158,96.55499,96.788864,96.691086,96.27299,1.2727,0.7,-97.42106,-40.68691,0.0004229803,-7.321269,2.636653,2.0600526,0.81972414,2.8998752,8.451753e-09,0.3,5.8890133,88.60124,88.53026,88.441574,88.57087,0.08394848,0.4734375,5.92138409614563,30.810598131020864
44,440000,54.88789323648678,-89.64476,0.036683656,-1.0686486,0.79558516,-0.8603979,29.891722,16.013996,15.068066,97.56146,97.84849,97.98122,97.58295,3.248196,0.7,-98.34676,-35.284054,0.00060999166,-8.184115,1.2489475,2.381298,3.5372527,4.14291,1.934197e-06,0.3,5.6071634,89.039215,89.057724,88.967865,89.0809,0.08386677,0.44687498,6.140225887298584,31.49542133808136
45,450000,55.13935350043165,-90.65794,0.036652226,0.38992035,0.7142973,-4.0360775,40.42891,16.498955,15.509753,96.17715,96.11111,96.397736,96.07835,6.7089353,0.7,-97.08351,-39.27425,1.0832504e-05,-8.286403,5.7397823,4.2510285,5.5587664,5.630623,2.2693537e-06,0.3,6.0449905,90.09722,90.08128,90.012054,89.800285,0.15384999,0.53125,6.125154733657837,32.173175513744354
46,460000,54.12231700145125,-90.675735,0.036873065,-1.0299299,0.7830033,-73.89048,32.871323,20.723574,14.200202,96.93437,96.84482,96.64321,96.778564,1.7282981,0.7,-97.54451,-37.751427,0.0008549059,-4.243907,73.01788,73.09801,73.4592,73.07654,2.9059012e-07,0.3,5.8634243,90.07935,90.14912,90.08694,90.04436,0.09180568,0.484375,6.097387075424194,32.854530183474225
47,470000,54.864139087889065,-89.56641,0.037353605,-0.09682745,0.7572197,-3.0903227,30.056276,21.484718,17.394144,96.31516,96.14747,96.60575,96.608,4.417592,0.7,-96.88215,-34.326683,0.0008276856,-16.28187,3.8979173,4.015248,4.7126284,4.822134,2.5669985e-06,0.3,5.7961693,88.88514,88.964554,89.07172,89.07997,0.09436007,0.43906248,6.7710041999816895,33.544464313983916
48,480000,55.32748708871075,-89.48622,0.036497008,-0.15917951,0.8402486,-1.9370482,37.560585,30.098469,16.517683,98.062965,97.89054,98.18476,97.28623,2.5299547,0.7,-98.877014,-43.96056,0.00096775964,-11.02835,1.6320139,2.1913748,5.152304,6.4424314,7.152558e-06,0.3,5.842902,88.97423,88.952576,88.93655,88.88345,0.09732051,0.4890625,5.981602430343628,34.21850556929906
49,490000,54.1611097983567,-89.59025,0.037246346,-0.6958364,0.9611361,-5.09238,30.957666,19.16784,20.481312,96.28561,96.75392,96.48651,96.11424,2.2068825,0.7,-96.6468,-39.413265,0.0038263635,-7.268407,5.7918377,5.427064,5.025118,4.730155,4.991307e-08,0.3,6.0848484,89.105515,89.064575,88.72719,88.66189,0.10643023,0.54999995,5.728308200836182,34.89770301183065
50,500000,54.21255496365299,-90.343704,0.036772985,0.26410258,1.6110072,-4.5121627,26.26251,86.32008,14.492792,96.195724,96.143135,95.79416,96.23371,1.4896092,0.7,-97.124466,-29.998116,1.133245e-06,-4.9773545,4.694272,5.1461487,3.646916,4.2322097,3.9156294e-08,0.3,5.9333687,89.7088,89.74099,89.29142,89.494385,0.070749424,0.4578125,6.172052621841431,35.58383769989014
51,510000,55.45908044357928,-89.81677,0.03690253,0.35881355,0.81678116,-4.895943,35.231255,40.223244,14.2492075,96.50389,96.311966,96.44428,96.30832,1.4752512,0.7,-97.01437,-42.84304,0.0012175413,-8.773551,5.9901433,5.1020813,6.426029,5.8372145,1.3645214e-06,0.3,5.9580646,89.2776,89.24923,89.2752,89.22511,0.084483206,0.45312497,6.199694871902466,36.26185953617096
52,520000,54.07617541460555,-90.405136,0.037627604,-0.28476858,0.87348294,-55.4315,31.636,21.211037,17.529886,96.82814,96.80949,96.5242,97.0392,1.5748041,0.7,-97.48149,-35.40645,0.00035069307,-13.812241,51.83743,54.17293,51.181988,53.099903,7.533817e-08,0.3,5.558326,89.774536,89.7598,89.53112,89.655075,0.09262872,0.4515625,6.072794675827026,36.94466598033905
53,530000,53.97481201709492,-89.03561,0.036930516,0.66872007,1.1258354,-4.091895,32.229065,30.829342,17.111042,96.26532,96.03999,96.281456,96.46062,4.4958773,0.7,-97.03244,-35.02178,0.0011415419,-8.669786,4.780346,5.0417852,3.5067997,2.623112,1.3238169e-07,0.3,5.5271177,88.557785,88.490036,88.65878,88.60079,0.13912788,0.3640625,6.331702470779419,37.62743981281916
54,540000,54.574031801223086,-90.22349,0.037188273,-0.3363846,1.1316025,-4.557038,30.720366,15.327515,15.881231,96.76117,96.282684,95.91267,96.352264,3.6714141,0.7,-97.41306,-37.0301,0.00020453666,-7.620446,4.8561625,3.2808323,2.693039,1.1461765,7.700874e-09,0.3,5.697587,89.568924,89.57587,89.09926,89.21437,0.0956295,0.46249998,5.801305294036865,38.29890478054683
55,550000,53.9552109438935,-89.91907,0.036816023,-0.26213476,0.9909586,-3.967328,40.89912,35.498013,17.939133,96.28144,96.161995,96.92274,96.16606,1.7924894,0.7,-96.54041,-32.78246,0.00072708615,-17.854153,4.2615275,4.418158,4.867084,5.4270916,4.991307e-08,0.3,6.0417457,89.27367,89.259766,89.24839,89.34306,0.078218654,0.43281248,5.92628812789917,38.97852333386739
56,560000,54.166302148084256,-89.17918,0.037144355,-2.2086375,0.8465495,-3.7357502,29.531954,9.381134,14.819289,96.44615,96.88934,96.76138,96.79946,2.4517345,0.7,-97.41618,-39.38563,0.0016576224,-15.7793255,4.847245,3.9568987,5.2689548,5.2063775,4.3655748e-10,0.3,5.8011374,88.60948,88.635574,88.768005,88.8396,0.083831966,0.43593752,6.191538572311401,39.65405005613963
57,570000,54.83816051344688,-90.276276,0.03696705,-0.3499217,0.76966846,-55.212517,27.429207,28.13874,16.267979,96.265434,96.40335,96.42066,96.39105,1.0953261,0.7,-96.77898,-34.8974,0.0020665778,-7.809456,52.372383,50.184124,51.04832,52.24095,9.97464e-07,0.3,5.5374246,89.70204,89.74132,89.95503,89.93895,0.07818779,0.38125,5.979717493057251,40.331742803255715
58,580000,55.50515472768007,-89.72348,0.035849854,0.6908358,0.85125184,-6.372239,34.51705,65.87099,15.984612,96.6123,96.63778,97.21537,96.95003,1.3942086,0.7,-97.40608,-39.98707,0.00079683034,-9.846461,9.379003,6.7222614,5.8194118,5.9657817,6.1613277e-06,0.3,5.6968193,89.17136,89.098724,89.04464,89.1257,0.07650463,0.4578125,5.8639421463012695,41.011500883102414
59,590000,55.167990370692245,-89.54103,0.036538,0.2387025,1.3178083,-5.1974354,27.725058,73.341255,18.172997,96.04897,96.39954,96.30197,95.863434,1.1854692,0.7,-96.687294,-36.94595,0.0005389048,-7.1819897,5.3964033,5.5809608,5.1210203,4.436892,2.0664186e-06,0.3,5.6217213,88.95141,89.021515,88.96134,88.92302,0.09600894,0.50625,5.887169361114502,41.68676326274872
60,600000,56.012041984151125,-89.65132,0.03542114,1.107728,2.3141923,-4.8749967,34.939667,276.04333,16.46481,96.664635,96.29174,96.69904,96.09531,29.125277,0.7,-96.04364,-30.742945,0.0015340438,-7.0718493,5.4614706,4.908093,4.8249903,4.7380533,6.037485e-06,0.3,5.880922,88.943954,89.00582,89.34041,89.45252,0.2110273,0.3953125,5.926537752151489,42.36798630158106
61,610000,55.034785385868055,-89.89598,0.035986602,0.06950453,0.8755538,-3.8441856,71.66675,15.96472,15.160147,98.32928,98.30748,97.52415,97.745674,1.6293553,0.7,-98.64329,-41.586296,0.0005796722,-5.566185,5.2009425,4.6594963,4.3528857,4.217699,3.3003744e-09,0.3,5.875622,89.329735,89.35168,89.05469,89.12428,0.08168624,0.5078125,5.914109706878662,43.04803783098857
62,620000,54.078595879098124,-89.106186,0.037316225,-0.012227923,0.8001228,-3.896293,32.97395,43.71784,17.817469,97.60323,97.276215,96.9979,97.01787,3.9871542,0.7,-97.94096,-30.880571,0.00010769378,-11.059305,3.8966694,3.6520915,5.1368256,3.9697788,3.9815788e-07,0.3,5.8920007,88.49365,88.53163,88.476135,88.49704,0.10509082,0.428125,5.968551397323608,43.72501155932744
63,630000,54.70142706613416,-89.269394,0.036715146,0.102090955,1.286929,-5.040689,34.06522,28.75793,15.361858,96.23428,96.30406,96.10564,96.23421,4.7449527,0.7,-96.46884,-30.838036,0.0003187643,-7.746492,3.896598,4.587303,3.752026,4.1521072,3.9156293e-06,0.3,5.663099,88.63627,88.675316,88.348145,88.55649,0.08743575,0.45,5.834310054779053,44.404003568490346
64,640000,54.47446883676182,-89.903,0.036711503,-1.2001148,0.98644733,-6.8082237,40.57993,28.718582,17.337132,96.3487,96.07884,95.62147,95.20591,20.780201,0.7,-96.290695,-31.123491,0.0025910055,-12.361021,7.3165045,8.0913,6.5319233,7.362731,6.016967e-06,0.3,5.7065487,89.36782,89.31122,89.084656,89.17179,0.15956692,0.43281248,5.968710660934448,45.082259543736775
65,650000,53.38305077942802,-88.592255,0.036371853,-1.4929652,0.869885,-4.410374,32.382988,17.606527,14.3637,97.46022,97.35709,97.53969,97.50043,3.3341167,0.7,-97.65687,-35.404446,0.00094736053,-6.655455,5.2177095,4.7351522,5.118563,3.4461217,1.4135422e-05,0.3,5.8085938,88.0618,88.030945,88.07703,88.06377,0.10143022,0.43124998,6.081242322921753,45.760309298833214
66,660000,55.32515342050114,-88.52652,0.03616042,-1.0423208,0.7814549,-4.99252,31.736774,10.120076,15.73238,95.647514,95.79974,95.937065,96.009315,1.245603,0.7,-96.1925,-45.556103,0.0012002145,-13.892639,5.655426,5.093729,4.4156837,4.2576985,5.784212e-07,0.3,5.4240994,87.89885,87.99052,88.10561,88.08401,0.07302173,0.45,6.066756963729858,46.44775019486745
67,670000,55.795011901738576,-89.74283,0.035666578,1.117573,1.0365953,-50.436592,39.31434,42.25576,14.790531,96.33171,96.885826,96.214714,96.12159,6.1116605,0.7,-97.68265,-29.104725,0.00034195516,-11.82671,42.064037,44.96318,45.210407,47.69679,6.2864275e-10,0.3,5.6499057,89.14522,89.10507,89.121704,89.19815,0.10495794,0.4328125,5.924279689788818,47.12462838888168
68,680000,54.775194818107146,-89.878624,0.036803033,-0.2964557,0.59685946,-67.63447,25.304068,17.853216,15.346601,95.83121,95.55364,96.08165,95.32397,0.7351568,0.7,-96.240555,-38.776707,0.00070351665,-8.207306,65.46358,64.44962,65.58157,65.91248,4.9236874e-06,0.3,5.5466795,89.21563,89.25273,89.26462,89.272835,0.059211858,0.459375,5.8279478549957275,47.80331247250239
69,690000,55.40520580054873,-88.710304,0.035759877,-0.018710673,1.2568471,-5.200925,43.162025,57.803726,15.369891,96.985695,96.863815,97.65113,97.32511,7.4452834,0.7,-97.24826,-34.79014,0.0021811572,-19.098764,5.469937,5.264431,4.803576,4.5548754,5.5546875e-06,0.3,5.6796,88.04323,88.06125,88.36939,88.317986,0.10899393,0.403125,6.206071138381958,48.4889294664065
70,700000,55.18106297380609,-90.349884,0.036737945,-0.13745612,1.5212147,-48.936867,27.72474,84.98656,15.360791,95.37306,95.75771,95.46578,95.33755,1.5604371,0.7,-96.28089,-37.239758,0.0018848819,-8.091768,51.27025,50.78441,49.617977,49.993214,2.9511285e-09,0.3,6.1079655,89.81357,89.83332,89.31952,89.50284,0.08092147,0.453125,6.033324718475342,49.16752399603526
71,710000,55.45527354720993,-89.55031,0.03664535,0.092119545,0.7236569,-9.25216,52.663406,11.938383,14.920057,95.739136,95.60042,95.55202,95.48686,5.7892876,0.7,-96.47021,-28.2972,0.0006579713,-6.625187,8.969883,9.781945,8.1598835,7.817186,4.0745363e-07,0.3,5.8499165,88.92795,88.92565,88.96685,88.90199,0.11012103,0.5078125,6.091099739074707,49.8529083053271
72,720000,54.76479971593188,-90.12726,0.03629956,0.56332,0.794438,-5.93092,26.138851,36.549046,17.11679,96.79046,96.69053,96.90573,96.083786,8.809739,0.7,-96.92953,-40.20698,0.0001252807,-9.288832,6.6423798,6.020818,5.651498,5.6865497,1.4709076e-08,0.3,6.1051617,89.45403,89.4425,89.33218,89.48201,0.1641944,0.44687498,6.013269662857056,50.53375054995219
73,730000,54.672470614983304,-89.89527,0.03636032,0.35526794,0.82604146,-6.285404,35.335636,23.13393,15.358775,96.44711,96.305115,96.485535,96.32803,3.2078786,0.7,-96.759735,-35.891,0.001042431,-5.7517834,6.5248165,6.3369713,5.1343007,5.6453605,1.8834544e-06,0.3,6.3594475,89.364,89.30751,89.476974,89.457695,0.08693365,0.41875,6.076623439788818,51.21389261484146
74,740000,55.14878018860754,-90.20374,0.036212306,-1.131599,0.80481684,-70.13052,27.785011,18.973083,17.24706,96.24073,95.84222,96.201675,95.842804,1.9097563,0.7,-96.361404,-36.10603,8.671597e-05,-3.716114,69.9833,68.846725,69.94455,68.84619,1.4144462e-07,0.3,5.6716614,89.60736,89.64633,89.61506,89.52483,0.085306995,0.4828125,6.057450294494629,51.89870764414469
75,750000,55.65192168754525,-90.00824,0.036882106,-0.05868674,0.7002515,-5.7699957,30.83596,19.9538,15.165726,95.588844,95.40776,96.65466,95.541275,1.9841057,0.7,-96.112595,-35.10991,0.0015268011,-4.9495,6.1155596,5.8417172,5.282961,5.1613116,1.7993327e-06,0.3,6.201562,89.42929,89.40956,89.5097,89.437744,0.079088226,0.44531247,6.3064799308776855,52.58150731722514
76,760000,55.35998331284476,-90.3627,0.03653758,-0.14986329,0.8089576,-3.3350625,29.378788,24.094452,15.783011,96.20941,95.941444,95.64694,95.56739,4.580212,0.7,-96.6601,-33.08028,0.001021438,-4.9813538,3.5920887,3.42413,3.5209813,3.4655914,1.3302081e-06,0.3,6.1486406,89.7834,89.796455,89.630714,89.66674,0.10217392,0.4859375,5.979825258255005,53.26323184967041
77,770000,54.30085386804575,-89.33066,0.035509642,0.23061416,0.672071,-4.0629745,26.25448,17.610111,15.633724,96.87255,96.92296,96.438225,96.44323,7.8548393,0.7,-97.43358,-35.25702,0.00018376717,-9.280085,4.405402,5.0914197,4.2390714,3.5222454,1.1175871e-09,0.3,5.97863,88.802795,88.7529,88.52379,88.537384,0.10570529,0.46249998,5.861940860748291,53.94701275428136
78,780000,55.39731900734254,-88.83363,0.037088368,-1.3731266,0.68435526,-4.793191,29.51194,32.8314,15.764364,95.955536,95.75994,96.03988,95.79347,0.9017367,0.7,-96.10526,-34.94956,0.00045772234,-12.45788,4.8272614,5.2367887,4.7524385,5.107089,4.172325e-08,0.3,5.461692,88.26337,88.22466,88.26305,88.33568,0.069387704,0.45,5.901750087738037,54.628700375556946
79,790000,54.88786616976381,-90.5504,0.036270365,-0.24803624,1.0024831,-73.965034,34.71101,17.163603,14.195995,96.44096,96.506454,95.82552,95.52839,2.3438241,0.7,-96.710556,-55.22089,0.0006076757,-7.6701345,74.32733,73.128395,73.1542,73.253494,1.2321398e-07,0.3,5.9003963,89.97395,89.97881,89.646866,89.54703,0.11681753,0.57500005,5.833489418029785,55.313675645987196
80,800000,55.24184352237177,-89.321075,0.036677305,-0.07235594,1.4190772,-3.3799267,34.378277,103.477234,20.031488,96.587395,96.847466,96.96431,95.80234,8.525825,0.7,-97.26617,-47.521618,0.002007449,-5.198845,3.4588099,3.780939,3.8760703,4.748948,5.476177e-08,0.3,5.465835,88.725464,88.64838,88.62833,88.66032,0.1537433,0.46249998,5.974318504333496,55.99758839209874
81,810000,55.276119009126646,-89.487114,0.036236722,0.8038038,0.5907491,-3.1950464,38.22057,5.1284614,15.40837,96.17976,95.9798,96.1265,95.70986,1.9438504,0.7,-96.607765,-33.84405,0.001637077,-12.8216,3.286517,3.8140624,3.0292003,4.140794,2.0186418e-08,0.3,5.604334,88.8442,88.86722,88.73143,88.725685,0.08522174,0.45937496,6.040135622024536,56.67589797178904
82,820000,54.507870012499716,-89.04127,0.036645405,-0.11268222,0.86463964,-3.9356267,41.975445,10.44881,17.056293,96.85154,96.81079,96.49316,97.114716,2.164924,0.7,-97.80937,-37.233837,4.7907757e-05,-10.298062,4.193693,4.1467915,3.121656,4.066516,8.027139e-06,0.3,5.907275,88.39465,88.434814,88.77704,88.577805,0.1064823,0.409375,6.008984565734863,57.35649372339249
83,830000,55.31326877289806,-90.64364,0.03578176,1.4929202,0.6301025,-59.05392,33.41566,12.205992,14.946053,96.6744,96.960266,96.88965,96.737366,7.066255,0.7,-97.20846,-46.684723,3.2276672e-05,-8.772209,57.50557,57.38397,59.487514,57.660973,1.1177443e-06,0.3,6.0975685,90.02525,90.042816,90.118195,89.87073,0.1220983,0.51875,6.003490209579468,58.033692904313405
84,840000,55.174346898488736,-89.41375,0.036510002,-0.5753892,0.69052935,-4.7023745,51.27694,10.148572,16.684954,96.91008,97.21788,97.0941,96.932785,2.0661457,0.7,-97.65232,-43.715,0.0003313439,-9.932259,5.1257014,5.5272703,6.601177,6.776821,4.793651e-06,0.3,5.6233244,88.89303,88.91739,89.077515,88.75026,0.11122058,0.5703125,5.917171239852905,58.712819902102154
85,850000,55.18145565148146,-89.91263,0.036875676,-0.09143129,0.6858259,-5.7124214,37.24891,16.880367,15.031582,95.73703,95.74096,96.43771,95.695145,4.5685678,0.7,-96.02815,-37.300602,0.0003508053,-6.7676105,6.773763,6.4655695,6.5832095,6.245924,1.3238169e-07,0.3,6.012414,89.277504,89.352066,89.39749,89.415535,0.110534295,0.45624998,5.938829660415649,59.396599928538
86,860000,55.232803668357946,-89.11568,0.036397576,-1.2656928,1.4108436,-6.157299,34.975185,208.0564,17.737238,96.57606,96.51814,96.53901,96.075775,3.5742164,0.7,-97.74197,-33.96073,0.0012216787,-12.7945,6.1610723,5.969344,7.361861,7.431433,3.9131845e-07,0.3,5.9078774,88.47579,88.47392,88.50389,88.50929,0.10472785,0.48281246,6.158211708068848,60.070259328683214
87,870000,55.47246025728491,-90.28825,0.035914496,0.21005645,0.602251,-56.98812,32.093147,15.350237,14.202766,95.77562,95.73747,95.23019,95.61711,1.8973881,0.7,-96.0645,-41.768524,8.849014e-05,-9.50526,56.799496,59.304848,56.990685,58.145447,1.0272878e-05,0.3,5.8359,89.72171,89.70555,89.666626,89.61385,0.069816604,0.4703125,6.015440225601196,60.74608084360759
88,880000,55.99144926416142,-89.281715,0.035403073,0.45093507,0.87717044,-4.978816,26.248678,22.165377,16.053423,96.6387,96.31901,95.773895,96.521706,3.7130053,0.7,-96.335815,-33.374405,0.0001925492,-5.3949165,5.8277774,5.7668324,5.0635805,4.8790283,2.1904708e-07,0.3,6.131056,88.75113,88.76431,88.51057,88.46027,0.10531969,0.546875,6.226076602935791,61.42525616089503
89,890000,55.42224991561447,-89.12256,0.0359625,0.17088032,0.8525011,-5.5480766,37.50141,38.39002,15.112186,95.50879,95.26281,95.724724,95.754135,2.0329373,0.7,-96.31525,-46.07947,0.00048409041,-11.1860075,5.4412975,5.4615116,4.9327273,5.3201466,4.4146438e-07,0.3,5.3939185,88.61572,88.49896,88.67821,88.74547,0.06902271,0.45625,6.460801839828491,62.10512911081314
90,900000,55.52217720564291,-89.01932,0.03618714,-1.3862848,1.1999857,-3.64724,31.452255,48.96692,15.825483,96.27052,95.766014,97.19449,95.980774,11.296335,0.7,-97.18555,-39.61579,0.0004690262,-5.341621,4.4252462,4.9125547,4.441262,4.358737,2.1147544e-06,0.3,5.9253817,88.2991,88.29736,88.51352,88.53994,0.15999478,0.421875,6.157657861709595,62.78740657567978
91,910000,54.70557442554009,-89.170265,0.03620958,-0.054586366,1.3248166,-3.1764696,29.270493,65.30031,17.444649,96.69604,96.71188,97.40512,96.300644,103.84491,0.7,-97.315,-36.74652,0.0010858296,-13.985761,3.87572,3.7085743,5.5545807,5.532868,4.9051596e-06,0.3,5.8222103,88.422714,88.47941,88.35701,88.39276,0.5319549,0.4890625,6.274288654327393,63.46739503939946
92,920000,55.533326767636574,-90.09628,0.035750207,-0.35217863,0.80878294,-9.172996,33.977448,29.621403,17.780153,95.847664,95.5577,95.56462,95.70156,3.8455305,0.7,-95.999695,-27.88986,0.00021616765,-7.1146426,9.549408,9.616511,8.51135,9.371749,3.426685e-08,0.3,5.60713,89.47551,89.4355,89.32834,89.416214,0.105932906,0.4546875,6.1472084522247314,64.14496890703838
93,930000,55.44533226978683,-90.32367,0.03606683,1.4766951,0.9680216,-67.0475,30.17962,56.75801,16.928864,95.93412,96.00747,96.83669,96.30664,2.0192592,0.7,-96.489494,-34.717808,0.0015644056,-7.149675,65.36088,66.19811,66.07049,66.900314,1.2262899e-06,0.3,6.364807,89.72708,89.72241,89.848465,89.83785,0.07341983,0.47187498,6.126591205596924,64.82650023698807
94,940000,55.63261079207938,-89.82419,0.035846487,0.40063262,1.083911,-9.326578,82.65634,47.068848,16.62244,96.30526,96.434784,96.01393,95.97195,7.121373,0.7,-97.049515,-40.209793,0.00029863615,-8.779529,11.134464,9.909359,11.538322,11.220904,1.2355624e-06,0.3,5.6681404,89.22217,89.12709,89.075455,89.1818,0.16451645,0.4609375,6.245938539505005,65.50415425697962
95,950000,55.60285431775224,-89.88463,0.036253843,1.4239299,0.92278516,-6.3478885,31.04231,37.564304,15.285265,96.10681,95.91304,95.87496,96.07955,2.1897523,0.7,-95.72724,-39.900146,2.9115472e-07,-7.074073,7.679644,7.4894485,5.732098,6.686393,2.8968976e-05,0.3,6.476815,89.230774,89.228874,89.078064,89.278435,0.10955977,0.3828125,6.337805271148682,66.18314536015193
96,955000,55.13837720038309,-89.55244,0.03550211,-0.06917697,0.6949723,-5.3451967,31.507263,26.336468,16.877285,96.25666,96.6388,96.418884,95.89314,1.895541,0.7,-96.56245,-31.91528,0.0015620715,-5.097498,5.820213,6.1503477,3.7773185,5.203033,3.9934528e-07,0.3,6.09923,88.97199,88.95743,88.722496,88.868,0.09631723,0.4515625,5.916530609130859,66.57457885344823
97,960000,55.36389361655446,-88.38349,0.03484466,-1.3965075,0.61483026,-4.1951685,80.75214,9.641925,16.666508,95.61427,95.33696,96.035545,95.568855,1.7945937,0.7,-95.77752,-39.131382,0.0002675478,-13.059596,4.715475,5.0018797,4.8897147,4.7330313,8.6852816e-07,0.3,5.7044983,87.804016,87.81911,87.921036,87.93146,0.082160205,0.4421875,5.998689889907837,66.96749770641327
98,965000,55.77215819878219,-89.06,0.035164777,-0.6708672,0.7856832,-4.64337,76.571236,18.44529,26.772179,95.667015,95.743645,96.11415,96.347466,1.8013397,0.7,-96.14798,-38.435635,0.0034329626,-10.982426,5.788348,3.06038,4.548706,4.355963,9.782962e-06,0.3,5.9806356,88.39983,88.355156,88.39087,88.39088,0.102940306,0.4375,5.953502416610718,67.3547433813413
99,970000,55.51236221990965,-90.038445,0.035488933,0.13506976,1.3800325,-57.678257,32.798615,56.08474,15.941778,97.75181,97.41057,97.20078,96.95521,2.4570374,0.7,-98.85424,-37.646526,0.0008383441,-14.807886,50.128063,49.465675,49.662357,47.537064,8.332019e-07,0.3,5.733314,89.38373,89.39447,89.15701,89.22089,0.114195876,0.440625,6.034865617752075,67.74514043331146
100,975000,55.500285979755795,-89.303734,0.03582806,-0.97881615,1.1168637,-5.2814226,25.900703,36.97795,14.111658,95.87908,95.99084,95.722084,95.47383,6.7051573,0.7,-96.53211,-32.197525,0.0017060689,-7.4269333,5.37527,6.0378985,6.802812,6.721293,2.1391315e-06,0.3,5.5628786,88.72087,88.706085,88.59932,88.49933,0.1343122,0.4828125,5.9184722900390625,68.13661803801854
101,980000,55.70088590586847,-89.788895,0.036526553,0.04846382,0.5799754,-4.980057,58.987297,24.104462,16.04,97.110344,96.74843,97.193565,96.879,1.4954026,0.7,-97.36917,-34.06263,0.00078588957,-8.197453,5.144847,3.061139,7.4146047,6.6734734,4.9874075e-07,0.3,5.850877,89.17755,89.17836,89.17554,89.15905,0.075466245,0.4578125,6.080014705657959,68.52670221726099
102,985000,55.200303107657454,-89.62186,0.03543505,-0.09449032,0.85853016,-5.2959967,29.219683,21.14046,15.346298,95.83297,95.71526,95.57633,95.65088,3.7373304,0.7,-96.37688,-33.902508,0.00036642473,-11.340094,5.4877954,5.029943,4.6311607,4.6876726,2.766098e-06,0.3,5.564775,89.0021,88.97511,89.10879,89.15051,0.10527336,0.440625,5.4408252239227295,68.90883042414983
103,990000,55.26642713779203,-90.193054,0.03730493,0.34002608,0.7170905,-5.3872256,30.657,28.475033,17.07307,95.526184,95.58213,95.950714,95.21925,1.4722859,0.7,-96.245575,-31.050858,0.00044021674,-7.238557,5.5180798,5.3238645,4.299467,4.217639,9.782961e-08,0.3,5.7970877,89.562744,89.58746,89.49049,89.36077,0.08112597,0.440625,5.778797388076782,69.29732848405838
104,995000,55.54245114826758,-88.11528,0.035729956,1.8459276,1.1951447,-4.5401654,31.365852,27.307446,15.894842,95.61219,95.56899,95.8423,95.07022,4.101525,0.7,-95.450165,-37.51973,6.1265426e-05,-17.354065,4.9085565,4.640767,4.3675675,4.5399475,2.514571e-07,0.3,5.9607344,87.478096,87.4991,87.85871,87.72941,0.11845561,0.4265625,5.76124906539917,69.68170217672984
105,1000000,55.26452043024891,-89.4406,0.0345553,-1.539845,0.78279054,-4.7772264,35.12012,18.49578,17.742008,96.94334,96.96502,96.34695,96.901085,1.2420863,0.7,-97.83415,-40.670815,0.00025343674,-16.150497,4.329749,4.6821566,4.540293,4.7712727,3.1553208e-07,0.3,5.868499,88.80377,88.80844,88.76794,88.79753,0.07481563,0.459375,5.57219672203064,70.06549136241277
