Xixo99/comfo/baselines/comfo6_perterbation_actor/20230225_noise0.01/halfcheetah-medium-v2/COMFO6_s0_20230224_092549_halfcheetah-medium-v2_55.91.csv
,step,reward,actor_loss,alpha,alpha_loss,critic_loss,max_actor_loss,max_alpha_loss,max_critic_loss,max_mle_prob,max_q1,max_q2,max_target_q,max_v,max_value_loss,max_weight,min_actor_loss,min_alpha_loss,min_critic_loss,min_mle_prob,min_q1,min_q2,min_target_q,min_v,min_value_loss,min_weight,mle_prob,q1,q2,target_q,v,value_loss,weight,eval_time,time
0,0,2.255503977621363,,,,,,,,,,,,,,,,,,,,,,,,,,,,,,,,,
1,10000,-2.288332999238315,-35.946438,0.09307236,-1.6898491,1.6032678,-0.6071511,30.039951,34.52295,12.521282,43.49443,43.390285,42.801506,42.045494,6.5991297,0.7,-44.25237,-26.039204,0.0004453607,-9.8087635,-0.39875004,-0.11260277,-0.51081795,0.09281206,2.7097305e-05,0.3,3.2983224,35.319004,35.374,34.89477,34.514732,0.15078244,0.44062498,5.556345462799072,2.1608596007029215
2,20000,-3.0376254189608596,-58.32675,0.11610249,0.030146837,2.145371,-2.3633416,21.624884,37.65676,13.264923,68.38988,67.89774,68.58615,69.177,2.295725,0.7,-69.58487,-19.905918,0.0017150671,-20.8519,1.659211,2.325609,-2.3339462,2.367962,4.2786997e-08,0.3,2.8183496,57.57093,57.612534,57.948914,57.686485,0.17775336,0.4171875,5.528428316116333,2.8215065439542135
3,30000,-0.9540355707025497,-71.5462,0.1095852,-0.36512646,2.105739,1.1678909,26.63694,39.595303,15.378479,83.13487,82.76842,83.4684,83.09073,2.7783444,0.7,-83.30207,-25.363783,0.0082872,-12.92393,-1.2899145,-3.0232103,-2.2459302,-1.571815,4.4921762e-07,0.3,3.3386638,70.78348,70.9071,71.02722,70.868935,0.16380608,0.4515625,5.5269775390625,3.480950891971588
4,40000,-1.8916386003349408,-80.07301,0.093410894,-0.103871584,2.430169,-39.02886,18.428791,45.83731,14.022441,89.083305,89.097786,89.50507,88.41651,2.9513462,0.7,-89.81291,-30.838997,0.0002328782,-9.918587,38.859234,38.93914,34.988483,38.636055,1.0139379e-05,0.3,3.839635,79.49941,79.57994,79.65025,79.54927,0.16079184,0.40937498,5.632878065109253,4.150556846459707
5,50000,-1.75634107665932,-84.77237,0.08063385,0.60227245,1.7206645,-0.65352637,31.454779,43.840492,14.004855,95.223015,95.23583,94.67149,95.83962,2.770673,0.7,-95.45359,-27.805334,0.00055776583,-7.2273316,0.71710265,2.2384257,-2.3196998,-0.6471262,1.688971e-06,0.3,4.6163244,84.27068,84.265625,84.19555,84.18118,0.11997915,0.43281248,5.612436056137085,4.8232673645019535
6,60000,0.7238178496650632,-86.76362,0.069443546,-0.25191498,1.2047404,6.0380306,22.449528,22.17493,16.34514,95.96081,95.97188,95.84536,95.47245,1.3621811,0.7,-96.33194,-32.646988,0.0008424379,-5.276272,-6.1432786,-6.227202,-4.5001135,-5.1164083,6.5045316e-07,0.3,5.043371,86.34634,86.36134,86.35405,86.41725,0.13917366,0.4578125,5.564100980758667,5.49820111989975
7,70000,0.7373596191543011,-87.75059,0.06010072,0.1143291,1.0227822,4.8368397,30.797031,14.689024,15.219997,95.00601,95.12424,95.215996,95.241165,1.2729074,0.7,-95.95007,-32.506447,0.0003782104,-9.582165,-5.238759,-5.19174,-4.9631705,-5.720687,1.7462299e-09,0.3,4.846122,87.2339,87.33803,87.456215,87.3175,0.08251637,0.4296875,5.555861234664917,6.175060443083445
8,80000,4.150595820769996,-89.041046,0.05441889,0.82519007,1.2933469,1.6812812,25.701702,55.79658,14.834767,95.8762,95.76297,95.86707,95.90895,1.6957772,0.7,-96.72427,-30.421171,0.00037543598,-6.9601746,-0.7666357,-1.2148724,-3.5884016,-3.8192902,1.616038e-05,0.3,5.7303514,88.60896,88.65678,88.50549,88.52832,0.097763546,0.4953125,5.611431360244751,6.85428432226181
9,90000,8.743544410981121,-89.26027,0.05184641,-0.7053495,0.9703928,5.1838217,23.746925,18.858324,13.647735,95.957695,95.74232,96.31946,96.53251,1.6678022,0.7,-96.1118,-34.428864,0.0017435462,-5.4779186,-3.17061,-4.457087,-5.9317236,-4.801378,1.2730015e-06,0.3,5.480725,88.791115,88.83292,88.99705,89.14159,0.12624608,0.36562496,5.54706597328186,7.5356123407681785
10,100000,27.67187058092046,-89.36936,0.048811868,-0.7713605,1.0083327,5.0114584,26.52542,38.157707,14.883344,98.51398,98.189415,98.49598,98.45451,1.4450655,0.7,-98.70369,-45.55942,0.001400186,-8.020071,-5.1469383,-3.7384977,-5.056758,-5.325655,1.1804514e-06,0.3,5.4120574,88.823135,88.89342,88.88695,88.78569,0.08697459,0.475,5.718744993209839,8.217735544840496
11,110000,44.55074272750073,-89.77795,0.047541868,0.37342352,1.1645913,-66.51852,29.898357,24.587929,15.236186,97.43989,97.48889,97.16433,97.030785,2.128152,0.7,-97.82626,-28.76541,0.0023898839,-5.2534413,66.5716,66.81354,66.20137,66.34927,6.3704215e-07,0.3,6.1170173,89.28419,89.29414,89.17853,89.154396,0.0738955,0.47187498,5.690512418746948,8.897311262289683
12,120000,42.3574048975149,-90.46818,0.047348935,0.41344953,1.7123761,-46.833977,29.344276,46.952484,16.278858,97.893196,97.552605,97.27916,97.52626,9.166066,0.7,-98.18927,-37.72031,0.0014032094,-11.774111,47.647648,44.858757,44.10242,49.333607,2.6560157e-08,0.3,5.4620886,90.006744,90.03548,90.02723,90.091774,0.1198161,0.4125,5.797641754150391,9.582967722415924
13,130000,39.3126258744136,-91.043144,0.045887228,-0.085180044,1.5663521,-67.87239,27.349836,51.18895,15.379734,97.36039,97.82316,97.38702,97.00577,5.5733566,0.7,-98.40872,-32.478943,0.005310594,-11.164415,66.77399,67.17931,66.5906,66.78506,1.710914e-05,0.3,5.6465197,90.58676,90.56155,90.27701,90.41056,0.110119045,0.44375,5.600185394287109,10.265310990810395
14,140000,52.376283296875314,-90.627144,0.044546038,-0.04792261,1.1507673,-54.79601,33.557,17.625498,14.973194,96.602196,96.26775,96.26256,96.86803,2.9650774,0.7,-96.707085,-32.535347,0.00041319925,-5.439109,51.559574,53.761158,52.877182,55.250004,4.056911e-06,0.3,5.9279532,90.185684,90.16734,89.9098,89.92201,0.09023393,0.49218747,6.086107015609741,10.949363481998443
15,150000,41.49813392463279,-88.37019,0.04467876,0.7539774,0.71503544,5.457424,33.57426,15.299561,21.12638,96.450096,96.21889,96.491035,96.31918,2.203773,0.7,-97.05894,-48.196987,0.00033342262,-9.924791,-4.936626,-4.88905,-6.87131,-4.0120196,2.1239905e-05,0.3,5.7043104,87.86496,87.8476,87.76166,87.88319,0.07493549,0.4703125,5.859336614608765,11.630610346794128
16,160000,52.96447740537715,-90.699165,0.04414487,-0.31145898,0.7373064,-68.45921,51.402275,38.467793,15.193573,97.36223,97.3296,97.260414,97.27008,1.3938274,0.7,-96.857895,-30.9932,0.00081843755,-6.530368,68.75181,68.92812,69.00886,68.05125,6.7163023e-06,0.3,5.7389307,90.21491,90.21303,90.33188,90.35389,0.082305625,0.41875,6.129885673522949,12.315354160467784
17,170000,44.25628745618212,-90.57022,0.0429241,0.15224141,1.0087523,1.006678,35.174828,14.060528,13.603018,97.56875,97.78546,97.63448,96.75407,3.24635,0.7,-97.845955,-35.146484,0.0012967768,-8.387143,-0.642446,-0.17910075,0.5226909,-1.3504145,1.8840656e-07,0.3,6.19682,90.07183,90.05923,89.78671,89.60563,0.11059718,0.571875,5.877817153930664,12.995477890968322
18,180000,52.30681830701561,-89.79325,0.04206782,-0.2893543,0.92434394,-1.4352968,30.342295,13.368599,17.354132,98.335594,98.00818,97.790596,97.54271,1.6856816,0.7,-99.0459,-43.554306,0.0016568231,-7.698465,1.8658766,1.0031102,1.2953193,1.2639239,8.556526e-08,0.3,5.425352,89.310745,89.28495,89.36682,89.17978,0.10891764,0.5203125,5.948046445846558,13.678106741110485
19,190000,52.85930734260037,-89.23216,0.040771544,1.0521712,0.7217915,-0.69642407,26.613415,45.57527,15.086028,95.41116,95.53219,95.639946,95.31474,1.7138809,0.7,-96.42912,-33.073532,5.8381644e-05,-8.707169,0.83324665,1.1036632,-0.33280748,0.09878826,6.9849196e-11,0.3,5.752623,88.69833,88.710625,88.67642,88.60202,0.0827829,0.53749996,5.997224807739258,14.361119480927785
20,200000,53.648819810717406,-90.264656,0.041344453,-2.259192,0.77414954,-66.61847,57.59279,12.064352,13.413004,96.33771,96.418816,97.16522,96.52446,2.8629808,0.7,-96.8511,-34.06341,0.00041456393,-17.471277,63.972,62.819557,64.096565,66.16611,9.9412326e-05,0.3,5.293951,89.754425,89.824585,90.00357,89.91037,0.07644216,0.41875,5.892931222915649,15.03969335158666
21,210000,51.249086159670185,-90.05948,0.041356098,0.50646096,0.9004729,-59.03189,34.144836,26.079317,17.673653,97.85474,97.811295,98.504295,98.56932,3.9750705,0.7,-98.3501,-39.486595,0.0018801098,-14.576223,56.192036,54.325356,55.47472,57.918537,1.8834544e-06,0.3,5.740524,89.49659,89.488525,89.65114,89.71527,0.0970733,0.4203125,5.757177829742432,15.717222885290782
22,220000,53.87313076025795,-89.10726,0.041362736,-0.8070275,0.91686034,-1.4467499,26.234621,14.690212,16.979565,96.26536,96.44045,96.76671,96.433105,1.8932058,0.7,-97.07346,-34.001743,0.0005203225,-12.0876045,1.2453579,1.6467886,0.36956343,1.0082188,2.0186418e-08,0.3,5.2011185,88.5433,88.53516,88.45363,88.54791,0.10337227,0.46875,5.819562673568726,16.393829917907716
23,230000,53.680558682114146,-89.74651,0.04036335,0.7430592,0.8971067,2.7981777,52.186676,16.176147,14.988718,96.50222,96.69367,96.90251,97.19278,19.982237,0.7,-97.0479,-50.125767,0.00085257465,-15.158219,-1.0252144,-2.677665,0.5496789,-0.38161474,4.599988e-06,0.3,5.4916296,89.114456,89.0618,89.10622,89.26642,0.17902127,0.3828125,5.807938814163208,17.069018149375914
24,240000,53.49438496889618,-90.516304,0.041152596,0.26550806,1.1400931,-1.1469095,26.847641,74.377655,15.343025,97.53265,98.00616,97.80693,97.45564,0.7490447,0.7,-97.82126,-31.648369,0.0008307231,-7.913656,3.0769453,1.0820101,2.469851,2.9049926,3.833731e-07,0.3,5.8150506,90.02409,90.02862,89.90686,89.99875,0.066653654,0.440625,5.6390814781188965,17.747267067432404
25,250000,54.279042077809045,-88.88386,0.03946039,0.29156494,1.0540897,0.76415,90.84481,33.98407,15.6054,96.26444,96.35265,96.7635,96.68227,6.9170694,0.7,-96.87363,-37.579285,0.0017969413,-8.910566,0.10166687,0.03953463,0.95238143,0.6359477,2.9354124e-08,0.3,5.5944314,88.33196,88.275406,88.26218,88.318146,0.13191213,0.4421875,5.510420083999634,18.420549070835115
26,260000,53.090392290366104,-89.651474,0.040222593,0.5135652,0.7675878,-0.9009528,33.825024,24.280434,15.593291,96.42822,96.6356,95.9121,95.62065,1.3306731,0.7,-97.83292,-37.296513,0.0043956377,-6.805005,1.1045296,1.4907221,0.53147006,0.8126378,9.782961e-08,0.3,5.672411,89.09968,89.143555,88.99663,89.03157,0.068715796,0.5015625,5.560173273086548,19.098884777228037
27,270000,54.25046500638347,-89.835014,0.04048241,0.16054615,1.0950677,-1.7890439,35.285694,69.88783,15.319974,95.79855,96.09895,96.58784,96.025024,10.645458,0.7,-96.654106,-30.608887,0.0006119153,-7.2937603,1.9382348,1.7465885,2.3145974,1.4533534,2.7756148e-06,0.3,5.481312,89.21424,89.26193,89.42355,89.17254,0.16748989,0.503125,5.50531530380249,19.773917651176454
28,280000,53.58523659229526,-90.49573,0.040304612,1.0712324,0.663824,-70.3931,32.540195,22.091991,17.62465,95.884476,96.009865,95.994125,95.82992,2.203055,0.7,-96.36645,-35.452,0.00074391405,-10.1184225,69.662384,69.58971,68.69634,70.23375,1.3205863e-06,0.3,6.059778,89.86919,89.824844,89.89134,89.97485,0.07907635,0.4609375,5.5099828243255615,20.44984536965688
29,290000,55.0368586806939,-89.9642,0.039978758,0.8494154,0.8549092,0.8674389,32.995453,12.856712,15.168008,97.13848,97.22946,97.34634,97.29353,1.5069696,0.7,-97.53587,-32.959778,0.00027447968,-8.221245,-0.29122669,0.64184314,1.8709509,2.0553725,2.1554297e-06,0.3,5.8185453,89.48599,89.509544,89.410034,89.41757,0.07163358,0.41875,5.513631105422974,21.12774620850881
30,300000,54.609006843510855,-89.42815,0.03951232,1.8398312,2.3741274,-1.5693971,38.299206,312.33862,14.889549,96.59759,96.24298,96.40387,96.338,6.400727,0.7,-96.816536,-39.17674,9.146635e-06,-11.104172,0.17679238,1.3575461,-0.058964442,1.628304,1.6298145e-10,0.3,5.879677,88.80444,88.79263,88.698944,88.84575,0.12437527,0.40468746,5.412628889083862,21.80183333158493
31,310000,55.57020079744752,-89.63553,0.039322898,1.4067495,1.5049589,-0.298704,39.766895,46.954735,15.0097685,96.91834,97.03059,97.0895,97.01461,1.3905629,0.7,-97.65144,-32.391647,0.00015195721,-13.373527,0.5522619,0.983776,0.43779805,0.2151869,1.0353397e-07,0.3,5.679159,88.98788,88.98953,88.98244,89.050186,0.08317496,0.46249998,5.621310472488403,22.478271234035493
32,320000,54.928005250084524,-89.42493,0.039631546,0.28854284,1.1429904,-2.3900862,30.828373,27.861053,15.541028,97.74724,97.620804,97.4649,97.85397,2.4095116,0.7,-97.84401,-39.53591,0.0043178257,-9.694779,2.5530646,2.3013883,1.1948532,1.4486508,6.2864274e-08,0.3,5.760372,88.85204,88.85373,88.96466,88.85367,0.08701162,0.4859375,5.5515265464782715,23.15445183912913
33,330000,54.99713333483156,-89.8963,0.038641796,-0.2866512,1.1601007,-2.284213,33.907646,33.23942,18.161926,97.41899,97.16649,97.12792,96.59063,3.0428548,0.7,-97.748665,-30.422123,0.0011021388,-11.061299,2.6559281,3.5190167,2.3469946,2.6689317,6.8492955e-06,0.3,5.859836,89.33838,89.32716,89.028946,89.19498,0.087699525,0.40937498,5.592911958694458,23.83076857328415
34,340000,55.14564862450824,-89.44409,0.03880163,-0.5864437,1.3545711,2.1031165,84.63708,44.584858,14.370554,98.337975,98.20663,97.86524,97.92733,1.8972418,0.7,-98.70252,-45.44965,0.0019453252,-10.333188,-2.9477706,-4.1438313,1.1376581,-1.7794614,4.33072e-06,0.3,5.334604,88.89661,88.88782,89.280815,89.076065,0.09527443,0.43906248,5.547825336456299,24.50417394240697
35,350000,55.41403231761811,-90.04817,0.038767584,-1.0483041,0.9050252,-68.04714,48.373013,34.29502,14.910858,96.1623,96.38044,96.178314,95.9676,2.335206,0.7,-96.957596,-36.323154,0.0015137848,-5.8504314,68.47512,68.464226,69.50364,66.291756,1.5662518e-07,0.3,5.591443,89.45068,89.42864,89.56142,89.66534,0.0880602,0.425,5.618722200393677,25.18461076815923
36,360000,53.45334546377132,-89.37764,0.038402624,-0.13368428,1.378033,-1.9567024,31.129093,20.618744,18.125425,95.27834,95.33359,96.032555,95.53287,2.906317,0.7,-95.45218,-37.570797,0.005960876,-6.699735,2.2547069,1.999567,1.1957643,1.2597519,2.054422e-06,0.3,5.6789227,88.834625,88.77486,89.27798,89.26362,0.111273274,0.3984375,5.559027671813965,25.859162425994874
37,370000,54.94880197406579,-89.90028,0.038269848,1.05285,1.290136,-49.56008,32.938282,78.867744,16.057657,97.12676,96.99539,96.87067,96.915955,2.7477944,0.7,-97.61329,-29.74602,9.335723e-05,-10.366705,50.284935,49.13558,49.41071,49.08766,2.9511285e-09,0.3,5.3778563,89.26965,89.217255,89.03095,89.29269,0.1278467,0.39999998,5.618752479553223,26.535374585787455
38,380000,55.01915932739615,-90.36157,0.038872547,1.1643151,0.75482535,-49.035473,33.731747,19.865719,15.056416,96.98288,96.73467,96.99174,96.44701,1.2813699,0.7,-97.17238,-26.415947,0.00218865,-4.45195,48.158306,48.919327,50.20378,47.25934,1.11758716e-07,0.3,6.18666,89.78777,89.80322,89.92514,89.770706,0.07779127,0.5140625,5.575866222381592,27.213207924365996
39,390000,55.39381490264108,-89.256836,0.03793292,-0.39079964,0.82141864,-1.9738641,32.788345,17.131527,14.618278,95.96274,95.544106,96.089905,95.936005,1.4504793,0.7,-96.4705,-35.984093,0.0017896595,-5.2292495,2.592162,2.080456,2.2123528,3.5828652,9.1677066e-07,0.3,5.669873,88.766846,88.72137,89.063736,89.01292,0.058634475,0.434375,5.513084650039673,27.885873905817668
40,400000,55.10426113831646,-90.07805,0.038301904,-0.14368063,0.78081524,-1.4633394,36.897766,21.302494,17.70522,96.94224,96.899635,97.09302,97.07886,2.729347,0.7,-97.729004,-39.071373,0.00017746474,-5.181601,3.889011,2.3040855,4.632073,3.3722486,1.8840656e-07,0.3,5.60494,89.58447,89.59454,89.37605,89.388695,0.10264847,0.478125,5.472300291061401,28.56167480548223
41,410000,55.09045248901974,-90.08643,0.038467895,-0.5820515,0.8026756,-4.0099163,37.306007,20.292217,15.703752,96.10629,96.02529,96.15403,95.97568,7.4596343,0.7,-96.44917,-45.419052,0.0007002215,-6.388229,4.025901,4.4323397,2.9154181,3.2289073,1.2321398e-07,0.3,5.8290358,89.431274,89.461685,89.25582,89.41626,0.1013612,0.440625,5.553799629211426,29.239517970879874
42,420000,55.18449305761314,-89.029686,0.038283408,0.7657337,1.0467932,-2.282702,27.711365,12.63006,17.934391,97.14139,97.17285,96.729996,96.67578,2.1834,0.7,-97.2444,-40.764515,0.0001591869,-5.79422,2.6730566,2.317622,3.3024817,4.4180193,6.519258e-06,0.3,5.4047456,88.43963,88.539375,88.28371,88.37168,0.114745304,0.46875,5.533894777297974,29.915278689066568
43,430000,54.232666284063804,-90.30223,0.037622124,0.564976,0.7602241,-3.0110776,33.136986,26.745438,14.731188,96.688156,97.088585,96.73919,96.649925,1.4872721,0.7,-97.95439,-33.209625,0.0012227863,-12.545476,3.0608,2.9939234,3.835079,3.6818304,9.782961e-08,0.3,5.8972754,89.779106,89.71822,89.771805,89.635086,0.07336272,0.465625,5.554150819778442,30.593261647224427
44,440000,54.76100194891803,-88.6575,0.03844115,-2.2509575,0.95151436,-1.0252843,22.860315,16.6055,13.988214,97.117546,96.85153,97.23842,96.78743,2.2301931,0.7,-97.357735,-35.351006,0.0017295794,-7.3265495,0.5954659,1.2252357,2.6638114,2.514648,2.231216e-07,0.3,5.6826167,88.05748,88.006516,88.21768,88.31233,0.075856045,0.4296875,5.544241428375244,31.270041151841482
45,450000,54.0969995353504,-90.25308,0.037640624,0.53318095,1.3036494,-65.848785,34.21184,70.375015,15.406137,97.247826,96.093666,98.13448,96.027855,6.7764497,0.7,-98.21031,-39.738186,0.0038642962,-11.873759,61.866512,62.381287,63.941162,62.909805,5.5776326e-07,0.3,5.792323,89.648125,89.612404,89.3552,89.43938,0.12324988,0.4953125,5.586291790008545,31.946788783868154
46,460000,55.05497692798163,-89.951096,0.037746847,0.93759024,1.0037392,-1.806149,35.763927,73.372284,17.991837,97.36466,96.68933,97.14365,96.61129,5.557285,0.7,-97.93634,-35.654415,0.00014973455,-13.209141,2.214041,1.7524788,1.7549099,1.6365955,1.4483929e-06,0.3,6.0188646,89.31491,89.31839,89.25978,89.09525,0.112318024,0.52656245,5.486230373382568,32.62450851599375
47,470000,54.29491568710997,-90.15906,0.037065774,1.420957,1.5346173,-0.5026102,36.265083,249.04456,15.483921,95.9626,95.61529,95.74927,95.88312,2.2374647,0.7,-96.28807,-40.041126,0.00085538684,-6.7674384,0.8147148,1.3815166,1.1773356,2.2740922,6.078626e-08,0.3,6.0379953,89.61578,89.56294,89.65995,89.70285,0.087932065,0.41875,5.499798059463501,33.29964645703634
48,480000,55.71821884130049,-89.19249,0.0370114,0.727617,1.1667705,-1.4697179,30.963116,64.93624,13.662628,96.40142,96.4178,97.544945,96.21351,1.2702736,0.7,-96.70795,-37.032196,0.0025479428,-9.79071,1.3630121,2.498811,4.03966,3.8698485,4.418119e-06,0.3,6.06152,88.5883,88.57799,88.68878,88.45692,0.0965469,0.51875,5.587193250656128,33.977057139078774
49,490000,55.171272333497335,-89.946266,0.037556592,-0.6397182,0.5898483,-1.6560223,31.964165,16.69294,16.175762,96.00611,95.65326,96.62765,95.13787,1.4523939,0.7,-96.0423,-36.000088,0.0012168558,-11.157846,1.5609959,2.202374,3.560761,3.677673,1.1273264e-05,0.3,5.7554054,89.4012,89.36932,89.42828,89.34686,0.08119664,0.50624996,5.608420133590698,34.65798517465591
50,500000,55.38842259207001,-89.13081,0.037485607,1.0017579,1.3412285,-0.33882993,27.379139,43.17724,15.315139,96.59184,96.61082,96.72369,96.98471,14.699136,0.7,-97.2379,-43.134212,0.00017405307,-12.72028,0.28362024,0.124905586,4.849941,4.525179,1.3201498e-08,0.3,5.931755,88.45447,88.48245,88.9003,88.88034,0.1491381,0.40781248,5.575992822647095,35.33200906515121
51,510000,55.07447044717995,-90.13654,0.037758365,-0.009015903,0.67233527,-66.484634,36.21109,18.677147,14.190962,96.39729,96.42824,95.678635,96.652084,3.0552711,0.7,-96.89475,-42.027775,0.0011918243,-7.5195465,65.18281,65.80457,65.506424,65.844086,7.1874815e-08,0.3,5.5910077,89.51299,89.59346,89.59938,89.578445,0.080123186,0.453125,5.55069637298584,36.0085204521815
52,520000,54.635462873080144,-89.559265,0.03624939,-0.92946273,1.0792626,-3.633914,42.42912,29.795902,14.843765,96.22911,95.768234,96.19623,96.380714,2.2128284,0.7,-96.63157,-37.43565,0.0011118597,-9.320328,4.006064,3.9648695,3.1715798,4.299877,1.4144462e-07,0.3,6.095129,89.01874,88.990234,89.34657,89.2667,0.07566348,0.4359375,5.546489477157593,36.68540981213252
53,530000,54.96385026057139,-89.56032,0.036652945,-0.2655168,0.73523986,-1.9944386,28.251303,19.671658,15.575296,97.583916,97.52597,97.21167,97.96586,3.305352,0.7,-98.48319,-33.997395,0.0011387838,-7.610688,2.1846917,2.8977287,2.1995282,2.9863384,1.9186584e-06,0.3,5.240842,89.01437,88.98307,88.874275,88.982666,0.10744527,0.40781248,5.7299253940582275,37.362122066815694
54,540000,55.70084445757806,-90.190735,0.03636134,0.10697149,0.6909355,-72.07543,32.357033,8.249722,14.2158785,97.071144,97.47991,97.25093,96.616104,1.9736714,0.7,-97.34336,-33.396732,0.000121231016,-10.11216,71.93576,72.28554,72.59319,71.43734,2.3534521e-07,0.3,6.029806,89.572914,89.672295,89.67868,89.48363,0.09248683,0.5281249,5.439693450927734,38.03817669947942
55,550000,54.68561144684336,-89.99435,0.036361273,0.66418064,0.960492,-3.408371,36.29303,41.19729,15.127235,96.01575,96.09321,96.0489,95.5644,1.3643837,0.7,-96.48757,-34.766567,0.0021611538,-7.4388366,3.8934612,3.786096,3.7064023,3.718566,2.4520998e-05,0.3,5.8896704,89.36525,89.43,89.102066,89.24784,0.0724654,0.4359375,5.499155282974243,38.71489282846451
56,560000,55.959704435787515,-89.20263,0.036060665,-0.81809556,1.3605609,-2.8393848,27.511002,105.289154,15.571331,95.97447,95.54605,96.16815,95.80077,1.1012821,0.7,-96.11334,-42.52445,0.00038866565,-5.0377655,3.5954893,2.7278585,3.6643271,4.571023,7.514656e-06,0.3,5.875536,88.63971,88.62792,88.834015,88.84481,0.073117815,0.40937498,5.632061958312988,39.39267738262812
57,570000,55.88843159069305,-89.18934,0.036492076,-0.516549,1.0681102,-3.025442,27.097847,17.201899,13.806447,95.83577,95.5422,96.02214,95.56292,1.3449582,0.7,-95.74475,-33.510284,0.002204222,-9.83214,3.6518106,2.9619975,3.2878206,4.940916,3.6670826e-08,0.3,5.8634243,88.64295,88.59294,88.98044,89.08459,0.09740341,0.37343746,5.758010149002075,40.071012353897096
58,580000,55.50182347784474,-89.78349,0.03645861,0.5604531,0.6928505,-67.18113,26.190712,30.557983,15.433718,95.85605,95.753975,95.566895,96.04146,1.3627636,0.7,-95.890816,-35.22997,0.00027281197,-11.136845,65.19346,64.94771,65.01095,66.05042,4.1953174e-07,0.3,5.78875,89.206085,89.19242,89.27163,89.3542,0.05998621,0.44687498,5.819962024688721,40.747459038098654
59,590000,55.154540345502326,-89.33177,0.037198532,-0.39606842,1.2622851,-1.4859707,29.702555,47.752678,17.796354,96.27767,96.425415,96.80206,97.113434,2.2350783,0.7,-96.47745,-52.94124,0.0016230077,-6.1339607,2.5269759,1.7067012,5.078823,5.0364046,1.8619652e-05,0.3,5.627775,88.75061,88.81752,88.9704,88.964195,0.11084626,0.4375,5.616040229797363,41.41706252495448
60,600000,55.36634169579586,-89.72516,0.036983863,-1.1779414,0.66109324,-3.243912,31.42419,10.848255,16.700035,96.44281,96.54259,96.434166,95.88541,4.280463,0.7,-96.94374,-32.288837,0.0012925481,-12.512736,3.3810186,3.455424,3.3774998,4.3383594,1.39451e-06,0.3,5.336258,89.19037,89.113556,89.20322,89.24403,0.11549604,0.45,6.036980390548706,42.10361309051514
61,610000,55.7184104040747,-90.12865,0.037924472,-0.0026897192,1.2358255,-70.466576,31.287767,36.11074,15.849615,95.85788,95.82345,96.645065,95.89498,1.2938497,0.7,-96.27621,-35.711563,0.0006950769,-6.7568946,70.76026,69.92707,71.41486,70.66351,1.3348588e-06,0.3,5.967839,89.53047,89.602615,89.87173,89.735794,0.07520205,0.46875,5.989763259887695,42.77957810958227
62,620000,55.684057294257805,-89.629135,0.03668297,-0.11471501,1.1302195,-2.5909169,35.29017,105.47189,14.4075,96.6113,96.60037,96.62311,95.83607,6.7472844,0.7,-97.085976,-40.569855,0.00043780752,-7.3238297,2.7220354,3.0338786,3.9952307,4.28323,1.1444092e-06,0.3,5.9520655,89.03402,89.05203,88.88522,89.06052,0.099893674,0.41250002,5.771149396896362,43.459146082401276
63,630000,55.88256621565703,-89.18522,0.03610953,0.259223,0.7841984,-2.4346752,27.443531,29.048857,16.02731,95.68171,95.91032,96.09068,95.67027,28.080011,0.7,-95.82542,-39.903877,0.0016161429,-17.15503,2.636799,2.7768695,4.4930887,3.8533418,5.309976e-06,0.3,5.855904,88.50185,88.42509,88.48511,88.37512,0.20486267,0.50625,5.665657997131348,44.137783940633135
64,640000,55.18573734494521,-89.637314,0.035460312,-0.34784016,1.0146794,-3.563713,30.079176,20.838974,14.639425,95.90842,96.4118,96.80939,96.31933,1.7145593,0.7,-96.70754,-33.78254,0.00020763988,-5.31746,3.122142,4.337842,5.4199605,5.4315205,1.5759724e-07,0.3,5.94703,89.044525,89.00645,88.948456,89.0354,0.101821005,0.49531245,5.795017719268799,44.81076733271281
65,650000,55.50646219723202,-89.58005,0.036099415,-0.14880866,1.3585643,-3.6616654,32.228333,60.809708,14.743275,95.409164,95.33062,95.46449,95.6701,2.8620193,0.7,-96.09005,-32.1347,0.00060331495,-6.8952274,3.7028394,4.6225314,5.626447,5.5545044,3.9233596e-06,0.3,5.9446898,88.95981,88.90172,89.24699,89.11835,0.09633622,0.509375,5.845463275909424,45.491651105880734
66,660000,55.39946688917489,-88.92311,0.03719908,-0.06862909,0.9134774,-3.6032445,31.444832,36.696663,14.210245,95.87143,96.162575,96.45686,96.1534,0.8292998,0.7,-96.18688,-34.50463,0.0011848734,-9.73262,4.316903,3.9819717,4.0091357,3.4445143,3.3738908e-07,0.3,5.694698,88.40215,88.3731,88.518616,88.43164,0.05758916,0.484375,5.605855941772461,46.1647278825442
67,670000,55.825510710009475,-90.04309,0.03647507,1.5436689,1.1014615,-1.4750285,95.210556,23.71371,16.928333,95.517,95.62441,95.90616,96.033844,1.5184102,0.7,-96.54478,-33.657,0.00024247088,-4.596512,1.9819609,2.7942767,4.6074243,4.045176,1.7214916e-07,0.3,6.414868,89.44609,89.44402,89.71851,89.74106,0.071958214,0.4109375,5.549217700958252,46.83716292381287
68,680000,55.568146832000465,-89.34618,0.035871353,0.56979156,1.0932213,-5.4882135,44.153515,64.71602,18.579868,95.762,96.04231,96.08391,95.66222,11.009001,0.7,-96.57961,-34.837845,0.00071533734,-6.6103826,6.6724157,5.4132004,3.2399797,3.965598,3.929017e-09,0.3,5.8650703,88.64248,88.620895,88.56138,88.70972,0.14589044,0.44375,5.553003549575806,47.519635152816775
69,690000,55.3137973480133,-88.786255,0.035996247,1.0924333,0.9468306,-3.9493396,58.00828,12.884632,18.895004,95.58636,95.83854,95.97724,95.67542,0.98785484,0.7,-96.26315,-34.439518,0.00049451087,-4.97691,4.2131047,4.715406,4.833422,4.7999754,5.6337567e-06,0.3,6.334813,88.296585,88.25767,88.41915,88.34037,0.07354458,0.4234375,5.547199010848999,48.19541341861089
70,700000,55.758431782014306,-89.911255,0.036539063,0.57514286,1.1626241,-63.516468,31.69472,32.541622,16.507402,97.92192,97.490425,97.019226,97.47224,2.8484867,0.7,-98.47151,-30.952168,0.0008910062,-4.772602,58.839916,60.36293,59.62177,59.031727,7.533817e-08,0.3,6.0146914,89.293594,89.33644,89.22399,89.1972,0.09442591,0.490625,5.573863506317139,48.87235201994578
71,710000,56.011045837170094,-89.83894,0.03531767,1.0222201,1.2070365,-4.6993976,39.90107,44.407978,17.92519,97.63549,97.465935,98.002686,97.53462,13.057544,0.7,-98.522675,-32.379757,0.0006052564,-4.902071,4.8513665,5.199438,4.860139,5.5191007,6.366463e-07,0.3,6.0238686,89.18123,89.149414,89.14079,89.349106,0.15836748,0.4203125,5.667742729187012,49.55412290493647
72,720000,56.452745144541915,-90.37524,0.035317644,-0.64944667,0.931743,-66.78549,35.72569,26.425426,15.357201,95.379196,95.45984,96.25126,95.20445,0.9090494,0.7,-96.20207,-37.22736,0.00051238074,-5.596902,68.35553,68.47649,68.26634,68.02497,1.7628073e-06,0.3,5.7648606,89.7316,89.74574,89.81101,89.83876,0.06854669,0.43593752,5.5925612449646,50.2279846906662
73,730000,56.5720545501322,-89.13266,0.03541755,0.65341175,1.3178959,-8.190086,42.16296,39.14187,19.201912,96.37741,96.0763,95.57839,95.595856,10.203603,0.7,-97.07685,-41.24865,2.4050532e-05,-9.944377,8.167276,8.987856,8.418232,9.898119,5.5179e-06,0.3,5.829997,88.52089,88.59147,88.73502,88.645325,0.12334004,0.4640625,5.551103830337524,50.90550440947215
74,740000,55.752079878818876,-89.600525,0.036369607,-0.07989028,1.229205,-6.8905215,41.192104,29.936049,16.602005,95.98711,96.252396,97.06377,97.10645,29.975836,0.7,-96.54944,-35.607952,0.0007118709,-6.9705353,5.991097,6.567417,6.89664,9.054693,1.1575309e-05,0.3,6.2086177,88.927444,88.9551,89.394424,89.49605,0.2377541,0.38593748,5.47210431098938,51.58305583397547
75,750000,56.23741383078688,-90.2493,0.03563932,-1.0901473,0.90783095,-69.60198,28.251087,14.146119,14.845523,96.84709,96.766045,96.16869,96.267365,1.2250429,0.7,-97.79796,-41.548737,0.0032097953,-4.3559628,69.59395,69.10075,68.871796,68.940384,5.6577846e-07,0.3,5.903992,89.66267,89.59552,89.18392,89.31766,0.067817576,0.4453125,5.659519672393799,52.26224842468898
76,760000,55.46068468923331,-89.87623,0.03507169,0.09357488,0.6673845,-22.514074,26.641716,15.135522,15.074065,96.666725,97.11192,96.41681,97.10062,2.662394,0.7,-97.17935,-40.355854,7.2622264e-05,-21.523518,20.247332,19.287954,22.262142,22.195248,9.077601e-07,0.3,5.472932,89.28435,89.19461,89.15714,89.40855,0.090882346,0.4296875,5.396438121795654,52.94004878600438
77,770000,55.71986360964145,-89.50215,0.03638464,-0.34872198,1.3004903,-4.411408,44.227394,70.64799,16.231106,96.31301,96.441505,95.897285,96.03926,8.593482,0.7,-96.81848,-35.88207,0.00072686217,-6.7879505,3.560143,4.1053457,4.14987,5.0833573,6.078626e-08,0.3,5.7510056,88.93671,88.99388,88.609795,88.724396,0.119496055,0.46718746,5.64877724647522,53.620609652996066
78,780000,56.122142896032834,-89.708374,0.0356503,-1.1236868,0.9741017,-6.1139283,43.270985,40.89673,13.958691,96.55509,96.62117,96.25682,96.148315,6.4179287,0.7,-96.80939,-39.17161,0.00019234169,-8.51942,6.88318,6.7196636,5.355442,5.1788626,1.8310548e-05,0.3,5.7546864,88.98633,88.97905,88.78399,88.935356,0.091051266,0.48125,5.467501163482666,54.29449830452601
79,790000,55.91325912119927,-89.28302,0.034968257,-0.63955224,1.2667997,-7.19677,33.086018,36.723732,14.443704,95.16683,95.335464,95.68214,95.85354,3.214062,0.7,-96.40528,-35.086357,0.0015154856,-9.3709545,7.4452353,7.34749,3.257962,4.3595967,3.309542e-06,0.3,5.934517,88.6349,88.75285,88.778534,88.81235,0.108996816,0.45000002,5.563700199127197,54.975127478440605
80,800000,55.802292447166934,-89.17729,0.03473235,-1.0167651,0.89700395,-6.962027,53.124706,31.776249,13.379215,95.823006,95.60435,95.70454,95.7301,3.852378,0.7,-96.53,-33.923935,0.00049174123,-8.358694,6.931087,6.7656345,5.959752,6.393861,6.9307866e-08,0.3,5.6718225,88.59755,88.54904,88.65912,88.56668,0.09244669,0.515625,5.654987335205078,55.653196251392366
81,810000,56.17648444579402,-89.54931,0.036022045,-0.44787988,0.9230007,-6.0933304,28.714298,12.429545,15.805017,96.456474,96.88578,97.273125,96.86933,1.6837605,0.7,-96.96081,-37.48264,0.0014239599,-8.0831,8.081297,8.152896,5.9344764,5.95119,5.3985973e-06,0.3,5.842866,88.956505,88.959656,89.2363,89.15448,0.08524265,0.47812498,5.613458156585693,56.32585595051447
82,820000,55.72686299796039,-89.86574,0.03572728,0.42932558,0.66514856,-31.7036,46.696274,10.134628,16.045938,95.70739,95.23399,95.77311,95.515755,4.008985,0.7,-95.8679,-29.59126,0.0011236293,-7.9014473,25.059017,23.572985,23.432571,25.220636,2.6560157e-08,0.3,5.900592,89.247406,89.26462,89.2842,89.36029,0.11393833,0.40625,5.581014156341553,57.00413365761439
83,830000,55.37792032174599,-89.61028,0.035084944,0.5104686,0.8655156,-4.223842,151.63615,37.324287,15.5371685,96.39966,96.79404,96.1457,96.365524,1.4098538,0.7,-96.9091,-37.716835,0.00046364835,-18.3813,4.664977,4.9204745,5.5296445,5.480322,2.0305336e-06,0.3,5.813794,88.99925,89.01596,88.76691,88.80242,0.08552408,0.46406248,5.6252782344818115,57.67886072794597
84,840000,55.88892837353311,-88.289566,0.03610436,-0.726073,0.8247157,-4.355509,34.94324,27.876537,17.700708,96.09327,96.037224,95.99909,95.95891,7.9903846,0.7,-96.374756,-38.007378,0.00024386216,-10.568579,5.1892138,4.5737324,4.760753,4.9309845,9.1786205e-06,0.3,5.5961514,87.70615,87.71338,87.75598,87.81017,0.11215542,0.4125,5.572087049484253,58.35361089706421
85,850000,55.48765518010761,-89.65436,0.03562871,-0.04216601,0.8733126,-11.040248,30.190607,17.705425,14.749105,95.93486,96.092545,96.22124,95.96322,1.8127005,0.7,-96.155304,-29.11717,0.001785775,-10.956204,11.025107,12.42934,11.36846,12.263656,2.4789477e-07,0.3,5.7541924,89.096794,89.054214,89.3427,89.18232,0.09143383,0.45625,5.715562582015991,59.029965881506605
86,860000,56.068483031152404,-89.97543,0.03675353,1.6297848,1.2056427,-51.92963,47.63506,24.567663,15.127811,96.11857,96.105255,96.558586,96.16825,5.5758724,0.7,-96.876816,-33.01269,0.00022997265,-10.674276,47.219368,47.256973,47.450607,51.379,2.1554297e-06,0.3,5.85357,89.25604,89.21425,89.51401,89.5669,0.12308502,0.39843747,5.661793231964111,59.703087341785434
87,870000,56.41694159258252,-90.1906,0.035829104,0.7081239,1.0552585,-61.649372,34.346233,89.12846,16.113194,95.84743,96.04118,96.31222,96.46412,11.147167,0.7,-96.56078,-34.380642,0.0012624618,-11.789577,61.396915,62.27636,60.8919,61.18715,7.1191926e-06,0.3,6.2726617,89.57544,89.61949,89.59355,89.68282,0.12871931,0.43281248,5.597296953201294,60.38245966037115
88,880000,55.11567162813182,-89.484955,0.03622482,0.48658723,0.91626775,-4.348329,32.08127,49.304638,14.73195,96.20738,96.158104,96.03897,96.07118,0.89633787,0.7,-96.733765,-37.05984,0.00059762184,-6.4700756,5.2156725,4.4235,3.0773401,4.84098,1.2029778e-07,0.3,6.198988,88.84523,88.822495,88.622,88.72609,0.0676531,0.4515625,5.57704758644104,61.061069667339325
89,890000,55.85426240798499,-89.998726,0.035864864,0.8211277,1.1224892,-68.229355,36.175205,18.888708,15.255923,95.64389,96.151436,96.35018,96.39992,3.7541687,0.7,-96.88065,-37.4783,0.00010312267,-8.824909,66.87318,68.627975,67.82881,67.978874,7.77439e-07,0.3,5.8319263,89.32139,89.383286,89.24964,89.20882,0.09766748,0.48125,5.683971405029297,61.73822732369105
90,900000,55.56102512294688,-89.35966,0.034568805,-0.4492436,0.9161613,-4.1392126,29.197716,9.679113,14.048321,96.01109,95.699425,96.17344,95.0691,3.0013096,0.7,-96.25347,-37.20447,0.001018273,-6.7249985,4.4278874,4.6738744,4.5269575,5.3257427,2.45624e-05,0.3,5.7453775,88.72845,88.78685,88.51578,88.62762,0.12062716,0.4640625,5.631712198257446,62.41365867058436
91,910000,55.80335618468456,-88.69072,0.035869867,-0.14318204,1.4461602,-2.6780858,32.29955,55.078423,13.888234,95.49009,95.39377,95.922714,95.89326,17.3081,0.7,-96.066635,-35.91713,0.00010887912,-9.835096,3.9744256,3.3438406,4.03977,3.7146246,3.2966655e-05,0.3,5.459175,88.102165,88.00658,88.28984,88.450226,0.19650118,0.3796875,5.546214818954468,63.089601492881776
92,920000,56.79109218600481,-88.127716,0.035247836,-1.0195206,1.3162904,-2.1474447,34.30875,87.55375,17.884462,96.076164,96.07255,95.73686,96.030205,4.01435,0.7,-96.5241,-51.11651,0.00040697592,-7.6576858,2.6998477,0.5770426,4.2264647,4.291202,4.849787e-06,0.3,5.7884626,87.5678,87.57387,87.56142,87.61077,0.119572334,0.4625,5.52587628364563,63.76106245915095
93,930000,55.88215792253474,-89.27104,0.035556052,0.059188187,0.76971185,-4.8204503,26.636532,21.390327,14.696836,95.05443,95.16882,95.50456,94.90533,4.1006627,0.7,-95.71254,-42.17738,0.0007933719,-9.665647,6.0347795,4.760116,4.3898973,3.9886003,1.678127e-08,0.3,6.293585,88.59491,88.567345,88.6411,88.55095,0.115591325,0.47187498,5.4943156242370605,64.43532198270162
94,940000,56.09030271505877,-88.61562,0.035108984,0.86641586,1.1690769,-2.6888442,46.976143,52.448616,18.057083,94.89274,94.836395,95.29632,94.53284,10.025188,0.7,-95.34402,-36.303085,0.000125452,-21.612745,2.7656205,3.2054772,2.661922,3.763999,5.5776326e-07,0.3,6.1692753,87.97839,87.9192,88.018326,88.10491,0.12915072,0.4109375,5.6539013385772705,65.10643811623255
95,950000,56.168816736059746,-89.561806,0.035457794,0.073744416,0.7200936,-5.057006,28.228748,13.801064,13.747136,96.240685,96.412636,96.47443,96.5569,2.03864,0.7,-96.6557,-44.99629,0.00039579725,-9.152994,6.0106144,5.5977874,5.2206616,5.2277203,7.1874815e-08,0.3,5.7508864,88.905815,88.95704,89.05877,88.986885,0.09727394,0.4921875,5.5013158321380615,65.77543609539667
96,955000,56.123351040989775,-88.844696,0.036150113,-1.3946767,0.7751813,-4.2198286,21.06149,7.1756935,13.444113,95.86844,95.75307,96.837875,95.938995,4.8605046,0.7,-96.505394,-42.24263,0.0018584381,-11.540324,4.0501547,5.0696545,3.9834874,3.7860658,2.08111e-06,0.3,5.8391376,88.177505,88.27255,88.48224,88.61632,0.13574602,0.38593748,5.581534385681152,66.15972219705581
97,960000,56.10720432517081,-90.02589,0.0352886,-0.63793564,0.99345815,-12.196049,38.43569,34.94327,16.391537,95.83095,96.19575,95.539276,95.42856,2.7635684,0.7,-96.447754,-34.26057,0.00016373937,-9.672432,12.277105,12.427207,10.265909,11.277247,1.5716068e-08,0.3,6.112647,89.43712,89.40141,89.25288,89.22465,0.096866034,0.453125,5.592236757278442,66.54644687175751
98,965000,55.640576070133626,-89.616776,0.03480102,0.15836707,0.80728006,-54.567684,52.572605,54.89144,15.014006,94.780754,94.69801,94.91875,94.86165,2.6512337,0.7,-95.31927,-29.1395,1.6844016e-05,-9.811313,54.23685,53.93215,52.77715,54.31986,1.3369573e-05,0.3,5.7492886,89.030914,89.002045,89.078476,89.203636,0.08608872,0.428125,5.596868515014648,66.92772974173228
99,970000,55.950838622662204,-89.63546,0.03577035,0.27288422,0.7196659,-9.942809,29.940695,10.47005,15.23606,96.143906,96.45613,96.08802,96.355835,10.90499,0.7,-97.234665,-44.259476,0.00015970902,-7.307537,11.2689705,10.054927,11.907067,11.642494,3.1355304e-07,0.3,5.6745872,89.08726,89.08424,89.01483,88.995605,0.13265087,0.4578125,5.641495227813721,67.31518858671188
100,975000,55.70068126904931,-89.4355,0.035240415,0.30322862,0.6876892,-3.498635,34.82408,29.835482,14.389604,95.91743,95.86346,96.076225,95.54698,2.1528065,0.7,-97.21481,-32.956566,4.0140934e-05,-6.1727843,3.7652016,3.8944073,4.1189737,4.3587227,1.3522805e-07,0.3,5.6410284,88.81616,88.82439,88.785965,88.75842,0.09762809,0.4890625,5.514399528503418,67.69714375336964
101,980000,56.14896091071465,-89.01658,0.03530669,-1.1086321,1.2499474,-1.8377726,26.556135,26.634933,16.45237,96.44526,95.92946,96.081184,95.61414,4.8365965,0.7,-96.78394,-42.988613,0.0011449659,-4.439986,2.2661498,2.0659537,2.385615,3.6087875,4.541944e-08,0.3,6.04031,88.40443,88.39022,88.46521,88.38591,0.118474096,0.47499996,5.540576696395874,68.08305040200551
102,985000,55.7478416934313,-88.51127,0.03695888,-0.9721632,1.1901033,-2.6953304,31.822168,24.473196,14.5524,94.98566,94.9015,95.695274,95.33538,7.6166077,0.7,-95.876526,-36.46896,0.0009320269,-5.3601036,3.1843553,3.6406662,4.3950615,4.219252,2.7939678e-10,0.3,5.650806,87.87341,87.92785,88.16394,88.190895,0.1204055,0.4328125,5.574628829956055,68.46664109230042
103,990000,56.06010892722849,-88.97172,0.03372725,0.17074092,0.9913359,-2.9195035,31.557884,35.819466,15.9071865,96.84854,96.75284,97.193085,96.820984,2.0190277,0.7,-97.07304,-33.877705,2.3264962e-05,-8.010154,2.9717567,3.3467646,3.6248918,3.559811,5.0543576e-06,0.3,6.3953295,88.28977,88.33263,88.439575,88.31445,0.11190261,0.4984375,5.627912282943726,68.84977784554164
104,995000,55.770380013150536,-89.49212,0.034848064,1.0352895,0.6205159,-3.8111868,31.00088,13.126011,15.602568,95.59743,95.74383,95.84071,95.67945,2.6573904,0.7,-96.35122,-35.043644,0.00021501543,-5.8289337,5.439013,4.8120775,4.93218,4.8852186,2.118107e-06,0.3,5.8379345,88.84331,88.77069,88.94277,88.9551,0.119602494,0.3796875,6.056389331817627,69.2418603459994
105,1000000,55.87577962607509,-89.763916,0.037929576,-0.52255976,1.0827987,-66.263695,33.62694,54.058807,15.606049,95.884575,96.01356,95.35071,95.67808,9.71883,0.7,-96.35544,-32.72457,0.002112016,-7.151701,66.9499,66.7813,66.07713,66.57072,1.6298145e-10,0.3,5.708769,89.0806,89.08358,88.790924,88.87694,0.11013681,0.46249998,5.668581485748291,69.6288717031479
