Xixo99/comfo/baselines/comfo6_perterbation_actor/20230225_mle0/walker2d-medium-replay-v2/COMFO6_s2_20230225_200809_walker2d-medium-replay-v2_94.45.csv
,step,reward,actor_loss,alpha,alpha_loss,critic_loss,max_actor_loss,max_alpha_loss,max_critic_loss,max_mle_prob,max_q1,max_q2,max_target_q,max_v,max_value_loss,max_weight,min_actor_loss,min_alpha_loss,min_critic_loss,min_mle_prob,min_q1,min_q2,min_target_q,min_v,min_value_loss,min_weight,mle_prob,q1,q2,target_q,v,value_loss,weight,eval_time,time
0,0,3.4354914391799345,,,,,,,,,,,,,,,,,,,,,,,,,,,,,,,,,
1,10000,0.9265568496661301,-23.851042,0.058260977,-13.840464,2.9024913,5.048609,18.046303,152.93173,1.6945891,44.42323,45.08062,47.714443,44.565716,4.8791094,0.7,-45.194775,-37.39576,0.0014933691,-258.8977,-5.310412,-5.392908,-5.7218184,-5.031719,1.8161883e-08,0.3,-15.3671665,23.308542,23.414171,23.753647,23.312845,0.11948747,0.4734375,0.8051514625549316,1.9035005450248719
2,20000,0.1291153451519854,-39.3432,0.032353975,-0.11065966,3.657539,2.2447026,49.50728,116.521736,4.983217,70.70288,70.7868,70.555984,70.47489,7.459163,0.7,-70.94388,-52.93784,0.00066819414,-188.921,-3.7034142,-3.4996536,-3.1510596,-6.5173016,1.0064471e-05,0.3,-33.775627,38.483856,38.490402,38.761505,38.154003,0.25878936,0.465625,0.2655186653137207,2.486458738644918
3,30000,0.14772800814398815,-45.479073,0.042519435,0.39165473,4.6542172,3.9830291,41.191647,103.30699,9.668601,82.07339,82.33703,83.16664,82.453514,10.967834,0.7,-82.52497,-26.229082,0.001972213,-192.02515,-6.640458,-6.074697,-3.61025,-7.071857,2.0444393e-06,0.3,-30.92278,44.283695,44.332554,44.5264,44.437138,0.40245193,0.440625,0.27329301834106445,3.0756739536921183
4,40000,0.08357986991994656,-49.462418,0.045354098,-0.9013954,4.4667063,7.2158737,59.719757,77.8353,6.8995643,95.958916,94.658005,94.55165,93.39354,13.424841,0.7,-94.3576,-43.55626,0.00020047848,-169.26941,-11.287705,-9.398146,-7.062667,-9.598077,4.6824975e-06,0.3,-31.617632,48.150963,48.23571,48.50878,48.269516,0.501212,0.440625,0.2578623294830322,3.662700188159943
5,50000,9.857635246829016,-54.358154,0.045943946,-1.0337151,5.669757,8.746315,40.269108,174.56573,5.4688168,101.64443,101.13641,101.41767,101.078545,58.230965,0.7,-102.147194,-35.419273,0.009455644,-224.4508,-8.200443,-10.217259,-8.986763,-9.190617,2.7701148e-05,0.3,-32.41327,52.988144,53.083588,53.07041,53.068,0.7691959,0.421875,1.7443060874938965,4.275965559482574
6,60000,15.040064757764792,-55.675705,0.046360746,0.29843196,5.4394236,0.6252446,41.95807,86.833466,12.082123,99.0158,99.97049,99.42709,99.67778,25.388674,0.7,-98.983604,-23.382423,0.0042424537,-210.24767,0.6618968,-3.5702612,0.1215946,-6.478339,1.1221666e-06,0.3,-38.97638,54.32965,54.20683,54.569527,54.58612,0.51646316,0.3953125,2.177678346633911,4.8957845648129785
7,70000,39.67160070064674,-57.56822,0.047420822,0.7034056,5.6061916,5.706753,41.24193,98.22206,15.225063,103.04394,103.38309,102.069115,102.354385,8.644609,0.7,-103.01621,-32.737892,0.004842217,-267.8686,-8.482344,-7.684943,-11.213474,-10.810814,6.593943e-06,0.3,-32.953705,56.271004,56.317192,55.342155,55.574547,0.53612727,0.525,4.446879863739014,5.551275849342346
8,80000,67.64056275627966,-54.841663,0.048199225,-0.0005827546,4.6306653,7.392471,44.526546,66.135704,11.589324,96.271675,96.7256,96.12953,96.93671,6.53016,0.7,-97.67435,-26.55429,0.003728185,-242.31934,-6.527369,-4.4047194,-4.25879,-5.2056456,8.451753e-07,0.3,-31.105595,53.644012,53.68147,53.422028,53.331203,0.46258408,0.5234375,6.606350421905518,6.245300809542338
9,90000,72.64884025655526,-54.585026,0.05033195,-0.6169403,6.3202043,2.9511275,51.29881,189.82312,9.666702,101.227196,101.091515,100.79369,101.270096,21.646687,0.7,-100.55217,-31.031643,0.00042472366,-195.57677,-1.2063897,-1.9756514,-2.4760711,-3.4730709,5.7935717e-06,0.3,-35.64779,53.225357,53.20625,53.158066,53.099545,0.6620463,0.4734375,7.182644367218018,6.945993681748708
10,100000,95.50919648213116,-56.58532,0.052416027,1.0447137,9.320112,-2.3727317,40.7064,438.3291,12.155709,103.82339,104.47018,104.63712,104.252014,28.33543,0.7,-105.13356,-28.109705,0.0039520985,-267.8127,2.0657125,0.73487294,-3.6254961,1.4240928,1.2730015e-06,0.3,-31.366526,55.290012,55.307274,55.457428,55.358925,0.7338685,0.4671875,8.184335947036743,7.663597595691681
11,110000,90.32559312915429,-56.82016,0.051986158,-0.6453612,6.4222727,0.8041345,39.666492,193.47966,8.414591,103.00377,104.09237,103.55379,102.42317,20.779678,0.7,-102.917786,-26.085215,0.00034075222,-464.88388,-2.7345598,-0.6797106,-1.3334193,0.78754693,3.1541279e-06,0.3,-39.87394,55.354717,55.467453,55.629955,55.514137,0.7482355,0.478125,7.8980042934417725,8.377607178688049
12,120000,97.9697635685379,-56.87698,0.05198204,0.59152895,6.362977,-4.7405977,39.951225,303.47107,14.485168,102.817505,102.88815,102.58159,102.40894,28.064203,0.7,-102.45567,-35.945095,0.002059088,-273.65854,2.2995062,-0.485283,-0.7951133,-2.9885073,2.4295123e-06,0.3,-35.445892,55.15471,55.130478,55.0678,55.18046,0.97678816,0.465625,8.365229368209839,9.096699555714926
13,130000,83.21649135051204,-57.202316,0.05245516,-1.2963434,3.9619594,7.3634195,54.521484,122.33165,3.8169117,105.45827,105.576004,105.976776,105.50343,89.56887,0.7,-106.663,-30.6984,0.0017570979,-203.19852,-15.212634,-16.833881,-18.53644,-9.847302,4.1953174e-09,0.3,-36.608574,55.5953,55.458122,55.491722,55.83453,0.9290295,0.4234375,7.410303115844727,9.802513364950816
14,140000,77.36707433438264,-58.464394,0.051443405,0.053051263,5.2005424,7.8279247,42.619476,142.89822,6.0287933,105.82218,105.27602,105.92756,105.61184,18.977484,0.7,-105.77276,-29.743784,0.00017783014,-648.28625,-11.818449,-11.097511,-10.268329,-12.218582,2.7107774e-06,0.3,-33.52807,57.23497,57.21466,57.57322,57.198517,0.71397936,0.4578125,7.010818243026733,10.501431850592295
15,150000,85.59797502268195,-57.184063,0.05160204,-0.2539953,4.195341,2.4823873,38.96569,49.66474,6.2252703,105.08363,105.449036,104.20359,104.730095,10.676116,0.7,-104.45458,-26.079908,0.0029366943,-505.31192,-4.204777,-5.286701,-9.699498,-5.385352,9.6920125e-08,0.3,-41.001526,55.718613,55.765305,55.70163,55.763023,0.58636826,0.43124998,7.721140623092651,11.215184791882832
16,160000,54.35034658091256,-58.830208,0.05232367,-1.9727263,3.3455043,0.11429739,27.904623,43.000366,6.901703,106.1587,106.03802,108.08976,106.629364,33.316696,0.7,-105.470985,-31.406654,0.000598158,-198.06834,-4.0974436,-3.8296711,-6.077737,-3.679163,4.0233135e-06,0.3,-29.211872,57.592274,57.732624,57.743645,57.7926,0.6365406,0.3890625,5.351475715637207,11.885489698251089
17,170000,79.9821146520199,-57.274296,0.052395225,0.7851577,6.1451797,0.012702614,57.13482,215.25671,18.71637,109.869194,109.00179,110.629814,110.75463,27.041903,0.7,-108.116486,-37.21061,0.00040394487,-1051.1821,-2.8389778,-0.63594365,-0.5694743,-0.43995708,8.636164e-06,0.3,-43.92295,55.706764,55.791508,56.067383,55.895214,1.0098176,0.4421875,7.5732340812683105,12.59343224366506
18,180000,55.70009077438339,-61.469105,0.051789485,-0.7805163,5.2836204,10.125788,61.630436,242.228,10.934168,108.358826,107.92496,105.73021,107.123886,14.057051,0.7,-107.15033,-31.864462,0.006164315,-448.8168,-10.478147,-11.680005,-12.529177,-12.276853,1.0953471e-05,0.3,-39.818535,60.025917,60.07335,59.714035,59.9616,0.6296397,0.40468746,5.490201473236084,13.269996841748556
19,190000,83.06456923834652,-55.184044,0.05195579,1.2698665,6.7618027,6.1706367,50.2908,234.10237,15.738779,101.68412,102.0597,102.04098,102.3561,47.46234,0.7,-101.63992,-31.67932,0.008716877,-737.92993,-7.840665,-9.077308,-9.473616,-10.202447,2.275065e-05,0.3,-40.897423,53.883842,53.774593,53.67106,53.938133,0.9677338,0.428125,7.292153596878052,13.973583662509919
20,200000,61.88541066875896,-59.241333,0.0520321,-1.4850314,7.2555194,7.211329,36.35673,502.213,10.178717,102.88062,102.54467,104.69514,103.784836,15.41893,0.7,-103.937004,-29.803751,0.008515098,-476.4797,-9.482674,-9.4209385,-11.164078,-10.572585,0.00021263161,0.3,-40.598953,57.528862,57.575924,58.004375,57.891273,0.77252793,0.4453125,6.288168668746948,14.663979649543762
21,210000,88.60764044149296,-59.9108,0.051640086,-0.42903152,4.1293774,7.3437815,45.772144,63.242188,9.102106,101.96488,101.22758,101.62691,101.35946,10.738194,0.7,-101.73765,-30.788204,2.407041e-05,-357.90512,-7.132182,-6.7257304,-5.194732,-8.645035,1.08982206e-07,0.3,-38.59932,58.587128,58.539497,58.49563,58.409046,0.7048168,0.5015625,7.864693880081177,15.377195318539938
22,220000,67.88165259043926,-55.594967,0.051810823,-0.117540956,6.432798,11.028781,50.361454,265.27197,5.777939,105.59652,104.53689,104.5572,104.316,81.5338,0.7,-104.57108,-33.77615,0.001317702,-445.8703,-13.77472,-8.790067,-9.602597,-13.377218,7.377821e-08,0.3,-44.423367,54.047173,54.098156,53.78013,53.477173,0.9611187,0.490625,6.581053972244263,16.06946748495102
23,230000,90.73383852746237,-54.559875,0.052118994,-1.6491522,5.7545013,9.791474,53.67257,650.88025,5.4061613,103.7897,102.88522,103.889145,102.7861,11.755529,0.7,-102.86674,-25.547197,3.97829e-06,-1039.2227,-10.793034,-11.011271,-16.201218,-15.269161,4.192698e-06,0.3,-45.972168,53.27483,53.17376,53.076653,53.099144,0.6346086,0.41875,8.627658128738403,16.795220041275023
24,240000,93.93638650788327,-54.109623,0.052458975,-0.65237147,6.2819743,6.0629845,41.53467,445.46002,10.517871,103.527374,103.209145,102.49889,102.82164,7.0379467,0.7,-103.01239,-29.631893,0.007345861,-385.2927,-7.974446,-9.828329,-9.563937,-10.588916,4.4070183e-07,0.3,-41.50675,52.873184,52.93032,52.85022,52.80322,0.44569063,0.45625,8.434332370758057,17.51940856774648
25,250000,89.95481687093367,-57.522713,0.05259029,-0.32864445,3.7887063,5.3283443,40.284595,36.35335,8.9780035,102.35563,102.01013,100.19641,99.91521,26.361391,0.7,-101.39966,-32.86738,0.0004116852,-241.05647,-11.550173,-9.288028,-11.724483,-7.794944,5.4127986e-06,0.3,-41.152428,56.073402,56.1911,55.7601,55.871765,0.82066035,0.42343748,7.920494318008423,18.231767320632933
26,260000,93.90617839029292,-59.057266,0.054057218,0.52530664,5.0620117,0.80314124,46.96814,312.61713,9.108292,101.07424,101.010124,101.587105,101.795456,18.909931,0.7,-100.36576,-38.67989,0.0013942418,-534.4553,-5.283377,-4.4874206,-6.858611,-5.4877276,3.1376476e-06,0.3,-42.70867,57.81949,57.686558,57.423515,57.306923,0.7840775,0.47187498,8.343693971633911,18.953090834617615
27,270000,93.9931711854789,-56.022335,0.053276036,0.49285963,4.923664,12.421759,50.760162,68.2596,11.609112,104.328735,104.73916,103.32091,103.71839,23.32595,0.7,-103.67134,-24.629154,0.0059234137,-695.55505,-9.638703,-11.414599,-9.03388,-13.704524,2.2006861e-06,0.3,-47.106255,54.334763,54.29127,54.263664,54.397705,1.0435312,0.48906246,8.467324018478394,19.677199343840282
28,280000,93.87745382829735,-56.74363,0.053791843,0.20547134,3.7740362,5.3542066,43.186558,50.92167,13.055617,104.66714,104.60329,106.47492,105.02032,30.564953,0.7,-103.73493,-35.286816,0.0072037354,-529.6594,-9.463483,-9.827623,-9.349509,-9.236469,9.544846e-06,0.3,-48.734177,55.468452,55.26053,55.408077,55.477974,0.82819587,0.44687498,8.375694274902344,20.40309932231903
29,290000,94.93635999184939,-58.441795,0.053866,0.84651273,4.4327745,8.355711,49.08193,164.08524,4.9319706,105.55715,105.66177,105.65087,105.78442,10.943821,0.7,-105.31796,-23.704119,0.0014651588,-1054.5261,-12.134161,-11.629594,-10.880455,-11.113872,5.063757e-06,0.3,-49.24498,56.822582,56.905087,56.531654,56.832474,0.6569245,0.40468746,8.406926155090332,21.126356116930644
30,300000,92.70368950868841,-56.173588,0.0535436,-0.7219933,5.6580033,9.739983,47.900047,106.462036,7.716957,100.44012,98.97064,102.200714,103.26486,29.638979,0.7,-100.253586,-32.40057,0.008517844,-485.33124,-9.566822,-10.650988,-9.752992,-9.1959305,1.9631218e-06,0.3,-47.82909,54.745056,54.61255,55.29893,55.276783,0.6822985,0.41562498,8.480303287506104,21.8526017109553
31,310000,92.32745365897783,-58.115025,0.0535247,0.23100027,4.631846,11.1664095,39.29295,92.34333,6.955919,101.14578,101.231575,100.67113,101.10375,7.346667,0.7,-100.70585,-24.51654,0.00057633803,-811.9408,-12.366638,-9.112868,-8.033434,-12.755223,1.6396418e-05,0.3,-44.73918,56.580055,56.774982,56.949913,56.782833,0.54353094,0.4640625,8.109379291534424,22.572912069161735
32,320000,80.45481581897022,-57.03724,0.054375228,-0.28238854,6.2967386,1.6724011,53.128384,429.08963,8.203613,101.13874,100.99606,101.37145,101.23074,45.48726,0.7,-102.26656,-32.177124,0.0008162347,-473.97583,-5.1678534,-6.8744,-7.123073,-6.173429,2.5883492e-06,0.3,-35.762108,55.55114,55.66464,55.67923,55.560802,0.85704017,0.4609375,7.20841121673584,23.278712213039398
33,330000,87.1681577676288,-57.05906,0.05349547,0.13456312,4.555707,0.00082173944,37.373047,106.43237,15.058207,100.90195,101.69706,100.37456,100.615715,48.528294,0.7,-100.69481,-22.789911,2.1322281e-05,-493.28458,-1.5833766,-1.7897701,-4.318178,-0.31064904,1.1895493e-06,0.3,-43.19831,55.244877,55.325798,54.820526,55.008766,0.9377634,0.46875,7.893325090408325,23.995901906490325
34,340000,92.70650566290355,-55.664368,0.05453318,-0.030794501,5.453826,4.4820657,42.666267,297.21753,13.0595665,100.788,101.58154,102.526436,104.02794,20.725592,0.7,-100.1792,-35.634693,0.00410961,-1757.792,-7.5925636,-6.370697,-6.703196,-6.7070336,2.3469328e-08,0.3,-59.667755,53.849854,53.733276,54.036552,54.05377,0.9093618,0.4765625,8.377249479293823,24.720912098884583
35,350000,93.9999576970916,-56.63597,0.05378688,-1.494236,5.1494184,6.3221364,39.936775,53.91455,14.933431,100.32837,99.53746,97.76779,98.54927,12.10509,0.7,-101.46946,-33.041866,0.02293229,-673.344,-8.6892185,-9.431299,-11.663859,-10.222595,3.3500373e-06,0.3,-51.005325,55.46505,55.396206,54.658966,54.68466,0.7463219,0.51875,8.421561241149902,25.445524684588115
36,360000,94.59710314267082,-57.04087,0.054559782,-0.66064304,3.5101,3.3050733,59.157543,64.52592,13.204535,103.272705,102.81031,102.09387,102.68048,35.363224,0.7,-102.80351,-37.219105,0.0018767301,-614.90436,-9.156615,-8.741624,-5.9342847,-9.579979,6.9088014e-06,0.3,-41.447777,55.73192,55.796875,56.140175,55.750847,0.67346454,0.47812498,9.12565016746521,26.182140243053436
37,370000,90.9610688540042,-52.26986,0.05328532,-0.5902873,5.36217,4.9883986,45.90595,87.48755,8.545378,100.09734,101.15468,101.50777,101.78736,15.767357,0.7,-101.74975,-34.87945,0.0018318158,-523.2177,-7.327883,-8.056046,-7.407457,-8.648395,1.7573799e-05,0.3,-52.333313,50.286835,50.53702,50.913673,50.999218,0.7535173,0.403125,8.122593402862549,26.897613739967348
38,380000,73.46084532825112,-59.19511,0.053990565,-1.1941977,3.6407812,6.334573,51.75709,74.99879,11.692329,99.0035,98.499306,99.15114,98.98915,38.57735,0.7,-98.96541,-34.21153,0.0012967302,-476.90805,-10.84125,-9.548898,-9.715694,-10.382248,1.1265977e-06,0.3,-47.654488,57.670383,57.64492,57.863625,57.717186,0.6809406,0.47812498,7.261368036270142,27.596712187925974
39,390000,79.68735229743383,-55.33896,0.05488312,0.6456536,4.0314474,10.375059,51.034622,55.695023,14.238918,105.49275,105.76886,105.06276,105.56069,8.4938,0.7,-104.58263,-33.09394,0.015077059,-447.88974,-12.069551,-14.024536,-13.331648,-11.88102,2.46875e-06,0.3,-51.732353,53.695934,53.50305,53.383415,53.49975,0.57206106,0.48125,7.228151321411133,28.297108697891236
40,400000,94.26262352266006,-55.700806,0.053922366,-1.5413268,3.91815,4.3779545,42.003666,62.40903,6.714468,104.502754,104.087654,103.749,103.657776,13.715438,0.7,-103.84089,-36.087757,0.00026652828,-1533.076,-2.9999533,-6.5765963,-6.7308755,-7.2695556,1.5726564e-05,0.3,-55.588585,54.295544,54.104362,54.170784,54.119034,0.57228947,0.45468748,8.483801364898682,29.01512549718221
41,410000,79.03927832358491,-57.618103,0.054899618,1.4091531,4.2258735,3.2456243,47.964752,79.57904,8.836966,101.139366,100.66756,100.89821,100.73983,31.679682,0.7,-100.05521,-20.169449,0.011699872,-542.25757,-5.22013,-6.3830748,-6.843769,-6.8952103,4.4911167e-06,0.3,-48.167076,55.839203,55.77265,55.411243,55.7276,0.7555879,0.39218748,7.5991761684417725,29.718136211236317
42,420000,88.08541390125984,-57.667233,0.05569279,-0.9614037,4.0920215,-1.1962967,86.684685,65.769325,10.951634,99.2756,96.47417,96.69307,96.64912,9.1224575,0.7,-97.34165,-26.23561,0.004533354,-2224.1677,-7.3225417,-6.8378797,-9.049535,-9.121971,1.3145432e-05,0.3,-50.148594,56.224506,56.15131,55.597054,55.4345,0.7212573,0.49843752,8.258596181869507,30.43133414586385
43,430000,87.96060863991026,-53.797874,0.055440255,-1.5130364,3.5431085,4.6773796,30.73991,51.601585,11.265919,101.27772,100.92065,102.31724,102.2832,66.3641,0.7,-101.01109,-31.060322,0.0014753682,-497.95248,-7.036049,-7.2149906,-7.458014,-6.9995427,1.6377727e-06,0.3,-50.919426,52.270855,52.1745,52.449837,52.78667,0.8255161,0.3984375,8.128328561782837,31.144387459754945
44,440000,95.28164193600787,-57.465557,0.05627786,1.1575164,3.9480505,8.0276,36.16313,43.98534,6.5559006,102.98163,103.263504,101.70173,102.56997,24.758522,0.7,-102.975945,-26.492777,0.0027670306,-503.61618,-8.21407,-9.813684,-10.013318,-9.674561,1.3095956e-05,0.3,-48.55027,55.70072,55.7742,55.163017,55.32492,0.6452297,0.46875,9.075802564620972,31.87282239596049
45,450000,76.43842665128773,-58.03869,0.055703662,-0.194728,4.3884773,7.8169203,48.055943,86.714195,6.871216,99.64321,100.646576,100.55939,101.94096,23.338371,0.7,-100.16491,-23.247252,0.00037155405,-622.6373,-11.10398,-8.101749,-12.1538315,-10.635747,1.9713299e-07,0.3,-52.676437,56.20748,56.33847,56.03148,56.39939,0.82752883,0.40625,6.987951040267944,32.56467567284902
46,460000,93.80041051644709,-57.35975,0.05578745,0.054865777,4.0201063,6.6510477,49.782578,63.343864,13.079033,96.69956,96.91278,97.16037,97.22052,23.398155,0.7,-98.35035,-27.402088,1.6294012e-05,-243.60397,-7.7318907,-7.731988,-7.94617,-8.661216,6.551895e-06,0.3,-39.002502,55.5831,55.70636,55.673374,55.557358,0.89948225,0.4875,8.345367431640625,33.28597402175267
47,470000,93.94182584241186,-58.28132,0.056130517,-0.99939895,4.688472,5.9201336,53.10646,128.25763,8.81403,100.24005,99.96451,99.52229,101.27104,9.756047,0.7,-100.63093,-31.470543,0.00046539074,-561.60834,-8.426206,-9.853753,-9.03923,-9.576451,6.2864274e-08,0.3,-51.826324,56.80979,56.714203,56.694557,56.77216,0.6059177,0.40625,8.791344165802002,34.01178413629532
48,480000,95.04930252252333,-55.949074,0.05488135,0.95992225,3.2122717,3.3177004,61.83716,35.028004,10.096303,105.11799,104.66649,104.60177,105.491264,29.087662,0.7,-104.603294,-27.36037,0.006980068,-3049.3867,-5.8497343,-5.4605484,-6.43945,-8.026531,1.6753684e-05,0.3,-68.13591,54.11328,54.042587,53.815224,53.76434,0.9464835,0.53125,8.836841821670532,34.72846123377482
49,490000,86.25689389479106,-59.444458,0.055571042,0.037258685,4.5005164,-4.975673,54.079895,111.55474,11.063639,104.72726,104.413925,105.02687,106.43119,79.987976,0.7,-104.82865,-42.4631,0.0049234936,-563.59436,3.2850437,1.4699864,1.1684386,4.302412,2.3053744e-05,0.3,-50.42684,57.66222,57.504498,57.59077,58.002876,1.3516829,0.38437498,8.09417986869812,35.435017768541975
50,500000,92.587141341282,-57.468964,0.055184443,1.1434721,4.350209,0.82677084,43.76142,69.74555,11.536999,102.7521,102.2558,102.8207,102.089775,20.251629,0.7,-101.215515,-25.511917,0.0028712926,-584.5894,-0.049252152,-1.7215102,-3.0062244,-2.2544854,6.7341784e-06,0.3,-54.609665,55.896698,55.706036,56.031662,56.055515,0.73628765,0.4296875,8.327020406723022,36.15940695206324
51,510000,86.98332397821056,-53.588264,0.055741966,0.16157565,4.8648562,5.8813396,48.480717,64.963196,7.823292,102.81925,104.23593,104.10074,104.831055,20.369062,0.7,-103.99356,-28.805174,0.0039054956,-1024.6908,-5.3809476,-4.4553733,-5.8300314,-4.384053,2.6850032e-07,0.3,-55.315025,51.75561,51.587902,51.951912,52.134193,0.85480356,0.4265625,7.969040632247925,36.87595183849335
52,520000,93.88560770393356,-56.677574,0.055947594,1.0523398,3.9553876,6.2440653,71.86987,52.224174,8.054532,100.33515,100.4233,101.30539,101.144585,14.496465,0.7,-100.55105,-30.806479,0.0023708246,-571.669,-11.366099,-10.249932,-11.519365,-11.929612,1.6543534e-06,0.3,-44.586945,54.9031,55.01627,54.44301,54.453888,0.76884305,0.484375,8.856083869934082,37.60691279967626
53,530000,94.8144541278961,-57.74157,0.054360706,-0.1955021,3.9313774,5.5869823,56.359715,142.58258,10.330971,105.737976,105.52601,104.85197,103.35787,13.919454,0.7,-104.46827,-36.083336,0.0019963742,-897.0192,-9.467956,-8.16362,-9.129552,-8.948559,1.1120062e-05,0.3,-50.167473,56.335327,56.280697,56.29406,56.1099,0.5664275,0.47031248,8.505908727645874,38.33642918666204
54,540000,93.95690109079601,-55.871506,0.056304652,0.20898354,4.196616,3.6829448,38.815445,94.93086,7.6256447,97.8511,97.74193,97.915794,97.34703,9.24448,0.7,-98.2507,-34.687706,0.00062375126,-446.14633,-9.279486,-7.7652316,-7.824951,-8.715311,1.0226621e-06,0.3,-47.406822,54.182976,54.402725,54.554924,54.407944,0.60730743,0.4296875,8.521435976028442,39.06392129262289
55,550000,95.09993374355415,-55.233532,0.055839587,-0.49709436,4.473487,6.9452033,59.30306,84.06523,6.962291,99.372246,99.244995,100.85144,100.6776,10.588021,0.7,-99.33869,-31.149017,0.0010822575,-728.7522,-6.070377,-5.8454647,-5.4747696,-6.8591776,2.8360346e-06,0.3,-45.463898,54.072464,53.904568,53.848602,54.149773,0.585354,0.42499998,8.346317768096924,39.78759737014771
56,560000,89.58393614076432,-57.48876,0.05515562,-0.041562617,3.8579206,-0.95917577,41.08876,113.05423,11.814497,103.42015,103.986885,104.04057,103.552444,8.821936,0.7,-102.77169,-29.32683,0.005729793,-684.604,0.42302954,-1.376369,-1.7930207,-0.06328654,2.3053744e-05,0.3,-49.27226,55.87139,55.768803,55.86756,55.799194,0.71570766,0.49374998,8.008920907974243,40.506127667427066
57,570000,94.07882426262381,-56.898956,0.05493796,-1.9882656,4.30739,5.777111,36.943455,135.61691,7.9360704,97.517784,96.302284,97.618454,98.124794,13.677505,0.7,-98.20422,-26.61605,0.004650987,-676.7953,-5.4137726,-5.8573875,-7.17631,-9.193468,4.793651e-06,0.3,-49.79939,55.22663,55.333492,55.656242,55.415016,0.62297845,0.46718746,8.520388126373291,41.22911702394485
58,580000,87.58225671351096,-56.871296,0.055497043,-1.5148648,3.8670688,8.895643,42.31742,129.86578,5.171514,101.00928,100.4893,99.876396,100.77074,11.695566,0.7,-101.62154,-30.120615,0.0041005267,-633.3239,-10.508924,-12.271097,-10.13908,-11.394155,2.144633e-05,0.3,-60.978428,55.111946,55.120667,54.989883,54.945076,0.56009126,0.4765625,8.010013580322266,41.94647477865219
59,590000,94.37610704844111,-54.57616,0.055711392,1.3209705,4.512026,7.524759,37.795452,50.791008,10.934008,101.028336,100.232506,100.56516,99.764175,11.447896,0.7,-101.004135,-22.178102,0.0019560894,-391.23184,-8.692108,-7.788963,-7.9499397,-8.480589,1.4584687e-06,0.3,-52.617035,52.934776,52.746536,53.31723,53.16043,0.6670556,0.45,8.464977741241455,42.665256917476654
60,600000,93.72917398006062,-56.883926,0.0555087,0.08013606,4.4964542,8.528065,54.86676,276.0334,8.31086,100.50571,101.51723,99.87231,100.59401,12.159996,0.7,-100.616486,-25.688307,0.0051488033,-512.40857,-9.917984,-9.193403,-9.40765,-8.699844,1.0447733e-05,0.3,-50.816055,55.07689,55.23548,54.944923,55.151287,0.5923925,0.46249998,8.323948860168457,43.39072637955348
61,610000,93.10784945316311,-58.47595,0.054342918,-1.0166534,2.9199154,7.4935684,52.966026,62.915794,6.432631,96.53404,96.42334,96.424225,96.51434,16.009388,0.7,-96.66319,-40.48082,0.0002362107,-416.77502,-8.087842,-9.3270035,-7.970647,-7.16667,1.8672262e-06,0.3,-47.589466,56.81738,56.843307,56.83381,56.795784,0.5428724,0.434375,8.413795471191406,44.11703868707021
62,620000,93.72613355107912,-56.70613,0.05558197,0.9203613,4.7845573,5.257069,54.21399,61.554474,18.302614,98.71128,98.83267,97.48864,96.505264,35.240753,0.7,-98.57267,-24.614908,0.0008990491,-1040.5852,-7.627895,-6.927647,-4.149862,-7.0299454,4.831399e-06,0.3,-55.604134,55.079674,55.145554,55.14044,55.27327,0.734129,0.44062498,8.426126480102539,44.83950699567795
63,630000,94.37578225026935,-59.17006,0.056320705,-0.66026396,5.736246,11.457248,65.40612,251.34471,11.629744,101.22506,102.41927,101.5946,102.66248,10.184935,0.7,-104.49215,-28.865387,0.0031152489,-583.2647,-14.562997,-14.267775,-10.129646,-11.635246,0.00012464011,0.3,-51.992386,57.52187,57.700672,57.85965,57.685062,0.562655,0.44062498,8.892510890960693,45.56902610858281
64,640000,94.16676608161463,-59.58715,0.054877322,-0.4373943,4.4155912,0.8915115,49.858562,134.60544,8.658743,101.94946,101.833534,101.56671,102.21125,19.912725,0.7,-101.911354,-30.741327,0.005695058,-212.87291,-6.201267,-5.622131,-5.0786777,-5.654222,1.2663913e-05,0.3,-45.018345,58.001617,57.927452,57.707657,57.59508,0.64729345,0.4375,8.489469528198242,46.29604189395904
65,650000,95.47864334091845,-56.55069,0.0561006,0.8770579,3.8802598,3.4993398,44.187576,82.32425,13.171267,98.30309,98.20321,98.69962,97.983025,62.88218,0.7,-99.15697,-24.623945,0.0009339889,-480.90506,-5.0735493,-6.008504,-6.000198,-5.1094503,4.6214407e-07,0.3,-53.03798,54.77549,54.730217,54.83628,54.71637,1.3093479,0.52812505,8.390995740890503,47.02623866399129
66,660000,93.58347898113738,-55.747513,0.056010667,-0.39924085,3.9272957,4.331177,41.254852,120.14301,6.2152624,98.234535,98.36451,97.7786,97.71385,11.867865,0.7,-97.39136,-28.641424,0.005384653,-1033.8942,-3.907368,-2.8085146,-4.307228,-2.1985781,1.8331223e-06,0.3,-58.45726,53.944363,54.051357,53.90644,53.897766,0.6884564,0.45,8.54988145828247,47.75268561045329
67,670000,94.00359559122192,-54.98353,0.055038236,0.4327007,4.4426107,4.4121966,49.577724,58.329407,8.291635,98.217354,97.55322,97.35046,96.94821,13.040048,0.7,-96.83761,-26.748877,0.0015518788,-430.08633,-7.43944,-3.2360883,-5.5858865,-6.0614023,4.0065675e-06,0.3,-48.839535,53.352123,53.34029,52.829987,52.78717,0.6206726,0.50625,8.483670234680176,48.476291680336
68,680000,83.65095345904592,-57.08202,0.05512128,-0.103203595,4.549837,0.51015216,59.620308,66.56972,11.913603,100.6678,100.42566,101.06412,100.92068,71.4638,0.7,-100.36134,-26.702433,0.0025419472,-717.5713,0.03762889,0.319744,-2.2873592,-0.5733471,3.4716797e-07,0.3,-53.99072,55.696274,55.44615,55.72653,55.55948,0.9626351,0.45625,7.4924046993255615,49.18612779776255
69,690000,93.54496070572267,-57.0831,0.05520436,-0.41267732,3.7860317,-5.254436,35.693077,61.06611,5.9215236,98.685265,98.32917,98.27286,98.563286,9.89354,0.7,-98.51159,-40.81179,0.0065984563,-568.68933,-2.3196263,-2.0988963,1.2163968,-4.574002,8.8402885e-09,0.3,-58.082634,54.971523,54.97912,54.915802,55.045723,0.67545056,0.41875,8.362551212310791,49.91348822514216
70,700000,94.19934878982734,-58.206665,0.055803064,-0.47307834,5.5095425,6.301279,43.652725,140.30643,7.297207,101.53789,101.9331,101.40742,102.029106,212.45866,0.7,-102.07306,-35.894688,0.002554039,-540.0582,-8.95322,-10.198889,-11.1219,-10.199747,3.939931e-08,0.3,-48.402195,56.39425,56.26679,55.577843,56.072502,1.8226752,0.4875,8.276347875595093,50.637483942508695
71,710000,93.43146672204092,-56.296616,0.05515286,1.495384,3.6095102,13.601515,52.218147,87.98811,9.141218,99.11655,98.33046,99.02893,98.16357,10.219668,0.7,-98.61836,-23.53326,0.0010907984,-618.814,-15.393407,-15.676072,-15.644871,-13.619646,7.250865e-05,0.3,-58.96438,54.59746,54.412617,53.98881,53.91385,0.62287974,0.515625,8.412090063095093,51.36278853813807
72,720000,93.70580492031362,-57.24836,0.05565297,0.03787005,4.6956797,6.873286,39.615795,78.57041,5.2826385,103.58199,103.3754,100.73455,102.522224,17.514978,0.7,-102.20083,-23.903984,0.0060647875,-440.82413,-12.240573,-10.081571,-10.803275,-9.158271,2.5883492e-06,0.3,-50.12278,56.05478,56.03217,55.609203,55.724766,0.6962167,0.4453125,8.315913438796997,52.087642971674605
73,730000,94.22964904730897,-54.6255,0.055043224,0.11130889,3.9357185,5.630808,59.321606,65.159164,12.112165,97.82312,99.56693,99.43916,98.60425,7.9518046,0.7,-99.30704,-26.901907,0.004038827,-450.3033,-11.589148,-14.9685955,-11.578062,-13.364056,4.963826e-05,0.3,-53.60927,52.83709,52.971935,53.223557,53.327312,0.67503643,0.42499998,8.39036250114441,52.81212515830994
74,740000,92.31977174859736,-54.188538,0.055367388,1.2160659,4.786999,4.754649,60.35766,80.925385,8.567995,99.41072,98.70887,98.99895,99.45567,62.37769,0.7,-98.521065,-26.777946,0.008864142,-6796.883,-9.989023,-9.677824,-10.058352,-9.477371,2.6424125e-06,0.3,-96.71667,52.206528,52.269142,52.32125,52.220207,1.0174689,0.45,8.180091381072998,53.532856142520906
75,750000,94.83212457978286,-56.858482,0.054805566,-0.48511195,4.1696796,8.522054,42.682262,95.38818,11.517638,102.054855,103.74839,103.89903,102.631134,16.93464,0.7,-102.91402,-33.979977,0.004071291,-2809.2346,-9.200486,-11.766161,-7.4488897,-9.761848,1.1984127e-06,0.3,-59.332695,55.265377,55.397766,55.559464,55.6048,0.68839675,0.43124998,8.471618175506592,54.25403004487355
76,760000,94.3800436967854,-56.3101,0.05681195,0.9927858,5.323561,5.9940443,50.42788,357.23303,9.722374,97.37184,97.8916,97.63961,97.49668,23.04936,0.7,-97.14039,-29.02976,0.0135082435,-705.3312,-7.362699,-8.071014,-10.9942465,-6.6753626,7.618107e-06,0.3,-55.309853,54.496613,54.57805,54.962387,54.73752,0.8054899,0.44374996,8.550837278366089,54.98054815530777
77,770000,94.42887282470093,-52.604195,0.05695218,-0.5801128,4.9165974,13.4942,39.096745,182.87671,7.6514254,97.4438,97.89526,97.083954,97.71896,17.17912,0.7,-96.968025,-30.340506,0.0020748843,-2686.565,-13.579309,-16.305634,-18.893166,-14.668407,9.66317e-07,0.3,-66.450714,51.081985,50.97191,50.61538,50.709053,0.73283494,0.4703125,8.996183156967163,55.71357924938202
78,780000,93.93204854172147,-59.119606,0.056537002,-1.2127101,4.1895247,2.3019528,57.915646,83.21436,7.434012,98.40414,98.56245,98.63579,100.46065,19.600574,0.7,-98.865585,-33.97065,0.004620397,-1156.7838,-3.0032203,-4.624381,-1.9878533,-2.1785693,7.986091e-09,0.3,-52.21141,57.60621,57.658142,57.682137,57.736397,0.7648109,0.4375,8.55155897140503,56.435002799828844
79,790000,94.12389390835878,-55.878693,0.056228478,-0.04722935,4.9937377,7.303047,61.292183,79.228,15.476704,100.4395,100.73164,103.481285,100.19242,23.221909,0.7,-99.64244,-29.882114,0.0090622045,-906.17596,-7.67784,-7.809676,-5.8588943,-5.834756,2.633905e-06,0.3,-58.88569,54.19203,54.104248,54.54821,54.525368,0.7617173,0.4359375,8.955982446670532,57.16424281994502
80,800000,94.93269367660413,-56.58326,0.056171615,-0.051345646,3.324214,6.485477,46.61818,32.342712,12.829964,101.27496,101.01347,99.75919,99.505066,9.574085,0.7,-100.302704,-26.748684,0.00046526885,-1953.267,-8.622338,-8.204717,-6.39566,-6.794146,1.174165e-07,0.3,-57.52482,55.204628,55.31675,55.483585,55.415813,0.5960333,0.45,9.077132225036621,57.89806592861812
81,810000,94.62686165501295,-52.39632,0.056730483,0.52829385,4.655063,7.0346913,49.969986,108.50147,9.329872,97.3546,98.02656,98.75535,98.787674,17.753447,0.7,-98.13205,-27.062109,0.0017625932,-3900.4941,-11.403836,-8.794855,-9.5084505,-9.647674,2.244294e-06,0.3,-75.7742,50.44941,50.517296,51.105267,51.33941,0.9820576,0.371875,8.593748331069946,58.62127067645391
82,820000,94.73686193737504,-53.987263,0.057259087,-0.9794357,4.297399,2.5490246,49.527023,66.08166,7.6608276,100.061646,99.16121,100.197266,100.05025,19.021269,0.7,-98.81405,-27.490944,0.009002566,-705.6254,-5.8273735,-5.571645,-6.6326575,-6.7347507,5.9454283e-06,0.3,-61.87824,52.73765,52.479866,52.64956,52.537155,0.6947259,0.43281245,8.739840507507324,59.35257864395778
83,830000,94.34430106337798,-54.289516,0.056935724,0.32481503,5.092637,7.1782465,57.481815,72.43872,6.3630924,99.177536,99.84319,100.018974,100.62245,19.344925,0.7,-98.39675,-23.803019,0.010240656,-603.6812,-10.239008,-8.26942,-9.3194065,-8.177835,1.9900442e-06,0.3,-56.321228,52.43233,52.442753,52.349792,52.4626,0.8528501,0.4671875,8.695844173431396,60.07986317078272
84,840000,94.4760354068051,-55.607594,0.056773685,0.8783821,3.7250347,8.500416,59.096035,97.403786,9.154549,102.21143,102.01751,100.91899,101.45818,27.588127,0.7,-101.86339,-44.121494,0.00049677707,-892.3914,-9.389854,-8.62697,-7.9084053,-9.07481,2.0353225e-06,0.3,-65.92403,53.476982,53.64074,53.557373,53.589775,0.820145,0.45,8.831774950027466,60.80855214595795
85,850000,94.8026752581884,-55.52765,0.056268457,0.41874897,3.760737,12.876036,41.426838,79.684296,10.689127,98.621796,98.73265,99.26911,98.37183,5.3465915,0.7,-98.06799,-29.270374,0.0072187306,-2092.441,-12.365771,-11.1222515,-10.848081,-12.352209,4.383549e-06,0.3,-70.53469,53.811,53.96846,53.885983,53.742065,0.5426082,0.4375,9.126041889190674,61.54139875968297
86,860000,94.55268574473425,-53.710087,0.056865532,0.3663937,4.02181,9.100612,43.110504,42.884262,11.477034,104.9966,103.79714,103.772896,103.73429,56.58723,0.7,-103.84877,-33.34564,0.002443572,-491.83658,-14.167986,-16.55226,-16.709297,-12.182097,1.3005379e-05,0.3,-50.786335,51.859222,51.990265,51.868393,52.05577,1.0200229,0.4453125,8.682693481445312,62.26636088689168
87,870000,94.2728415781603,-55.39496,0.05793838,0.4052698,4.3218455,10.65187,40.287563,264.5758,8.188505,101.3102,101.12691,101.31253,101.28102,10.6742325,0.7,-100.84911,-38.234825,0.0033161028,-445.6344,-12.5112095,-10.804684,-11.314907,-11.608066,1.1914351e-06,0.3,-56.54798,53.552826,53.654274,53.73303,53.669926,0.5558457,0.44687498,8.577564477920532,62.997912120819095
88,880000,94.65355103414907,-55.933117,0.05641708,-0.5220363,4.5187273,9.086469,42.273235,76.68627,9.4916935,99.44359,99.91312,100.25916,99.85123,8.796488,0.7,-99.55102,-27.370106,0.00020775502,-976.0421,-10.840999,-11.9828205,-12.665274,-11.614384,4.0745363e-07,0.3,-57.64963,54.618896,54.722404,54.823524,54.61087,0.6600458,0.515625,8.49952220916748,63.7264852086703
89,890000,94.78419922859774,-54.25538,0.05605486,0.74631906,4.230216,9.940363,54.340584,104.92659,4.4848547,103.71706,104.02459,104.58311,104.57282,10.887299,0.7,-103.812485,-35.818287,0.00070857065,-906.8263,-11.860969,-8.68339,-11.94527,-11.416189,1.4084392e-06,0.3,-65.62139,52.612076,52.706825,52.6921,52.69963,0.6880015,0.4625,8.413804531097412,64.45073857307435
90,900000,94.53516458115587,-55.55639,0.05603939,-0.24093941,5.431286,5.407882,64.46678,93.241776,8.200951,98.7927,98.19064,97.97381,98.00707,21.870827,0.7,-98.37492,-27.036186,0.0054401336,-3147.5864,-9.232603,-8.042926,-8.51221,-9.096818,5.409122e-07,0.3,-69.28275,53.79737,53.742153,53.695,53.65544,0.795681,0.4265625,8.498081684112549,65.1792799592018
91,910000,94.45433724538769,-55.918648,0.055035993,-0.43186352,3.7640274,6.090144,42.27007,87.88899,21.522894,99.03466,98.97116,99.364815,98.708374,12.113498,0.7,-96.80963,-25.038595,0.0021363471,-863.1515,-8.599713,-7.051818,-7.205417,-6.1004076,3.833731e-07,0.3,-63.374916,54.397034,54.385353,54.806915,54.582504,0.6203889,0.4140625,8.457783460617065,65.90570402145386
92,920000,94.14434920251757,-58.10159,0.05664683,-0.4134133,3.977985,-5.8933797,52.30294,133.24707,11.688365,100.37466,99.220894,97.72459,98.54215,55.414616,0.7,-99.40952,-22.68125,0.0075672716,-1387.5544,4.2055216,5.0499153,4.014678,4.214798,8.919044e-07,0.3,-53.315857,56.59838,56.618664,56.67515,56.727818,0.8496696,0.4421875,8.5077645778656,66.63318158785502
93,930000,94.44787577117802,-52.52259,0.056436587,-0.41092175,4.0580387,4.0782065,38.21398,53.108414,8.390399,99.05889,99.26645,99.65761,99.44592,10.059182,0.7,-98.78265,-28.022905,0.0017373022,-678.255,-4.9389133,-3.9556136,-5.88662,-5.215625,5.062866e-06,0.3,-56.563484,51.200188,51.095947,50.84771,51.03443,0.70782536,0.48125,8.464632987976074,67.36152775287628
94,940000,94.5899233139727,-57.294548,0.056178562,-1.1460352,2.91511,2.4681518,47.297585,46.118492,8.283008,100.426254,99.74171,100.563225,99.090096,14.283773,0.7,-99.69432,-32.214943,0.00398877,-900.5825,-2.8897126,-1.6909134,-2.0404413,-4.4300942,6.674134e-07,0.3,-55.511154,55.487343,55.46746,55.730762,55.658913,0.68596804,0.4671875,8.489544153213501,68.0893967628479
95,950000,94.5916278128797,-58.511112,0.055947963,0.16194376,3.8619325,7.8518987,51.373055,107.16429,13.540902,102.79346,102.87253,101.70152,101.31474,17.884933,0.7,-102.66813,-26.2855,0.005606816,-1567.891,-5.760723,-7.4405403,-5.727027,-8.950904,2.285354e-05,0.3,-60.721912,56.791576,56.86701,57.074223,57.11422,0.64575446,0.43124998,8.308951616287231,68.81286774873733
96,955000,94.67675882372032,-56.93384,0.056202922,-0.48112404,3.608471,8.030598,59.10809,54.46698,7.8022103,97.31735,97.70786,97.37912,96.62515,14.914067,0.7,-96.77751,-28.877829,0.004579235,-485.10022,-5.8576946,-9.502937,-5.6780767,-5.665496,4.5941284e-05,0.3,-51.931995,55.448883,55.49962,55.66046,55.542725,0.81390715,0.41875,8.49163007736206,69.24877240260442
97,960000,94.32245494926107,-56.285583,0.05767423,0.0683002,4.975341,-0.29587507,44.421764,267.14124,8.163259,99.009674,99.31499,99.33568,99.085,18.97506,0.7,-98.69993,-27.829098,0.0016923186,-820.72174,-0.4183122,-0.9485862,-0.19676821,-0.12297398,3.7903374e-06,0.3,-64.523926,54.5511,54.606316,54.42519,54.343067,0.8117962,0.4921875,8.527605533599854,69.681736322244
98,965000,94.48915546290266,-55.777115,0.05810374,-0.83520687,4.8384275,7.680202,49.892227,165.72083,11.561277,97.53492,97.333336,98.40685,99.99586,16.357313,0.7,-100.17224,-29.061739,0.00973093,-667.3958,-11.758046,-11.435612,-7.2156177,-7.6400914,2.6964557e-05,0.3,-54.4637,54.441376,54.23333,54.677887,54.602596,0.8173267,0.43124998,8.389376640319824,70.11648129224777
99,970000,94.39732635659354,-59.389515,0.056867484,-0.37549204,4.0747013,10.51128,40.89435,69.48285,4.9109473,100.279945,99.603,99.87186,98.11819,23.749363,0.7,-99.81149,-30.279802,0.0005516343,-1799.9323,-6.002109,-8.59741,-9.567759,-10.2181635,9.2375565e-09,0.3,-62.87565,57.973312,58.069313,57.281147,57.110054,0.68265575,0.4984375,8.406509637832642,70.55023483037948
100,975000,94.51797095243927,-55.20336,0.05704426,-0.49686888,4.2449327,8.636296,62.706352,74.36192,11.166215,96.781105,98.69537,99.23424,100.10074,17.561907,0.7,-96.847046,-29.219967,0.0025221806,-844.7301,-7.2763157,-6.8697433,-8.590299,-7.6651607,2.5236413e-05,0.3,-59.16475,53.365265,53.46836,53.974335,53.932938,0.6631607,0.40781248,8.376185178756714,70.98028299013774
101,980000,94.55562231172986,-56.017105,0.058563165,0.05013758,5.181139,10.217505,36.44728,233.3134,10.757383,99.71847,99.29949,99.16546,99.20478,60.711884,0.7,-98.93601,-25.364073,0.0031916588,-674.9736,-12.096581,-11.840878,-13.265748,-11.613709,6.992312e-07,0.3,-64.39934,54.279793,54.244804,54.260307,54.145683,0.90260816,0.46875,8.453531503677368,71.4118999004364
102,985000,94.39612482749811,-57.269154,0.05516872,-0.9055413,3.5309339,6.7023063,47.342705,98.1618,5.35381,98.728874,98.80415,97.34689,97.16246,42.06095,0.7,-98.49189,-34.61424,0.0031059505,-955.22925,-8.401125,-8.977567,-10.814715,-7.554217,3.6950225e-06,0.3,-63.2581,55.54465,55.55741,55.322212,55.297043,0.81170535,0.528125,8.408161640167236,71.84722986618678
103,990000,94.25473131346102,-57.309578,0.056801345,-0.3269438,3.8856382,6.3530803,47.529945,113.498245,7.254262,109.390724,107.96599,107.91405,107.41025,21.89733,0.7,-107.374825,-36.242847,0.00040401542,-2024.6117,-8.595413,-8.662632,-9.711609,-10.423991,1.1359155e-05,0.3,-60.74107,55.390778,55.278603,55.13535,55.17256,0.72258186,0.4578125,8.477400779724121,72.28149888515472
104,995000,94.44036763012717,-56.3682,0.060698807,0.2584965,4.4131393,8.802777,36.49077,84.72768,8.470787,98.061935,97.93206,98.33804,98.93906,12.530429,0.7,-98.39568,-34.854458,0.0008985275,-3366.1426,-7.5361385,-8.039063,-8.453093,-8.789936,3.142554e-05,0.3,-74.61202,54.57116,54.480766,54.829742,54.69282,0.8078935,0.4796875,8.490905523300171,72.71852144400279
105,1000000,94.43241156145797,-54.621765,0.06338909,-0.28957742,3.904983,2.1543393,28.775126,69.77858,13.058668,102.23447,100.80937,103.0181,101.880646,12.3903,0.7,-101.56915,-25.129011,5.5532204e-05,-610.32446,-10.490267,-10.202008,-10.1857605,-9.336545,1.3055221e-06,0.3,-54.435284,52.830296,52.85242,53.144096,52.87932,0.5872872,0.47812498,6.854130268096924,73.12516935666402
