Xixo99/comfo/baselines/comfo6_perterbation_actor/20230225_mle0/walker2d-medium-replay-v2/COMFO6_s1_20230225_185543_walker2d-medium-replay-v2_79.01.csv
,step,reward,actor_loss,alpha,alpha_loss,critic_loss,max_actor_loss,max_alpha_loss,max_critic_loss,max_mle_prob,max_q1,max_q2,max_target_q,max_v,max_value_loss,max_weight,min_actor_loss,min_alpha_loss,min_critic_loss,min_mle_prob,min_q1,min_q2,min_target_q,min_v,min_value_loss,min_weight,mle_prob,q1,q2,target_q,v,value_loss,weight,eval_time,time
0,0,1.6810297080772405,,,,,,,,,,,,,,,,,,,,,,,,,,,,,,,,,
1,10000,0.3905367940860964,-24.32986,0.058150195,-14.054181,1.9497102,-2.0140831,16.638826,68.06023,2.5661755,43.710217,43.63388,43.23535,43.042793,2.807941,0.7,-43.58529,-42.69804,0.0007036658,-219.6312,1.8715736,1.6811699,-0.15293193,1.317488,8.7423365e-07,0.3,-13.841875,23.930477,23.856071,23.661907,23.348026,0.10626453,0.434375,0.7460520267486572,1.8473152240117392
2,20000,0.18461784745432386,-39.03263,0.031843353,0.31764528,2.2733793,2.4807513,56.2159,28.498672,12.305555,69.59448,69.77366,69.882835,70.144745,3.4884572,0.7,-70.59632,-33.55088,0.0016900216,-141.70914,-2.9470634,-2.6021788,-2.8037112,-3.3260844,1.3385488e-08,0.3,-29.119774,38.09771,38.106236,38.326614,38.27108,0.21336883,0.428125,0.2941474914550781,2.444402877489726
3,30000,0.5567862161004822,-46.801155,0.040796258,0.99568594,4.0279207,-1.7825992,78.19075,238.86604,12.55735,84.22063,83.89014,84.534035,83.90247,6.657482,0.7,-84.46201,-36.55726,0.005404325,-402.36755,-2.7185113,-4.4495225,-4.468055,-3.790079,1.7206868e-06,0.3,-30.696665,45.577423,45.567284,45.481125,45.43174,0.3090536,0.49375004,0.48928332328796387,3.0357359051704407
4,40000,3.547157103779556,-52.065407,0.044968233,-0.56627214,5.733376,4.8702636,56.04938,253.20285,13.949106,95.675575,95.56674,95.94966,96.08103,4.0768876,0.7,-95.488174,-26.31391,0.00046035816,-187.16844,-6.734571,-8.040084,-0.7642612,-6.402736,3.5941077e-06,0.3,-30.327408,50.853687,50.853916,51.639435,51.32721,0.30128375,0.41875,1.1391124725341797,3.633810559908549
5,50000,13.61591348244248,-55.207985,0.0459006,-0.65425456,7.528597,15.83801,43.802113,622.6007,12.886177,96.13292,96.92588,98.00055,97.28928,14.834867,0.7,-96.228615,-34.48512,0.0036445225,-187.89056,-18.544722,-17.105534,-12.073361,-18.584406,1.2087822e-05,0.3,-27.428202,53.913914,53.825733,54.235416,54.179802,0.4592836,0.4421875,2.3749022483825684,4.256240157286326
6,60000,16.02265224789929,-55.72431,0.047156084,-0.49803117,4.4997253,12.412988,36.47236,123.43418,11.778796,105.23921,105.95126,105.112305,105.6121,11.187655,0.7,-105.20216,-28.239195,0.0062201447,-241.92393,-16.587418,-16.163975,-16.64,-17.014214,1.0396354e-06,0.3,-31.63005,54.426018,54.250175,54.691772,54.530003,0.44278806,0.45624998,2.1966867446899414,4.874559497833252
7,70000,0.3488631894793697,-54.064224,0.048052475,-0.02230969,6.1776533,6.9660115,43.534634,107.675,5.857483,101.59864,102.68763,102.431656,102.01203,11.527124,0.7,-101.093025,-35.884556,0.006537131,-338.93137,-8.792689,-11.191936,-10.87815,-9.948712,4.0864234e-06,0.3,-35.64655,52.52676,52.59164,53.26522,53.13414,0.6213616,0.3875,0.2930276393890381,5.464166835943858
8,80000,23.848791187165645,-59.319244,0.04858099,-0.31178772,4.9365773,10.204004,59.44726,109.05583,9.110186,105.248825,106.564705,104.95076,105.642494,17.978743,0.7,-106.99858,-26.411903,0.00051474443,-187.55634,-11.358895,-9.053199,-8.917944,-9.906392,8.5667125e-07,0.3,-32.996376,58.02792,58.050938,57.92044,57.695755,0.64380753,0.4640625,2.9299111366271973,6.094747956593832
9,90000,29.84143209244116,-56.85603,0.04976968,-0.91345465,4.068392,6.678329,42.511333,51.312485,10.527971,99.007996,100.409355,100.79436,100.2112,21.371605,0.7,-100.29524,-30.61995,0.0010141812,-306.58023,-5.048808,-7.8922324,-9.498228,-9.205962,6.4233714e-06,0.3,-32.744728,55.604702,55.541977,56.066875,55.831387,0.40709823,0.43124998,3.159871816635132,6.734436043103536
10,100000,28.679767414724672,-56.428448,0.050497208,0.3109136,6.8323092,-1.7177782,43.94265,328.20587,8.518958,104.98145,105.17676,105.53536,105.128716,13.102143,0.7,-104.44615,-22.157393,0.0002195058,-412.37524,0.36975694,-0.25354457,-0.21013522,-2.4152942,1.149997e-06,0.3,-33.181313,55.14054,55.070385,55.427486,55.34958,0.48441333,0.46093747,3.2390599250793457,7.377831109364828
11,110000,22.560190868144154,-59.27906,0.05045901,0.22729188,9.986502,14.967599,47.980824,1426.7493,6.4513927,104.54321,105.38899,105.69282,104.91106,76.20075,0.7,-104.167885,-27.750229,0.008073247,-349.36154,-15.835614,-12.038245,-13.732717,-13.790678,1.0913936e-08,0.3,-37.546623,57.695244,57.938778,57.42614,57.741222,0.80408937,0.4578125,2.5538907051086426,8.008108747005462
12,120000,27.164581818826612,-61.7603,0.050852146,0.06470069,4.022543,7.4972696,39.024536,76.43109,7.58582,101.07012,101.12549,101.45648,101.71242,13.071787,0.7,-101.364845,-32.17145,0.0051211426,-248.08435,-7.486192,-8.199637,-7.9820337,-5.9178953,1.6430278e-07,0.3,-31.83733,60.36262,60.38671,60.76134,60.740875,0.54177547,0.459375,3.157618284225464,8.643803942203522
13,130000,27.481387694446784,-56.170143,0.0516714,0.62327063,5.336427,13.502002,58.821247,333.9493,8.4407215,104.36481,105.30089,103.924515,104.4857,13.380277,0.7,-104.31471,-35.255085,0.00046394975,-475.36966,-12.185545,-13.811587,-14.2647705,-14.749502,0.00014163852,0.3,-43.465027,54.73221,54.851322,54.62446,54.42079,0.6576791,0.5078125,3.0186984539031982,9.276006352901458
14,140000,30.11571636461167,-58.84556,0.05142846,0.9379613,6.0558457,4.890375,45.67868,562.34,5.8101306,106.00541,105.824684,105.21,105.17689,29.045475,0.7,-105.17468,-23.43545,0.001444372,-305.43402,-9.916468,-9.639199,-11.253342,-9.539376,6.9498956e-06,0.3,-38.831955,57.24116,57.398808,57.274895,57.536964,0.8913225,0.44843748,3.54600191116333,9.919443833827973
15,150000,46.51733102224546,-54.84781,0.052671764,-0.033283606,4.613701,11.10258,52.506344,220.9625,11.100902,105.36149,105.26393,105.09186,106.81014,98.67747,0.7,-107.322914,-28.232052,0.0009126678,-2126.7815,-12.266112,-12.952554,-11.250748,-11.070408,1.9620639e-07,0.3,-52.894768,53.2147,53.112663,53.024178,53.11455,1.2870431,0.4421875,4.601470947265625,10.577159102757772
16,160000,34.202171957719244,-56.99386,0.052762207,-0.304645,4.0615826,10.800274,48.796844,61.811043,9.649424,107.06437,107.78529,106.255325,106.04592,7.4927354,0.7,-106.51014,-34.170803,3.4454104e-05,-528.8651,-14.956378,-13.392164,-12.255734,-13.820359,4.0344895e-07,0.3,-41.787537,55.4487,55.291397,55.299328,55.542503,0.44505006,0.43906248,3.9230563640594482,11.22339848279953
17,170000,39.27826284212992,-57.39714,0.05294885,0.75321555,3.9370754,9.839249,56.17917,55.621353,10.93441,107.891815,107.83811,107.109634,107.05569,13.648995,0.7,-108.02021,-31.771599,0.006162538,-849.62915,-9.93968,-12.372242,-8.570897,-10.069138,3.036871e-05,0.3,-47.891716,55.87358,55.93593,56.0287,55.843033,0.65604866,0.453125,4.1115803718566895,11.874421306451161
18,180000,67.04242911494785,-59.10881,0.053470045,0.19856673,5.211562,3.911271,44.784153,148.71046,9.357676,112.85867,111.48262,110.98614,110.83339,40.276604,0.7,-112.288925,-37.73692,0.002315758,-386.1031,-7.9053297,-8.646543,-8.102343,-8.125945,0.00010081743,0.3,-41.16021,57.695957,57.61454,57.503357,57.500725,0.71584886,0.44687498,6.308566570281982,12.561904076735178
19,190000,35.590168740164444,-57.315773,0.052934904,0.8527757,4.2155614,12.454367,71.43509,48.081993,12.315065,102.65055,101.881935,103.94444,103.1292,17.245705,0.7,-102.53013,-34.83209,0.010321715,-237.55284,-11.560793,-11.602752,-10.841223,-11.510568,1.0308943e-05,0.3,-35.999847,55.79616,55.854595,56.072517,55.966698,0.6625143,0.4375,3.797482490539551,13.20693461894989
20,200000,88.90916457373466,-57.45799,0.05373407,-0.39494833,5.1265683,8.087948,33.053127,154.06175,9.920783,106.47778,107.27794,107.02619,107.98149,43.167816,0.7,-106.01317,-33.045994,0.004417235,-220.54387,-12.025238,-11.873356,-14.357029,-12.323207,1.7097516e-05,0.3,-37.637676,55.73384,55.754723,55.73787,55.70815,0.85425085,0.484375,8.224064111709595,13.93000119527181
21,210000,59.84874149603211,-57.227486,0.052607507,-0.5954841,7.956897,-0.022698104,48.98544,562.064,14.786361,106.2576,106.72973,107.07604,105.68136,112.37078,0.7,-106.25778,-28.357162,0.001846117,-459.92615,-3.827156,-4.511986,-5.4014606,-6.9325314,8.5287616e-07,0.3,-49.53176,55.627426,55.538315,55.77453,55.558895,1.1355119,0.46718746,6.421800851821899,14.61525761683782
22,220000,43.1124569402702,-55.36241,0.053839628,1.0237125,4.2947283,7.0826955,55.927086,147.81145,15.2365265,103.116394,103.07502,102.637634,103.16546,30.204466,0.7,-103.686104,-29.535105,0.00039451482,-474.69315,-7.827028,-7.753352,-9.678137,-7.508871,3.0803496e-06,0.3,-45.357975,53.778072,53.654053,53.643215,53.81076,0.70002556,0.46249998,4.557451009750366,15.27423662741979
23,230000,95.34538922920991,-58.708557,0.053731497,2.5399022,6.0927925,9.75052,62.81423,402.572,7.2498913,101.62689,101.76312,101.86204,101.74777,48.887188,0.7,-101.15319,-28.124582,0.011085067,-470.9621,-8.292189,-11.071951,-12.031732,-9.81407,1.9314615e-05,0.3,-40.544624,57.347816,57.23315,57.155746,57.225258,0.9183457,0.4375,8.3157217502594,15.997601842880249
24,240000,88.33207551877439,-57.537113,0.052922476,1.0687766,4.9687166,7.294199,50.755653,118.35484,11.319005,102.320854,102.12737,102.96002,102.13259,15.446719,0.7,-102.83724,-24.705225,0.0030188835,-733.4103,-11.301236,-11.079948,-11.244346,-9.683589,3.992133e-05,0.3,-40.156937,55.94928,55.8407,55.77455,55.82089,0.70948297,0.41875,7.819733381271362,16.711556402842202
25,250000,94.37505722291472,-57.609215,0.054060157,0.17571801,5.123508,8.460262,41.42405,90.99577,9.748843,107.43672,106.33024,105.01124,106.27567,19.601265,0.7,-106.85196,-31.113434,0.0037245885,-226.72343,-10.468669,-11.289836,-12.419781,-11.899829,7.411912e-06,0.3,-35.315903,56.039284,56.09337,56.011406,56.020195,0.74432284,0.4515625,8.413999557495117,17.437523539861044
26,260000,93.53153702486246,-59.984997,0.053575408,-0.72049236,4.1437435,0.91845405,41.489437,90.384544,10.709014,100.3573,101.10133,101.52505,100.29516,25.95229,0.7,-100.618576,-36.26035,0.0012106197,-329.13165,-1.8152189,-0.69281626,-0.21111283,-1.0934489,3.4579718e-06,0.3,-38.179466,58.55088,58.544453,58.703293,58.52763,0.58688235,0.4609375,8.221548080444336,18.15883104801178
27,270000,91.77128043850873,-57.275433,0.05284564,3.3747025,5.1886625,17.326654,52.23706,133.08936,8.190147,104.6937,105.22665,103.47204,103.9389,45.700356,0.7,-104.141945,-32.352936,0.010107642,-404.28787,-16.336731,-13.304953,-16.436518,-14.57533,7.6065774e-08,0.3,-44.542156,55.250626,55.37907,54.719822,54.871407,0.898294,0.4765625,8.295411586761475,18.882476635773976
28,280000,93.37673326622988,-55.996815,0.053618155,-0.7072649,5.832817,7.470568,59.887466,333.20856,7.9238453,105.16699,106.117294,105.13806,104.89661,24.827394,0.7,-105.11739,-45.73374,0.0004418125,-1483.1321,-7.219882,-9.035848,-6.347395,-12.43778,0.00012179746,0.3,-46.708473,54.79299,54.722412,54.515785,54.604317,0.9048716,0.44687498,8.305329084396362,19.60560983022054
29,290000,94.6209408622698,-59.541893,0.052873064,-0.21488103,4.201062,2.1497798,55.36722,77.43426,8.079436,105.11686,104.969246,104.983986,104.54286,88.81477,0.7,-104.48799,-32.319473,0.0031080344,-522.34924,-3.6493201,-1.7217102,0.83338547,-4.8952875,1.745898e-06,0.3,-52.257057,57.794327,57.875954,57.950607,58.050087,0.935833,0.4609375,8.2299964427948,20.328367106119792
30,300000,92.17069694481663,-58.756992,0.053041063,0.3322955,4.7783937,4.861516,48.63815,73.96644,8.799078,102.14557,101.14474,100.99215,101.052536,54.87699,0.7,-102.6598,-29.122004,0.005355347,-385.066,-9.398975,-7.292153,-8.369854,-7.9383974,1.3788406e-06,0.3,-43.40563,56.99116,57.211166,57.318836,57.06631,1.0639807,0.428125,8.216440439224243,21.05322185754776
31,310000,86.29439232511046,-57.710896,0.053064436,-0.64584213,4.795744,8.358369,39.97861,121.60542,6.1993217,102.45747,102.783844,102.70427,102.886444,27.505136,0.7,-102.86598,-22.059267,0.00032136924,-380.51886,-9.1187725,-9.031469,-8.593442,-10.282917,1.1637283e-06,0.3,-41.501305,56.145973,56.098522,56.018967,56.2543,0.7289574,0.478125,7.702218532562256,21.769462609291075
32,320000,71.52202802270786,-57.30294,0.053929698,0.35866845,5.702652,12.485522,68.36875,166.2562,3.9545827,101.262085,100.635796,100.609695,99.293526,82.11684,0.7,-101.59641,-24.826294,0.0107993195,-740.1326,-11.45898,-12.037716,-10.381399,-14.130611,1.0829354e-07,0.3,-43.517822,55.74331,55.684517,54.98627,55.17429,1.017556,0.4890625,6.444962024688721,22.46382269859314
33,330000,92.97531478938151,-57.942375,0.05244632,0.77030814,5.9540915,3.5930204,35.864983,156.79831,6.2812347,105.54414,106.575386,104.596306,105.70447,24.430737,0.7,-106.03366,-30.825813,0.0028590038,-429.639,-11.791143,-12.37222,-11.192935,-8.501125,9.358439e-05,0.3,-44.980923,56.370857,56.415985,56.10542,56.12094,0.94180685,0.45468748,8.259917259216309,23.18721452554067
34,340000,87.09493210324631,-57.11146,0.053247325,0.7709875,5.2565427,6.1660156,43.86082,227.80664,10.093334,101.984665,100.78319,103.03032,102.126755,12.593277,0.7,-101.783485,-28.714613,0.0016993773,-383.04193,-10.378558,-9.057349,-12.784117,-10.756621,5.1392636e-08,0.3,-40.06176,55.767467,55.822197,56.05915,55.87475,0.5687509,0.4203125,7.507344484329224,23.903981026013692
35,350000,94.75680118354498,-57.959167,0.05399074,0.52586114,4.1451797,3.5776403,64.16347,48.44099,7.1796937,99.8884,99.38573,98.817764,98.189316,25.89819,0.7,-100.38508,-28.573038,0.00071731675,-342.7077,-7.5496707,-5.708703,-7.381121,-7.085284,2.6901762e-06,0.3,-43.488365,56.40748,56.38165,56.33634,56.227615,0.7248236,0.48593748,8.278679609298706,24.629264386494956
36,360000,93.98815655846401,-55.749943,0.054596093,1.5991108,5.625224,6.8114963,47.44755,144.99857,11.104928,101.22152,102.37355,103.00689,102.63339,53.509953,0.7,-100.64142,-26.259897,0.0070982254,-424.8754,-6.714012,-6.702576,-7.9106116,-8.412451,4.0257884e-05,0.3,-48.05773,53.84218,53.969727,54.243885,54.40336,0.8580673,0.3984375,8.223758935928345,25.35543951590856
37,370000,88.74045431151337,-58.2765,0.05383114,0.9172005,6.0356817,7.2825727,52.431572,128.32849,6.2700295,101.68883,101.303566,101.49047,101.36099,10.386535,0.7,-102.35547,-27.458897,0.00070029084,-330.1127,-8.652717,-8.023686,-10.3920765,-10.501154,2.514571e-07,0.3,-47.408417,56.640636,56.586575,56.63089,56.48459,0.5751066,0.44843748,7.879741668701172,26.074620072046915
38,380000,87.99641224662382,-56.7511,0.05460555,0.32092497,4.8814898,5.3780274,52.339878,112.8725,15.141368,99.529274,100.686844,99.67193,99.66454,9.7210455,0.7,-100.23945,-35.284042,1.6544014e-05,-532.6527,-5.799885,-4.2615466,-7.0500364,-6.762317,2.920844e-05,0.3,-48.18339,54.94957,55.150665,54.580902,54.934486,0.6996714,0.4453125,7.619091272354126,26.78908545176188
39,390000,78.56598160268639,-57.60096,0.054352093,-0.86767954,4.4210052,3.5581512,39.952114,144.84335,13.148478,99.65053,100.39434,101.96904,101.7264,19.921926,0.7,-99.492035,-28.201311,0.010142937,-930.99805,-6.6155157,-6.673013,-4.4999905,-4.7940054,5.2823456e-08,0.3,-53.82053,56.008583,56.149376,56.516838,56.233116,0.68303657,0.49374995,7.403289556503296,27.49317878484726
40,400000,85.59800713224772,-58.792595,0.05375979,0.40769565,4.804145,7.159075,45.923374,137.25507,15.503148,102.03022,101.2551,101.48523,100.27423,13.469982,0.7,-100.745316,-29.857912,0.00243062,-814.43304,-8.472076,-7.945151,-8.124389,-7.325192,2.3264147e-06,0.3,-50.462704,57.341125,57.399757,57.786427,57.40045,0.63729143,0.4671875,7.577715635299683,28.20850276152293
41,410000,92.52299211533193,-55.000717,0.053931266,0.61129045,3.8685057,7.3848934,47.574005,101.93851,16.856136,103.07669,103.810646,102.734795,104.205826,47.759964,0.7,-102.968414,-31.980629,0.004336574,-889.7063,-13.895221,-10.931728,-11.639596,-12.913555,6.67572e-07,0.3,-57.696495,53.284153,53.360725,53.327553,53.41314,0.73444664,0.4375,8.322986125946045,28.933736209074656
42,420000,95.1955365733358,-56.268417,0.054445148,-1.0642047,3.6455235,12.306601,50.56202,96.98663,5.8029656,102.60037,103.27203,103.34516,103.42962,14.300462,0.7,-102.92895,-24.778362,3.6952202e-05,-595.90155,-14.333635,-14.402071,-14.469223,-16.019344,1.4248245e-06,0.3,-51.282074,54.858322,54.998455,55.149467,55.39572,0.76515615,0.390625,8.337997436523438,29.66186219851176
43,430000,94.55493509213733,-55.48107,0.054971274,-1.5882134,4.5536366,7.413056,49.193813,249.3453,9.219609,103.05459,102.23273,102.56572,101.73921,32.952496,0.7,-101.76641,-32.159565,0.0019500603,-399.34448,-10.560073,-7.979279,-9.769095,-9.230122,1.0430813e-08,0.3,-49.23849,53.96859,53.922062,54.119713,54.025475,0.813975,0.48125002,8.288744449615479,30.38751620054245
44,440000,93.88801397054125,-57.54221,0.05534911,0.01378572,4.3141713,5.575528,40.35114,87.84655,7.506706,106.99736,107.43763,107.52104,106.930305,7.577447,0.7,-106.94694,-50.08435,0.0069511915,-1235.0123,-4.457843,-3.0176358,-2.6846404,-4.922814,3.0135269e-07,0.3,-53.17527,56.22096,56.255066,56.62893,56.554935,0.6556339,0.4171875,8.36757230758667,31.11537831624349
45,450000,95.3856611091334,-56.887863,0.055322893,0.6841196,5.0399685,5.327576,39.353443,163.84229,7.7946787,101.34245,101.21149,100.59916,100.96889,65.58726,0.7,-100.51659,-23.976147,0.001236127,-1122.1829,-5.607128,-5.2472696,-6.1324944,-7.665977,8.5077335e-07,0.3,-55.430946,55.243195,55.22819,55.462036,55.478737,1.094941,0.45468748,8.302556276321411,31.839721763134
46,460000,93.13703514017583,-56.48665,0.05517064,0.58909327,3.803975,3.6394753,61.07998,86.482956,6.9784393,98.06411,98.36966,97.8305,97.83821,40.690556,0.7,-98.09318,-27.053709,0.0021520748,-1222.8444,-4.305852,-3.9738393,-5.3378205,-5.755811,3.6426761e-06,0.3,-66.26444,54.829704,54.772827,54.702877,54.88315,0.8327147,0.4421875,8.254476070404053,32.565094570318855
47,470000,94.50347960298141,-55.83396,0.055787515,-0.44890732,3.688491,9.846088,42.558395,84.65045,9.47364,103.1521,103.490074,103.09128,100.9328,122.66599,0.7,-103.058876,-34.84343,0.00029347284,-1911.796,-11.808728,-13.78182,-13.348997,-11.26952,6.114351e-09,0.3,-70.0104,54.04486,54.086514,53.961334,54.037643,1.063626,0.4796875,8.324676990509033,33.29116566975912
48,480000,94.54909401410438,-56.089733,0.055141646,-1.38667,3.964178,7.704969,46.63638,152.48036,8.109927,102.41164,103.74854,104.77884,102.341606,71.95854,0.7,-102.83766,-25.555798,0.002462593,-391.17557,-9.346628,-8.625678,-9.690225,-9.249611,2.0251464e-05,0.3,-49.516094,54.63614,54.58336,54.678932,54.68442,0.7618433,0.45,8.360902070999146,34.01652102470398
49,490000,94.01403998603423,-54.931557,0.055388197,-0.91829973,5.3114967,8.108931,41.526505,77.39575,12.340443,103.08629,102.42662,103.67191,103.76207,97.31109,0.7,-102.85541,-28.783068,0.007479566,-444.62643,-8.699395,-7.5857377,-7.3620105,-9.338203,1.7881394e-08,0.3,-45.425064,53.269375,53.017776,53.472565,53.623295,1.2501187,0.403125,8.166530847549438,34.73680282036464
50,500000,94.76100924014223,-58.274582,0.05566612,-0.17590228,3.450859,6.226421,46.741985,77.24095,9.645653,103.74382,104.26552,104.26046,104.344086,102.85223,0.7,-103.337105,-30.075356,0.0026688566,-398.1075,-8.979622,-6.893573,-7.2366614,-7.1469803,6.640039e-07,0.3,-50.512714,56.470253,56.456818,56.718807,57.060028,1.2649426,0.421875,8.714679956436157,35.46403222878774
51,510000,96.24690114069817,-56.295235,0.056322936,0.7265035,5.1106133,-1.5517981,46.886036,86.66871,13.607304,99.54603,99.60369,99.8288,99.594574,20.539997,0.7,-99.3174,-37.394604,0.0027766176,-1268.7341,-1.9843688,-1.7408452,-2.0492616,-1.8501889,1.4019013e-05,0.3,-54.602512,55.01148,55.160976,55.32705,55.337418,0.7958526,0.40468746,8.473275661468506,36.188734249273935
52,520000,94.50282468475432,-56.23185,0.056114938,-0.39222926,3.3211021,7.5930624,50.569504,48.608006,12.736795,98.49433,97.237114,98.361465,98.045815,23.36587,0.7,-97.35791,-34.275276,0.0031167816,-1214.7532,-10.292386,-9.057895,-9.607982,-10.65279,1.043228e-05,0.3,-68.31546,54.297897,54.200428,54.149612,54.612316,0.7621739,0.390625,8.311815738677979,36.90646610657374
53,530000,93.4795846674506,-57.00158,0.055898085,-0.78479326,3.6293628,9.695699,53.438774,76.24839,7.6508865,100.85423,100.638954,100.9048,100.16204,55.538055,0.7,-99.92113,-30.179043,0.010699705,-678.2365,-13.699492,-13.17448,-11.47928,-12.534124,1.9016444e-08,0.3,-56.39585,55.374744,55.150787,55.639393,55.537888,0.88426626,0.44374996,8.966485261917114,37.63131210406621
54,540000,95.37301942030145,-55.99486,0.053989854,-0.34868515,3.6526928,9.333786,71.620895,131.03145,13.599852,101.232704,100.05642,102.164536,100.25043,12.831993,0.7,-99.98505,-29.273333,0.004527563,-1014.3439,-11.911626,-11.799995,-12.487347,-11.921213,3.9156294e-08,0.3,-62.361244,54.491478,54.692513,54.68998,54.69004,0.59906685,0.41875,8.28942584991455,38.34747267166774
55,550000,96.3131732514526,-58.73649,0.055341154,-1.524332,4.0646086,12.837092,47.02529,89.03015,16.371107,99.96521,100.024666,101.16575,100.2747,29.48775,0.7,-99.70747,-38.250233,0.0023921197,-534.9945,-11.205763,-13.643919,-12.182311,-8.29694,7.377961e-05,0.3,-48.991734,57.146965,57.132782,56.967407,57.05398,0.6790047,0.45624998,8.52388048171997,39.058760058879855
56,560000,96.7103388974219,-57.479652,0.056233156,0.13980208,6.6679606,5.8568516,35.871838,321.954,11.1806555,102.1731,104.60516,107.56166,102.84613,40.42565,0.7,-100.88799,-44.576183,0.018012878,-634.9659,-6.967171,-5.188505,-7.571724,-6.9943256,6.2969093e-06,0.3,-52.651524,55.819214,56.022224,56.620445,56.186897,0.8233714,0.41406247,8.628391027450562,39.77620933055878
57,570000,95.88185659609263,-59.19538,0.055678304,-0.46272522,6.962908,0.49144357,63.446327,97.922806,13.412394,99.613,100.18706,98.0116,98.05727,19.370152,0.7,-100.07089,-28.188637,0.02619122,-563.43005,-3.3789473,-4.657674,-4.6629586,-5.1810327,5.3689755e-06,0.3,-45.414837,57.769627,57.711678,56.642673,56.969955,0.8169231,0.49062502,8.789438962936401,40.50484952131907
58,580000,95.32810338610082,-57.836494,0.056805786,0.70066726,4.3033147,6.895883,52.4669,97.882324,6.3296146,100.60347,100.668564,99.19384,100.020424,114.88658,0.7,-101.14547,-33.36619,0.00054590846,-858.3491,-6.993889,-5.398832,-7.13654,-8.294021,3.9156293e-06,0.3,-53.616066,56.403374,56.27956,56.060616,56.077553,1.1902072,0.47968748,8.675677061080933,41.23041630585988
59,590000,94.30384670178951,-55.72389,0.056860328,-1.2040772,3.363268,7.1256704,49.085297,43.899986,11.449932,99.27609,98.782684,98.29304,99.8935,15.526546,0.7,-100.74515,-39.952183,0.0008823277,-685.31305,-5.622665,-7.8759456,-6.9933915,-9.392471,8.962391e-06,0.3,-52.825653,53.988163,53.87739,53.8265,53.954807,0.7606505,0.4796875,8.323232173919678,41.9532590230306
60,600000,93.02900084653383,-55.28325,0.05744899,-0.45140225,4.3712425,3.097899,46.930862,55.794052,10.429308,98.936714,98.594376,99.20151,99.45517,9.216501,0.7,-98.29103,-26.972654,0.0042649247,-646.6017,-7.3081546,-7.0900187,-5.840615,-5.916963,4.3655748e-10,0.3,-53.98839,53.35551,53.17668,53.77971,53.841698,0.6595998,0.4171875,8.75490140914917,42.68538043498993
61,610000,71.24971394431243,-57.249443,0.05729123,-0.5685759,4.951564,4.417585,43.85783,64.468925,12.924202,102.575455,101.57223,103.5423,102.418,8.812174,0.7,-101.83917,-26.83833,0.007226708,-889.0761,-8.7514925,-7.768281,-6.897261,-8.2041025,7.700874e-09,0.3,-52.16108,55.355175,55.36829,55.920715,55.827904,0.6652149,0.4109375,6.416063547134399,43.378697601954144
62,620000,95.08685654257243,-55.021294,0.05766169,1.3106034,5.037772,-1.0032394,60.712013,70.627884,10.175754,96.07674,96.86471,97.254616,98.24249,37.548714,0.7,-98.193245,-33.584442,0.0041198283,-492.23355,-1.3343737,-4.5740604,-1.9716644,1.1532621,9.607636e-06,0.3,-52.627335,53.551544,53.313583,54.09327,54.003048,0.8513738,0.42031246,8.402554512023926,44.10649948120117
63,630000,94.35007887245735,-60.269684,0.057708163,-0.5992198,3.7900867,1.9595051,31.816387,74.63507,10.55024,103.975914,104.55421,103.37055,103.12713,22.570986,0.7,-103.54879,-37.09956,0.0039503286,-832.3225,-8.873651,-7.198818,-10.529174,-10.637079,7.3098754e-06,0.3,-57.4675,58.50185,58.505653,58.35199,58.350204,0.678738,0.446875,8.413273811340332,44.83657898902893
64,640000,94.07224357905484,-58.096703,0.05750983,0.13836324,3.9001539,-0.53091913,50.621574,102.635864,9.353294,102.48763,101.62987,102.067024,103.322556,10.172018,0.7,-101.5665,-28.184095,0.0036302148,-852.9591,-3.270181,-1.9133915,-4.6705523,-1.8268487,1.3496493e-06,0.3,-58.21859,56.82988,56.575935,56.882988,56.70134,0.65117353,0.4359375,8.24777603149414,45.5629882534345
65,650000,93.35407534206894,-55.4176,0.05828935,2.2916965,6.8941813,5.55548,47.91309,274.462,13.572905,102.48248,103.18794,102.225395,103.11182,29.288036,0.7,-102.612495,-28.979252,0.0059845764,-928.6487,-9.533174,-8.581579,-10.322387,-10.314018,7.302777e-07,0.3,-60.319878,53.543465,53.53157,52.88126,53.12786,0.872982,0.4796875,8.258252143859863,46.290396920839946
66,660000,96.74035313944373,-57.03385,0.05684426,-0.37428525,3.5246284,4.4997716,64.93925,92.945656,8.966829,103.56685,103.475525,103.25436,103.45743,14.177163,0.7,-103.281494,-29.62667,2.264278e-05,-609.0097,-9.277483,-9.277355,-7.366663,-7.0716047,8.169673e-05,0.3,-57.98335,55.263916,55.31971,55.061703,55.383545,0.6696944,0.4484375,8.143251419067383,47.01471910476685
67,670000,95.78852053347231,-54.437634,0.05923249,-0.89005864,3.0251195,8.052517,57.49184,42.473457,8.79683,96.35516,97.43438,97.30737,98.88518,8.132457,0.7,-96.43907,-28.803167,0.004234811,-468.1311,-6.7198443,-6.789725,-7.8226204,-7.0795946,2.0519179e-05,0.3,-47.221058,53.01795,53.04333,53.20367,52.971638,0.611302,0.4875,8.235433578491211,47.73434050877889
68,680000,94.86064862422691,-56.021736,0.058287498,-1.0121437,5.591522,2.619741,40.87982,94.08219,10.322041,97.857735,98.496796,99.71557,100.26981,11.386709,0.7,-98.95231,-26.212847,0.004564327,-623.2646,-6.1238093,-7.8472643,-4.445912,-4.1140842,3.4030934e-06,0.3,-49.130142,54.34512,54.477425,55.000366,54.825584,0.7186457,0.44062498,8.274069547653198,48.461910076936086
69,690000,94.25875489221683,-56.046597,0.057581734,0.44198745,3.6509118,9.305654,32.483986,32.181335,4.6175632,100.67957,100.163574,101.77489,98.73538,24.097202,0.7,-100.95882,-22.108545,0.0011073054,-591.8433,-10.260589,-7.8803487,-12.266929,-11.407275,7.514656e-06,0.3,-58.20947,54.22139,54.267586,54.023315,54.2116,0.8122349,0.434375,8.214355945587158,49.18999279737473
70,700000,95.57560019236469,-59.921646,0.058369156,-0.19020826,3.801361,5.3901243,50.110405,41.710777,7.430535,96.39716,97.48926,97.808495,97.2016,20.495123,0.7,-97.25265,-35.6811,0.007800261,-1146.4222,-7.798738,-7.3585224,-7.6130867,-7.80166,1.0186341e-09,0.3,-58.630028,58.27913,58.262405,58.590538,58.51487,0.7290987,0.4609375,8.3759183883667,49.92186454931895
71,710000,93.68282982551406,-56.91778,0.05839988,0.5521817,4.7845774,8.255888,33.07776,81.73285,5.4616218,98.769806,99.20699,98.56336,98.62419,67.50017,0.7,-98.87473,-26.98915,0.0010526485,-599.5195,-9.740818,-7.365875,-9.118559,-9.5419655,5.163904e-06,0.3,-60.6974,54.746212,54.895798,54.837265,54.943398,1.1198368,0.46249998,8.27731466293335,50.65057621399561
72,720000,94.64034413693615,-57.925346,0.058109213,-1.3023632,3.2967038,3.7822728,32.69308,76.245224,13.376208,99.26963,99.910385,100.24366,100.28063,15.702163,0.7,-99.501236,-28.241287,0.0034347621,-721.56976,-4.520733,-3.6990147,-5.915181,-8.862649,5.57804e-06,0.3,-56.738564,56.24063,56.266907,56.339664,56.113068,0.8273295,0.478125,8.399235248565674,51.377894516785936
73,730000,94.30219797325856,-55.433296,0.05751032,-0.81709975,4.3716717,7.021819,53.262203,83.48653,15.147959,100.745895,100.20297,100.536545,100.38954,24.61369,0.7,-101.30728,-27.976048,7.361104e-05,-797.43866,-8.324665,-10.266773,-11.494568,-11.399463,9.484979e-06,0.3,-52.973164,53.93537,53.895187,53.58702,53.741478,0.9872001,0.46875,8.263314962387085,52.107085740566255
74,740000,96.2753595383145,-55.539318,0.05832802,-0.9556915,4.415182,6.430221,51.714,192.64621,11.916086,99.28728,99.08704,98.9317,98.65318,14.781298,0.7,-98.89154,-29.033653,0.004092235,-618.72864,-7.381634,-7.391076,-7.9889846,-8.173625,8.919044e-07,0.3,-56.214737,54.140987,54.00906,54.22686,54.11917,0.6385903,0.47187495,8.212140083312988,52.830566040674846
75,750000,94.44672666965685,-56.099537,0.058622688,-0.12117326,3.3202474,3.947626,54.770317,62.613197,9.558607,95.7568,95.2571,95.97205,95.76657,16.598652,0.7,-94.59316,-28.280405,0.0021234085,-367.13977,-8.314743,-5.6368237,-8.803058,-6.1574316,1.4619873e-07,0.3,-53.26315,54.421722,54.192314,54.40918,54.538097,0.81004566,0.41562498,8.829346656799316,53.57176150480906
76,760000,93.77603700204547,-58.367897,0.05795197,0.54075325,4.480769,4.157147,52.97958,103.285065,14.587936,99.11398,99.21909,99.51682,98.96014,132.60419,0.7,-98.97772,-28.46642,0.0006735407,-1350.2306,-3.8219342,-2.5656192,-3.963766,-2.8003228,2.08111e-06,0.3,-53.18019,56.883232,56.799683,56.905834,56.82769,1.1598792,0.4578125,8.284409761428833,54.29896456400554
77,770000,95.56036729001879,-54.46336,0.058811776,-1.2397606,3.6297097,12.307324,47.220844,63.45002,7.2916117,98.288,98.79684,98.55633,98.584114,15.551875,0.7,-99.246994,-23.990387,0.00613016,-1400.5753,-15.416376,-17.587648,-14.852363,-16.015717,4.2769097e-05,0.3,-59.531525,52.97811,53.01696,52.99512,52.75026,0.7414782,0.47031248,8.311285495758057,55.027766132354735
78,780000,93.82019079541573,-55.63023,0.059054434,0.73444754,3.9623542,8.958452,52.98881,51.35283,8.565834,99.6327,100.237404,99.883354,97.49856,18.423481,0.7,-99.40474,-31.545036,0.0030242093,-500.53088,-11.032534,-8.19146,-8.689974,-10.771392,2.0305336e-06,0.3,-52.967155,54.198914,54.14364,53.966423,53.969692,0.719631,0.50468755,8.236375093460083,55.755258524417876
79,790000,95.4434470203353,-56.17678,0.059653472,0.26751435,3.9060082,8.498688,49.406353,47.16335,10.163206,100.35251,100.80356,100.6532,100.04487,22.535385,0.7,-100.096596,-31.096819,0.00048689873,-765.47125,-10.335205,-10.728556,-8.432286,-9.708351,6.4977216e-06,0.3,-65.544914,54.40197,54.42449,54.610943,54.450386,0.6678754,0.4734375,8.275081634521484,56.47971451282501
80,800000,95.58506802155996,-57.158768,0.058293905,-0.8891815,4.152358,10.818804,38.748158,58.29368,5.4194717,98.5769,98.85501,97.37914,98.49774,44.147106,0.7,-98.36093,-26.965805,0.012046734,-687.67804,-17.026306,-11.8304205,-12.021285,-15.210017,6.244588e-06,0.3,-57.758865,55.418015,55.716087,55.384224,55.49372,0.85352045,0.453125,8.307646989822388,57.20964865287145
81,810000,94.9016683053982,-55.98909,0.057835996,-0.23537022,4.7688503,7.04428,36.13958,161.6529,9.429558,100.51849,100.89581,99.59437,99.761314,21.176643,0.7,-99.411415,-28.370451,0.0016150484,-798.6582,-12.0299835,-9.933496,-11.46385,-11.791541,8.4955175e-08,0.3,-55.817314,54.304253,54.338535,54.19123,54.254623,0.6576346,0.45624998,8.337002038955688,57.94107700983683
82,820000,94.53432779284144,-56.70076,0.057613824,0.3327196,5.4418344,5.459639,51.042763,220.96692,7.655546,98.945946,99.54646,99.219444,99.65718,14.601935,0.7,-98.87219,-28.097548,0.008946788,-917.5585,-6.4091315,-6.874934,-6.6040998,-8.615622,2.2614446e-05,0.3,-58.737614,55.233368,55.070404,54.925423,55.206604,0.6131102,0.4375,8.410778284072876,58.671351023515065
83,830000,94.52598331936773,-59.3369,0.05807366,-0.39378428,4.0685625,7.0959344,54.59856,144.75563,6.998312,96.962585,97.19746,97.69163,96.67749,26.863424,0.7,-97.520325,-33.07384,0.0019010843,-818.25037,-5.657493,-5.6710186,-5.683378,-7.6828456,8.214306e-06,0.3,-58.7562,57.641792,57.883648,57.95651,57.690994,0.7121935,0.4578125,8.391993999481201,59.399399820963545
84,840000,94.43255218691812,-55.998516,0.05822011,0.21582046,3.7078023,6.7600803,56.417534,65.74184,7.4666367,96.59853,98.29031,96.483795,97.196915,47.57928,0.7,-96.511246,-27.577639,0.0018407779,-381.04843,-9.113284,-8.183788,-9.012663,-8.72406,1.5161349e-07,0.3,-48.768784,54.29976,54.326256,54.50409,54.818146,1.0045025,0.42499998,8.24968409538269,60.122961807250974
85,850000,93.67972353849375,-55.624046,0.05836046,0.76968765,4.093521,11.17061,46.644753,79.38664,8.725769,97.90744,97.20729,97.50624,98.61795,9.904318,0.7,-98.4848,-23.548485,0.011580479,-551.8152,-14.025021,-13.582253,-13.568208,-12.006629,3.1541279e-06,0.3,-53.313866,54.201782,54.15773,54.459908,54.17608,0.51537234,0.446875,8.365753650665283,60.852660703659055
86,860000,93.81549497506008,-56.236977,0.058077935,-0.40975863,3.6073349,9.0985775,52.189064,55.118095,8.506462,102.43575,103.02313,102.588326,102.451584,10.41641,0.7,-102.28189,-31.771317,0.0020289363,-663.9088,-9.174604,-8.774288,-9.670969,-9.267132,2.2886263e-06,0.3,-59.068478,54.31489,54.452698,54.77181,54.598736,0.50668144,0.44843748,8.43205189704895,61.580915093421936
87,870000,94.31838623087882,-56.949303,0.059301835,-0.036847115,3.980784,4.039061,61.243816,67.46319,7.1079993,99.76248,98.544945,98.9364,97.74703,6.6453996,0.7,-97.90279,-30.448711,0.00046831317,-1533.6862,-2.7492938,-4.9747972,-4.2717156,-3.9876208,0.00014695924,0.3,-67.195305,55.044113,55.17314,55.585117,55.28174,0.7369792,0.43125,8.331643104553223,62.30956907669703
88,880000,94.46276402971675,-54.781044,0.056906287,0.88373196,3.8983316,1.0358574,44.041595,40.456776,13.883417,98.38743,98.74605,97.789986,97.67781,24.778673,0.7,-97.664894,-27.773203,0.012288714,-846.9606,-1.4530536,-0.80863893,-2.6370375,-3.079889,1.8747043e-06,0.3,-68.839264,52.984447,53.14235,52.7004,52.546555,0.71643305,0.46875,8.484838008880615,63.03542151053747
89,890000,94.99230834057563,-57.784477,0.057671532,-0.44848752,4.2533455,6.7927294,50.556053,61.092613,11.469793,99.55518,99.866844,97.853516,97.485275,32.65496,0.7,-98.424866,-31.42026,0.00182131,-383.31937,-8.9949045,-12.858686,-10.633507,-10.129147,2.249537e-07,0.3,-48.517548,56.096516,56.021683,55.64963,55.543213,1.1410365,0.51874995,8.861481428146362,63.77388849655787
90,900000,95.23990528796648,-55.01889,0.057216592,-0.91549647,4.377478,8.372208,52.313198,78.726105,12.369753,99.03019,98.75558,99.19255,99.5671,26.961037,0.7,-98.47656,-31.687641,0.00075822725,-744.1158,-5.0484953,-4.76472,-5.9565625,-5.3220577,4.685554e-06,0.3,-57.261093,53.252304,53.25354,53.136955,53.32863,1.0073352,0.46874997,8.382116079330444,64.49410842259725
91,910000,95.01939922052614,-55.52396,0.057763156,-0.3306082,4.677444,3.1980016,62.983177,92.031586,7.2796926,96.21957,96.10455,96.673485,96.438286,11.822541,0.7,-95.60454,-32.455967,7.2566094e-05,-686.3333,-5.8874493,-7.056637,-7.553689,-5.8398933,1.3519847e-06,0.3,-49.959,53.791416,53.69955,54.023785,54.024055,0.83084935,0.42031246,8.356825113296509,65.22441939512889
92,920000,94.31131840335655,-58.043663,0.05785249,-0.5830894,3.050109,5.180158,59.036823,63.547173,6.059471,96.922104,96.1659,99.97025,97.10294,119.46731,0.7,-96.371956,-25.346218,0.0011659089,-1299.4746,-5.2252083,-0.42031324,-3.845599,-5.033738,3.388971e-05,0.3,-62.42112,56.280724,56.05789,56.338097,56.33875,1.0551336,0.453125,8.539132118225098,65.95403434038163
93,930000,95.05108944235309,-55.60061,0.057146315,0.6281489,4.0658007,10.752991,44.33246,72.17009,15.357295,97.532875,96.36914,97.507164,98.00008,16.024431,0.7,-96.84496,-31.335068,0.002438207,-819.1649,-11.374752,-14.022742,-11.7088785,-11.468094,2.9438525e-05,0.3,-67.26124,53.939083,53.85995,54.240044,54.07125,0.7329526,0.42187497,8.337947845458984,66.68219585021338
94,940000,95.12494641277969,-57.877037,0.05583019,0.71511173,3.6377232,6.31995,49.786552,71.79588,12.517964,96.52143,98.65077,99.340004,96.18413,21.82761,0.7,-98.6648,-29.297842,0.0042591267,-2119.34,-8.664537,-8.450076,-8.402199,-8.91686,3.6310405e-06,0.3,-70.21169,56.065468,56.082146,55.893906,55.726257,0.7513151,0.48125,8.408124446868896,67.4103050549825
95,950000,94.84768159088969,-54.123993,0.056287028,1.3830342,4.3743315,5.556505,74.32734,97.5561,10.94394,101.46606,102.93744,101.28434,102.53955,10.574525,0.7,-102.833595,-27.61811,0.026621658,-911.03406,-5.876148,-5.9616804,-6.8102765,-6.6330614,2.3079804e-06,0.3,-66.48735,52.325348,52.265522,52.506516,52.36025,0.62535995,0.425,8.578212261199951,68.13969733317693
96,955000,87.63938282137993,-56.987183,0.05500986,0.18469226,4.0039406,9.353805,50.469788,130.49866,14.1680975,97.4985,97.53207,98.770386,98.23325,13.968989,0.7,-97.14019,-29.378689,0.00010232284,-841.8508,-7.907674,-7.5021763,-6.3028564,-7.3554883,1.813217e-05,0.3,-57.43442,55.077656,55.167618,55.634327,55.576756,0.7944688,0.4109375,7.578814744949341,68.56073536078135
97,960000,94.71174223257549,-56.138187,0.057828523,-1.3361566,3.7532945,4.643577,42.71406,44.982094,8.692772,99.0447,101.284294,99.07169,97.34584,27.70548,0.7,-100.74757,-31.09068,0.00096412475,-386.2567,-3.469697,-3.9746838,-5.6189446,-7.650438,6.1339697e-06,0.3,-50.32389,54.81831,54.551903,54.24055,54.31742,0.96025205,0.48125,8.49056077003479,68.99888526598612
98,965000,63.003584154151135,-56.874245,0.06088418,-0.44111246,3.159233,-2.2822728,48.03247,50.964684,7.1381016,98.440475,98.33573,97.83257,99.52654,22.55031,0.7,-100.03943,-28.443567,0.006015549,-1871.4401,0.41808867,0.5859139,3.2040908,1.6414263,5.1784195e-06,0.3,-61.530483,55.379654,55.36013,55.602158,55.358307,0.8346227,0.4734375,5.754568576812744,69.38947758674621
99,970000,94.77978351688208,-55.996834,0.057212755,1.1891508,3.5994132,2.3545935,40.76356,79.87772,8.849316,96.434044,95.74833,95.71331,95.80409,41.642612,0.7,-95.848625,-37.950718,0.0011461691,-1555.0713,-7.0389123,-4.8978286,-4.573495,-4.6580877,2.4157924e-07,0.3,-66.129166,54.222187,54.071167,54.150322,54.294277,0.9417958,0.425,8.361172676086426,69.8243878920873
100,975000,71.04981968656469,-58.375916,0.057740573,-1.435753,4.198839,4.783155,49.43486,131.21533,6.4233327,98.479385,98.80357,98.633064,97.672455,12.57627,0.7,-98.3007,-27.891592,0.0038467539,-835.8734,-5.1323643,-4.464967,-7.6037693,-10.394948,0.00011986821,0.3,-56.40428,56.77158,56.93989,56.64772,56.762764,0.7721732,0.4140625,6.31246542930603,70.22564295927684
101,980000,79.10735840537718,-56.922783,0.05563511,-1.4395674,3.539311,12.101387,41.2306,82.58836,10.180472,96.78,96.376945,97.18957,95.9434,26.163927,0.7,-97.63468,-33.260437,0.009725589,-1940.3354,-11.341462,-11.982621,-10.080443,-10.484691,4.2225398e-05,0.3,-67.47588,55.223602,55.02251,55.03009,55.26605,0.7161615,0.43906248,7.047479867935181,70.63966335455576
102,985000,70.63456679995824,-54.25734,0.058053292,0.88143307,3.198463,10.211516,48.270134,41.786324,9.316307,99.5356,99.966156,99.99867,99.65494,23.291662,0.7,-99.75605,-28.913929,0.0031766156,-988.84467,-11.959302,-9.300022,-8.1657505,-4.4954047,4.6674804e-06,0.3,-64.14569,52.563354,52.553833,52.68271,52.486862,0.8515578,0.4734375,6.498062610626221,71.043931945165
103,990000,70.69102500462705,-55.176765,0.05728365,0.3880092,3.304995,9.9513035,62.4715,51.495132,2.886629,99.45223,100.27116,100.260765,99.58256,38.926746,0.7,-99.43087,-29.250721,0.009777162,-630.87396,-11.321741,-10.79088,-10.411505,-8.4213085,3.95e-05,0.3,-54.308136,53.32702,53.37272,53.307327,53.239193,0.9196585,0.5015625,6.441901445388794,71.44682918787002
104,995000,87.12144883281174,-55.20404,0.055868108,-0.15783316,3.494927,5.3221955,42.486214,29.885523,10.505587,102.303825,101.27082,100.10739,100.74484,18.785505,0.7,-99.53724,-31.3068,0.0036286432,-612.3339,-4.575246,-3.9849567,-5.9175744,-7.319775,5.6934255e-06,0.3,-66.41945,53.25809,53.199913,52.999596,53.019135,0.7593075,0.44062498,7.722795248031616,71.86967562437057
105,1000000,71.3366060621077,-56.462906,0.05449152,0.08000854,5.128281,7.6261353,61.105984,228.53212,7.95193,100.35509,99.72606,102.53039,100.93242,186.61699,0.7,-99.86789,-29.868689,0.028408473,-459.24985,-8.769595,-8.855896,-6.4001465,-7.4850407,4.0344895e-07,0.3,-46.70677,54.93477,54.90928,55.46358,55.220573,1.4002682,0.428125,6.332204818725586,72.27353248596191
