Xixo99/comfo/baselines/comfo6_perterbation_actor/20230225_mle0/walker2d-medium-replay-v2/COMFO6_s0_20230225_174336_walker2d-medium-replay-v2_94.15.csv
,step,reward,actor_loss,alpha,alpha_loss,critic_loss,max_actor_loss,max_alpha_loss,max_critic_loss,max_mle_prob,max_q1,max_q2,max_target_q,max_v,max_value_loss,max_weight,min_actor_loss,min_alpha_loss,min_critic_loss,min_mle_prob,min_q1,min_q2,min_target_q,min_v,min_value_loss,min_weight,mle_prob,q1,q2,target_q,v,value_loss,weight,eval_time,time
0,0,1.747081744373164,,,,,,,,,,,,,,,,,,,,,,,,,,,,,,,,,
1,10000,0.7109036900260366,-23.318346,0.059137,-13.183662,1.5964113,-0.60632354,22.784527,41.93112,8.164564,44.43396,44.261227,44.335453,43.39548,6.923161,0.7,-44.476444,-32.71226,0.0034979784,-118.52004,0.49745157,0.4513386,0.10343139,0.3676117,2.9738732e-07,0.3,-15.184937,22.770096,22.763515,22.687658,22.236546,0.12029952,0.4734375,1.0511765480041504,1.8612351377805074
2,20000,0.89432682986797,-37.88053,0.033474814,-0.22456838,4.0740027,-2.8075726,75.81447,473.1599,7.519185,70.7951,72.17802,70.354256,70.48527,3.3239863,0.7,-70.73618,-38.183266,0.00075457507,-111.25169,1.2895068,0.8560822,0.09036783,2.0449917,2.3093891e-09,0.3,-24.766193,37.124317,37.115723,36.746773,36.642,0.2050075,0.5328125,0.456043004989624,2.4523675123850506
3,30000,5.341903539702566,-46.50963,0.042733245,0.10065237,4.7074947,-0.37955377,36.641834,137.53267,6.1169024,86.44111,86.34474,86.16326,86.36207,8.345334,0.7,-86.20523,-29.119173,0.002132132,-236.48108,-0.96715385,-0.7538207,1.031454,-3.5768416,6.882747e-06,0.3,-28.04869,45.306473,45.37611,45.04885,45.01406,0.35833138,0.4640625,1.1900742053985596,3.056049116452535
4,40000,0.0863270323934926,-52.96509,0.04610018,-0.720116,5.699085,9.407997,66.34191,118.0478,13.805667,91.445335,90.95809,92.11209,92.88819,12.691794,0.7,-91.3777,-40.254654,0.0154179195,-421.80954,-11.399066,-11.630833,-9.384748,-10.287994,2.1122396e-07,0.3,-28.796047,51.71718,51.61126,52.25421,52.32143,0.45039356,0.4015625,0.24108338356018066,3.6437190651893614
5,50000,0.05770082376013502,-52.842445,0.045643087,-0.2030607,5.2226095,-2.4459112,42.316494,245.75143,12.385526,97.91455,97.95264,98.781525,98.77063,9.349651,0.7,-97.10527,-26.059208,0.0008921218,-292.68613,-0.19402853,-0.87322855,0.5810964,0.18003401,9.848754e-06,0.3,-34.650246,51.724854,51.849594,52.250233,52.095825,0.4383433,0.4359375,0.22351741790771484,4.232523202896118
6,60000,0.19115215133290492,-55.59472,0.044707533,1.7279012,4.149665,-0.9882072,50.875965,94.699615,8.138805,100.91905,100.38168,101.42256,100.69957,14.379149,0.7,-102.10441,-34.474434,8.973079e-05,-677.92993,-3.67098,-3.632824,-1.6541586,-1.6083916,1.9731857e-05,0.3,-38.449883,54.363266,54.454685,54.656685,54.492134,0.54049337,0.47499996,0.2569310665130615,4.823711001873017
7,70000,0.1236581412880134,-57.327255,0.045933902,0.37155673,4.0626497,11.967414,41.845734,66.548706,15.401382,100.6544,100.77603,100.400604,100.38741,31.3277,0.7,-100.66574,-35.681984,0.009379912,-286.75125,-7.8096757,-13.197024,-9.89523,-11.651179,7.231531e-07,0.3,-37.550037,55.986702,55.938217,55.37949,55.6017,0.56167984,0.47031248,0.2317957878112793,5.417014773686727
8,80000,0.07435039319040794,-54.858337,0.046049397,1.1388168,4.588455,-0.9496106,65.652275,74.7402,10.023383,106.506096,105.59462,106.38359,104.63336,32.039062,0.7,-104.96267,-30.426584,0.0019400537,-270.46216,-3.4260042,-4.028963,-4.251834,-3.8077066,3.7734281e-07,0.3,-33.80432,53.513596,53.458992,53.377075,53.380493,0.60243535,0.45468748,0.2176060676574707,5.9986838857332865
9,90000,23.82413934161464,-57.728226,0.047462184,-0.99176025,3.9532547,9.272891,41.75743,101.59342,14.5169935,106.28426,106.35402,106.54026,107.18546,16.702871,0.7,-107.58862,-32.888466,0.0005238342,-196.63823,-14.288482,-13.473042,-12.631324,-13.121186,3.228779e-08,0.3,-37.00763,56.310818,56.278767,56.37142,56.358185,0.47054112,0.4140625,2.576676845550537,6.627088542779287
10,100000,27.125021201513356,-58.65884,0.048808586,0.4512344,5.4331503,9.119739,50.292812,124.933014,8.049998,102.64284,102.25581,103.008385,103.07445,53.10813,0.7,-101.96723,-38.126312,0.0053712633,-294.30896,-4.8944635,-8.813188,-0.36082423,-6.969842,1.1001423e-06,0.3,-36.149563,57.47738,57.403923,57.60388,57.507793,0.683058,0.421875,2.9905099868774414,7.265125620365143
11,110000,1.1799715027414353,-55.328133,0.04951499,-0.9128726,4.345336,-3.4889822,51.476604,105.489395,6.673089,103.37314,103.70151,103.728165,103.18773,18.242523,0.7,-103.03857,-28.905663,0.0063087167,-479.8422,1.6054711,0.62768954,0.7958397,1.0499029,1.4477744e-06,0.3,-36.51523,53.915333,53.74215,53.634727,53.787666,0.51585364,0.45,0.3851606845855713,7.8611676851908365
12,120000,30.59489676731511,-58.462223,0.0500755,-0.030877113,5.4304094,0.76532364,42.492687,106.492744,14.213022,105.70637,106.82754,107.427246,107.07633,57.51596,0.7,-105.55448,-36.1174,0.0033425498,-268.94196,-5.7470207,-2.8164175,-4.6811213,-4.355954,3.168988e-06,0.3,-36.45255,56.980293,57.070587,57.41761,57.42346,0.8327427,0.434375,3.19380521774292,8.501583937803904
13,130000,49.37435763089416,-55.65107,0.051122695,0.3142978,5.563036,-3.2786086,49.301548,119.625984,3.2513337,101.842766,103.50235,101.60775,103.31752,8.5981,0.7,-103.24352,-29.975157,0.0063074306,-440.552,-4.936054,-6.85552,-0.35206458,-2.3375685,4.43717e-06,0.3,-39.771645,53.981674,54.050743,54.116234,54.137703,0.6046326,0.4609375,4.676520109176636,9.167396938800811
14,140000,44.15192475512928,-56.4348,0.05021196,0.36174905,4.698043,12.569535,46.81195,68.77376,6.948059,106.36745,106.74472,106.41528,105.89664,16.658934,0.7,-106.6255,-27.064857,0.005568926,-303.094,-20.496624,-18.83393,-18.92377,-22.333485,0.00013778594,0.3,-40.158707,55.01686,55.065193,55.109055,54.835297,0.6181623,0.4671875,4.332288503646851,9.827215353647867
15,150000,42.951291155573635,-56.37624,0.052558314,-0.5710999,5.8036757,12.989067,45.61994,109.991066,11.544216,105.74676,106.752884,105.33699,105.838066,8.34012,0.7,-106.16286,-27.375076,0.018362962,-192.00395,-15.184947,-13.179226,-12.193562,-15.280557,5.867332e-09,0.3,-33.40973,54.95668,55.004753,54.384857,54.362812,0.53696865,0.50625,4.19172739982605,10.483414244651794
16,160000,56.08109467747838,-55.371788,0.051322285,0.44009787,6.700016,7.5707436,38.88857,380.3341,15.360665,105.7104,104.922516,104.115524,103.487686,27.661263,0.7,-104.83045,-30.05564,9.2601185e-05,-423.03528,-12.504158,-13.865385,-13.614864,-14.099589,7.5375838e-06,0.3,-43.19389,53.95823,53.88604,53.79196,53.341476,0.933434,0.49843752,5.323396921157837,11.159430209795634
17,170000,49.258338814917636,-55.550484,0.051574454,0.9952336,5.6040845,5.220912,42.82803,416.65436,9.467973,103.40133,103.355415,103.323586,103.45683,24.368177,0.7,-102.84721,-22.765799,0.0019212058,-641.26385,-6.2833667,-8.221184,-5.3160615,-6.2458186,1.7214916e-07,0.3,-43.422726,53.97296,53.96692,53.69787,53.720222,0.7221777,0.471875,4.661816120147705,11.82682695388794
18,180000,93.57501235608144,-57.643337,0.05190932,0.8006495,5.8593397,7.8685923,38.08768,118.60942,7.638519,101.155975,101.49466,104.44147,100.92641,6.593117,0.7,-99.97206,-32.06443,0.0009811466,-512.5111,-15.84083,-16.693268,-17.65328,-17.058176,1.2505435e-05,0.3,-42.14411,56.214714,56.197506,55.610313,55.746555,0.5809343,0.5046875,8.378483057022095,12.55134892463684
19,190000,51.47703978906614,-56.310764,0.052051976,-0.03491223,3.4438684,-1.84908,57.554955,39.28506,6.8113728,100.50401,100.488686,100.45893,99.30786,28.29868,0.7,-100.766716,-32.61613,0.0021056286,-473.82462,2.132484,-0.2814036,1.0228832,0.05327183,1.4787249e-06,0.3,-43.958065,54.736084,54.664116,54.55566,54.491558,0.6286869,0.46249998,4.91127610206604,13.222578247388205
20,200000,79.72637940158333,-56.721848,0.052748132,-0.74837446,3.53272,5.4290876,63.112137,82.897736,10.2407465,101.73214,102.35505,101.86132,102.2308,50.93143,0.7,-101.69586,-33.099335,0.00053987396,-277.4629,-8.208996,-8.172702,-7.9755936,-7.076543,2.578624e-05,0.3,-36.90884,55.278305,55.33537,55.18478,55.277466,0.77065074,0.45,7.30597186088562,13.934625542163849
21,210000,50.40082989090251,-57.524147,0.053115323,-0.6155202,4.8023863,4.699776,41.841927,193.52408,7.985944,102.400215,103.36247,103.86006,103.474594,16.23554,0.7,-102.641945,-32.125618,0.0031672157,-610.7041,-19.655901,-19.953886,-13.626448,-13.831427,2.1930784e-06,0.3,-44.60434,55.812405,55.76641,56.183453,56.11398,0.6825654,0.47499996,4.836615562438965,14.601294938723246
22,220000,53.71658832150277,-57.555305,0.05268116,-0.014550388,4.8293715,3.106286,48.984276,41.378838,9.416647,98.97787,99.11051,99.73973,99.63129,8.332574,0.7,-99.41731,-35.637917,0.01388771,-415.5205,-6.8667192,-7.7496004,-6.9037137,-7.3701706,2.659082e-05,0.3,-46.530117,55.951447,55.997368,56.984627,56.895332,0.56556135,0.3796875,5.114663362503052,15.271514749526977
23,230000,93.54492238671146,-57.539402,0.05273127,-0.2077663,3.2856584,4.3906507,56.924644,40.243942,8.717369,106.409485,105.88838,105.76297,106.053825,8.635465,0.7,-105.89942,-34.046337,0.0018881822,-442.67648,-4.824474,-5.0306373,-7.5068946,-7.8586855,5.476177e-08,0.3,-39.152756,56.063538,56.02396,56.110104,56.15493,0.71518934,0.4359375,8.532050848007202,16.001313130060833
24,240000,60.33020068324528,-54.87264,0.051999595,1.3285096,5.207768,6.953203,77.60432,82.33751,8.092907,105.52094,105.742516,107.20095,105.76939,14.426417,0.7,-105.58249,-22.931225,0.005438365,-346.64456,-9.379675,-5.8733683,-9.988642,-10.334286,9.782961e-08,0.3,-48.251694,53.00628,52.923317,53.39302,53.38655,0.80946845,0.45468748,5.611571788787842,16.68305890162786
25,250000,76.48826435879037,-56.525574,0.05338251,0.63965654,5.0311303,2.6957917,74.59753,212.46887,15.728086,104.66822,104.35164,104.68898,103.394646,26.43939,0.7,-103.96605,-31.601767,0.0006637913,-509.81372,-4.948944,-6.8030086,-10.100655,-4.669571,1.881465e-05,0.3,-43.64022,55.193123,55.22382,55.08289,54.944633,0.62845695,0.4578125,7.771878957748413,17.39953421354294
26,260000,87.74726018137997,-57.202408,0.054785132,-0.25024432,5.6584654,5.620304,56.929268,295.90414,10.0295925,100.71008,99.39494,102.0841,102.067215,13.114435,0.7,-100.58794,-31.113806,0.00057980866,-690.91693,-4.8782964,-3.4304981,-1.3013136,-9.323817,9.9012805e-06,0.3,-46.38682,55.539818,55.783596,56.08428,56.18397,0.65879464,0.38437498,8.34245252609253,18.12579394976298
27,270000,67.28434847394925,-56.3433,0.052911386,-0.93743753,4.136382,8.148146,41.58685,79.276474,6.2491837,102.449234,103.349556,103.20757,103.34226,25.808992,0.7,-101.99978,-28.479143,0.001809594,-534.4007,-10.763853,-10.826475,-12.604644,-11.149444,1.0430813e-08,0.3,-37.231453,54.75283,54.835037,54.991875,55.343838,0.66904044,0.3921875,6.752440929412842,18.828730861345928
28,280000,75.78794363528755,-58.056183,0.05315026,-0.7793619,4.8262167,10.120148,76.73687,139.21085,12.225979,103.13816,104.810295,103.772194,103.41049,16.793327,0.7,-103.86279,-31.268293,0.0022342089,-483.69934,-14.453414,-13.825644,-12.406634,-15.810824,1.2730016e-08,0.3,-40.803116,56.610504,56.64005,56.80848,56.853973,0.63252187,0.46249998,7.3568010330200195,19.539079229036968
29,290000,56.259238895748695,-58.835316,0.053563405,-0.13443553,5.2363386,-5.5105653,46.189556,156.723,15.038071,98.6124,97.65752,99.64548,98.136795,19.097061,0.7,-97.47732,-30.787071,0.0010441311,-614.4426,0.0770911,-2.9147656,-6.2969737,3.286533,1.00862235e-05,0.3,-46.57943,57.22925,56.899017,56.87109,56.874462,0.9068389,0.49062496,5.557522296905518,20.217021044095357
30,300000,61.00315740257018,-56.222305,0.052973617,-0.16613871,6.8018193,3.4353464,42.638634,613.2098,6.4051285,99.721535,101.35481,99.95157,100.513596,11.230001,0.7,-99.62802,-30.081322,0.0009036338,-623.82513,-7.2712684,-6.297963,-6.213568,-6.3630404,1.4183752e-08,0.3,-50.338963,54.61475,54.71306,54.623367,54.645973,0.65591323,0.4890625,6.207634210586548,20.908195714155834
31,310000,63.80525233343847,-54.479515,0.054701965,0.9552138,4.6768694,13.481461,74.86976,108.84578,11.593815,105.53578,105.353165,104.39826,104.513626,25.493233,0.7,-105.0704,-26.798134,0.00055266626,-1499.1974,-15.910141,-15.474747,-18.44096,-13.223604,5.0168487e-06,0.3,-58.33069,52.931244,53.12169,53.52379,53.468094,0.7440908,0.4453125,6.164205312728882,21.597524623076122
32,320000,53.130729637111486,-58.147434,0.053475503,-0.83891505,5.17746,0.34821057,42.64646,67.42812,6.3148775,99.79463,99.626915,99.965195,100.951904,13.743098,0.7,-100.082985,-33.317715,0.0026664014,-465.5601,-7.8065915,-9.6029005,-10.797072,-10.772895,2.0539737e-05,0.3,-47.935375,56.732742,56.758812,56.270638,56.511467,0.62616616,0.40937498,5.061054229736328,22.264416992664337
33,330000,87.07506960430132,-55.38239,0.0536453,-0.8977507,4.6809587,2.850178,46.054382,169.33951,10.91836,98.54974,98.083244,98.27645,99.4345,27.482393,0.7,-97.83931,-28.403477,0.005484022,-633.95795,-5.1010985,-5.162238,-5.882099,-4.4921436,6.722741e-05,0.3,-46.10569,53.981785,53.840267,54.213524,53.974106,0.7517835,0.4671875,8.386117696762085,22.990700006484985
34,340000,88.7754120273647,-60.58714,0.053238004,0.45655343,4.7455473,6.3952446,57.010815,120.51143,11.95794,101.25668,101.82447,102.33671,101.95405,78.41911,0.7,-101.837105,-29.162642,3.1062053e-05,-1141.1147,-6.1341195,-2.94046,-7.287303,-6.26831,2.9703369e-08,0.3,-43.029453,58.818047,58.709736,58.941353,58.807045,1.1853693,0.475,8.403424978256226,23.713356125354768
35,350000,93.35738423204636,-56.372963,0.053780198,-0.57379985,4.354394,13.842721,44.17781,78.24221,3.2855086,98.50911,98.66651,100.05894,100.42695,9.4705515,0.7,-98.23348,-26.71401,0.0023123706,-1170.991,-16.12446,-14.033442,-18.378647,-17.868727,2.3472629e-05,0.3,-55.548172,55.090164,54.877182,55.15136,55.196655,0.8322847,0.43281248,8.365622997283936,24.43615327278773
36,360000,80.79216437379064,-55.255585,0.054625582,-0.31149048,4.269232,-0.30168957,52.010307,62.646736,6.5878015,100.84805,100.30793,100.75085,101.30898,11.200811,0.7,-100.63685,-29.436192,0.0010141113,-577.114,-3.2047818,-2.5800421,-3.8529716,-4.5030756,3.989856e-06,0.3,-50.923805,53.645054,53.81851,53.846855,53.7918,0.63406897,0.45156246,7.343478202819824,25.14463264942169
37,370000,51.69452471733778,-57.83008,0.054434076,0.31838435,5.618514,7.9365993,45.52287,88.67079,16.062874,104.46032,104.16388,104.035484,103.80733,24.455164,0.7,-103.336716,-27.344381,0.009747919,-452.56583,-11.470376,-11.430648,-12.206311,-9.227412,2.0067848e-06,0.3,-46.058987,56.4187,56.413475,55.980606,56.357704,0.6707945,0.45624998,4.981924533843994,25.816173295180004
38,380000,83.8811478380825,-56.834457,0.053319637,0.3348755,5.3556213,3.3360279,59.679733,108.56122,12.096619,103.37069,103.69482,103.27174,102.94023,69.0604,0.7,-102.507034,-24.415266,0.0010319967,-518.7163,-11.724672,-11.928561,-11.305018,-10.489672,1.9655608e-06,0.3,-54.252693,55.320267,55.346962,55.783363,55.675064,0.7924813,0.490625,7.641006231307983,26.532910084724428
39,390000,87.04712440420639,-54.302315,0.05312212,0.776363,4.586754,10.076964,35.506554,113.420044,7.435651,100.95233,100.84633,100.70865,100.60485,25.055979,0.7,-100.24982,-30.61805,0.005622289,-589.51843,-10.869998,-13.572378,-10.416664,-11.242667,1.7267925e-05,0.3,-56.50251,52.574104,52.426144,52.080116,52.2788,0.68340045,0.434375,7.83974289894104,27.253690961996714
40,400000,68.14686311694629,-55.159573,0.05365994,0.254037,4.1315293,6.0751033,49.47008,48.053993,10.851309,100.023094,99.87321,100.44289,100.574295,9.319342,0.7,-99.2625,-27.03736,0.00030998094,-731.4008,-10.164257,-8.493425,-9.012911,-7.54661,1.0311313e-06,0.3,-54.455376,53.293583,53.252823,53.34204,53.67361,0.9073092,0.4203125,6.440107345581055,27.948724003632865
41,410000,92.914405321926,-56.99205,0.053936347,-1.1312184,5.500621,9.10788,59.083984,110.24292,4.4998865,101.75904,102.64553,101.975174,101.93217,27.611542,0.7,-102.21371,-29.434885,0.002129379,-801.67163,-13.005591,-14.688637,-15.997129,-12.289686,8.679199e-06,0.3,-56.693947,55.195175,55.172302,54.563828,55.08712,0.6575599,0.44687498,8.37488055229187,28.675200748443604
42,420000,92.32791342699868,-58.27987,0.054189034,1.1796803,3.7293723,-4.403853,40.007587,76.70891,8.451166,98.559944,100.02876,98.96484,99.02931,12.100683,0.7,-99.525246,-25.500992,0.00038546714,-1089.9884,2.962041,1.6491666,0.78800815,2.0871427,2.9334715e-05,0.3,-53.021996,56.59195,56.56162,56.500977,56.184387,0.8514773,0.54375,8.420090913772583,29.40204463005066
43,430000,81.91560889089797,-57.16263,0.053636145,0.07433964,3.9686577,4.181896,50.27373,37.662933,10.380091,100.62288,99.98696,101.02046,98.44564,15.947938,0.7,-100.146095,-32.44837,5.9009097e-05,-329.06052,-5.962758,-5.3657947,-5.2800636,-4.894435,2.6287278e-06,0.3,-49.404587,55.361664,55.38814,55.17109,55.192036,0.55514145,0.453125,7.443220376968384,30.1115735967954
44,440000,92.02793223948275,-57.330467,0.054673452,-0.09537405,5.0169997,6.325727,46.7588,129.76129,7.474087,99.705444,100.4328,99.5021,99.62892,83.57684,0.7,-99.58214,-28.274214,0.0006279371,-851.7433,-9.181435,-10.561163,-10.437235,-9.863059,4.3317414e-05,0.3,-49.80178,55.651016,55.508354,55.195747,55.281815,1.0318825,0.46875,8.821683168411255,30.84396602710088
45,450000,88.92595729762063,-57.422253,0.055113807,-0.4278537,3.2304611,3.324286,55.91523,39.256138,7.9153156,101.227196,101.96599,102.11514,102.726585,19.140072,0.7,-101.48488,-34.132362,0.0020660795,-404.62204,-7.6409187,-7.4275846,-7.2379184,-7.0369897,3.6613274e-05,0.3,-47.278732,55.9598,55.86953,56.09635,56.064194,0.7488514,0.42499995,8.00962495803833,31.563347403208414
46,460000,92.97287656002968,-59.335766,0.05502244,-0.4281698,4.064446,6.900757,55.349228,79.69115,10.558606,100.65625,100.32952,100.481026,100.4276,19.177925,0.7,-100.19222,-29.276615,0.0009281622,-767.05585,-8.866162,-8.526655,-7.5809684,-9.033554,1.9186584e-06,0.3,-56.391354,57.705254,57.814793,57.613968,57.649017,0.76633096,0.46249998,8.379680633544922,32.29148939053218
47,470000,74.66322808217575,-58.28119,0.054888718,0.6885631,7.3938313,7.1577644,49.7035,333.0863,7.6447735,99.580765,99.15189,99.59543,99.53994,11.77108,0.7,-98.98391,-25.390017,0.0015707469,-647.963,-6.8032126,-4.5936146,-8.371631,-5.343937,2.7418264e-06,0.3,-50.416374,56.6503,56.72506,56.77411,57.013054,0.7634667,0.41562498,6.678186655044556,32.99169741074244
48,480000,92.0450490991442,-56.959663,0.055308454,-0.33006948,6.093804,5.152622,44.31515,655.0786,10.915512,103.66325,104.09013,105.24487,104.90675,29.515099,0.7,-104.19957,-20.696217,0.0080522355,-838.6176,-7.737846,-6.15789,-5.147802,-6.2904863,7.968051e-06,0.3,-48.85085,55.338028,55.28347,55.346783,55.660866,0.6623521,0.4171875,8.13986325263977,33.716608361403146
49,490000,88.87382016784517,-54.65578,0.055674985,0.60816956,4.0888033,8.105099,50.674,122.63959,9.8839,100.89281,99.30475,100.448586,98.883316,12.54392,0.7,-101.834015,-27.714254,0.002940001,-475.28232,-12.193871,-11.409176,-12.117202,-11.532409,1.3099186e-05,0.3,-57.734787,52.904797,52.82616,52.530968,52.506252,0.6694534,0.4640625,7.981208562850952,34.43994512955348
50,500000,77.71100517608554,-59.11855,0.055173878,-0.32171136,3.5863762,4.879698,50.790314,49.352535,10.542646,102.956985,103.161446,101.99922,102.331924,44.081394,0.7,-102.07618,-25.855066,0.009711546,-870.87366,-10.831613,-10.146124,-12.052186,-11.324256,2.7855318e-05,0.3,-50.346138,57.49996,57.45503,57.446064,57.545593,1.1537997,0.47031248,6.994829893112183,35.14370942115784
51,510000,90.57207729622381,-57.935757,0.05551092,-0.8106998,3.8792567,3.1699584,40.89054,111.87239,10.086798,100.98107,100.76429,100.92621,101.13847,21.716148,0.7,-100.26981,-25.587608,0.0061228205,-466.50162,-8.882796,-7.969767,-9.652404,-10.589812,5.476177e-08,0.3,-50.477486,56.370583,56.37162,56.053963,56.103268,0.65388983,0.50625,8.036568641662598,35.862763110796614
52,520000,92.32784227409661,-56.764896,0.056034833,-0.22883028,4.4953556,3.2960951,59.906284,132.68645,10.829243,103.94185,102.74129,104.12973,104.65528,129.29,0.7,-104.21597,-29.492142,0.0040855324,-620.98035,-7.5085235,-8.348086,-8.699772,-8.4418955,1.0859212e-05,0.3,-52.32315,54.84848,54.908737,54.23577,54.55607,1.4301177,0.5015625,7.9658801555633545,36.58468468983968
53,530000,86.29132529878734,-58.266045,0.056129873,-0.5117252,4.182087,6.3612456,31.522783,67.9315,9.062857,102.228455,101.26891,104.90505,102.64802,35.88199,0.7,-102.14043,-32.290646,0.0064223697,-536.5411,-6.92117,-7.85416,-8.733694,-5.6785693,2.8642537e-06,0.3,-44.438007,56.815903,57.015274,56.99054,57.101353,0.6912627,0.4171875,7.66452169418335,37.29922840197881
54,540000,89.44273601268456,-55.052917,0.0564072,-0.09280749,5.30178,4.876521,40.883575,123.36357,6.829848,101.094795,101.34932,101.884476,101.66174,15.873675,0.7,-100.799866,-41.727108,0.0039269533,-505.53192,-8.302738,-8.614188,-8.362631,-7.271782,8.580992e-06,0.3,-58.87118,53.111656,53.135117,53.613014,53.611397,0.7516941,0.4296875,7.912964344024658,38.0192887822787
55,550000,77.07888550040288,-56.667385,0.055998147,-1.920728,4.6526103,11.559215,47.66642,80.909874,6.302822,103.83005,103.46885,103.47493,101.30428,14.176923,0.7,-103.22563,-30.585926,0.001842702,-1211.6925,-14.107869,-13.68326,-12.2598,-10.809021,1.5334924e-06,0.3,-48.239647,55.166115,55.111393,55.08368,54.913925,0.6731516,0.49843746,7.265778064727783,38.728044573465986
56,560000,67.71524334943902,-54.721855,0.056085728,0.7472272,3.9695988,8.870878,39.862473,51.3621,15.891621,101.30581,100.52827,100.74767,100.02308,14.784672,0.7,-99.20232,-28.1171,0.004741389,-474.76874,-8.635932,-10.377205,-10.159968,-7.74826,9.000651e-06,0.3,-47.368904,53.38672,53.267624,53.686687,53.66999,0.6290988,0.41718748,6.143447637557983,39.41186845302582
57,570000,95.02439920988789,-57.10387,0.056058522,-0.71388316,3.7193804,4.598235,44.890217,67.46785,9.08094,105.30123,105.74481,104.142624,106.75098,9.097196,0.7,-105.60799,-30.607819,2.9128161e-05,-339.35913,-4.9566007,-4.354634,-6.7607956,-6.917074,2.7591288e-05,0.3,-44.243782,55.613674,55.602745,55.573273,55.73312,0.68802106,0.41875,8.177490949630737,40.12419559558233
58,580000,79.16890629975349,-56.78,0.056351144,-0.1271277,4.7320876,7.792101,45.08163,234.35223,14.0456085,99.68634,100.15358,99.47534,99.22891,17.442528,0.7,-98.929276,-31.410627,0.019674,-672.4995,-6.257775,-7.844365,-9.0824,-8.376444,3.5992591e-06,0.3,-56.90846,55.177807,55.17627,54.997604,55.110134,0.53061074,0.44374996,7.193000316619873,40.81480060021082
59,590000,71.07927738138937,-54.91622,0.055924922,0.18562743,3.8189793,6.937258,48.964825,40.56054,8.843458,100.92893,101.086975,100.02978,100.081924,11.885653,0.7,-100.30835,-30.449602,0.0021562655,-381.12854,-7.849911,-7.574278,-9.255745,-9.052992,9.9031195e-06,0.3,-51.39418,53.200638,53.182495,53.1082,53.14372,0.6737642,0.47031248,6.5593178272247314,41.510045818487804
60,600000,85.32912943199126,-56.88785,0.05633987,0.06979434,3.595394,3.4981954,56.920074,42.873013,14.399101,101.55967,101.63472,103.64621,101.51563,27.51603,0.7,-101.17136,-25.9952,0.00094162335,-1404.5369,-7.8141184,-9.796795,-7.7613444,-7.890912,4.2098286e-06,0.3,-66.40046,55.18034,55.114098,55.359238,55.48754,0.8197295,0.44843748,7.770931720733643,42.230599323908486
61,610000,88.08676217668476,-57.5942,0.055600807,0.4273671,4.525375,3.8978944,56.236004,131.60486,11.973503,98.95618,99.67527,100.09014,99.6399,25.598953,0.7,-98.9064,-21.925814,0.0001933804,-465.02347,-5.146862,-4.6055512,-7.5497637,-6.015809,8.285471e-05,0.3,-54.144615,55.666706,55.69733,56.03945,56.127472,0.8122932,0.43124998,8.449219226837158,42.95513395865758
62,620000,87.38061717173814,-55.857582,0.056222674,0.16319808,4.702073,2.3844385,42.792614,79.26184,10.043304,101.07402,101.39027,101.98627,99.9743,20.44138,0.7,-100.836716,-28.153883,0.019134453,-986.6723,-4.023771,-5.070556,-4.7223034,-6.4000816,5.118102e-05,0.3,-57.333656,54.03487,53.931847,54.213478,54.072937,0.8762641,0.45,8.33100962638855,43.68328037261963
63,630000,92.52107091135487,-57.276314,0.057614334,1.3971772,3.8488996,7.1125183,66.726135,64.81142,10.85261,101.20143,102.38951,100.70011,100.60863,28.327906,0.7,-101.23086,-26.454706,0.003019036,-1344.7794,-11.467251,-10.755123,-8.700164,-8.095363,2.6633936e-05,0.3,-58.51413,55.207626,55.276268,55.537632,55.41844,0.7748873,0.42968747,8.286952257156372,44.410341278711954
64,640000,94.7020191988083,-57.953316,0.058262613,-0.29597804,3.816021,2.0993276,45.1847,48.384468,5.9644675,99.96898,99.912994,99.543396,99.5568,18.33042,0.7,-99.742874,-20.914274,0.0017378975,-5672.448,-1.8380561,-1.8300164,-3.933218,-2.545901,1.5859418e-05,0.3,-83.18745,55.913258,55.933064,55.710136,56.090828,0.7785864,0.4453125,8.274144172668457,45.13645106156667
65,650000,92.96310178393881,-55.65242,0.05732326,-0.27291936,4.7716546,3.3075006,47.220715,50.52887,8.028801,98.24202,98.32075,97.460526,98.08823,8.607705,0.7,-99.15398,-39.581425,0.0004308627,-472.5957,-5.0061903,-5.3151083,-6.6394825,-5.922299,4.313345e-06,0.3,-51.66875,54.26097,54.15525,53.526688,53.588196,0.51475215,0.496875,8.364385604858398,45.86259526014328
66,660000,95.99255198593124,-56.123302,0.0582421,-1.3917215,3.5840015,5.837211,49.72327,55.755775,3.6293192,98.73443,99.27988,100.46005,99.87067,27.846022,0.7,-98.87944,-33.86719,0.008893169,-862.3719,-7.847996,-7.7772565,-7.308843,-7.0613217,3.390312e-08,0.3,-58.19331,54.263172,54.373642,54.563572,54.703262,0.67045945,0.4296875,8.313099145889282,46.5875362277031
67,670000,94.840197216977,-57.389576,0.058042128,-0.10062523,4.9305367,4.8880687,38.871304,103.92673,8.036769,99.93758,99.77184,100.98581,100.14068,28.535263,0.7,-100.140236,-33.431072,0.0020129457,-761.6187,-6.5839586,-6.3332205,-6.46655,-6.106754,5.286886e-07,0.3,-54.51655,55.778755,55.77856,55.847115,55.96692,0.74851394,0.4609375,8.244980096817017,47.31222628355026
68,680000,83.53644277636579,-55.502274,0.058419444,1.6474531,4.0762725,6.7504854,46.592392,62.014587,10.967244,104.10057,103.05594,103.29989,103.29655,9.560339,0.7,-103.663864,-23.5202,0.0010512822,-6869.181,-6.6759105,-6.6666427,-6.0955215,-8.089042,6.041257e-07,0.3,-85.91493,54.052162,54.136253,54.124416,53.890278,0.74077964,0.4765625,7.403736114501953,48.02536764542262
69,690000,85.71832998416245,-57.196617,0.057851445,-1.131967,3.334365,6.415406,47.526783,83.57042,8.5918,100.14593,100.16083,101.00921,101.33658,15.918,0.7,-99.592094,-31.405493,9.587748e-06,-655.1886,-6.9026117,-8.581175,-8.380564,-8.358478,1.8236035e-05,0.3,-51.84749,55.769577,55.749645,55.60505,55.792248,0.72946286,0.46875,7.58614444732666,48.73578009208043
70,700000,94.73484910353663,-57.712563,0.05638217,-0.037460685,4.13843,1.0997372,62.006863,114.47162,3.586111,97.00585,96.83332,98.37752,97.971596,8.776,0.7,-98.68631,-26.619501,0.0025369525,-413.38937,-3.7607667,-2.9463603,-4.9755926,-1.3322452,7.95626e-08,0.3,-51.21275,55.8012,55.926323,56.245667,55.994427,0.56039274,0.4296875,8.416264772415161,49.46511061588923
71,710000,94.62154486356467,-57.380207,0.0574672,0.37278783,4.213343,8.570477,40.789314,76.69917,9.85482,101.44569,102.18645,102.11411,102.35149,12.705131,0.7,-101.19666,-26.753008,0.0023011602,-918.5043,-5.305742,-5.7012925,-7.0062957,-7.0251684,1.09329585e-05,0.3,-56.380196,55.997757,55.90207,56.202225,56.341324,0.74127185,0.40156248,8.364463567733765,50.190736786524454
72,720000,95.59387136664425,-56.45011,0.05829222,-0.55322933,4.0330696,4.8277006,41.719982,98.88995,17.549294,98.954475,99.876236,99.91694,100.219376,23.556173,0.7,-99.82304,-27.924042,0.0004191245,-1339.774,-10.7099905,-10.7785225,-7.160478,-9.014491,1.1914108e-05,0.3,-61.0248,54.76429,54.754417,55.183605,55.229813,0.7019113,0.44062498,8.45008111000061,50.92125423749288
73,730000,83.30311843947284,-55.480038,0.05775934,-0.0044215173,4.537367,5.332339,55.9569,56.20098,6.0934963,95.58693,96.02482,98.09743,98.24882,12.169072,0.7,-96.94482,-28.419182,0.020052057,-621.80066,-7.7107296,-7.180572,-6.908992,-7.803815,2.5841971e-05,0.3,-54.170074,53.440903,53.537247,54.046135,53.950836,0.66378886,0.4125,7.544731855392456,51.63259641329447
74,740000,96.02507746783402,-57.13034,0.058559883,0.9351095,3.9259741,4.483861,48.14925,31.738266,11.11239,102.41901,101.07337,99.893585,101.125404,12.603335,0.7,-100.84772,-23.044352,0.0021685564,-1576.4437,-8.435898,-7.7969913,-8.307886,-8.476519,1.6741495e-05,0.3,-57.14391,55.167633,55.44496,54.952854,54.85758,0.6841694,0.509375,8.434823989868164,52.3598645011584
75,750000,94.27296626873071,-56.440727,0.05749879,-1.4363983,4.093337,10.215316,35.825317,63.839184,8.86951,101.61468,100.934364,101.78627,102.36146,14.374398,0.7,-100.6983,-27.324059,0.0047763633,-3563.133,-9.180672,-12.258927,-10.007076,-10.877773,1.7972377e-05,0.3,-73.7453,54.939293,55.010506,54.48884,54.614666,0.66152966,0.453125,8.265289783477783,53.08329348961512
76,760000,94.25858505655985,-58.16317,0.05650179,-0.97447,4.1319175,3.6185977,36.806187,61.00994,6.6843467,100.02179,100.14577,100.02365,100.27078,15.063527,0.7,-99.66198,-38.976418,0.014813884,-864.19806,-6.2411823,-7.1155396,-8.584637,-8.187637,8.8046653e-07,0.3,-60.504116,56.56183,56.626907,56.106194,56.244564,0.8475254,0.42499998,8.453442573547363,53.80998696088791
77,770000,88.17091252297607,-55.351204,0.05709479,0.49712843,4.600731,4.956369,32.800354,71.890564,8.605923,101.13328,100.81177,100.55982,101.4056,42.21312,0.7,-100.897316,-25.16547,0.006489926,-715.2598,-7.185444,-9.152397,-9.4237585,-6.3732157,1.5435982e-05,0.3,-60.82074,53.340378,53.25803,53.525253,53.505814,1.0128932,0.4203125,7.863650798797607,54.52908721367518
78,780000,95.20969589309826,-56.722664,0.057208613,0.6650407,4.025546,5.5765824,41.16633,78.14662,8.753767,101.52535,101.481094,102.414604,101.85877,7.26214,0.7,-101.49649,-25.864527,0.0013239109,-1009.47864,-7.209584,-5.8521585,-5.1952357,-5.821208,2.5990886e-07,0.3,-63.404987,55.029785,55.221382,55.42827,55.274586,0.6329863,0.4421875,8.452698945999146,55.25673063198725
79,790000,86.9532766995226,-54.36663,0.056697637,1.0988532,4.5009756,7.017795,41.48469,76.8996,9.741749,99.63133,101.41431,99.225685,99.20995,13.707216,0.7,-98.69288,-28.946613,0.0074946657,-1170.7153,-10.565256,-10.043793,-9.774873,-9.433757,2.390414e-07,0.3,-69.1299,52.25937,52.406826,51.826233,51.959576,0.77519333,0.46406248,7.669897079467773,55.97231132984162
80,800000,95.92807966368665,-57.7838,0.057917535,0.20266521,3.9925685,6.2540536,44.722763,47.53598,4.322801,101.499084,102.91366,99.03543,101.632545,9.052526,0.7,-100.059654,-28.0889,0.0023495986,-1313.9987,-6.0861883,-5.70191,-5.84903,-6.242989,3.2137789e-06,0.3,-55.323376,56.298813,56.50114,55.85009,55.92928,0.6241368,0.4734375,8.413974523544312,56.700401000181834
81,810000,94.34262738329065,-56.738,0.058346782,-1.5902963,3.9668856,9.712668,51.34661,99.678345,5.666067,102.35868,102.20464,103.123726,102.76455,15.988251,0.7,-101.753876,-24.916851,0.0017476343,-637.2188,-10.257312,-11.973377,-9.296978,-9.284586,1.9620639e-07,0.3,-52.954445,55.103867,55.003365,55.31134,55.25994,0.72268575,0.45625,8.353827714920044,57.427561259269716
82,820000,94.6511341725389,-55.97634,0.058514554,-0.40110952,3.7112427,2.3330283,45.468067,58.86177,7.1705794,98.81465,99.924965,100.41671,99.65491,10.229556,0.7,-98.43356,-28.06273,0.0020065545,-354.64777,-9.354356,-6.650243,-7.144654,-6.872605,4.192698e-08,0.3,-52.85425,54.42153,54.65601,54.711143,54.624084,0.7602462,0.4515625,8.304587364196777,58.15545395215352
83,830000,94.55193386236725,-54.904907,0.057561543,-0.1537314,4.0554295,0.74376833,45.819557,60.33207,8.203096,101.40102,101.186966,101.04182,100.492065,15.222008,0.7,-99.80988,-53.399254,0.0038221772,-808.5732,-7.297205,-7.335305,-5.594942,-5.1462574,5.9764716e-07,0.3,-70.352036,52.82045,52.863216,52.574966,52.722626,0.66128206,0.44843748,8.933845281600952,58.89283792177836
84,840000,89.0907854953488,-56.074142,0.058161713,0.2285091,3.8395483,5.915388,58.03512,85.5365,14.144663,98.33932,98.45006,99.37965,99.28252,31.795391,0.7,-97.24049,-38.548,0.0038543392,-1087.134,-8.533194,-9.485713,-10.680234,-9.411308,6.041257e-07,0.3,-57.379265,53.966805,54.086823,53.520016,53.940994,0.881832,0.45,7.83389949798584,59.611981276671095
85,850000,94.97238212949486,-58.417374,0.056352407,0.416348,3.7242022,4.196758,39.338406,29.804089,9.944904,105.31852,104.497665,103.97922,104.396385,32.734142,0.7,-102.97206,-27.082863,0.009241956,-733.1751,-5.107743,-7.1607437,-6.1184554,-5.791274,1.2982784e-05,0.3,-53.50631,56.683453,56.61122,56.60083,56.703613,0.7295147,0.40781248,8.880172967910767,60.34907786051432
86,860000,88.00827378019626,-54.807785,0.058934446,0.51675844,4.308563,3.5280614,44.992657,115.247505,6.589511,100.93965,99.25372,99.81492,99.09436,14.8382635,0.7,-98.64531,-26.818222,0.003852618,-2068.242,-9.966553,-9.709399,-10.08393,-10.115085,3.5992591e-06,0.3,-79.13388,52.646503,52.826435,52.52448,52.44851,0.7319869,0.49374998,8.238718032836914,61.071344729264574
87,870000,95.21248588110845,-55.390244,0.05814429,1.4113505,4.9301043,4.404704,53.850807,93.40561,15.523716,101.85663,100.19287,100.69934,101.53983,52.90057,0.7,-99.97273,-28.181091,0.0011431286,-777.833,-6.9287653,-7.625079,-8.125094,-5.2752233,1.2885099e-05,0.3,-65.651306,53.35842,53.301056,53.492878,53.477776,0.92144483,0.4484375,8.940894842147827,61.80260472297668
88,880000,84.14911825130481,-56.36268,0.059520867,1.1936911,3.164997,5.8319063,41.778824,36.16442,7.774994,97.30939,97.26094,98.036026,97.58073,7.349019,0.7,-97.59937,-29.825123,2.7303486e-05,-639.08875,-8.231553,-7.487765,-9.067159,-6.8977246,6.164366e-07,0.3,-57.7675,54.54846,54.62966,54.5454,54.70056,0.57811964,0.4421875,7.803712368011475,62.51826498111089
89,890000,91.93573944645927,-55.26478,0.058307845,0.36192667,3.8719378,1.3634527,42.058315,66.499626,15.315731,103.19184,102.68844,102.97372,103.348206,15.376157,0.7,-102.6652,-27.131447,0.0066482904,-558.6765,-4.989194,-3.7657015,-5.3218136,-4.0515847,2.6901763e-08,0.3,-59.798794,53.20604,53.181305,52.568825,53.024277,0.6357235,0.45937496,8.316552639007568,63.241151773929595
90,900000,92.24607684077128,-57.61116,0.060280938,0.09212223,3.2027445,-4.5531654,42.42481,45.29314,11.860634,98.874374,98.918106,100.50563,99.637726,14.5987425,0.7,-99.53034,-26.653624,0.001392801,-955.91473,0.741789,1.8290753,-0.8280935,0.07533181,2.5415022e-06,0.3,-61.77614,55.707253,55.62301,55.361893,55.566833,0.7197275,0.4734375,8.524471759796143,63.96859434048335
91,910000,94.69635974076014,-54.507988,0.05823505,1.267097,4.275666,5.7250586,54.787563,79.446045,15.990975,101.50316,101.885254,101.638985,101.52448,5.294992,0.7,-100.85509,-37.819584,1.0838325e-05,-1065.1171,-8.16176,-8.317258,-8.961742,-8.536014,2.9149187e-05,0.3,-62.785995,52.93641,53.03,52.966698,52.817123,0.5322207,0.4640625,8.84100866317749,64.70177212158839
92,920000,92.84273944844585,-55.593426,0.05737073,0.79997516,3.9648423,3.7404757,41.661633,107.2101,8.958137,99.65074,99.7541,99.03194,98.95193,254.15636,0.7,-99.65551,-26.219091,0.016645972,-900.04034,-4.537837,-4.7125435,-3.5348816,-4.004964,1.9676208e-05,0.3,-63.044037,53.52162,53.73314,53.487663,53.73739,1.6601894,0.44687498,8.77014684677124,65.43240899642309
93,930000,95.7245570413204,-56.405663,0.05700846,0.5349351,3.6369884,3.2940311,51.13124,54.49111,7.200973,104.15187,104.01802,104.42298,104.675606,10.315998,0.7,-103.95043,-27.837578,0.002406969,-1413.434,-5.920503,-6.4183283,-7.107938,-6.854277,3.4115046e-06,0.3,-67.76582,54.263557,54.340862,54.261593,54.357338,0.6167238,0.4015625,8.436904430389404,66.16135943333308
94,940000,89.82818605420083,-58.619522,0.060095806,0.90320635,3.5547755,0.67015964,45.015778,54.041927,21.056667,100.334206,100.301956,101.413284,100.50934,14.360323,0.7,-100.79649,-34.645775,0.0017098337,-1247.0776,-7.2123623,-8.006872,-7.4423504,-8.0339,9.387732e-06,0.3,-70.93724,56.533348,56.36093,56.455963,56.706093,0.67464703,0.45,7.8737523555755615,66.87944702307384
95,950000,95.8874770549622,-55.720634,0.056724623,0.31090793,4.256801,3.0153575,41.524456,95.89938,7.3705344,100.40008,100.46307,100.88311,100.06829,19.750145,0.7,-99.774025,-26.246378,0.004164133,-922.44653,-7.1649113,-6.791195,-5.191868,-6.975928,5.091632e-06,0.3,-60.058685,54.130836,54.142235,54.118195,54.16815,0.7477635,0.46875,8.815020322799683,67.6162245353063
96,955000,95.15079858263935,-53.411896,0.059130866,0.030479461,4.0229235,4.293375,76.58419,86.40962,13.053404,98.90138,99.129845,99.76052,99.906334,15.83814,0.7,-98.14381,-29.34322,0.003323377,-1552.503,-7.695579,-6.276192,-6.001165,-5.626199,8.930895e-05,0.3,-63.524864,51.474125,51.477318,51.655624,51.59597,0.9724649,0.40625,8.766273975372314,68.05538694461187
97,960000,94.11970067483959,-55.012222,0.057344213,0.7291373,4.1112523,1.4872074,48.412766,86.676125,4.5651984,95.99903,95.614296,95.935616,96.17298,65.87976,0.7,-96.76126,-26.982319,0.009405384,-1431.4198,-6.576992,-5.508559,-6.467501,-5.3120337,5.286886e-07,0.3,-72.38439,53.029556,53.089497,52.953354,53.061222,0.9045324,0.4421875,8.914921760559082,68.50075713793437
98,965000,94.91526270516363,-54.841843,0.057976887,-0.5197186,4.785427,3.0579586,39.236835,147.362,10.526184,96.05538,95.68702,96.06552,96.11156,14.959448,0.7,-95.75907,-29.815346,0.0020764233,-973.4902,-9.079989,-8.549043,-7.926136,-9.068807,7.838826e-08,0.3,-53.897972,53.51573,53.405178,53.575478,53.698807,0.7737792,0.4171875,8.331775665283203,68.93485885858536
99,970000,95.08048253594438,-56.50571,0.061040778,-1.0566137,4.0996027,8.43799,39.476715,70.597244,5.7570524,97.873116,97.99397,99.03462,99.35906,15.39681,0.7,-96.673,-27.763422,0.013607879,-529.20044,-6.2224526,-5.322156,-6.5988913,-4.72367,0.00012014287,0.3,-59.005653,54.588478,54.74876,55.183865,55.184055,0.654528,0.3796875,8.425169467926025,69.36609746217728
100,975000,89.27794230026083,-55.20598,0.05593412,-0.31485784,2.9916115,3.3698072,47.50119,51.73923,11.726155,97.7738,97.6196,97.12065,97.32907,21.774237,0.7,-98.54302,-27.689575,0.003350018,-703.7584,-7.16577,-7.875601,-9.806575,-7.818101,3.5240663e-07,0.3,-61.600693,53.879463,53.972206,54.0365,53.94097,0.6216291,0.42968747,7.939538955688477,69.794726673762
101,980000,94.7654437976957,-58.52119,0.060936622,-0.33047208,2.9872317,3.8504553,50.54605,68.4513,7.9121094,100.62035,100.83728,100.57883,100.810135,11.988476,0.7,-100.79972,-29.635506,0.009796899,-846.7282,-7.582104,-10.581464,-8.668603,-9.807848,1.5388678e-05,0.3,-52.323586,56.81587,56.823063,56.73547,56.716362,0.5658366,0.45,8.441389799118042,70.2236949245135
102,985000,94.25078400718009,-59.81409,0.057220902,0.48814303,3.346141,5.9944644,47.380573,79.28631,15.59062,104.4632,102.93577,104.41898,103.84767,8.911225,0.7,-103.94337,-32.24042,0.003972905,-797.3678,-11.518237,-9.323829,-8.853665,-10.5711355,4.3037288e-10,0.3,-58.56871,58.233265,58.139633,57.999382,58.06122,0.5540025,0.48593748,8.215457677841187,70.65500042438507
103,990000,95.21846394244692,-53.78733,0.04908111,-0.95548844,4.372773,5.3011413,54.61459,106.23184,7.31314,98.18938,98.92565,98.68423,98.5332,15.751132,0.7,-97.932076,-37.28614,0.018972825,-1244.4888,-10.5099945,-7.3198657,-7.808207,-7.628056,5.251303e-06,0.3,-64.101074,51.72892,51.750908,51.84427,51.90809,0.6474659,0.4765625,8.301937580108643,71.0892593105634
104,995000,94.73059236765258,-54.992943,0.052322414,0.8390832,3.5495653,6.9891644,47.024895,61.365295,5.6970925,101.88658,102.70135,102.16171,100.63485,16.17245,0.7,-102.18346,-22.891335,0.0025760804,-972.17957,-9.2813835,-7.455966,-7.6814113,-8.359577,2.845974e-05,0.3,-56.03697,53.34192,53.281693,53.70481,53.660686,0.7158006,0.41718748,8.254414796829224,71.51973266601563
105,1000000,93.946441117648,-53.685944,0.056713387,1.3302753,4.943168,4.760463,50.699417,232.80524,12.746769,101.91761,101.93788,101.93223,101.835365,16.86506,0.7,-101.43281,-31.477541,0.0002456443,-1224.7026,-9.1297245,-11.017265,-10.528809,-12.660524,4.5602024e-05,0.3,-66.50266,51.848434,51.83739,51.912743,51.71761,0.9299045,0.459375,8.340718746185303,71.95382552146911
