Xixo99/comfo/baselines/comfo7_perterbation_both_actor_and_critic/20230224_alphaQ0.0001/walker2d-medium-v2/COMFO7_s1_20230224_181442_walker2d-medium-v2_81.19.csv
,step,reward,actor_loss,alpha,alpha_loss,avg_conservative_loss,avg_smooth_loss,conservative_weight,critic_loss,max_actor_loss,max_alpha_loss,max_critic_loss,max_mle_prob,max_q1,max_q2,max_target_q,max_v,max_value_loss,max_weight,min_actor_loss,min_alpha_loss,min_critic_loss,min_mle_prob,min_q1,min_q2,min_target_q,min_v,min_value_loss,min_weight,mle_prob,q1,q2,target_q,v,value_loss,weight,eval_time,time
0,0,1.8471035077167475,,,,,,,,,,,,,,,,,,,,,,,,,,,,,,,,,,,,
1,10000,53.51665665168272,-37.501972,0.08336463,-3.0409794,-0.0007769749,1.3062158,1.0,1.1133552,5.930296,28.721832,111.47642,20.021664,45.356106,45.20286,45.01236,45.235714,7.370054,0.7,-61.36291,-31.045807,9.1873895e-05,-18.35076,5.448922,5.7725525,4.968406,5.073608,1.086376e-07,0.3,4.9485903,32.96487,32.914566,32.92829,32.433765,0.083670385,0.46875,6.173444747924805,3.0193580905596415
2,20000,71.83291841458393,-59.574684,0.005864815,-2.8257744,-0.0022336242,2.2916172,1.0,1.4174794,-14.5340185,65.34147,156.3609,20.752495,76.310425,75.92259,75.12046,75.62087,4.9423423,0.7,-83.2171,-65.64722,0.0005103606,-4.2939005,14.184397,14.13473,14.392171,14.76016,2.838715e-07,0.3,5.786421,53.821648,53.816147,54.00446,53.801918,0.109230705,0.375,7.546165943145752,4.0736209909121195
3,30000,51.25449514974386,-70.20759,0.0003909114,-1.9553473,-0.005967963,3.0853808,1.0,1.9384155,-17.177265,98.38787,152.98474,19.05537,85.69475,87.09582,84.814835,85.51919,5.456113,0.7,-99.16942,-81.78934,0.002126598,-5.3822384,7.2255783,7.6824145,12.494272,2.8329003,2.0664186e-06,0.3,5.4825964,64.64075,64.650276,64.84408,64.481674,0.1001811,0.51250005,5.8396711349487305,5.098606391747793
4,40000,76.5539989335268,-76.44089,2.7607788e-05,-6.414718,-0.0060531194,3.5334766,1.0,2.1773043,-19.21622,118.023636,250.4934,14.978564,98.67081,98.74245,98.69696,98.50768,9.767894,0.7,-107.25823,-104.26952,0.0006379803,-5.660942,8.285815,6.2718773,11.706185,9.219407,3.228779e-08,0.3,4.983363,71.35318,71.44696,71.588806,71.458405,0.14889899,0.42812496,8.250442266464233,6.166314514478048
5,50000,76.24466838956074,-81.17941,2.0445589e-06,-10.822292,-0.006104077,4.052022,1.0,2.4309454,25.63592,141.4327,280.34015,17.10037,98.480095,98.63729,98.45283,98.53135,4.3018303,0.7,-111.533195,-139.48184,0.0008190117,-4.063845,-20.189568,-18.698006,-7.627954,-19.723564,9.933274e-06,0.3,5.2192736,75.94185,75.9539,75.914375,76.031204,0.120019644,0.3890625,8.387617349624634,7.235161717732748
6,60000,78.19003596885509,-82.414536,1.5455903e-07,-3.9860947,-0.0018927691,4.2434163,1.0,2.3591259,-4.9356737,206.4317,134.19386,18.161709,102.8875,102.66239,102.19924,102.62077,6.1756086,0.7,-116.18935,-145.23479,0.00036284444,-6.119299,8.357404,6.666644,8.565586,8.80586,3.0135269e-07,0.3,5.240678,77.048454,77.056335,76.90811,77.04491,0.14815806,0.47187498,8.019831657409668,8.302738217512767
7,70000,72.73242526781357,-87.481384,1.2372632e-08,-5.793536,-0.01368957,4.216854,1.0,1.2475231,-9.225874,325.4546,44.43562,18.402178,102.9624,103.10385,102.909996,103.080444,3.5408666,0.7,-121.32575,-157.99966,0.0010024116,-6.316504,10.979958,9.892225,10.166822,12.341911,3.876805e-07,0.3,5.173839,82.33551,82.31062,82.13843,82.09373,0.1019346,0.434375,7.76532769203186,9.361566547552744
8,80000,69.37532732663882,-84.365944,1.0265487e-09,-16.986677,-0.0044555278,4.152321,1.0,2.3264575,-8.79468,253.72421,84.72353,17.4294,103.77073,104.547226,104.54691,103.91487,7.0635233,0.7,-114.59166,-289.46182,0.0009847479,-6.3232737,1.1498404,0.6988956,0.70199823,0.472956,6.7769435e-07,0.3,5.466508,78.9757,79.11755,78.92633,78.803955,0.20254996,0.4421875,6.832178115844727,10.409628788630167
9,90000,70.94356450138322,-83.00053,8.8411486e-11,-9.695594,-0.013044208,4.417735,1.0,1.276875,-4.093855,686.5594,37.693306,19.658852,105.939766,105.99275,104.804665,105.649086,12.146319,0.7,-125.12677,-257.9017,0.00035273778,-7.381961,6.079463,8.937075,7.6291995,6.524833,5.487952e-06,0.3,5.402116,77.564606,77.64161,77.45435,77.53083,0.1813687,0.40781248,7.309414625167847,11.465334641933442
10,100000,74.04491623144388,-85.803185,8.094171e-12,-10.957861,-0.005002308,4.0797677,1.0,2.6029787,3.7336936,271.62527,146.80641,15.648046,103.51803,103.612015,104.10351,104.129745,4.627347,0.7,-115.57133,-320.06992,0.00075978955,-5.275976,-3.4782948,-3.577286,-8.947438,-5.7111974,1.4248245e-06,0.3,5.4242506,80.493805,80.47497,80.52985,80.59961,0.13774528,0.484375,7.491369009017944,12.52236992518107
11,110000,73.63792882936511,-85.381744,7.611065e-13,-6.7563,-0.006962148,4.026265,1.0,1.9816628,-2.1944265,354.22684,51.35845,17.263668,106.730965,107.42039,105.1823,106.26137,3.5214677,0.7,-117.46159,-261.73035,0.0012232456,-5.060555,2.215022,2.1639438,0.9486343,-0.16229787,4.1564343e-07,0.3,5.527854,79.87958,79.88131,79.583115,79.716415,0.10612713,0.4703125,8.01857328414917,13.589749137560526
12,120000,72.162531718194,-88.91861,7.316987e-14,-12.870545,-0.0057618855,3.9709783,1.0,1.7654502,-2.9320168,296.34308,97.594284,16.311396,103.08456,103.16357,103.16749,103.24263,3.8724184,0.7,-115.504845,-290.94202,0.0004712437,-5.0019393,2.170919,1.4546574,3.6324244,3.1918228,3.3003744e-09,0.3,5.7678566,83.21523,83.249756,83.26081,83.18515,0.11811812,0.41562498,7.417015790939331,14.644939760367075
13,130000,79.70752759214055,-86.03319,7.4054515e-15,-2.8775806,-0.005607764,4.1069045,1.0,2.5192463,-6.276068,383.81845,161.50955,17.696035,103.77993,103.75226,104.042305,103.89609,15.708908,0.7,-119.98453,-285.96414,0.0007300883,-4.6541247,1.232682,1.393743,5.65517,4.9166203,9.953947e-06,0.3,5.451668,80.656876,80.678215,80.96858,80.968216,0.18990326,0.36093748,8.279329538345337,15.71622006893158
14,140000,70.43079551949498,-88.08247,7.2816034e-16,6.1518583,-0.011507686,4.066316,1.0,9.558846,-22.497883,616.1744,2144.6694,19.445906,103.45833,102.95974,103.833496,103.57778,3.4873555,0.7,-115.70959,-285.80603,0.0004212035,-4.413293,14.380214,14.311528,15.039385,13.937464,3.4486874e-07,0.3,5.8025017,82.341156,82.329735,82.307014,82.246315,0.111796886,0.5421875,7.202157258987427,16.766143890221915
15,150000,70.76015018980772,-87.12776,7.3667025e-17,-10.5939865,-0.014478537,4.397617,1.0,2.1689038,-2.4637864,399.67917,71.8615,15.725721,104.39549,103.731606,105.631676,103.22424,17.576159,0.7,-115.62741,-362.75357,0.00045897654,-4.9232316,-0.903631,0.075829804,1.2401539,-3.0262372,5.1929555e-06,0.3,5.7167807,81.55815,81.45402,81.5704,81.52454,0.22576264,0.44843748,7.235232830047607,17.819863092899322
16,160000,69.03330405005707,-85.514114,7.787346e-18,-10.941267,-0.0042673717,4.016601,1.0,2.2905793,-25.276535,394.60312,332.9315,16.42787,103.14022,103.49491,103.52765,103.30948,2.7202528,0.7,-114.71561,-333.31448,9.878131e-06,-2.0078723,21.100277,21.370209,20.308752,21.21977,2.514571e-07,0.3,5.447133,80.1156,80.169716,80.28696,80.296936,0.11286807,0.4921875,6.841593980789185,18.866852593421935
17,170000,73.00464205636992,-85.385506,8.3192977e-19,-14.932159,-0.008352301,4.2387013,1.0,3.8611436,-10.361902,560.36383,662.40393,16.541046,102.88371,102.902695,102.706245,102.66244,7.7827444,0.7,-114.65948,-402.30786,0.00045694626,-3.7105808,1.1323885,-0.5205771,0.3680934,-0.68209255,2.1713204e-07,0.3,5.5866957,79.85892,79.796875,79.43143,79.58345,0.14815067,0.5,7.266810178756714,19.92174671093623
18,180000,73.15366216724631,-87.56894,9.215823e-20,0.3245504,-0.0049642096,4.3882346,1.0,1.2217991,-16.019188,542.5191,48.624825,17.771898,102.827194,102.541374,103.03691,102.8521,3.9056747,0.7,-115.27561,-353.10553,0.00022104714,-9.307438,9.542941,8.5067425,11.3506975,7.7483654,9.8225435e-08,0.3,6.0612907,81.6145,81.582794,81.75673,81.73079,0.13120097,0.4421875,7.487881183624268,20.977863478660584
19,190000,74.42499142535739,-87.246765,1.0392103e-20,-22.658253,-0.002924765,3.6572044,1.0,1.7178619,-3.745161,646.72095,61.923622,18.463894,102.735695,102.37387,102.83007,102.65082,11.148451,0.7,-119.59172,-536.37494,0.00010384392,-4.8460307,3.5337298,3.5303621,2.799532,3.841685,7.92247e-07,0.3,5.4279103,81.90315,81.931335,82.08785,82.10913,0.16190818,0.40156248,7.365303039550781,22.036574705441794
20,200000,76.60134677439851,-85.28045,1.2042588e-21,-37.517143,-0.0054221707,4.2642255,1.0,3.5996861,-17.872637,552.4268,199.24655,21.61875,102.5762,102.44785,103.65626,102.59638,7.369747,0.7,-115.584404,-505.39096,0.0004976204,-4.736643,7.1993504,7.624688,7.8863215,8.038693,1.7968704e-08,0.3,5.3303742,80.08159,80.055275,80.59425,80.52734,0.178397,0.42031246,7.606321811676025,23.098055585225424
21,210000,77.21880561900801,-86.509705,1.4065515e-22,-16.771399,-0.007636707,3.74495,1.0,1.7431314,-24.982513,685.01135,150.58493,16.610498,102.96909,103.12341,103.11748,103.191605,8.582068,0.7,-115.24996,-553.0987,0.00010919629,-4.884593,19.090595,21.563147,16.972206,20.235079,1.0693212e-06,0.3,5.580161,81.0172,80.94091,81.12984,81.19948,0.16988346,0.3515625,7.816378355026245,24.16521424849828
22,220000,81.04378891694792,-87.05788,1.6471618e-23,5.9494953,-0.0072025904,4.212269,1.0,0.7056055,-17.7928,747.943,25.128937,18.5738,104.01173,104.448074,103.84308,103.55489,3.3237932,0.7,-116.90135,-455.83582,0.0007145015,-6.5019245,18.37091,20.501215,19.36108,19.383398,1.7214916e-07,0.3,5.684375,81.43587,81.41168,81.48253,81.55694,0.10655799,0.4265625,7.91110634803772,25.230770643552145
23,230000,70.27171260633061,-87.04366,1.9892899e-24,5.634098,-0.011644559,3.9221916,1.0,1.6413939,-9.093569,785.1015,50.805614,19.243855,102.38137,102.261795,102.517006,102.84958,3.0555515,0.7,-117.44271,-389.70013,0.0029782425,-6.176034,9.486004,11.417496,10.313557,9.048676,2.263114e-08,0.3,5.655739,81.51475,81.58162,81.81891,81.7259,0.15376808,0.390625,7.143075466156006,26.281390511989592
24,240000,72.55311636401935,-85.26897,2.439039e-25,-5.692401,-0.009642944,4.2604537,1.0,2.1900463,3.0471756,573.2714,168.39288,18.355703,104.81308,103.51213,105.34186,103.134605,11.571487,0.7,-117.93626,-620.672,0.0021124778,-3.3561277,-0.23791623,-0.9371697,-2.71338,-2.2955337,5.2262914e-07,0.3,5.534816,79.85898,79.69152,79.55853,79.47127,0.14462528,0.47187498,7.358269453048706,27.33573911190033
25,250000,69.57074480380925,-86.12536,3.0724542e-26,-27.3803,-0.00652141,3.9567502,1.0,2.1968174,-7.671973,696.6225,140.7793,18.838436,103.06937,103.48806,102.88731,102.71429,9.060882,0.7,-114.686386,-572.7046,0.00034371135,-4.647701,4.439401,4.281766,3.380433,2.466373,4.0429586e-06,0.3,5.5075655,80.669136,80.86224,80.59932,80.587845,0.17194133,0.49374998,6.903790235519409,28.383504633108775
26,260000,78.53562450866374,-83.93742,3.8610323e-27,-8.765886,-0.014845747,4.161873,1.0,2.081504,-5.3423834,746.2237,234.34662,20.817352,102.34502,102.644775,102.71615,102.06976,1.3639399,0.7,-120.29,-761.79755,0.00064765255,-4.5178895,1.9694595,1.3816276,4.020449,3.7270274,6.885966e-09,0.3,5.9562316,78.06137,78.14435,78.138176,78.0566,0.08047693,0.47031248,6.7930097579956055,29.412535270055134
27,270000,72.63568004799296,-83.429596,4.967524e-28,-24.628538,-0.014614868,3.9820595,1.0,1.3244231,-8.020304,663.2958,80.341484,17.465855,102.865265,102.17721,102.88889,102.48687,3.2044525,0.7,-115.25334,-625.9214,0.00010126835,-8.202431,5.935925,4.074895,4.153819,3.6177251,2.5465852e-08,0.3,5.664547,77.75964,77.69943,77.83451,77.7796,0.15153599,0.42499998,8.00378704071045,30.450500508149464
28,280000,76.19826751408665,-86.43156,6.5776087e-29,-2.7319632,-0.004608434,4.1024537,1.0,2.5026603,-1.6195176,850.2374,206.37396,17.79196,101.578896,101.487404,101.89999,102.15647,5.975239,0.7,-116.65318,-550.3854,0.00095588324,-6.346551,-2.4019363,-0.71474254,-2.7794259,0.9824531,2.2694003e-07,0.3,5.7714186,80.7511,80.81857,81.01823,81.116035,0.15438303,0.3984375,8.42964792251587,31.522494916121165
29,290000,81.42920092144755,-85.01996,9.029601e-30,-7.9749775,-0.009987696,4.043849,1.0,1.2375821,-11.200451,731.8164,37.619865,17.833344,103.10291,104.319595,102.78533,102.85346,3.6621618,0.7,-117.315155,-468.61966,3.1552103e-05,-3.751415,6.600103,7.362155,7.7212815,8.279996,2.0746957e-07,0.3,5.6521845,79.4064,79.45987,79.382904,79.45726,0.14129007,0.4734375,8.844236850738525,32.59723311265309
30,300000,81.04548441147973,-86.261826,1.210074e-30,-9.391821,-0.0041783126,4.138084,1.0,1.0122142,-25.588139,947.9492,29.041111,18.012695,104.34115,104.95202,103.821526,103.79343,11.375574,0.7,-117.967865,-679.48645,0.00072510284,-2.2897978,18.621166,17.08219,16.56617,17.348808,2.7383678e-06,0.3,5.6396365,80.60163,80.677864,80.76807,80.84305,0.25661975,0.34375,8.686098575592041,33.67302635908127
31,310000,81.43428429796585,-82.0676,1.6584155e-31,-15.128295,-0.021529783,4.513267,1.0,1.1924636,-7.30458,761.5005,49.06347,17.43684,101.4658,101.63846,101.268486,100.99967,4.83859,0.7,-115.76943,-812.27704,0.0005130714,-2.6947136,5.4183173,6.446037,7.4987392,6.3509984,2.0539737e-07,0.3,5.7501097,76.40218,76.38008,76.47952,76.47848,0.14149305,0.421875,9.16315221786499,34.75581167538961
32,320000,78.98162743377833,-82.15419,2.366678e-32,-35.146866,-0.018572358,4.619968,1.0,1.4986516,-9.420763,1021.84924,41.004593,17.115402,101.312935,102.17721,101.653694,101.644554,6.8129516,0.7,-117.31116,-905.21796,0.0007569581,-8.829421,5.5219793,5.904636,8.171043,8.218435,1.08982206e-07,0.3,5.3957396,76.87535,76.91133,77.04155,77.06955,0.2138222,0.47499996,8.723426342010498,35.83370762268702
33,330000,80.1857070761661,-85.83655,3.439307e-33,-14.78722,-0.011552805,4.4333744,1.0,1.5879383,-3.9512167,1152.9932,75.19168,19.09921,103.00456,102.9479,103.23355,103.40322,3.992063,0.7,-115.34332,-800.82556,0.0012708015,-5.433156,6.8711767,6.500828,8.923008,8.936708,3.6950226e-08,0.3,5.3789196,80.5504,80.50918,80.7746,80.757385,0.16263804,0.440625,8.64170789718628,36.91059016784032
34,340000,76.18318379317945,-85.56601,4.9882447e-34,-24.00094,-0.022000104,4.021691,1.0,1.6300063,-0.82039887,829.0035,81.71553,15.65156,103.470406,104.67358,104.43286,103.23405,3.3562162,0.7,-113.337234,-1033.6736,7.4103125e-05,-3.9267435,1.8287044,3.6662812,2.2214649,-0.7725034,6.412785e-06,0.3,5.5443716,80.073456,80.15199,80.18945,80.139275,0.09751383,0.37343746,8.036676168441772,37.97661038239797
35,350000,80.47065102274442,-87.31084,7.4137987e-35,-5.4853535,-0.021623088,3.7113397,1.0,3.330464,-12.0553465,1147.8936,471.2199,19.16507,103.81404,104.23253,103.21235,103.66436,4.4641294,0.7,-119.02874,-778.3232,0.007214085,-3.9407349,8.544725,10.104075,6.582468,6.201589,1.3201497e-06,0.3,5.6969676,81.6522,81.61968,81.074715,81.274216,0.14236827,0.5015625,8.595974922180176,39.0551176349322
36,360000,67.5680871073831,-84.755646,1.14281304e-35,-29.079876,-0.017763192,4.65398,1.0,1.4499633,-11.26198,1212.7477,75.477585,18.733002,102.03167,101.674194,101.80895,102.19718,2.3767056,0.7,-117.10954,-748.4328,0.00019842386,-8.895006,6.0505943,6.6697273,5.6277986,6.3070116,2.3519797e-06,0.3,5.537923,79.33503,79.20015,79.16153,79.08038,0.12084869,0.51875,7.208348035812378,40.10639305909475
37,370000,76.38529984259164,-85.84206,1.7236134e-36,10.181708,-0.016066892,4.3356166,1.0,2.2061994,-13.6877575,841.5079,94.033936,17.601881,103.5443,103.03721,103.21921,103.472206,7.354333,0.7,-116.83509,-560.7186,0.00072519784,-3.4750304,9.019966,9.262819,9.639276,8.839464,2.7939677e-06,0.3,5.816092,80.127144,80.113686,80.26012,80.23221,0.17781335,0.42343748,7.998773813247681,41.17323444286982
38,380000,78.67720839752565,-85.116005,2.7688102e-37,-34.97063,-0.012981166,4.52816,1.0,2.312385,-11.953861,770.33356,97.676636,15.921988,101.969376,102.1046,102.81996,102.51665,8.536394,0.7,-113.33684,-990.997,0.0017043208,-4.3290644,4.0133348,4.8013515,4.402211,3.0281968,1.6770792e-07,0.3,5.425926,79.75547,79.72362,80.1429,79.93027,0.22136316,0.490625,8.749003171920776,42.24948343038559
39,390000,82.50051389186257,-84.514336,4.3813614e-38,-49.07041,-0.00804096,4.555852,1.0,1.6321281,-10.858711,993.4793,85.77921,14.603299,102.05768,101.541725,101.271255,102.46108,6.9608526,0.7,-113.48287,-793.8786,0.00041806896,-3.1802406,6.6954727,6.2662945,5.357622,5.808441,9.387732e-06,0.3,5.7866945,78.83115,78.77766,78.761024,78.95125,0.19551322,0.4484375,8.607925653457642,43.32871682246526
40,400000,81.18979807707089,-85.69002,6.861287e-39,21.40005,-0.021032436,4.3720617,1.0,1.5526519,-12.49571,1160.1168,89.85463,14.970654,102.22655,102.0492,102.78003,102.64176,4.7890124,0.7,-113.72876,-699.17834,0.00498466,-4.136694,12.685238,10.497238,11.817307,11.717412,4.4703485e-09,0.3,5.838361,79.90825,79.96719,80.473,80.322136,0.14420179,0.415625,9.177792310714722,44.41724013487498
41,410000,83.97606581587853,-85.50226,1.109156e-39,-26.973703,-0.022231897,4.8087516,1.0,1.6348403,2.0310798,1214.3995,59.61074,14.8336315,101.856285,101.60188,101.82615,101.56211,5.943981,0.7,-114.395035,-895.53577,3.9165e-05,-3.8331847,0.9010247,0.46366912,1.4453954,2.0632088,1.571607e-06,0.3,5.720853,79.839325,79.85191,79.86308,79.92774,0.123408474,0.48125,8.678838968276978,45.49465767145157
42,420000,73.09863802546211,-85.96714,1.87787e-40,-54.167183,-0.017749442,4.557563,1.0,3.251245,-9.271851,1049.2762,171.97777,16.7889,102.94781,102.81224,103.101715,102.864426,8.648692,0.7,-117.70856,-1003.4801,0.00013060693,-4.812975,9.075877,9.10021,9.427124,8.880621,2.6850032e-07,0.3,5.377412,80.62637,80.76767,80.96226,80.73577,0.18373808,0.50312495,7.641516447067261,46.55560363928477
43,430000,72.71182024688109,-86.43765,3.0928e-41,-36.565437,-0.026875174,4.1777697,1.0,1.4764171,-22.1123,826.0594,65.76033,15.363678,100.95409,100.67245,101.67435,100.995735,5.958355,0.7,-113.26557,-1030.7528,0.00019626744,-4.6015215,14.200498,14.018915,14.69633,15.025366,4.5453894e-06,0.3,5.6965055,80.864685,80.83394,81.04226,80.96153,0.16058242,0.45937496,7.809657335281372,47.61938302516937
44,440000,78.34829711269285,-85.57051,5.426e-42,-21.565205,-0.028525462,4.779991,1.0,1.4915304,-16.005974,1434.5571,35.818413,16.18333,102.92037,102.65102,102.8944,103.4222,5.1443405,0.7,-116.661705,-930.1784,0.0007109349,-3.4384804,11.10327,11.996046,10.636995,10.956391,4.192698e-08,0.3,5.6146407,79.9771,80.008316,80.296616,80.20714,0.15572503,0.4734375,8.148765802383423,48.69301149447759
45,450000,80.41256628305663,-85.85285,9.3e-43,-32.665443,-0.03497828,4.4124885,1.0,1.1129858,-14.972939,1090.0089,32.36326,20.856697,105.40874,104.390175,104.3203,104.026855,6.248588,0.7,-117.66296,-986.89606,0.00040089083,-3.755073,12.410025,12.477995,11.178839,11.222034,3.1944364e-08,0.3,5.7328486,80.16965,80.19768,80.080956,80.29525,0.13619234,0.37812495,9.099430084228516,49.77551445960999
46,460000,82.8224696336463,-85.31283,1.61e-43,0.23553848,-0.02816586,4.6034427,1.0,1.985992,-0.5323062,1387.2842,74.184814,23.31311,102.0973,102.14397,101.573204,101.48772,8.2868395,0.7,-116.58243,-1114.3727,0.005608741,-2.5239651,-3.4647317,-0.42533094,-2.227872,-2.7146764,1.1092925e-06,0.3,6.024899,79.29349,79.400345,78.96444,79.01993,0.13222092,0.4515625,8.976802110671997,50.862863504886626
47,470000,80.970807409407,-85.84512,3e-44,14.046599,-0.017281173,4.8757095,1.0,1.8941748,-12.320829,2120.5244,120.17584,23.34684,102.88837,102.87026,103.084465,103.06157,12.007866,0.7,-116.13431,-1458.9196,0.0005918206,-5.319107,5.256644,3.9571962,3.2699447,3.0684536,6.041257e-07,0.3,6.138581,79.79295,79.815445,79.81204,79.839554,0.23166558,0.4890625,8.698800086975098,51.94490905602773
48,480000,80.92217528057084,-87.39638,6e-45,-43.956306,-0.030770138,3.6849167,1.0,0.7850388,-20.131107,1268.4683,19.529776,19.552883,102.187485,102.1409,102.845,102.317795,2.0878654,0.7,-116.19029,-1281.7773,0.0028099688,-2.2378974,15.375584,16.790329,13.541364,12.633716,3.0135269e-07,0.3,5.862481,81.62095,81.55345,81.76247,81.649185,0.10185784,0.515625,8.962114334106445,53.03097621202469
49,490000,82.3362697358898,-85.41581,1e-45,-21.10719,-0.02472411,4.8258033,1.0,1.5204623,-4.397699,1287.1588,68.125175,22.486105,103.29157,103.36783,102.99759,103.46614,5.836499,0.7,-115.87153,-1070.8832,0.00032298994,-5.908683,6.7973933,7.761316,6.069142,7.7838845,8.802745e-08,0.3,5.5861583,79.73711,79.8556,79.89177,79.94643,0.14963314,0.4171875,8.859009981155396,54.11536553700765
50,500000,83.33290760037477,-89.13733,0.0,0.79486465,-0.02353533,4.779547,1.0,1.7545673,-11.155581,1459.8174,39.228104,18.202415,102.89624,102.639496,102.85757,102.97436,4.0916457,0.7,-115.95955,-973.65295,0.0017889789,-2.9581347,5.5750403,5.894237,7.764018,8.82282,1.2321398e-07,0.3,5.7680235,83.522644,83.4333,83.828156,83.70691,0.17102419,0.403125,9.342445850372314,55.20695407787959
51,510000,78.4949354281227,-84.0205,0.0,-26.298244,-0.034757335,4.596008,1.0,1.1656435,-16.381413,1632.9786,62.717014,24.795042,101.7341,101.523026,101.59674,101.518845,4.785465,0.7,-114.82161,-1026.3567,0.00068030116,-5.8038588,9.813567,10.233923,9.515126,9.293489,1.3293284e-07,0.3,5.463481,78.64721,78.535774,78.68338,78.704636,0.11661253,0.41875,8.105636835098267,56.278919100761414
52,520000,76.43323987966386,-86.31409,0.0,-78.95798,-0.035321306,3.946849,1.0,0.6841285,-8.238653,1362.9615,28.262484,19.177761,103.02834,102.874916,102.9167,103.1795,3.3353019,0.7,-111.90643,-1340.5902,0.00027221185,-4.7004213,8.156305,7.383495,6.6543365,8.660789,3.4716797e-07,0.3,5.304178,81.027695,81.076126,80.91154,80.98514,0.106349245,0.4390625,8.284618139266968,57.350226942698164
53,530000,69.0658127215523,-83.91998,0.0,28.29594,-0.038609084,4.6712427,1.0,1.85668,-23.150343,1295.8334,97.44504,28.979671,101.81162,101.43987,101.04447,101.4025,33.24272,0.7,-117.11357,-1131.1157,0.00097435724,-5.558925,-0.67250574,1.7106488,1.6835451,-0.53122956,6.5045316e-07,0.3,5.880079,78.047806,78.07151,77.78292,78.00182,0.28592843,0.465625,7.218589544296265,58.40044032732646
54,540000,77.85570240522155,-86.73264,0.0,-24.654484,-0.052229572,5.0149064,1.0,1.2902246,-9.14687,1545.2468,107.789185,19.243404,101.13557,101.22706,101.4471,101.1125,8.808077,0.7,-116.950165,-1220.1526,0.00029242982,-5.374611,8.049368,7.8185844,9.452309,9.862299,2.229761e-07,0.3,5.788387,80.9615,80.984985,80.910416,81.03961,0.18852691,0.4375,8.508439779281616,59.47546441157659
55,550000,82.77118217560884,-84.29089,0.0,24.629946,-0.051125206,5.133018,1.0,2.1083431,-11.243275,2035.5546,135.55241,19.366278,102.42607,102.02469,102.40429,102.35567,86.75542,0.7,-113.97241,-946.0684,0.0005319604,-4.8456364,7.144436,8.470962,6.6159234,6.307386,1.1895493e-06,0.3,5.629363,78.78512,78.80261,78.60106,78.7379,0.51523906,0.459375,9.121700048446655,60.55898087422053
56,560000,83.0539008401541,-85.827805,0.0,-9.49216,-0.04755723,5.5346475,1.0,1.4593256,-12.357721,1853.4943,48.2536,18.480642,100.11841,99.83352,100.573044,100.47864,3.5220518,0.7,-115.126724,-1092.9521,0.004627699,-11.83745,2.6463463,0.9376699,1.0899017,1.609993,7.5605467e-06,0.3,5.883439,80.094055,80.01384,80.38851,80.52884,0.13367744,0.3875,8.911843299865723,61.641397162278494
57,570000,79.28177987529251,-83.08679,0.0,-78.083206,-0.09616934,6.04004,1.0,1.0966814,-2.159852,2045.0164,20.16916,17.834305,102.25177,101.77644,102.445694,102.89419,4.7143536,0.7,-114.461296,-1376.8722,0.00074493355,-3.8616133,3.1299706,2.4441998,3.0258033,3.5304635,1.5759724e-07,0.3,5.7364593,77.31607,77.33772,77.6356,77.64664,0.15076235,0.38437498,9.063934326171875,62.72254237333934
58,580000,78.44990842351527,-84.20607,0.0,-33.826782,-0.0930043,5.6842165,1.0,0.998278,-2.217413,1681.3545,39.874046,22.62998,101.98897,101.71719,101.93724,101.76733,5.0464034,0.7,-121.17743,-1283.5726,0.00059250306,-3.890051,5.9064226,6.4275436,7.347593,7.7806215,6.886851e-06,0.3,5.8354735,78.3244,78.33026,78.487885,78.3451,0.16878545,0.5671875,7.885144472122192,63.78987761338552
59,590000,82.63167488891408,-88.1007,0.0,10.716474,-0.07831671,5.3471246,1.0,1.7492497,-15.013412,1872.8156,113.9457,19.764746,102.196815,102.47447,102.13088,102.269196,8.852557,0.7,-120.346375,-1582.8022,0.00029475178,-3.0133543,8.217277,7.5657043,9.242186,8.385317,3.1393022e-06,0.3,5.791564,82.37201,82.357315,82.385635,82.511215,0.1720862,0.35312498,8.785117149353027,64.87005928357442
60,600000,83.26477404575512,-85.27022,0.0,-10.68434,-0.18470076,6.883243,1.0,2.4059577,-6.779572,1458.5437,343.7953,15.952132,101.86109,101.91887,101.53273,101.919205,16.282114,0.7,-112.74907,-966.934,0.0018461817,-3.5364566,4.9860063,3.7275386,2.1275856,2.736018,1.7462299e-09,0.3,5.6731706,79.723145,79.69432,79.72211,79.82505,0.15570085,0.42031246,8.426098585128784,65.94142662684122
61,610000,83.08531506331528,-86.650925,0.0,-36.64826,-0.18150975,7.116614,1.0,1.4150062,-4.893168,1199.2888,57.029545,17.334661,99.727844,99.76446,99.63304,99.75291,26.278,0.7,-115.80197,-1616.0082,0.0012214072,-2.7474065,1.5674978,2.4063609,2.5924172,2.3658998,1.5973811e-06,0.3,5.6489515,80.98311,81.15573,81.11714,81.180275,0.2515763,0.42499998,9.020590782165527,67.02477296590806
62,620000,83.515180514204,-83.99881,0.0,-27.380363,-0.28480574,8.868997,1.0,2.163365,-13.179689,1442.595,88.49529,22.101505,100.88985,100.84919,101.48197,100.76416,17.351398,0.7,-112.26452,-1151.096,0.00055109296,-3.8067617,1.732043,0.83936656,3.2423058,3.465753,3.0367112e-06,0.3,5.608848,78.38135,78.564674,78.597946,78.67305,0.27374786,0.3953125,8.691073656082153,68.10353448390961
63,630000,81.7158949762286,-85.497635,0.0,-13.36372,-0.26105702,8.292172,1.0,2.330813,-17.396133,3476.3625,133.9553,23.293694,102.46337,102.400345,102.18764,101.83705,9.155139,0.7,-114.527374,-1258.5204,0.0030651728,-4.3867974,17.675493,17.086287,18.517248,17.589415,1.9398867e-07,0.3,5.652528,79.913445,79.85724,79.72031,79.7397,0.21231532,0.48906246,8.861427068710327,69.18502294619879
64,640000,82.16420526111588,-85.12627,0.0,-81.54468,-0.36891672,6.636094,1.0,0.85202885,-3.0718384,1799.8085,19.745464,19.942612,101.626816,101.571655,101.62354,101.513725,10.625043,0.7,-111.43849,-1226.4602,0.0028480757,-4.322392,3.831789,5.1463842,5.0105734,7.6838555,8.3138005e-08,0.3,6.012641,79.17804,79.28972,79.269455,79.22929,0.21309672,0.540625,8.466936588287354,70.25637104908625
65,650000,82.92650696609417,-85.34712,0.0,5.5705366,-0.53678125,12.371491,1.0,1.2188002,-0.32807088,1637.1681,44.149693,18.807678,101.712395,101.19008,101.498764,101.361984,4.819541,0.7,-111.86494,-911.74274,0.00428034,-2.7003675,-2.1218023,-1.6957386,-2.0114915,-2.0455544,1.0186341e-07,0.3,5.714264,79.81671,79.888565,79.50522,79.57229,0.11030985,0.45468748,8.563196182250977,71.33249563376108
66,660000,82.07243903111541,-88.32864,0.0,42.603592,-0.2421005,6.2830048,1.0,1.3514507,-17.521759,1996.6691,59.261528,22.786287,101.58441,101.07525,100.76854,101.36345,2.9467258,0.7,-116.93502,-1331.214,0.000170396,-6.8006735,14.455994,14.231861,15.959047,16.233921,1.1804514e-08,0.3,6.436439,81.97241,81.96308,81.751724,81.81328,0.10170671,0.48125,8.662371158599854,72.41112279494604
67,670000,77.77299452447104,-84.97935,0.0,-71.12131,-0.5251393,8.576857,1.0,1.1791947,-10.163309,1402.0052,83.45441,15.536555,102.811584,102.16509,102.609116,102.11719,6.09388,0.7,-111.17364,-1684.1901,0.0009864327,-2.5182493,0.44083452,2.016973,1.0285568,-0.731645,6.2864274e-08,0.3,5.4787116,79.609055,79.62597,79.78883,79.643265,0.13295616,0.43593746,8.137663125991821,73.47629448175431
68,680000,80.71635224162495,-84.32619,0.0,-6.7542944,-0.6119247,7.175959,1.0,1.9693792,-7.2053967,2063.3418,46.705276,20.82077,101.97091,101.23476,100.99617,101.03991,10.432185,0.7,-115.26905,-1658.5984,0.00013161846,-3.439291,2.406276,2.363758,6.2771173,5.9987445,2.3391797e-06,0.3,5.3630047,78.990654,78.83619,78.6654,78.76626,0.2788679,0.4453125,8.67179250717163,74.551371828715
69,690000,80.47758249910686,-86.325775,0.0,9.244419,-0.4763771,8.2006035,1.0,2.5015566,-2.806725,1917.3752,397.87402,20.703417,101.29683,100.723656,101.76959,100.676384,103.21402,0.7,-114.50397,-1161.3636,0.00046601548,-2.76155,0.5841036,0.054715157,2.7217875,2.5872586,2.1713204e-07,0.3,5.6685104,80.676025,80.789604,80.96147,81.02623,0.50501007,0.42031252,8.315223455429077,75.62040388584137
70,700000,75.26014535651304,-86.17606,0.0,14.784325,-0.30736697,7.5163383,1.0,0.64076304,-17.464798,1360.6912,10.966964,17.096703,99.29401,99.34646,99.6807,99.5524,9.027931,0.7,-113.37044,-1235.8611,0.0009947456,-4.7452416,16.962654,15.444571,15.757047,16.360174,9.305659e-08,0.3,6.1196218,80.03682,80.216,80.35365,80.34885,0.1709744,0.4296875,8.126859903335571,76.68916219075521
71,710000,71.31943865124192,-85.9662,0.0,-23.260654,-0.59367687,9.670011,1.0,1.6334562,-22.619837,1894.6978,69.694336,20.749846,102.37855,102.44275,102.58303,102.584076,13.39269,0.7,-115.23815,-1327.3816,0.0011116692,-2.7187843,13.0413265,14.0968485,14.746115,14.567822,1.3886719e-06,0.3,5.755177,80.23303,80.28572,80.31114,80.40895,0.17043556,0.36874998,7.8950355052948,77.75486807028453
72,720000,79.60499614776991,-83.82883,0.0,-41.398323,-1.0507702,6.804878,1.0,1.2649448,-5.9842577,2237.2983,23.411053,22.811108,100.77798,102.819244,101.46921,102.58346,5.0809793,0.7,-116.75043,-1466.3595,0.00015050173,-5.150023,5.429211,3.9063826,4.880527,3.8792934,1.4144462e-07,0.3,5.7702103,78.20598,78.128876,78.168335,78.24758,0.14135596,0.4078125,8.446378469467163,78.83001976410547
73,730000,80.4798308667937,-84.012695,0.0,-17.773182,-0.5647571,4.9277077,1.0,1.1464577,-8.534265,2260.8916,35.67719,20.447891,101.08024,100.83894,101.24481,100.96286,4.2531524,0.7,-110.3408,-1214.463,0.0007924186,-5.118829,5.052743,6.443799,7.273842,8.177193,1.6298145e-08,0.3,6.1007633,78.064575,77.92893,78.039444,78.0014,0.113462776,0.45625,8.558054685592651,79.9089920202891
74,740000,82.66339275427639,-84.30925,0.0,-85.064156,-0.33848318,5.164949,1.0,2.206399,-6.991493,2021.2415,91.87839,22.033808,100.35913,100.2462,100.545555,100.47612,10.817985,0.7,-118.359726,-1496.1367,5.9559126e-05,-5.033098,4.175296,5.3869762,6.137175,5.424056,4.383549e-06,0.3,5.7111597,78.56473,78.50479,78.326,78.371056,0.13160813,0.44374996,9.118552923202515,80.99631301164627
75,750000,81.58288171988198,-82.81242,0.0,6.072444,-0.37278947,6.161431,1.0,2.1565094,-4.947322,1914.334,56.130985,20.21412,100.06946,99.56089,101.08573,100.707436,17.786617,0.7,-113.135765,-1569.8582,0.0035146659,-4.8093863,1.221532,1.2210346,0.2643302,-1.682757,4.8006414e-06,0.3,5.7391405,77.15621,77.18441,77.21984,77.16196,0.27678508,0.4453125,8.641609907150269,82.07683222691217
76,760000,84.37711615072399,-86.98822,0.0,-18.276276,-0.46737757,5.4050617,1.0,2.0602202,-16.522823,2041.1652,176.98611,19.764822,100.092415,99.891716,100.09247,100.01219,6.9877076,0.7,-115.09385,-1397.4722,0.000318121,-4.2865705,15.11338,12.864209,16.75954,16.013966,8.6217185e-08,0.3,5.7155175,81.265884,81.32646,81.37784,81.398926,0.19259052,0.39999998,8.501036167144775,83.1545738418897
77,770000,83.97318344587596,-86.739716,0.0,23.250889,-0.934597,6.232536,1.0,0.7045639,-16.178556,1851.3683,45.168915,18.200981,100.51101,100.82573,101.162315,100.24843,1.4565918,0.7,-112.80544,-1351.1469,0.00094309973,-5.2500086,10.90648,11.60764,10.812012,11.964649,4.710164e-08,0.3,6.0625505,80.8309,80.81326,80.89991,80.92477,0.07597396,0.4453125,8.72646975517273,84.23598471879959
78,780000,84.22183895802607,-86.5775,0.0,-12.088634,-0.7520347,5.1817713,1.0,0.6738829,-9.141384,1403.1707,23.702076,17.140255,100.95667,100.62871,101.26214,101.18002,2.995017,0.7,-111.15143,-1416.2593,0.00034270604,-5.6512976,2.7282624,2.6750004,6.144062,1.7970581,9.439464e-09,0.3,5.978362,80.70899,80.76713,80.89863,80.81134,0.090156995,0.48281246,8.758553981781006,85.31678827206294
79,790000,82.34820398836443,-84.93556,0.0,-73.17403,-1.0329775,8.991651,1.0,1.6501007,-15.58037,1424.4714,76.30197,15.420542,101.126686,101.42157,101.2364,100.74698,6.6872945,0.7,-110.70844,-1738.9456,0.00012171321,-6.670226,9.263622,7.748145,7.896588,6.9208574,9.052456e-08,0.3,5.5682616,79.5049,79.45047,79.42258,79.49988,0.1399459,0.45624995,8.99859356880188,86.39626025358835
80,800000,81.87880176068984,-86.47619,0.0,5.256893,-0.77678937,10.285088,1.0,1.8023812,-11.255643,2349.5635,75.30733,20.817692,100.20629,99.6414,100.52738,100.70408,18.322712,0.7,-115.850685,-1815.8062,3.8489736e-05,-8.882908,10.671365,12.415907,13.133877,12.856344,9.782961e-08,0.3,6.01301,80.47723,80.47091,80.47014,80.43702,0.28955394,0.4953125,8.832457542419434,87.48100487391154
81,810000,79.52868246444392,-82.85437,0.0,-17.24662,-1.2016538,5.643918,1.0,0.97385454,-13.525777,2024.3848,22.972347,19.627197,101.930466,102.08912,102.16632,101.743965,4.6696334,0.7,-115.59515,-1460.2365,0.0026010682,-3.5123708,6.319416,6.5097694,8.470924,6.838177,6.9307866e-08,0.3,5.8462324,77.16919,77.124695,77.033516,76.99812,0.121596724,0.46718746,9.06755781173706,88.56524908145269
82,820000,82.41431865945073,-84.136314,0.0,2.685093,-1.2820956,13.147717,1.0,2.1888964,-11.67708,1689.6335,140.17967,16.033964,102.31263,102.08769,101.26743,101.463264,5.444227,0.7,-114.49161,-1492.343,0.012243473,-3.649804,1.5740155,1.0714309,1.2971538,2.223731,1.3095956e-05,0.3,5.8752847,78.290825,78.29779,77.91783,77.88336,0.20015934,0.528125,8.722034215927124,89.64439745346705
83,830000,79.28736134860823,-85.30083,0.0,-61.260315,-0.90735674,11.15555,1.0,1.4240054,-14.532761,2181.762,64.94243,18.504229,100.95239,101.3626,101.06638,101.02833,6.4330764,0.7,-111.713684,-1713.8303,0.0028699664,-4.119971,14.89954,15.842005,13.940603,15.334386,4.541944e-08,0.3,5.5815525,79.74318,79.70892,79.60679,79.66318,0.15065973,0.4671875,8.574208498001099,90.72128613789876
84,840000,81.85030816297785,-83.34332,0.0,-65.79236,-1.3356463,11.605538,1.0,7.601101,41.00877,1895.0305,1454.3447,16.916254,100.12709,100.05504,100.32011,100.2426,227.17542,0.7,-111.27731,-1653.14,0.00015193975,-5.1835365,-16.044863,11.802333,11.8402605,10.552639,3.22744e-07,0.3,5.544407,77.999146,78.14455,78.09207,78.211205,1.0301453,0.475,8.820706605911255,91.79993569850922
85,850000,78.26301482454261,-85.10286,0.0,-38.458755,-1.7584046,7.763668,1.0,1.4725019,-1.6598439,1926.5162,107.490425,19.561188,98.84694,98.9039,98.81291,98.690414,26.965086,0.7,-112.81397,-1617.3143,9.253819e-05,-5.670351,4.3609443,3.742947,3.0201395,3.0381122,1.2777745e-07,0.3,5.7259626,79.46888,79.4942,79.41069,79.33507,0.22930175,0.48593748,8.585004329681396,92.87890892028808
86,860000,83.36907171634051,-86.52844,0.0,-19.428951,-0.9928061,5.4601784,1.0,1.5768328,-3.8051572,2330.0393,38.747437,17.337229,99.67672,99.255905,99.91411,100.14711,9.374358,0.7,-112.435135,-1909.9259,0.001491518,-6.152296,6.5809646,7.2366834,8.077821,7.4499164,2.514571e-09,0.3,5.867118,80.73854,80.71034,81.18495,80.97089,0.20382431,0.42343748,9.033694744110107,93.95880957047144
87,870000,83.33672602041015,-79.760574,0.0,13.746178,-2.5965621,18.194803,1.0,4.3086667,-3.4576802,1888.8718,305.59952,18.893187,100.73203,100.37262,99.994194,100.08787,7.263131,0.7,-115.207275,-1279.9788,0.0004227113,-6.519021,0.41442358,1.2560133,-0.9194648,0.07141483,1.3201498e-08,0.3,5.53624,74.24017,74.296265,74.15578,74.41665,0.18135972,0.3984375,9.067830085754395,95.04408558209737
88,880000,83.61493234493028,-84.0052,0.0,15.039519,-1.1470072,6.3482275,1.0,0.9090977,-16.991581,1677.9506,19.243996,17.201595,99.02893,99.14432,98.873924,98.635025,6.4171877,0.7,-109.49272,-1682.477,0.00040682155,-2.6815836,13.823568,13.758277,13.425433,13.307422,3.6950226e-08,0.3,5.927862,78.200035,78.1967,78.09534,78.13823,0.13127199,0.47187498,8.633933544158936,96.11882497866948
89,890000,81.60117472997953,-83.30731,0.0,40.131176,-0.3579043,7.9189653,1.0,1.8889313,-15.323893,2248.7683,53.893616,19.861698,99.0212,98.75928,99.518425,99.3641,5.1656013,0.7,-111.87119,-1896.6525,0.0025686556,-4.805254,9.327261,8.333397,9.101808,8.976962,1.1445372e-07,0.3,5.8751454,77.67011,77.42155,77.71434,77.595566,0.18301032,0.4953125,8.466642618179321,97.18730005423228
90,900000,83.5578290890273,-86.0836,0.0,-23.886242,-1.4751074,7.594398,1.0,4.2962427,-3.9617152,1852.9447,684.3639,18.317097,98.57915,99.76689,99.140236,98.45107,17.321697,0.7,-115.852615,-1361.5372,0.0050627254,-1.8694439,2.757347,3.3822238,4.7810073,4.1172333,2.9511284e-07,0.3,5.875557,80.2021,80.273674,79.753586,80.00081,0.23980682,0.4296875,8.485232830047607,98.25455339749654
91,910000,77.46825653643113,-86.01442,0.0,-10.538827,-1.3429924,8.956351,1.0,0.85798585,-21.14277,2224.2578,16.567886,18.532372,99.629005,99.74166,99.53122,99.58411,6.6569524,0.7,-110.72161,-1671.7833,9.961572e-05,-2.6965876,16.092722,15.558513,15.904746,15.35859,7.1960386e-07,0.3,5.8324065,80.20552,80.189354,79.99918,80.09183,0.18790224,0.4640625,7.897132396697998,99.3102622548739
92,920000,77.20592811191196,-84.13248,0.0,-11.360069,-0.421901,7.1149936,1.0,1.8824168,0.9962263,2254.3137,133.87674,17.882202,99.519455,99.8478,100.18536,100.103165,12.994787,0.7,-109.16406,-1610.75,0.004833553,-8.192976,-3.2642753,-3.904567,-2.2497313,-1.4853524,2.5566553e-05,0.3,5.774025,78.50692,78.4908,78.62332,78.66766,0.19809353,0.39062497,7.5337748527526855,100.34316883484523
93,930000,82.56357369502386,-81.944275,0.0,-0.16905212,-0.3241805,7.0261507,1.0,1.1771588,-4.349072,4433.0986,59.410942,21.263702,99.852295,98.46724,98.88966,99.18527,12.060524,0.7,-115.91112,-1395.3468,0.00080093957,-8.467332,5.5604305,5.4236836,4.339468,5.4534574,4.43717e-08,0.3,5.7518725,76.189766,76.1349,76.03829,76.03148,0.17863601,0.490625,8.364218473434448,101.40789784193039
94,940000,84.64915869606108,-82.52754,0.0,7.851623,-0.27686772,7.7526307,1.0,1.3092849,4.259104,1834.3574,34.11814,17.491728,98.68786,98.18036,98.39902,98.33782,5.7669654,0.7,-111.04653,-2063.5198,0.0005788845,-6.0372257,-3.596468,-2.1698742,1.1850322,-0.4327476,3.6950226e-08,0.3,5.7422094,76.84067,76.78173,76.867676,76.860275,0.1963841,0.521875,8.197580814361572,102.4756817738215
95,950000,84.19795925895012,-87.68857,0.0,-18.106318,-0.19780312,6.1893044,1.0,1.0453682,-18.618687,2340.6096,24.22448,20.19648,100.302956,99.906456,100.23154,100.313225,3.129986,0.7,-113.23146,-1574.766,0.0001675522,-3.2040854,11.177878,12.373362,10.49003,9.053127,8.074567e-08,0.3,6.3792586,81.46518,81.41577,81.37116,81.17624,0.12098406,0.49531248,8.290619134902954,103.54146569569906
96,955000,79.8493457815114,-84.30333,0.0,-59.324837,-0.30009556,6.978086,1.0,1.5967784,-10.000031,1809.9448,75.79701,18.265732,100.42292,99.71715,99.263756,99.15444,6.980932,0.7,-112.26801,-2169.6768,0.004156112,-4.745218,0.53910637,1.3336059,0.54017997,1.3837394,2.0067848e-06,0.3,6.0841436,78.26927,78.291885,78.22477,78.21537,0.14138298,0.43124998,7.707921266555786,104.13582847913106
97,960000,84.04600437764314,-81.78862,0.0,6.5218716,-2.404979,17.6583,1.0,1.2588108,-4.385322,1630.7117,39.009964,18.437532,99.15596,99.06797,99.28965,99.0486,8.53608,0.7,-114.35205,-1398.5095,0.0004960511,-4.284559,4.5626006,4.208742,3.3049035,3.4149384,3.6670826e-06,0.3,5.861539,76.046646,76.13777,75.83237,75.86455,0.14274517,0.4875,8.219718933105469,104.74039569298426
98,965000,79.77453703980598,-85.80167,0.0,-31.898577,-1.0165366,7.6390824,1.0,1.2103257,-10.504134,1757.5674,90.8295,15.737449,98.65606,98.68169,98.28808,98.16855,5.3637414,0.7,-111.71415,-1704.26,0.0015825646,-4.7620955,9.856222,8.619879,9.583653,9.589286,4.0233136e-08,0.3,5.7300787,80.19298,80.157394,79.905624,79.73508,0.10263049,0.5296875,7.837454795837402,105.33498533169428
99,970000,81.71946173579737,-86.32375,0.0,-29.657806,-1.0962144,7.292604,1.0,1.1371047,-6.2164726,1814.399,38.01287,16.119907,97.79514,97.92099,97.927124,97.611534,17.066027,0.7,-111.50619,-1790.1924,0.00044274732,-3.2669916,2.7436109,2.019093,1.5729601,1.7415023,1.1925394e-05,0.3,6.044723,80.477875,80.44655,80.53079,80.2668,0.2904088,0.5265625,8.106459617614746,105.93421180645625
100,975000,83.17662862100555,-81.11092,0.0,-103.230034,-1.9725436,7.7750983,1.0,0.8188433,-19.211449,2112.177,22.33543,17.497936,99.74495,100.07306,99.90899,100.00036,6.915945,0.7,-112.75443,-2198.7192,0.0004248892,-4.0720286,9.428399,7.1002283,10.1843815,10.073401,1.4715898e-05,0.3,5.4153876,75.84956,75.784134,75.854034,75.80403,0.15061346,0.4296875,8.39907717704773,106.53916909694672
101,980000,77.63003036798825,-85.57266,0.0,-7.9804764,-0.5603204,7.2811723,1.0,0.93188655,-20.140276,2603.4185,39.329247,18.332506,98.09032,98.672104,98.46173,98.675644,16.195305,0.7,-115.74391,-2474.679,0.00045731224,-3.4630046,16.656162,15.663456,16.081087,15.557625,1.9016444e-08,0.3,5.944238,79.70329,79.71269,79.682816,79.45987,0.14854601,0.51406246,7.74027681350708,107.1333677927653
102,985000,80.80822826789135,-82.13895,0.0,-24.079212,-1.7405558,7.729889,1.0,1.4437988,-13.017763,2438.415,48.499016,17.05691,98.32311,98.2311,98.67189,98.3355,2.585412,0.7,-109.53847,-1811.3406,0.0013570134,-4.9329815,7.540908,7.981823,10.373418,9.292623,4.172325e-08,0.3,5.7133718,76.51744,76.54933,76.721375,76.60961,0.08677661,0.5109375,7.887819051742554,107.7326636393865
103,990000,80.72192470836696,-83.7135,0.0,52.46392,-1.6348696,8.444163,1.0,1.0910324,0.2953987,1672.5021,51.21751,17.933632,99.65126,98.79336,99.04201,99.131195,3.4975598,0.7,-111.15322,-1465.1685,0.0002740539,-7.4043455,8.011375,7.8903437,7.6481695,6.734516,9.305659e-08,0.3,5.9465294,77.87337,77.80032,77.64756,77.56523,0.095130935,0.5328125,7.942999839782715,108.33329685926438
104,995000,80.26340100834105,-84.66973,0.0,11.385476,-1.103294,7.630295,1.0,0.8648296,-14.963375,2627.295,58.94229,21.712835,99.22983,99.79745,99.87371,99.108696,9.330982,0.7,-111.08928,-1922.7109,0.00029527035,-1.2486837,9.670671,11.782644,9.49779,10.979365,4.1245253e-06,0.3,6.2979703,78.517624,78.55614,78.50737,78.45757,0.15225755,0.4828125,7.9800920486450195,108.93510429064433
105,1000000,83.88866492084523,-83.642426,0.0,-16.097374,-0.9986912,7.2514076,1.0,0.91565067,-6.0682216,1921.9087,25.181084,15.708443,98.696495,98.13379,98.85459,98.26441,6.479226,0.7,-109.81761,-2150.417,0.00020825682,-2.4824252,8.127939,7.1530294,7.551241,6.6354804,4.5828057e-07,0.3,5.958664,77.75801,77.850555,78.12794,78.01334,0.10544247,0.4125,8.233373165130615,109.53529780308405
