Xixo99/comfo/baselines/comfo7_perterbation_both_actor_and_critic/20230224_alphaQ0.0001/walker2d-medium-v2/COMFO7_s0_20230224_040937_walker2d-medium-v2_81.19.csv
,step,reward,actor_loss,alpha,alpha_loss,avg_conservative_loss,avg_smooth_loss,conservative_weight,critic_loss,max_actor_loss,max_alpha_loss,max_critic_loss,max_mle_prob,max_q1,max_q2,max_target_q,max_v,max_value_loss,max_weight,min_actor_loss,min_alpha_loss,min_critic_loss,min_mle_prob,min_q1,min_q2,min_target_q,min_v,min_value_loss,min_weight,mle_prob,q1,q2,target_q,v,value_loss,weight,eval_time,time
0,0,2.0753045183556114,,,,,,,,,,,,,,,,,,,,,,,,,,,,,,,,,,,,
1,10000,72.1252069767391,-37.00571,0.08338067,-4.2448273,0.00019897013,1.2885537,1.0,0.84620976,-6.7067976,33.225708,23.97219,18.622362,44.84171,45.351704,45.97813,45.658245,1.1306509,0.7,-59.644287,-28.762762,0.000117556556,-5.006747,1.5559955,1.0489082,1.4890828,1.7898451,1.7990097e-07,0.3,4.8224373,32.535835,32.556046,32.624023,32.194736,0.043523084,0.42343748,6.913602590560913,2.8874892512957255
2,20000,52.75856877831194,-56.90315,0.0057580774,-4.8417706,-0.00041999185,2.2649028,1.0,1.2917469,-13.872503,68.83421,112.22011,17.131847,74.43037,74.57551,77.29272,75.2873,4.539397,0.7,-83.75812,-51.316166,0.0004342799,-3.9791675,10.579527,9.91622,10.042446,9.585288,4.3121898e-07,0.3,5.1249485,51.8498,51.8192,51.834236,51.50016,0.108046725,0.4109375,5.278332471847534,3.9184913595517474
3,30000,66.87908330784047,-68.59059,0.00037874465,-10.600993,0.00022035615,2.9733837,1.0,1.2673087,-14.229301,83.89638,30.126087,18.798868,86.02429,85.756004,85.86392,85.43719,6.0089025,0.7,-101.179565,-94.163536,0.00022183685,-6.376349,7.2219896,8.625355,5.8334246,11.876054,2.7939678e-10,0.3,4.877286,63.788124,63.75123,63.821117,63.643867,0.13928889,0.49843746,7.213786363601685,4.977383148670197
4,40000,41.110632037550005,-77.36315,2.5978783e-05,-5.299562,-0.006215987,3.581087,1.0,1.2228978,-0.5416155,156.55284,18.905485,17.779121,95.83579,96.54538,96.90296,96.76031,3.906162,0.7,-111.08015,-95.592316,0.003397781,-4.6578984,2.059371,3.4073749,3.2978425,3.4993944,2.1391316e-10,0.3,5.2144985,72.014404,72.114075,72.0789,72.11257,0.11146106,0.42343748,4.2029054164886475,5.979453206062317
5,50000,70.92824208087794,-80.25019,1.8789664e-06,-12.045682,-0.0016418177,3.8730848,1.0,2.1785889,7.34863,161.29425,82.96969,16.344292,100.82429,100.954124,102.17526,100.95729,11.7010765,0.7,-113.77399,-160.88663,0.0014851419,-6.4123116,-0.9253347,-0.8370395,-1.5648129,-2.279753,6.690872e-06,0.3,4.971817,75.27954,75.27232,75.68913,75.51384,0.22627132,0.4359375,7.042457580566406,7.038358374436696
6,60000,63.65111702358721,-82.34832,1.3858838e-07,-7.285555,-0.0071525215,4.007154,1.0,2.4776874,-18.529104,151.2366,212.3328,19.939167,103.07091,102.62353,104.480606,103.46652,7.7221723,0.7,-116.28292,-183.5326,0.0018623904,-6.2922964,14.685664,13.6925535,11.296208,13.661176,1.513564e-05,0.3,5.4782944,76.89224,76.82467,77.05119,77.12274,0.21037856,0.36718747,6.200073003768921,8.077695604165395
7,70000,69.47950825732265,-86.01174,1.0715283e-08,-5.4649663,0.0070548817,4.0694466,1.0,2.1996353,-22.589064,289.27554,63.527935,19.561052,105.09152,105.54721,104.367,104.93936,3.6041563,0.7,-116.5782,-191.39905,0.00051134464,-7.1639295,13.6538315,12.973888,7.781191,11.25485,1.7628073e-06,0.3,5.433176,80.599014,80.631,80.11948,80.31561,0.107533514,0.44062495,6.757702827453613,9.123124194145202
8,80000,74.70328350678734,-85.142685,8.619118e-10,-1.0213326,-0.00048737414,4.0540295,1.0,2.3368242,-13.649858,238.16995,165.74332,19.261864,104.55597,104.16184,104.72416,104.44861,3.9766536,0.7,-116.11663,-197.47632,5.24114e-05,-3.5735345,8.446595,10.661827,12.270894,12.302685,1.7114799e-07,0.3,5.789846,79.42375,79.40717,79.534966,79.591064,0.18178478,0.36874998,7.466871500015259,10.189350771903992
9,90000,72.8784352866149,-84.8566,7.212248e-11,-20.11778,0.004232528,4.210293,1.0,1.7088815,-23.402845,330.1332,39.515198,22.618765,104.493355,105.033516,104.52098,104.80114,11.123994,0.7,-118.458984,-277.57455,0.0011927107,-5.744712,16.689312,20.125395,16.837513,12.675548,4.0745362e-11,0.3,5.027798,79.96192,80.032776,80.05894,79.921936,0.2079376,0.4359375,7.107449293136597,11.245866258939108
10,100000,67.36414845605994,-84.87703,6.257566e-12,-9.871894,-0.0020354856,4.448124,1.0,1.5797079,0.083578676,292.48898,60.182236,16.719479,104.52658,104.77531,104.45393,104.29211,4.2042913,0.7,-116.97734,-284.5188,6.307481e-05,-5.366455,-1.3702532,-1.0045447,-2.7897048,-1.3614852,2.0539737e-07,0.3,5.5239906,79.39003,79.46617,79.496864,79.49953,0.1276644,0.4140625,6.649733066558838,12.29648220539093
11,110000,73.59386184429373,-87.02788,5.692514e-13,0.098934054,-0.0038302902,4.0014453,1.0,1.2515343,-6.5834274,342.64514,39.21464,18.447987,105.6006,105.02326,104.56352,104.96501,6.701307,0.7,-117.93124,-221.897,0.0010939138,-2.986166,8.100764,8.367261,6.411031,6.8909693,7.4463173e-07,0.3,5.742566,81.43826,81.36383,81.41486,81.34182,0.1314125,0.47031248,6.985478162765503,13.34312962293625
12,120000,72.63563317082583,-85.86981,5.170738e-14,-14.377756,-0.0046788566,4.566694,1.0,2.590828,9.634387,352.79776,230.47437,16.385523,103.4669,103.681404,103.51167,103.49677,5.5455513,0.7,-119.038925,-378.19614,5.447684e-05,-4.41748,-8.614704,-10.851528,0.94332206,-5.9579344,3.1553208e-07,0.3,5.2414055,80.742905,80.63744,80.59888,80.46859,0.20459749,0.5328125,7.103657245635986,14.39745866060257
13,130000,75.73451158948572,-82.95108,4.918231e-15,-14.422819,-0.007899028,4.3328867,1.0,3.3066237,-4.501279,381.79388,137.02675,18.048779,104.054955,104.01784,103.6219,103.62804,6.1095014,0.7,-118.60086,-337.5801,0.0005253416,-4.361024,3.15541,0.9017405,1.8925023,1.6228157,1.172783e-05,0.3,5.4082184,77.659676,77.5531,77.357574,77.458786,0.17141187,0.45,7.534994840621948,15.464123022556304
14,140000,72.98066476431838,-88.18031,4.699473e-16,-11.475941,0.0033026503,4.1100283,1.0,1.5265331,-14.458649,463.45474,25.128338,16.054905,103.17919,103.357346,103.17973,104.10127,3.8507931,0.7,-116.863144,-305.99167,0.0008992281,-5.132598,11.594717,11.369437,10.96301,11.799813,6.8492955e-06,0.3,5.591629,82.66695,82.75221,82.20141,82.41832,0.14921832,0.43281248,7.060830116271973,16.520217764377595
15,150000,79.49953826714888,-88.98939,4.6318574e-17,-7.152849,-0.00029562935,4.2064652,1.0,1.617015,-21.055511,464.00812,55.060272,16.317991,104.05945,103.74777,104.13527,104.06541,5.4390287,0.7,-114.332695,-342.22418,0.0013940567,-6.5747075,20.52627,20.571333,21.061754,20.583765,5.106151e-07,0.3,5.591796,83.54248,83.48979,83.23538,83.24334,0.15050831,0.48281246,7.806155443191528,17.589648441473642
16,160000,74.7916754084847,-89.29241,4.5801284e-18,-1.0833921,-0.0055991667,4.0611267,1.0,2.1663413,-14.055624,447.65442,155.2135,17.66079,102.24101,102.52035,103.20886,102.617546,7.3067026,0.7,-115.299934,-382.9743,0.001021449,-3.4474735,13.267069,16.00503,12.616796,13.914031,8.919044e-07,0.3,6.09128,83.252785,83.317825,83.4982,83.45195,0.18415317,0.45156246,7.394741058349609,18.65237318277359
17,170000,70.75471019254722,-85.37851,4.6869346e-19,-24.816017,0.0028784163,4.1119037,1.0,1.4767082,-5.145542,568.11304,30.266163,31.379625,104.37117,104.25768,104.065994,104.02455,3.338112,0.7,-111.935715,-457.31412,0.00016661012,-5.654458,4.3655744,1.6275625,1.1728904,3.423841,1.4144462e-09,0.3,5.5064783,80.02759,79.99309,80.0146,79.91936,0.15716285,0.4890625,6.952929258346558,19.708587380250297
18,180000,67.6330316101702,-87.02017,4.963453e-20,-0.35586047,-0.007334181,4.534065,1.0,2.3049903,-19.151495,861.576,196.3664,19.07916,101.3977,101.25791,100.94967,101.16123,11.765202,0.7,-112.60391,-505.5557,0.0040351055,-3.4373517,19.67696,17.928514,18.617514,17.85109,4.0745362e-11,0.3,5.7830944,81.37497,81.34598,81.05584,81.22589,0.23994975,0.4203125,6.5416905879974365,20.75747002760569
19,190000,77.94793348210364,-86.23108,5.3487227e-21,-10.641684,-0.0039471905,4.4952955,1.0,1.4366432,-4.2593455,574.4359,22.747744,18.32977,102.773285,103.4399,102.24126,102.025215,8.361052,0.7,-117.50445,-696.316,0.0010322679,-2.869955,0.08898592,0.664682,0.47525582,1.9047095,1.177541e-08,0.3,5.7384267,80.59219,80.53471,80.32328,80.41673,0.14946839,0.4546875,7.586371421813965,21.820455833276114
20,200000,73.89524452114136,-88.583206,5.9470217e-22,-16.313255,-0.0069498466,4.2331705,1.0,2.3798845,-18.923357,571.81995,195.86159,16.858276,105.581276,105.40349,105.7623,105.7408,10.793893,0.7,-114.94189,-456.44775,0.00030945666,-4.744565,17.190306,16.179502,17.208601,15.740726,9.782961e-08,0.3,5.8956766,82.862595,82.773056,82.658226,82.604866,0.21688229,0.40781248,7.304244518280029,22.882550036907197
21,210000,73.36880019560434,-87.78697,6.573014e-23,-7.434947,-0.0039810934,4.1225724,1.0,4.151783,-24.237186,675.97253,457.24576,20.491499,102.58561,102.75456,102.56178,102.59782,8.585558,0.7,-116.09245,-686.0362,0.000729556,-8.595905,22.061459,22.110956,22.473862,22.552843,1.1145038e-05,0.3,5.918498,81.93057,81.92538,82.02494,82.15312,0.17271073,0.39687496,7.172966480255127,23.94370937347412
22,220000,78.65565159263245,-87.99286,7.676131e-24,-6.0586357,-0.0050528534,3.8625786,1.0,1.3154308,-21.803165,1004.9638,60.819706,18.09626,100.98041,101.371346,100.966736,100.9058,11.783331,0.7,-117.36043,-763.15295,0.0013099317,-5.9915466,18.147503,16.891903,21.689861,21.159601,3.5047533e-06,0.3,5.639681,82.36759,82.44638,82.32747,82.44536,0.17570055,0.4015625,7.656458377838135,25.007532771428426
23,230000,78.2027607743711,-87.52255,8.958842e-25,1.3166666,0.0013505322,3.9943454,1.0,2.7528694,-9.771026,648.0443,147.51117,17.252775,104.99292,104.83171,104.35477,104.43123,2.5153482,0.7,-114.80073,-523.74066,0.0020002408,-4.387969,4.262528,4.9021897,2.3800006,2.359402,2.514571e-09,0.3,5.847369,81.84363,81.70875,81.268394,81.35463,0.11175877,0.46875,7.563369274139404,26.072326068083445
24,240000,66.12161426010954,-84.85677,1.0560964e-25,-6.317394,-0.009013062,4.039888,1.0,1.4144253,-7.3534746,632.2279,59.598667,21.924564,102.901665,102.895004,103.214775,103.17977,15.631789,0.7,-122.34822,-781.8681,4.4601038e-05,-4.644952,0.88696456,1.9129276,1.4757026,1.858193,1.5759724e-07,0.3,5.5919805,79.2577,79.334,79.339935,79.21036,0.19755213,0.4375,7.071680545806885,27.129724049568175
25,250000,80.0453436114729,-85.51269,1.2834355e-26,-9.728017,-0.006031962,4.7568607,1.0,2.105081,-5.874809,765.77625,93.41937,16.829733,102.07365,102.148254,102.0497,102.650856,6.8118277,0.7,-112.83486,-507.39774,0.0017914046,-3.5058417,5.8248596,5.4223533,4.3313217,4.014263,3.319513e-06,0.3,5.4530764,80.029465,80.01898,80.05676,80.131744,0.17803773,0.453125,7.937549829483032,28.1987966577212
26,260000,77.92746993110137,-85.545746,1.6452934e-27,-41.22209,-0.0068981177,4.292032,1.0,2.2099767,-10.340574,751.05646,66.886246,17.561068,103.407936,103.44386,103.80059,103.70153,8.197786,0.7,-115.77304,-727.5411,0.0021573454,-2.3875904,4.3771443,7.5284576,6.837864,7.649809,2.521556e-08,0.3,5.5638247,80.051926,80.066284,80.002365,80.18064,0.19768025,0.41562498,7.441279411315918,29.256001007556915
27,270000,79.91294270744335,-87.708405,2.1491428e-28,-4.703432,-0.009713256,3.9790056,1.0,1.6510906,-8.281348,786.97833,60.467068,19.69772,102.40696,102.39678,102.18221,102.46908,10.5220585,0.7,-114.720215,-865.45056,0.00026957114,-6.314336,5.903944,6.542889,5.902151,5.8747735,4.685554e-06,0.3,5.459382,82.28957,82.32956,82.285835,82.47953,0.18293902,0.4640625,7.84546971321106,30.322547686100005
28,280000,67.43127958008893,-89.39963,2.8526838e-29,27.57666,-0.0030818542,3.918677,1.0,1.1177523,-14.007827,1980.8525,62.885826,24.940516,104.556984,104.558,104.29982,104.54375,7.9824247,0.7,-119.09894,-768.54004,0.00061360706,-3.169776,6.630559,7.2641277,7.55608,6.2968793,1.1533674e-06,0.3,6.2731237,83.1985,83.26561,82.90936,83.01222,0.11864763,0.5078125,6.81009578704834,31.372616028785707
29,290000,69.03643775912673,-85.410484,3.93245e-30,-16.041378,-0.008858911,4.3763824,1.0,2.683486,-12.748604,782.5731,262.1473,19.04722,101.58013,101.192375,101.60245,101.3205,3.6385853,0.7,-116.506355,-686.1043,0.00040456327,-3.90059,4.066501,4.916485,4.5556545,3.2428963,1.7968704e-08,0.3,6.245655,79.2663,79.191925,79.32964,79.272095,0.10826178,0.490625,6.918009042739868,32.42199015220006
30,300000,81.79715673829949,-85.04348,5.239163e-31,-7.8324637,-0.009936639,3.8231313,1.0,1.1013571,0.450419,783.9492,40.88012,18.870274,103.98665,104.987915,104.252075,103.99237,5.011835,0.7,-112.840256,-637.29895,0.00026168674,-5.962575,0.8533463,-0.1834479,-0.6007086,0.5481346,9.782961e-08,0.3,5.5364437,79.554924,79.50924,79.53842,79.549866,0.12773831,0.46093747,8.637104749679565,33.49554547866185
31,310000,70.66785646957801,-86.80481,7.167013e-32,-13.55455,-0.006046455,4.2571564,1.0,1.678946,-15.275175,875.65625,105.03819,18.025953,103.48921,103.23189,103.437996,103.37736,4.9634905,0.7,-120.87859,-674.09454,7.141777e-05,-4.209528,11.752863,12.86752,12.186668,11.601793,2.8926124e-06,0.3,5.543459,81.288864,81.28879,80.921524,80.9955,0.13483348,0.43124998,6.740336179733276,34.54495806694031
32,320000,79.15321095408895,-85.24373,1.0411124e-32,-38.469116,-0.011955561,4.3991685,1.0,2.1051755,-6.4056234,1020.85706,136.062,17.51215,101.426575,102.35407,101.38991,102.81097,2.373539,0.7,-116.23889,-770.499,0.0022980345,-4.0833087,3.1731796,2.2425137,5.9257145,5.5615153,1.007925e-06,0.3,5.8077083,79.556244,79.541214,79.829666,79.90672,0.12081116,0.409375,7.642162084579468,35.60957654714584
33,330000,77.34362118707195,-86.73291,1.5209989e-33,2.6152897,-0.017327115,5.0822167,1.0,3.0207734,-24.490513,860.614,100.631805,18.934116,101.79607,101.96217,103.03051,102.98804,21.494307,0.7,-116.803024,-903.5593,0.011073953,-5.604823,19.17436,20.455854,22.669964,21.51671,5.7534085e-06,0.3,5.8487945,80.92523,80.9108,81.81944,81.74635,0.27751115,0.340625,7.4835779666900635,36.671497575442
34,340000,81.66043637075072,-86.12016,2.247109e-34,-18.13762,-0.0093892235,4.173475,1.0,3.2074146,9.267839,935.2901,143.15591,19.17847,103.93667,103.45492,103.27605,102.767365,10.358457,0.7,-114.96998,-802.75995,0.0028934344,-4.5569305,-2.711762,-4.994747,-4.622328,-3.1939762,0.0,0.3,5.657634,80.54152,80.54152,79.90822,80.09561,0.17359197,0.5109375,7.795348167419434,37.731617256005606
35,350000,79.54868739594804,-88.09134,3.396279e-35,6.683478,-0.011687729,4.1700263,1.0,0.9377461,3.8102815,1332.23,41.819134,18.839073,102.67587,102.29772,101.90537,101.89479,4.1306024,0.7,-116.77447,-764.85724,0.0005046188,-4.3491254,-0.45368928,1.0915403,-4.1880283,-1.9328902,6.9162807e-06,0.3,5.934407,82.227036,82.2067,82.12987,82.10415,0.111712076,0.5421875,7.700308322906494,38.799076068401334
36,360000,72.11578453409237,-81.26137,5.192453e-36,-43.846497,-0.014231915,4.167231,1.0,2.1542702,-4.867491,1157.9213,172.68875,19.657747,102.79746,102.80925,102.55679,102.54272,6.3619633,0.7,-115.62788,-1107.7631,0.0011593495,-4.3176336,2.3014917,3.0493276,3.3818774,2.8823552,1.1265977e-06,0.3,5.4836226,75.83815,75.893394,75.985504,75.83902,0.14088209,0.465625,6.942514419555664,39.855283896128334
37,370000,74.00383850264465,-87.20036,8.234164e-37,-14.987247,-0.011307942,3.834372,1.0,1.846359,-19.311268,934.93463,67.56807,19.428753,102.134,102.13059,102.335625,101.95337,8.815813,0.7,-117.442,-919.09705,0.00480918,-7.6451044,12.189232,12.055138,12.291619,11.6808605,2.0995678e-06,0.3,5.654148,81.69736,81.6644,81.896164,81.709595,0.19444688,0.4984375,7.080934286117554,40.907253356774646
38,380000,82.87287830357177,-86.39424,1.2707619e-37,4.531434,-0.007756938,3.7722394,1.0,1.2393875,-3.322435,992.6861,39.796967,18.96804,102.26509,100.964264,101.222176,102.581406,6.7100506,0.7,-116.01116,-1060.9067,0.00093277777,-4.5405245,2.691811,0.86873287,1.1261505,0.0045797825,6.9307866e-08,0.3,5.7005835,80.80391,80.78808,80.52531,80.64528,0.15556781,0.41249996,8.156630516052246,41.980494666099545
39,390000,80.1179789057277,-87.41215,2.105828e-38,-53.726234,-0.0068438845,4.185653,1.0,1.5582249,-7.6575775,874.26886,57.690693,17.389055,104.36465,104.712654,104.28478,104.124825,8.279905,0.7,-115.1386,-986.9628,0.0018155663,-3.857048,4.762197,6.794264,7.0939646,7.3792067,1.4913821e-05,0.3,5.7383733,81.70167,81.77847,81.77869,81.85354,0.1741671,0.4265625,7.8201940059661865,43.05160452127457
40,400000,80.18026703311808,-83.32665,3.495697e-39,-52.6938,-0.017565122,4.5078597,1.0,2.4203582,-2.7562056,1318.853,224.33093,20.162693,102.04131,101.7168,101.78894,101.65497,18.76681,0.7,-113.086296,-863.93787,0.0003706226,-6.2285767,-0.62504065,-0.472875,0.58195937,0.81598526,1.1227792e-06,0.3,5.550416,78.00665,77.915276,77.78419,77.83479,0.2301918,0.490625,7.786803245544434,44.123460439840954
41,410000,82.94172346665964,-87.206436,5.65068e-40,-18.30682,-0.024773765,4.16756,1.0,1.2992601,-0.12970972,1325.2281,64.23354,23.360699,101.23449,101.12812,101.580894,101.6038,7.570849,0.7,-122.04971,-947.3873,0.00035337696,-6.51388,2.3764336,2.0112762,0.37775087,-1.1686265,2.6077032e-09,0.3,5.6214046,81.67733,81.708496,81.83641,81.7948,0.14732142,0.40781248,8.123250961303711,45.19863250652949
42,420000,78.6072558721389,-88.588036,9.2896e-41,-5.68563,-0.017555011,4.2834496,1.0,1.1567287,-10.991769,934.0259,35.840927,18.061829,101.80653,101.55171,101.418686,101.30345,8.582628,0.7,-114.076904,-1184.3279,0.00073928555,-3.1264806,9.946379,8.1871805,8.461626,12.432451,4.1413588e-07,0.3,5.8103323,82.77569,82.835335,83.11522,83.09262,0.11434911,0.471875,7.766534090042114,46.26480344931284
43,430000,79.30649709578141,-85.40303,1.555e-41,-6.8997912,-0.020509748,4.278084,1.0,1.1067559,3.5389318,1286.1366,70.4332,19.001423,102.63654,102.68374,102.33852,103.30221,7.460205,0.7,-112.564896,-744.3558,0.00035247864,-5.2969937,-4.274343,-5.5747786,0.9740673,-4.7493353,1.9965227e-09,0.3,5.580955,79.89853,79.87101,79.92324,79.76588,0.13070065,0.5234375,7.818936824798584,47.33491011063258
44,440000,79.02248584098507,-84.6994,2.618e-42,21.676998,-0.02339491,4.671208,1.0,2.2897756,-12.346556,1222.2249,91.117905,19.591936,102.189766,101.541336,102.00305,101.60886,10.684064,0.7,-117.42452,-1012.3673,0.0036461507,-4.4607825,9.759037,10.172995,8.876487,8.1885395,2.9155853e-08,0.3,6.121702,78.612785,78.63154,78.115974,78.30791,0.2297428,0.5078125,7.7619664669036865,48.40339775880178
45,450000,83.74171846350384,-87.28105,4.67e-43,-7.9568806,-0.022237984,4.2543063,1.0,1.3609301,-9.592098,1393.9264,69.01642,17.788612,102.81077,103.10375,103.09218,102.64071,6.0782557,0.7,-117.797714,-895.14233,6.583665e-05,-4.6173525,11.259095,10.463819,12.910547,12.448105,2.739718e-07,0.3,5.6349363,81.67251,81.63427,81.65915,81.657135,0.1391433,0.5,7.965331077575684,49.47196521361669
46,460000,77.6067764528137,-86.906685,8.5e-44,-6.5337124,-0.012026366,4.423532,1.0,3.1422813,-2.3522573,1174.1478,286.71155,18.719076,103.17152,102.911644,103.53708,103.408195,6.0695596,0.7,-117.082146,-887.503,0.0018005609,-2.957621,3.9715667,4.1725955,7.5499,7.406947,8.14129e-06,0.3,5.6445656,81.21185,81.19334,81.42365,81.333954,0.15335788,0.453125,7.628123044967651,50.539446453253426
47,470000,81.45937282212114,-85.47475,1.5e-44,-14.576102,-0.034390174,4.496717,1.0,1.8552034,-19.738272,1105.9612,165.61494,16.536364,101.86536,101.75745,102.65386,102.50432,27.794062,0.7,-117.035736,-943.81256,0.00010224269,-6.8473816,9.061848,8.95811,6.647796,7.858956,8.802745e-08,0.3,5.7332397,79.76684,79.857605,80.155136,80.222626,0.28737873,0.365625,8.048044443130493,51.61550467809041
48,480000,83.05379470844053,-85.77739,3e-45,19.656553,-0.02627619,4.336162,1.0,1.0748053,-20.88484,1232.1364,77.74777,16.383825,102.22076,102.13103,102.31393,102.16373,3.335185,0.7,-113.24552,-1281.4305,0.0014952673,-5.245734,9.118663,8.33436,8.761835,8.124368,1.2730016e-08,0.3,5.9240956,79.87375,79.92815,80.22093,80.26366,0.13344508,0.34375,8.00847864151001,52.68897471030553
49,490000,82.4175137717912,-88.403915,0.0,-10.830218,-0.028983355,4.1926837,1.0,1.5255426,-10.3594885,1268.9384,55.32814,20.499235,99.86161,100.20821,100.25731,100.14626,19.669886,0.7,-118.80693,-1413.6444,0.0029021553,-3.9193654,11.568603,12.3477335,9.948675,11.561681,2.07845e-06,0.3,5.87676,82.57326,82.64181,82.820816,82.78252,0.24453546,0.40937498,8.04457950592041,53.75565865039825
50,500000,79.09124455184528,-88.5921,0.0,-6.09095,-0.015182793,4.8615656,1.0,1.9849128,-11.265432,1332.8778,39.86483,17.650904,103.84265,103.483574,103.36937,103.19103,5.486397,0.7,-115.116516,-1109.3182,0.00024093609,-2.717352,10.645074,10.465066,11.317666,11.035977,1.418346e-07,0.3,5.984178,82.783264,82.65647,82.11787,82.177444,0.15154652,0.54999995,7.6026833057403564,54.81780072053274
51,510000,82.21250824634781,-85.688644,0.0,9.041193,-0.0331173,3.896261,1.0,0.8693987,-13.836519,1531.2877,35.184113,20.695827,101.896545,102.57794,101.978966,101.95774,8.181957,0.7,-120.1461,-1073.1088,1.0505901e-06,-4.100988,8.73192,9.888241,9.061998,9.169784,2.8164942e-07,0.3,5.6151905,80.07213,80.16522,80.08635,80.15184,0.17266388,0.5140625,8.181639432907104,55.89366015990575
52,520000,81.01428061633213,-87.154785,0.0,-1.0308123,-0.028350635,4.438911,1.0,1.4668183,-14.034077,1207.3512,29.674757,18.21265,101.30422,101.26802,101.70468,101.30262,5.061058,0.7,-114.99567,-1101.0424,0.00010601693,-2.343895,7.019629,7.732586,8.506147,8.073337,7.5362624e-07,0.3,6.062985,81.17575,81.13585,81.380264,81.3033,0.12839869,0.47031248,7.995248079299927,56.963096125920615
53,530000,76.91678797277042,-86.02232,0.0,14.863426,-0.032563474,5.256223,1.0,2.064903,-9.857776,1320.097,95.15459,16.987635,101.46911,101.15711,100.8935,100.725044,17.77874,0.7,-113.48234,-1165.1603,0.001515802,-5.8071856,11.264079,11.478123,10.143091,9.862479,5.7935717e-06,0.3,5.9956927,80.053154,80.105286,80.0719,80.06007,0.23079778,0.38906246,7.4838573932647705,58.026025501887005
54,540000,78.09560832267543,-85.09256,0.0,-44.607353,-0.03081279,3.9928176,1.0,1.538559,1.6425366,1286.9818,180.0633,15.424784,100.80125,100.97437,100.60135,100.542854,3.9275157,0.7,-114.00512,-1221.2808,0.0007103181,-3.6829555,-1.0992268,-0.28633535,0.9474341,1.1672308,3.3653516e-06,0.3,5.616761,79.58404,79.68002,79.57796,79.57481,0.07215808,0.5109375,7.640849351882935,59.09158618450165
55,550000,78.2681084501922,-86.988434,0.0,-44.208298,-0.019639961,4.2065315,1.0,1.2834712,-11.796467,1244.4294,51.13838,17.3886,102.78306,102.68454,102.44939,102.583855,10.264944,0.7,-111.62261,-1161.4171,0.0015347835,-5.212754,5.1859045,3.2806535,9.14251,8.658057,2.6560157e-08,0.3,5.8184614,81.253555,81.30168,81.31441,81.33618,0.1642487,0.37656248,7.62376594543457,60.1561266263326
56,560000,77.34636576592904,-83.23678,0.0,3.8984165,-0.042390525,5.4640975,1.0,2.1798632,-13.555463,1744.3105,135.87566,20.264881,101.86161,101.97783,102.200455,102.26642,27.67542,0.7,-114.88052,-941.1497,0.004154799,-5.283931,6.7313795,5.8386097,8.517697,8.544877,2.5558098e-05,0.3,5.9034266,77.331345,77.31713,77.47833,77.578415,0.3710217,0.4203125,7.207796573638916,61.21140344540278
57,570000,82.05805370928982,-86.76753,0.0,-37.588657,-0.033449,4.353938,1.0,1.4750996,7.105839,1150.4119,99.0868,18.179665,100.22309,100.34598,100.74329,100.60467,5.371927,0.7,-115.77849,-1013.52545,0.0056072827,-4.068779,-4.411476,-3.2949455,0.56598985,-1.5873249,3.8820104e-05,0.3,5.8177156,80.863144,80.96935,81.19087,81.253525,0.1496812,0.3484375,7.707226991653442,62.27870477835337
58,580000,77.95279210480751,-87.081436,0.0,1.1898956,-0.029777879,5.5068145,1.0,3.1157312,-14.891336,2134.1514,290.51825,21.4559,101.79775,101.817345,101.74,101.739235,30.679226,0.7,-114.03441,-1364.7366,0.003434602,-5.016741,11.136479,11.555473,11.075079,12.579317,1.177541e-06,0.3,5.890482,81.232155,81.27965,81.141426,81.192535,0.31507427,0.47187498,7.5914318561553955,63.34250051180522
59,590000,81.8028613409203,-85.25717,0.0,-54.903183,-0.029499143,4.4205055,1.0,1.3461156,-10.986713,1316.8796,49.782063,16.242496,102.23793,102.67162,101.759056,101.444336,7.3595586,0.7,-112.42178,-1374.8654,0.00018479169,-3.027878,5.7190113,7.2049675,5.0942426,4.982939,7.425842e-09,0.3,5.367585,80.037834,79.99506,79.798584,79.76074,0.16159797,0.5015625,8.479990720748901,64.41966813405355
60,600000,80.28811533147152,-86.88478,0.0,11.706157,-0.041769385,5.0701075,1.0,1.0616025,3.5618854,1596.9812,26.834656,16.003206,101.421684,101.0646,101.39902,100.91555,8.209129,0.7,-114.0229,-1222.2317,3.7277583e-05,-9.577219,-3.645618,-5.74454,-1.1856692,-3.8314443,2.08111e-06,0.3,5.6131616,81.33971,81.34912,81.25393,81.1405,0.25801724,0.565625,8.249282121658325,65.49182597398757
61,610000,82.46450789721845,-86.28099,0.0,-15.715821,-0.044126354,4.6678643,1.0,1.7791216,-19.767994,1517.2064,129.58672,19.033268,101.55189,101.7861,101.280655,101.25939,5.3271,0.7,-119.47426,-1412.7753,0.00047055382,-8.546047,15.99745,16.237452,15.866176,15.507925,2.9013976e-05,0.3,5.4608755,80.86938,80.78801,80.47941,80.73229,0.16360974,0.453125,8.702420234680176,66.57282232443491
62,620000,82.5762459287709,-83.73238,0.0,-52.98926,-0.036390927,5.4378266,1.0,1.477274,-6.760475,1381.9987,45.874577,16.883461,102.160225,102.233185,102.10957,101.997154,5.0879025,0.7,-112.59162,-1226.3787,3.3314864e-05,-1.3716354,6.6461277,6.440196,6.5729628,5.964159,6.7769435e-07,0.3,5.913533,77.919655,78.00694,77.988976,78.0284,0.15031715,0.42343748,8.140151262283325,67.6436638434728
63,630000,82.29757997563031,-82.81366,0.0,-69.790215,-0.053943742,5.440899,1.0,3.651044,-13.410379,1596.5691,525.79834,21.387619,101.02784,101.183784,100.94537,100.632835,9.512255,0.7,-116.57633,-1601.5553,0.00087509456,-4.7124505,7.569537,7.286766,1.4215928,7.1239176,1.5973811e-06,0.3,5.1335173,77.78017,77.84837,77.65915,77.713776,0.20497832,0.42812496,8.388147592544556,68.7205091714859
64,640000,74.20744999704313,-86.47943,0.0,-10.404581,-0.05179848,5.3291717,1.0,1.266889,-12.695288,1528.6737,33.775772,16.581099,100.2698,99.878555,101.16016,99.80411,7.36753,0.7,-115.27481,-845.7561,0.005182322,-2.4965763,5.863409,6.084157,5.2206564,3.425282,8.215895e-07,0.3,5.9690733,80.58397,80.58159,80.371056,80.33722,0.15205707,0.54375,8.003721237182617,69.78385823567709
65,650000,75.60623965535122,-83.977585,0.0,-9.189015,-0.041891683,6.0349483,1.0,2.506054,-8.746411,1577.0923,137.03403,20.020159,100.30006,100.04272,100.65055,100.60192,76.31262,0.7,-115.679985,-1310.7697,7.506838e-05,-3.1561682,6.8341417,7.6772757,7.2912726,7.2090473,8.761883e-07,0.3,5.6967993,78.43455,78.394714,78.56382,78.423775,0.49372423,0.4125,7.255909204483032,70.83641076882681
66,660000,80.26446286641855,-82.387085,0.0,-67.47368,-0.048211697,5.554086,1.0,1.0361565,-5.705647,2684.5159,17.762054,23.16343,100.977684,100.480385,100.63911,100.12075,3.8472023,0.7,-112.99045,-1571.0957,0.00048188423,-4.372017,3.076106,2.5030117,1.2968956,1.1654135,2.9059012e-07,0.3,5.6488132,76.80858,76.77153,76.652695,76.69299,0.14786756,0.4203125,7.841713190078735,71.90019408464431
67,670000,81.74141441226341,-85.150406,0.0,-13.287399,-0.049694978,5.380182,1.0,1.0046897,5.564555,1513.2004,40.123215,17.025562,102.78849,102.579346,102.5697,102.235886,9.635323,0.7,-113.283966,-1703.2786,0.00054410804,-5.7811646,-1.737975,-1.6074544,-1.5712602,-0.45717818,1.2029778e-07,0.3,5.7830915,79.366516,79.375565,79.480545,79.487076,0.19599076,0.3953125,7.914466857910156,72.96948668559392
68,680000,82.74965042407706,-86.0114,0.0,32.085026,-0.062114436,5.0675364,1.0,1.4746178,-11.611499,1628.058,54.542564,16.779535,100.909294,100.39414,99.52857,100.27777,6.818504,0.7,-114.48545,-1377.6252,0.00037450646,-3.7725248,4.398617,4.0287366,1.054992,4.3005123,2.7943608e-07,0.3,6.0013447,80.07512,79.98247,79.866196,80.04541,0.1910066,0.40937498,8.161669254302979,74.03978909254074
69,690000,76.79806412066561,-81.89294,0.0,-5.2759275,-0.07393268,6.1250396,1.0,2.2790563,-0.014876008,1886.5619,213.53622,18.924646,99.9326,99.921455,99.95974,99.92422,9.488527,0.7,-112.96327,-1649.9731,0.0023341263,-4.1562877,0.13895094,1.197716,0.8340289,1.6252143,3.228779e-08,0.3,5.6077456,76.29176,76.35112,76.03393,76.27254,0.25465423,0.4453125,7.632893323898315,75.09481245676676
70,700000,82.76793877641865,-83.93455,0.0,-77.4981,-0.06084889,5.495313,1.0,0.9909817,-1.6581306,1476.6451,55.866394,16.806776,99.88262,99.808266,99.938614,99.8243,5.7086277,0.7,-113.01226,-1178.6061,0.00038210594,-3.9079285,4.0377407,3.9048119,3.7238865,3.5353713,6.391638e-06,0.3,5.197323,78.89972,78.80335,79.02942,78.83837,0.1367712,0.4796875,8.097227334976196,76.13726753791174
71,710000,81.10918076674217,-83.22679,0.0,-91.17268,-0.0681484,5.191157,1.0,1.0658323,-0.9321134,1212.1047,35.078533,16.997536,101.66377,103.374176,101.76511,101.73598,4.8991,0.7,-112.56998,-1350.267,7.459079e-06,-6.467308,6.000263,4.8852706,1.4376469,4.1288667,2.1513727e-06,0.3,5.3742533,77.908936,77.869156,77.9617,77.89772,0.097815886,0.5140625,7.758366823196411,77.18439582188924
72,720000,81.89877769691006,-84.61108,0.0,-25.037481,-0.05745062,5.813138,1.0,1.5209742,-2.5287106,1919.9219,75.05916,17.47145,99.13278,99.00467,98.30204,98.39104,3.073149,0.7,-110.736115,-1517.6978,0.00011653756,-3.1786537,-0.8702197,-0.0050504208,1.7473801,0.5020187,3.7734281e-07,0.3,5.6432133,79.002716,79.07352,78.75612,78.79968,0.13164264,0.509375,7.970472574234009,78.25429441134135
73,730000,82.32673577729734,-84.77913,0.0,6.9197254,-0.0483738,6.310849,1.0,1.4479626,-14.193922,1627.2999,85.17632,18.058283,99.90822,100.0323,99.926254,100.02143,21.610594,0.7,-115.83141,-1427.2021,0.002117807,-3.7024677,15.418043,14.677815,15.360663,15.236908,9.1574043e-07,0.3,5.712118,78.917496,79.07533,79.18101,79.30299,0.27431393,0.39218748,8.072673320770264,79.32486851612727
74,740000,80.97496785582359,-85.99647,0.0,-42.534122,-0.06990135,5.179564,1.0,0.80087316,3.7783022,1806.99,28.117401,17.09701,100.24662,100.202835,100.622574,100.839806,7.171032,0.7,-113.12177,-1598.8359,0.00036185054,-4.1235094,-4.333923,-3.8517232,-5.165725,-5.080746,6.171875e-07,0.3,5.4242477,80.62059,80.57953,80.488625,80.42269,0.14830002,0.5359375,7.883991479873657,80.39516991774241
75,750000,81.43288233784894,-83.30115,0.0,-8.359696,-0.0778632,6.526807,1.0,1.9729333,4.9950824,1767.14,37.77762,18.750319,100.32359,99.839455,99.391205,99.33856,7.752247,0.7,-114.91227,-1239.8171,0.0014086501,-7.3916903,-1.5108044,-2.268024,2.19868,1.0184293,9.97464e-07,0.3,5.8113027,77.59149,77.55708,77.837296,77.615585,0.16465102,0.48124996,7.875699281692505,81.45984541575113
76,760000,80.48839039848184,-84.60112,0.0,-11.347224,-0.07338743,5.697328,1.0,1.3147216,-8.748716,1615.96,44.295204,17.872509,100.38864,100.51203,100.181015,100.45318,3.137003,0.7,-113.97397,-1280.7717,0.0010296879,-2.4943337,4.8654423,2.592215,1.2995874,4.83838,6.780436e-07,0.3,5.6507425,79.060745,78.99125,78.67461,78.713196,0.113079876,0.4921875,7.838484764099121,82.5329111735026
77,770000,82.39567951580035,-80.02461,0.0,-53.003864,-0.106369816,6.5973926,1.0,1.2684618,-1.6200999,2088.8513,70.44028,19.228138,100.16192,99.78852,99.62164,99.78107,8.397449,0.7,-117.06093,-1847.6796,0.0009969508,-6.328654,0.34520328,-1.1138507,1.2754924,0.45727623,9.407919e-06,0.3,5.7572722,74.177414,74.25314,74.29724,74.420204,0.18286681,0.3625,8.041733026504517,83.60474971532821
78,780000,79.81801998467103,-83.16809,0.0,-30.710003,-0.100098625,7.07562,1.0,1.8620148,-9.141937,1829.71,91.21655,19.533691,98.77725,98.891,99.46377,98.44596,16.601587,0.7,-114.7729,-1883.0698,0.0007442158,-2.5519104,4.254293,4.8762097,3.3656309,4.209649,1.3522805e-07,0.3,6.095373,77.061905,77.198135,77.29399,77.17678,0.18319045,0.4109375,7.807239770889282,84.67641191482544
79,790000,76.78610337011466,-86.22787,0.0,32.494427,-0.09578634,6.8479996,1.0,1.2550118,-12.193595,1895.4098,99.9762,17.10464,99.46422,99.66229,98.98411,99.586235,9.277692,0.7,-112.886635,-1366.3936,0.00020915363,-4.9917846,9.960404,11.0104265,10.827786,10.841631,1.517724e-06,0.3,6.304966,80.07929,79.96115,80.14119,80.165985,0.15794897,0.421875,7.625015020370483,85.74187488555908
80,800000,78.3810662414978,-86.03635,0.0,44.09459,-0.11231587,6.5858583,1.0,1.1582149,-2.872241,2216.958,41.360733,18.940874,99.81989,99.17538,99.97475,99.68031,4.5053315,0.7,-115.86523,-1706.8558,0.0006520535,-7.0778637,3.0125093,2.6652496,3.4871202,3.0184236,9.915791e-07,0.3,6.0632973,80.07797,80.034386,80.26259,80.132454,0.1256977,0.44687498,7.528061389923096,86.80993393262227
81,810000,77.00935946553368,-81.68644,0.0,-3.571208,-0.10867405,6.3036823,1.0,1.14472,-7.376187,2181.1423,46.407883,19.702225,99.47346,99.560776,99.13651,98.93961,24.433178,0.7,-113.69588,-1257.4547,0.00035651366,-5.8653827,-4.0952935,-1.8125855,-0.6041244,1.3839563,1.2032616e-08,0.3,5.616068,76.12317,76.13609,75.93718,76.02007,0.18311557,0.4375,7.444713354110718,87.87305697600047
82,820000,83.67872550289664,-83.23242,0.0,-24.690239,-0.10578733,7.176178,1.0,2.2948968,-10.424627,1604.7465,180.23184,21.762281,99.9026,100.245026,100.08555,100.06309,12.911887,0.7,-113.23131,-1495.8386,0.00062736386,-2.3174348,-2.0688264,-0.30631506,-5.381245,-0.88192403,3.1944364e-08,0.3,5.706558,77.37654,77.441345,77.73883,77.77223,0.18891421,0.39687496,7.95052433013916,88.9448620001475
83,830000,81.69727366128592,-83.431366,0.0,-47.55174,-0.11515116,7.970266,1.0,1.7357361,-11.075863,1605.1948,57.552914,16.42614,100.91301,100.54409,101.08584,100.636444,5.351005,0.7,-113.33564,-1601.2765,0.0006805904,-6.743826,2.9271142,2.9824696,1.1452296,3.553749,1.2498047e-05,0.3,5.4157686,78.07614,78.0095,77.99568,77.953514,0.11097184,0.484375,7.764791488647461,90.00861987272899
84,840000,82.7525719261853,-82.99541,0.0,14.823608,-0.13729154,7.6660953,1.0,1.0990505,-11.157461,2555.066,25.4626,20.961802,99.485374,99.7924,99.66537,99.73886,2.9644213,0.7,-116.52568,-1519.7312,0.00036182185,-2.296639,7.2480507,5.1226087,5.9160385,5.747722,3.1894783e-06,0.3,6.143654,76.8846,76.78109,76.94864,76.8616,0.15187387,0.528125,8.025608539581299,91.08381995360057
85,850000,78.47724093908575,-83.87397,0.0,-52.295647,-0.12853085,6.368957,1.0,1.0263872,-3.4335928,1894.7222,43.12192,16.185936,99.89157,99.94346,99.89936,99.899124,2.8622808,0.7,-112.57277,-1413.2316,2.310949e-05,-2.11194,-0.013016582,0.5581659,1.1134285,1.5442878,7.8724116e-07,0.3,5.5213757,78.442955,78.49412,78.28232,78.247826,0.10563361,0.53437495,7.550480365753174,92.14740080436071
86,860000,75.47246701378198,-82.26721,0.0,-31.444927,-0.18643801,8.820981,1.0,1.002569,-14.864013,2334.1992,40.86343,16.50442,99.46191,99.139465,98.941345,99.15522,12.053356,0.7,-109.95691,-1763.4688,0.0017332989,-7.4082503,13.612884,13.3622675,14.027352,13.859379,2.521556e-08,0.3,5.8209248,76.56842,76.49596,76.611275,76.55338,0.17081292,0.46249998,7.223770618438721,93.20415236155192
87,870000,79.43132345350796,-81.66383,0.0,-58.62045,-0.17476813,8.138442,1.0,0.77598345,-10.358078,2296.772,14.281418,16.238,98.76321,98.58279,98.5701,98.6166,4.836967,0.7,-112.419106,-1304.673,0.00037618657,-3.2068248,10.608307,9.777024,10.333954,9.261557,2.390414e-07,0.3,5.6620517,76.056114,76.013954,76.13251,76.02582,0.14286472,0.5390625,8.27012300491333,94.27652129729589
88,880000,83.22723737049328,-82.815285,0.0,5.5735397,-0.20317002,7.928978,1.0,1.4387501,-1.8687212,2075.9285,57.513668,15.529823,99.709114,99.30322,99.093506,99.386475,4.7063456,0.7,-108.66198,-1671.089,0.00067690405,-1.8889213,0.96793103,0.055493355,-2.3103228,-2.401942,6.626174e-06,0.3,5.9812036,76.84744,76.86426,76.65252,76.8364,0.13196844,0.40625,8.672170639038086,95.36031268835067
89,890000,82.24293153522954,-82.358185,0.0,-17.255783,-0.23479037,9.444423,1.0,1.7624056,-11.381269,1941.3345,72.90802,20.140518,98.316185,98.79913,98.36512,98.399155,5.3695345,0.7,-114.2078,-1802.1974,0.0004774102,-4.7711344,3.7436786,5.613618,6.124636,8.113855,1.3801432e-05,0.3,5.6784267,76.79913,76.92508,77.283966,77.25484,0.118158594,0.44843748,8.719082832336426,96.44475694497426
90,900000,77.83924971473115,-83.122635,0.0,-11.27013,-0.21649984,8.937482,1.0,1.2193536,-14.437339,1949.7404,55.02333,17.564342,98.61821,99.05793,99.597336,98.47102,5.9173703,0.7,-112.77398,-1683.1818,0.00058300287,-5.742556,11.975259,12.249697,11.999255,11.147136,4.0745362e-11,0.3,5.94135,77.44462,77.34341,77.3235,77.24811,0.10993013,0.44375,7.865392208099365,97.51037182013194
91,910000,74.94540411005003,-82.79666,0.0,-80.503174,-0.25433952,9.776412,1.0,2.56068,3.3448958,1766.4493,94.799706,17.19208,98.394905,98.49102,98.27529,98.59064,6.604694,0.7,-109.412025,-2679.6697,0.0045730537,-3.080368,-0.5582962,-0.5068718,0.7400019,-1.5957819,2.6018126e-06,0.3,5.627653,77.31891,77.21196,76.77746,76.92376,0.25839043,0.45624998,7.54340934753418,98.57404166460037
92,920000,78.77292429752556,-81.29381,0.0,-37.346237,-0.38782346,10.439311,1.0,0.72826695,-2.7118814,3195.1443,28.82611,18.660423,98.950455,98.96659,98.904686,98.80042,8.560573,0.7,-112.14378,-1470.1156,0.00018174486,-4.1113887,1.2759852,1.3413355,1.5021071,2.5893083,5.6577846e-07,0.3,5.8030376,75.488045,75.51923,75.40333,75.47911,0.16307113,0.39218748,8.247797012329102,99.64796946446101
93,930000,83.45877717193096,-85.234146,0.0,-32.07623,-0.31646383,11.368181,1.0,0.99966186,-3.1131036,2307.1938,33.717136,17.51103,98.69022,99.47059,99.209145,99.11639,6.722472,0.7,-110.9623,-1679.9996,0.0011456269,-6.601978,0.6211746,2.096727,1.1723698,1.390237,1.0058284e-08,0.3,6.011801,79.34598,79.33829,79.38069,79.2466,0.16665748,0.521875,8.048219919204712,100.71839740276337
94,940000,81.44165121600348,-77.997025,0.0,-29.848228,-0.6058014,14.532982,1.0,1.4570955,-5.6237473,1801.0773,60.2825,19.615355,98.10779,98.30383,98.55939,98.21477,15.87816,0.7,-113.74933,-1422.0752,0.00052278605,-7.6753836,8.307524,8.273264,6.2135143,7.019332,1.7462299e-09,0.3,5.5858335,72.46446,72.49089,72.68533,72.591675,0.21160938,0.4828125,7.96695876121521,101.78890145222346
95,950000,83.37517572850935,-80.17318,0.0,-38.297897,-0.65673774,12.511027,1.0,1.3266807,-2.5629857,2199.5955,27.297348,21.508633,97.38824,97.63629,97.4761,97.33668,20.73514,0.7,-115.61334,-1716.0776,0.0006194902,-3.602748,2.9055452,2.072496,2.6801248,2.8043742,4.120334e-06,0.3,5.6977367,74.487946,74.51952,74.516426,74.53185,0.2767107,0.4578125,7.986004829406738,102.86180086135865
96,955000,81.34501750349995,-83.40734,0.0,-15.473347,-0.5342959,14.635735,1.0,1.5649688,-3.128416,2051.1306,34.658833,17.331902,96.482506,95.71313,96.241714,96.046616,13.359726,0.7,-109.10575,-1611.6757,0.0016792435,-4.7626076,2.1401818,2.1868038,0.5505616,1.1801243,8.5287616e-07,0.3,5.599867,77.9868,77.90591,77.65907,77.70108,0.21312717,0.43906248,7.725005865097046,103.46130065520605
97,960000,83.17671584267632,-80.26738,0.0,83.02049,-0.7636258,13.970525,1.0,1.6083729,11.419888,2396.1807,113.96301,21.446259,97.61626,97.34102,98.45523,97.92396,7.5904045,0.7,-110.28068,-2059.7158,0.0008244567,-3.176146,-11.662588,-11.335827,-11.311453,-10.600899,4.2391474e-07,0.3,6.1736326,74.24536,74.23517,74.4751,74.45634,0.17806609,0.403125,7.881959915161133,104.06064195235571
98,965000,80.8420286366064,-83.806366,0.0,21.825373,-0.72885436,12.251273,1.0,1.2485938,13.756637,1965.0078,48.661263,16.384758,97.16711,98.24793,97.77126,97.67221,14.852946,0.7,-109.36183,-1516.4409,0.00021423452,-2.352784,-11.789434,-11.5277,-11.586321,-11.853803,5.167723e-06,0.3,5.7414017,78.15684,78.15297,78.33569,78.16757,0.21437363,0.421875,7.775245904922485,104.66009630759557
99,970000,74.84994527473027,-82.43271,0.0,7.912156,-0.90579456,14.629175,1.0,0.8144231,-0.92632186,1841.0206,19.317434,18.092812,98.78742,97.687805,98.39318,97.63284,3.938449,0.7,-111.1985,-1506.2347,0.00061462773,-5.446192,2.099723,1.4075513,1.9055018,1.5239004,2.2694003e-07,0.3,5.8929377,76.60004,76.64077,76.883545,76.76524,0.10747547,0.4296875,7.282789945602417,105.25172504583995
100,975000,82.8164431606624,-80.84953,0.0,38.853374,-0.76645494,12.254146,1.0,1.4664829,-14.454906,2618.4146,56.258842,20.78878,96.756516,96.62737,97.30004,97.40434,45.399067,0.7,-110.21952,-1620.7767,0.0028655864,-3.8911986,7.6496468,6.91897,8.08466,8.56595,8.459017e-06,0.3,6.291873,74.74788,74.68218,74.982506,74.76072,0.43423623,0.4703125,7.913613557815552,105.85129500230154
101,980000,82.59191567496575,-82.672424,0.0,-67.12305,-0.54094404,9.199824,1.0,1.2121198,1.3679051,2142.1858,24.87487,16.4459,98.19174,98.47235,98.05647,97.386,5.618869,0.7,-109.60366,-1924.8989,0.00049619033,-6.033876,1.6982104,2.8082287,3.5132968,5.0839534,7.6065774e-08,0.3,5.6177025,77.212204,77.16029,76.97698,76.97829,0.121138014,0.5015625,7.9714250564575195,106.45270537137985
102,985000,82.26992494628976,-79.30888,0.0,-13.506957,-0.89426625,11.88098,1.0,2.0255115,3.5475266,2292.2344,59.75441,20.33399,97.18673,96.89962,97.516685,97.8531,8.315294,0.7,-113.70038,-1946.7874,0.00060371053,-7.14509,1.7297186,1.7616823,1.0098487,1.0092896,1.39252925e-05,0.3,5.798082,73.70502,73.61005,73.8876,73.8376,0.24431598,0.39843747,8.108507633209229,107.05372421741485
103,990000,81.33136025602295,-80.38593,0.0,-46.00082,-1.0776755,16.648178,1.0,1.4813132,2.420974,2194.987,41.92623,17.832745,97.038795,97.578094,97.514244,97.59725,5.1769795,0.7,-109.74976,-1604.8079,0.00039157603,-6.9160323,-10.076139,-7.9077883,-9.339365,-4.7423897,3.939931e-06,0.3,5.449356,74.917435,75.0491,75.26758,75.239,0.17013147,0.403125,7.927445650100708,107.65343202352524
104,995000,79.4028361105869,-81.61247,0.0,-22.128693,-1.1470675,11.117546,1.0,0.8277997,-5.6046925,2041.2994,18.440945,18.20916,97.10813,96.773384,96.6408,96.634254,11.286942,0.7,-111.26231,-1557.496,0.0014876532,-3.087903,2.803536,4.727503,3.1827247,3.4691248,5.784212e-07,0.3,5.789425,75.92975,75.880226,75.81544,75.632965,0.21119048,0.5390625,7.72884202003479,108.25320124228796
105,1000000,83.25662874843566,-82.25503,0.0,9.525539,-0.92577374,13.174647,1.0,1.9582047,-9.954248,2352.2505,111.4905,20.749592,97.11338,96.871,96.850266,96.27353,99.2425,0.7,-110.600105,-1462.0663,0.0052314214,-3.9215584,5.27032,4.886697,4.935504,7.5907745,1.9900442e-06,0.3,6.4280005,75.93884,75.88243,76.02154,75.9065,0.7242458,0.45,8.104119062423706,108.85658512512843
