Xixo99/comfo/baselines/comfo7_perterbation_both_actor_and_critic/20230224_alphaQ0.0001/walker2d-medium-v2/COMFO7_s2_20230224_200424_walker2d-medium-v2_80.31.csv
,step,reward,actor_loss,alpha,alpha_loss,avg_conservative_loss,avg_smooth_loss,conservative_weight,critic_loss,max_actor_loss,max_alpha_loss,max_critic_loss,max_mle_prob,max_q1,max_q2,max_target_q,max_v,max_value_loss,max_weight,min_actor_loss,min_alpha_loss,min_critic_loss,min_mle_prob,min_q1,min_q2,min_target_q,min_v,min_value_loss,min_weight,mle_prob,q1,q2,target_q,v,value_loss,weight,eval_time,time
0,0,2.045959202564057,,,,,,,,,,,,,,,,,,,,,,,,,,,,,,,,,,,,
1,10000,76.29836377098161,-36.994514,0.0829663,-4.1424856,0.0002174609,1.3078345,1.0,0.56458104,-8.221624,24.241598,36.337708,22.891336,46.766407,46.62817,46.970352,46.029213,1.3746922,0.7,-60.568848,-28.894764,6.79277e-05,-3.1820526,0.36147964,0.8017085,0.5685637,0.32866982,4.43717e-08,0.3,5.105513,32.273167,32.27195,32.18134,31.707485,0.031877596,0.43906248,7.805806636810303,2.913922174771627
2,20000,64.10580371021875,-55.49373,0.005768322,-3.8026938,-0.00084551144,2.3350859,1.0,1.8402274,1.1187757,57.444504,197.84695,15.422161,72.19335,71.96122,71.975494,72.372475,7.8431177,0.7,-83.49921,-58.30118,0.0007155036,-7.412602,-9.393176,-8.32617,-1.1501064,-5.768704,4.1984426e-06,0.3,4.8670397,50.624477,50.59066,50.87715,50.620644,0.10007338,0.39062497,6.8044843673706055,3.9596418539683023
3,30000,57.089630844755256,-69.7554,0.00037850923,-4.3407087,-0.0019618974,3.1433365,1.0,1.0656606,-22.019028,127.960365,48.103,20.491999,90.124596,89.253006,89.38953,89.30808,10.963859,0.7,-101.45026,-78.38413,0.0001451216,-5.5782356,15.424176,15.737238,16.385422,15.504694,1.9435976e-07,0.3,5.3018336,64.328964,64.30318,64.35206,64.039604,0.15570362,0.47499996,5.934357404708862,4.989911282062531
4,40000,62.82954774211377,-76.94775,2.5810781e-05,-4.7828994,-0.0031105333,3.557624,1.0,1.4071225,-8.908738,175.60088,75.10362,17.565489,98.61909,99.769646,99.10767,99.54128,1.6414691,0.7,-116.27852,-129.75157,0.00053814525,-5.8211794,-2.2896433,-3.212135,-4.443722,-0.9061777,1.5821017e-06,0.3,5.1333094,71.78287,71.728546,71.66965,71.70369,0.098576844,0.43124998,6.803912878036499,6.030879664421081
5,50000,67.87409742494489,-83.75739,1.8619437e-06,-5.910151,-0.0014707119,3.7721717,1.0,1.2607656,-19.881159,139.56741,19.504972,17.906391,100.964935,100.93145,101.71242,100.97449,7.1532626,0.7,-114.32388,-104.413574,0.0008321661,-4.733176,14.70099,15.662654,13.075627,10.421925,2.1670643e-05,0.3,5.4232354,78.410225,78.28339,78.38345,78.229126,0.18662971,0.471875,7.056834697723389,7.076603253682454
6,60000,77.03085734837438,-86.0027,1.3738614e-07,-5.829718,-0.0023909078,4.179013,1.0,1.252851,-9.087199,259.31824,29.850195,20.342127,103.25739,102.847046,103.54972,103.97774,5.312363,0.7,-119.0679,-156.13606,0.0012575907,-5.8026896,8.60979,9.066857,8.226292,9.085835,2.3093891e-07,0.3,5.4205313,80.67477,80.55533,80.760056,80.95268,0.15494181,0.36874998,8.793258905410767,8.153672778606415
7,70000,73.67939488890167,-85.50379,1.0633011e-08,-8.118894,-0.00073048065,4.130581,1.0,2.3960004,-3.2526255,202.20488,228.03036,17.24667,103.87831,103.66986,103.103485,102.73753,7.7252917,0.7,-117.13153,-158.26501,0.0010585563,-5.587647,6.1936445,3.7595024,4.1539283,2.7900858,4.9301887e-09,0.3,5.2035513,80.33264,80.29852,80.388985,80.51869,0.18121791,0.38906246,8.135688066482544,9.215294702847798
8,80000,68.94654191192046,-85.15997,8.474929e-10,-11.251687,-0.0029054307,3.9834733,1.0,1.8342938,-25.373049,246.03362,207.31364,19.768614,105.3432,105.01521,104.53251,104.576584,16.849672,0.7,-119.7304,-219.54253,0.0009346941,-3.7677336,19.755041,20.016483,20.600195,20.972574,4.277285e-06,0.3,5.515964,79.69036,79.76657,79.5413,79.63304,0.19507998,0.43125,6.98443603515625,10.262221562862397
9,90000,77.7386917257784,-87.44416,7.075826e-11,-2.7937307,-0.0019492559,3.9486299,1.0,1.0095057,-23.5424,271.0,33.75032,18.395569,105.09342,106.09111,105.32011,105.82398,4.513801,0.7,-119.19059,-240.41591,0.0006253941,-3.8872595,20.450308,20.912941,21.049477,20.852345,5.57804e-08,0.3,5.914182,81.569046,81.64606,81.6086,81.55296,0.12677976,0.42968747,8.369267702102661,11.33258108695348
10,100000,67.50149742730271,-87.45749,6.076168e-12,-2.4995136,-0.0050865,4.0095954,1.0,1.2021215,-13.206525,332.38586,47.68657,19.184963,105.28363,105.399475,105.62778,105.391914,5.217706,0.7,-114.570305,-289.93082,0.00021343243,-7.1350083,0.54313505,-0.5825051,1.1995944,0.20081702,9.915791e-07,0.3,5.9359856,81.49486,81.49202,81.48619,81.42881,0.14731538,0.47968748,7.2802252769470215,12.385062682628632
11,110000,73.92281273099496,-88.30069,5.420285e-13,0.28295922,-5.102791e-05,4.1423583,1.0,2.4707618,-13.993865,420.92722,288.4249,18.409943,105.351776,105.16681,105.98994,106.01482,5.450257,0.7,-117.01915,-295.60764,0.007052095,-3.2955928,3.9892159,3.5713792,7.73818,8.787295,3.229827e-07,0.3,5.761196,82.6611,82.63116,82.80503,82.96585,0.18960619,0.3828125,7.822676420211792,13.442804483572642
12,120000,74.75997190613995,-86.18956,4.9631746e-14,-24.751701,-0.007709508,3.9576714,1.0,2.1366525,-16.89465,318.96918,214.24261,16.724201,105.67335,105.85024,105.85029,105.776085,2.359584,0.7,-119.56341,-332.0423,0.0008157143,-4.1469307,16.65452,15.941097,15.715145,16.21263,2.926495e-06,0.3,5.5476027,80.77124,80.74452,80.86502,80.93492,0.11726301,0.36874998,7.755600929260254,14.503194840749105
13,130000,78.672984654883,-84.844376,4.662015e-15,-17.251812,-0.0066027315,4.011541,1.0,1.6313219,-6.7209926,394.6454,48.917477,16.230463,104.82373,104.68342,104.69899,104.21566,4.7452984,0.7,-118.40578,-403.70874,0.00012871402,-7.013074,1.6901408,-0.14526352,1.0285568,3.9072793,9.808399e-07,0.3,5.412979,79.4193,79.43915,79.21872,79.55437,0.15475117,0.371875,7.977433204650879,15.566230618953705
14,140000,71.63912310468618,-85.05819,4.4534647e-16,-20.276337,-0.009796533,4.367429,1.0,1.8836741,-24.777401,445.8991,55.77817,19.224953,105.43882,105.261314,105.730576,105.97513,8.366963,0.7,-116.11533,-370.89462,0.004463631,-5.0387025,22.82102,23.04637,23.231058,23.10881,1.0396354e-06,0.3,5.429697,79.6147,79.651596,79.90378,79.88061,0.22503936,0.39218748,7.328266382217407,16.621539771556854
15,150000,79.75950903859548,-85.0463,4.2800274e-17,-6.1897416,-0.0018406311,3.9940197,1.0,1.7414371,5.9405003,439.41385,55.577244,16.72338,103.07745,102.98377,103.58279,103.35268,3.2059402,0.7,-117.40176,-359.64288,0.0004528585,-5.4009333,-2.6142054,-2.6516416,-3.6296,-2.8393292,3.5873773e-06,0.3,5.6554165,79.5499,79.46376,79.98091,79.94127,0.1129462,0.4375,7.937620401382446,17.683073699474335
16,160000,71.17588751191519,-86.14464,4.308989e-18,-10.791088,-0.010242857,4.1223035,1.0,2.2774112,-4.950623,676.5039,45.31067,23.943031,104.03741,103.54087,105.17648,104.82539,4.508611,0.7,-116.6578,-472.38647,0.0045338683,-1.216572,1.8917753,3.7506502,2.839726,2.9445946,2.231053e-06,0.3,5.7918167,80.41975,80.41067,81.0845,80.84952,0.14716154,0.4203125,6.995438575744629,18.7353467464447
17,170000,78.38986592182512,-88.64948,4.4209423e-19,-5.812931,-0.007295246,4.341615,1.0,7.26231,-14.045145,545.3648,1107.5023,19.225405,103.8207,104.18971,104.03454,103.935646,6.4343295,0.7,-119.005196,-411.84286,0.0011596377,-1.1767297,10.892964,10.698277,10.798341,11.442754,4.9051597e-08,0.3,6.1245317,82.539734,82.55208,82.45356,82.54959,0.17718893,0.471875,7.912229776382446,19.800740051269532
18,180000,80.3050282569906,-87.55388,4.5607886e-20,-9.068494,-0.007206868,4.5280204,1.0,2.7349775,-5.9022465,529.3511,220.98222,19.252916,101.67573,101.67751,101.74557,101.922455,7.4291825,0.7,-116.93108,-496.80893,1.7240327e-05,-7.065237,5.66126,3.9715006,1.2115366,4.202762,3.8495567e-05,0.3,5.5881844,81.982056,81.961464,82.073654,82.15489,0.25467795,0.34999996,8.003987789154053,20.866487697760263
19,190000,75.15302166953617,-89.125984,4.7472457e-21,-9.715141,-0.016854828,4.3044815,1.0,1.3511049,2.0988202,528.25916,30.44101,17.575798,102.65358,102.55995,102.52107,102.18234,18.204102,0.7,-119.05849,-407.5824,0.0011175723,-5.6427345,-0.18987721,-0.16144788,1.6079453,1.9071703,6.5045316e-07,0.3,5.8681026,83.34612,83.34749,83.016945,82.873405,0.22317329,0.54531246,7.636066913604736,21.92145583232244
20,200000,76.69248969868138,-88.20432,5.0891055e-22,-20.785898,-0.010999657,4.1643753,1.0,1.3279046,-2.6658607,594.9167,83.27562,18.061403,102.5487,103.624084,102.95921,102.97775,3.991726,0.7,-118.5563,-469.40567,0.000111726345,-4.506414,3.9234166,3.032498,3.0218697,3.3238382,2.1636488e-06,0.3,5.7784033,82.43554,82.519,82.40169,82.46627,0.1447999,0.490625,7.604916572570801,22.98042367696762
21,210000,76.07694710131695,-85.97417,5.605343e-23,-18.237286,-0.009680146,3.781443,1.0,0.96931094,-5.3121085,562.9161,53.051514,17.175863,102.96059,102.79587,102.59481,103.05626,5.632778,0.7,-117.0625,-664.7167,0.00014556179,-3.3419976,3.5410137,4.22553,3.8302372,3.9046617,2.5990886e-07,0.3,5.536269,80.57494,80.56777,80.55882,80.54761,0.1032814,0.4609375,7.614086389541626,24.037075515588125
22,220000,75.47171425654977,-84.39949,6.146149e-24,-28.34455,-0.012585654,4.036983,1.0,3.2132998,-2.4695818,781.7281,305.46976,20.733364,100.98203,101.23379,101.787346,101.57486,4.6918607,0.7,-116.429344,-599.94226,0.00068192655,-5.477414,4.2275963,2.370869,1.5219563,5.6422324,1.8167776e-07,0.3,5.7936354,78.64732,78.6684,78.95015,78.96849,0.19689418,0.48125,7.373523950576782,25.091588111718497
23,230000,81.02531867159071,-84.85982,7.008176e-25,-27.716892,-0.01282345,3.8261993,1.0,0.9203533,-13.9976,515.7452,10.553488,15.150719,102.34121,102.51178,103.20479,103.12901,3.2930036,0.7,-114.416504,-698.64813,0.0006543671,-2.859486,11.391098,11.9432335,13.701687,13.699993,1.0186341e-07,0.3,5.2078295,79.76168,79.74411,79.937035,79.865974,0.117666215,0.5234375,8.235519409179688,26.154941737651825
24,240000,79.43297900128387,-88.19015,8.152448e-26,-23.498196,-0.01053787,4.21939,1.0,1.0040576,-13.220028,603.0374,23.95507,19.26374,103.089195,103.57872,103.57405,103.48407,4.560372,0.7,-120.5889,-758.5577,0.00040753395,-5.163902,8.404926,8.850158,7.855923,8.440797,4.8119114e-07,0.3,5.7741776,82.52208,82.50532,82.30493,82.27768,0.14527006,0.5046875,7.974611043930054,27.217875790596008
25,250000,77.03602452006291,-85.52044,9.80462e-27,6.115398,-0.0104648825,4.389623,1.0,1.4000614,-4.336526,710.93744,108.06334,16.83749,102.81551,102.97645,103.4689,103.75857,7.582427,0.7,-116.85751,-592.1551,0.0005082095,-5.0777173,0.23191702,1.4453273,3.716066,2.1378841,6.519258e-08,0.3,5.631021,79.95237,80.00868,79.99269,80.004715,0.16167374,0.409375,8.038613557815552,28.285713891188305
26,260000,75.60972944235078,-86.91147,1.2123167e-27,-25.960339,-0.013282485,4.150412,1.0,1.3412516,-10.999935,958.07635,43.16333,18.801926,104.23977,104.2887,104.99144,105.18715,14.445928,0.7,-118.9743,-595.68555,0.00065471465,-6.36835,4.1555037,0.33415323,0.07317835,-1.1560864,5.6735008e-08,0.3,5.552206,81.4409,81.42828,81.23033,81.39966,0.26133186,0.43281248,7.607161521911621,29.34045741558075
27,270000,77.66214855060105,-85.81358,1.5122723e-28,-21.096237,-0.013668725,4.2632976,1.0,2.202176,-18.109142,737.25964,79.686935,18.187971,103.72135,103.07143,102.80789,103.31074,4.6658063,0.7,-117.685936,-671.9208,0.0008641554,-4.564435,17.858631,17.036991,17.834867,17.813456,1.466833e-09,0.3,5.5970235,80.30592,80.23069,80.097755,80.13629,0.20406708,0.44687498,8.110152006149292,30.409529503186544
28,280000,81.30382617935157,-87.94465,1.8864154e-29,7.322096,0.0010184154,4.0736537,1.0,1.5293697,-4.19992,1000.2939,74.040886,19.678185,102.68172,102.93037,102.442,102.88646,3.7845805,0.7,-117.65552,-592.3512,0.0002832958,-2.7817721,2.041273,3.5663183,6.0871563,6.3366523,1.994963e-06,0.3,5.915081,82.03642,82.03604,82.08266,82.27963,0.14676104,0.36718747,8.46379280090332,31.47636580467224
29,290000,79.98501590924215,-86.53076,2.425912e-30,-28.697527,-0.007553293,3.75504,1.0,1.4540943,-5.611851,682.7633,112.941185,16.220589,102.63464,102.83271,102.677795,102.545975,4.7552805,0.7,-112.82118,-712.0368,0.0014701535,-2.713869,1.4326252,1.2648242,0.88002235,1.1900407,6.455183e-06,0.3,5.5872974,81.022575,81.12528,80.977844,81.05627,0.121712364,0.4875,8.088912963867188,32.54343198537826
30,300000,81.77461793519409,-87.596535,3.1674017e-31,-9.959942,-0.014440362,4.8295383,1.0,1.7450994,-8.445442,928.4687,90.39617,20.348242,101.45686,101.640076,102.23494,102.24629,12.799386,0.7,-121.096855,-563.26324,0.00067274,-2.4313927,6.638451,6.3553286,7.4911942,5.3093204,7.986091e-09,0.3,5.6663046,82.02684,82.09181,82.11069,82.044556,0.22197022,0.4265625,8.278801202774048,33.60462290843328
31,310000,83.52488220001773,-85.10874,4.1771982e-32,-13.234603,-0.0064096632,3.9024456,1.0,1.5142736,-11.127348,793.3104,77.03112,19.859829,102.61796,102.823586,102.3319,102.10672,7.4463654,0.7,-114.59579,-604.3521,0.0007909353,-5.48326,6.3084507,8.437307,6.039236,5.3018885,2.8360346e-06,0.3,5.828328,79.33461,79.28232,79.16443,79.18552,0.13154495,0.45,8.343146800994873,34.6768573919932
32,320000,75.63240705798661,-87.4697,5.5372855e-33,-26.10628,-0.011663383,4.3344326,1.0,1.6373609,-19.442383,815.5133,91.298355,21.826204,101.343605,101.63053,101.07684,101.58546,3.4387426,0.7,-112.27488,-656.70856,0.0037384385,-7.404502,10.639533,11.708554,9.619084,10.602565,1.2635894e-06,0.3,5.8177347,81.5061,81.62462,81.3127,81.32723,0.14017035,0.553125,7.896698951721191,35.731385199228924
33,330000,76.24245768029459,-85.00225,7.5699246e-34,-71.088455,-0.020767143,4.5758963,1.0,2.6029253,-4.6649566,803.9844,156.57349,22.46482,101.99144,102.05082,102.958405,103.017044,2.4176874,0.7,-113.111984,-649.5601,0.010851385,-4.3246803,3.8907127,4.634577,1.7237535,2.9456444,1.3201497e-06,0.3,5.0771084,79.98297,80.02229,80.370056,80.20894,0.08834939,0.45468748,7.731998443603516,36.79116700092951
34,340000,80.9238726035656,-87.503174,1.0731932e-34,-54.315414,-0.009528431,4.1439447,1.0,1.7207041,-2.614537,804.0512,96.06244,14.028676,102.704796,102.12098,103.24154,102.35986,3.7949321,0.7,-114.04185,-688.0722,0.00014023652,-4.318965,4.6485143,4.4425926,1.2365144,3.030363,7.338148e-06,0.3,5.324054,82.29027,82.18929,82.23813,82.25292,0.1233165,0.3875,7.9180591106414795,37.846749345461525
35,350000,69.76733860880456,-86.8414,1.5060323e-35,-46.37468,-0.009642583,4.314174,1.0,0.92431056,-13.997568,874.4627,64.62183,16.135914,102.567444,101.90212,101.46526,103.13651,2.0072584,0.7,-113.29713,-805.23456,0.00034077332,-4.930455,17.748064,18.411566,19.355366,18.605436,1.7881395e-06,0.3,5.1746926,81.712204,81.76241,81.8483,81.93814,0.09910246,0.3546875,7.09704852104187,38.89575796127319
36,360000,74.60506139579458,-84.9926,2.1336135e-36,-18.140087,-0.019222287,4.6463356,1.0,1.4878726,-12.713367,856.70825,71.62095,17.128408,101.86358,101.23813,101.828995,101.88845,16.795513,0.7,-113.60421,-829.23944,0.0012956774,-7.9048576,8.810895,8.651942,8.331369,6.5792165,2.1129382e-07,0.3,5.4740715,79.59752,79.58818,79.702515,79.83207,0.22660194,0.35468748,7.537912368774414,39.956704183419546
37,370000,76.23322681336232,-87.18117,3.0913534e-37,-42.94114,-0.015053848,4.0729976,1.0,2.5374258,-5.253015,834.52277,112.408,16.949879,102.09954,102.09239,102.224594,102.292015,5.6584415,0.7,-115.56918,-828.1943,0.0003533288,-3.8476212,4.1211276,3.577081,1.1303443,4.2030263,2.5465852e-08,0.3,5.6156845,81.68196,81.59809,81.385704,81.52619,0.13788804,0.4265625,8.411925315856934,41.0234865585963
38,380000,81.48288624662301,-86.848366,4.452973e-38,-54.850502,-0.018985197,4.086459,1.0,1.5271611,6.8575816,732.4005,61.835815,17.699118,102.44525,102.237724,102.53777,102.37897,6.2690783,0.7,-116.30409,-966.48267,0.0003819252,-4.0749288,-1.747144,-5.844348,0.74346656,-2.3866982,3.873854e-06,0.3,5.6935005,81.22891,81.23768,81.18153,81.249176,0.14384986,0.39218748,9.069670677185059,42.10290795962016
39,390000,79.37652273932918,-85.86888,6.95579e-39,-51.277576,-0.020651465,4.052196,1.0,0.8809403,-22.404919,973.22186,17.262402,16.55688,101.24021,100.64549,100.39808,100.5095,4.1727943,0.7,-113.82885,-968.1026,0.0013224387,-4.868554,14.5231,17.071198,14.505466,14.491825,5.769951e-07,0.3,5.504878,80.476135,80.371216,80.22865,80.290634,0.11336543,0.496875,8.594595670700073,43.174193851153056
40,400000,81.43062505626317,-87.76351,1.05312e-39,-28.817045,-0.01676451,4.422698,1.0,2.8754025,-20.66194,1161.9847,173.54436,18.245852,101.29016,101.09313,101.02114,100.88477,23.782501,0.7,-119.197075,-932.23566,0.0004960292,-6.571059,14.978981,15.9801,16.918392,16.413425,8.802745e-08,0.3,5.5274963,82.36486,82.297424,82.30075,82.2265,0.32848194,0.465625,8.667145729064941,44.2484392841657
41,410000,82.66543445172597,-86.034195,1.61358e-40,-22.782215,-0.0186767,4.315015,1.0,1.8144135,-16.454876,1239.0243,80.13968,17.674416,101.45109,101.921265,103.22699,101.524704,8.790946,0.7,-117.69696,-879.1692,0.00092536805,-3.6994467,13.301294,15.160373,12.177247,14.730875,3.1950779e-06,0.3,5.834399,80.35982,80.3657,80.60826,80.41748,0.20589513,0.3921875,8.543291330337524,45.314330283800764
42,420000,81.15531376149848,-84.19948,2.4696e-41,-29.3539,-0.032102216,4.9492526,1.0,1.7636096,-9.23965,1269.8169,113.09098,17.984749,102.921425,102.94511,103.23251,103.19481,5.720399,0.7,-116.13946,-827.37,0.0008211241,-4.874427,3.9393518,2.0952165,6.3349013,4.5389266,1.3055221e-06,0.3,5.9487467,78.32517,78.27794,78.40108,78.36071,0.16061743,0.47499996,9.171219110488892,46.3973140557607
43,430000,81.43294989567923,-84.10556,3.981e-42,7.054234,-0.032487165,4.4946823,1.0,1.573746,-1.4632123,1166.9597,90.55217,18.5554,101.845566,102.19574,101.93809,101.42026,4.315133,0.7,-115.64441,-1103.2625,0.00094461546,-3.2585902,3.282511,6.616757,5.0744925,5.127287,1.7658575e-06,0.3,5.8620114,78.40886,78.287476,78.06557,78.054794,0.10119368,0.48593748,8.210401058197021,47.45727667808533
44,440000,79.52038574691055,-81.60614,6.42e-43,-3.4067688,-0.023192745,4.745053,1.0,1.8442562,-12.998222,1564.0347,95.91184,20.93893,100.79406,100.525955,101.75981,100.45712,8.49832,0.7,-117.41623,-1247.9387,0.0014158017,-4.3311176,8.543089,7.854419,9.22595,9.026973,9.789073e-07,0.3,5.612896,76.01613,76.11398,76.328674,76.32385,0.19105035,0.41718745,8.220558881759644,48.52672872543335
45,450000,82.15775798952137,-86.4691,1.08e-43,-62.9913,-0.027078344,4.6869903,1.0,1.1356839,-15.002598,1284.0394,18.192015,15.9950285,103.26388,103.15461,103.43698,103.3144,7.88081,0.7,-112.2401,-779.65704,0.000121870835,-3.7110987,11.348032,12.220966,12.857943,12.313095,3.4813231e-06,0.3,5.4483485,81.05324,81.12416,80.97725,80.984634,0.12365351,0.459375,8.372639894485474,49.592364831765494
46,460000,79.01874094422261,-82.2078,1.7e-44,-54.866886,-0.025586411,5.0618668,1.0,5.411216,-10.640259,1043.9216,267.85318,16.59319,103.24917,103.06668,103.04581,102.83034,15.402336,0.7,-111.09819,-911.02155,0.0062857573,-3.1486797,3.1851301,5.524272,1.2668781,6.56242,1.7462299e-11,0.3,5.5023894,76.72978,76.727554,76.28047,76.39615,0.27470994,0.5375,7.976846933364868,50.658366338411966
47,470000,74.53729773470698,-85.4662,3e-45,-38.39412,-0.023722788,4.631423,1.0,1.1104853,-10.839703,1289.3732,46.591835,17.6619,100.63915,100.69836,100.98099,101.06847,59.334614,0.7,-117.45231,-940.4272,0.00020557182,-4.3608904,5.996447,6.2778845,4.188864,4.2852306,9.97464e-07,0.3,5.538369,80.00618,79.79633,79.92357,79.92787,0.37162638,0.5203125,7.461683750152588,51.71382948557536
48,480000,78.20974003557909,-84.13698,0.0,6.340007,-0.028766846,4.516544,1.0,2.7405107,-13.638741,1054.6152,76.66943,18.5382,102.21502,102.30897,102.33929,102.37168,5.534889,0.7,-113.641914,-1040.5137,0.0006088801,-5.6316624,1.6799517,3.3738408,5.576431,5.8893323,2.3905887e-08,0.3,5.8833876,78.27907,78.33394,78.79765,78.655235,0.17719263,0.37656248,8.019084692001343,52.78116180896759
49,490000,79.27061089904296,-86.51651,0.0,-7.1592474,-0.033309106,4.18553,1.0,1.4142582,-9.605311,1359.7849,54.88656,18.216717,103.035706,103.01374,101.93983,102.08027,16.676426,0.7,-115.65119,-1011.87836,0.0011863048,-4.1166277,7.948333,6.8952923,7.558834,6.93244,9.00065e-08,0.3,5.747107,80.79996,80.96211,80.377075,80.368576,0.19920707,0.56562495,7.828371524810791,53.83926858107249
50,500000,72.15838610402203,-83.55705,0.0,-37.991272,-0.027179003,4.7224402,1.0,1.6035705,0.9848769,1259.4602,70.59353,16.812021,101.57944,101.5552,102.03461,102.01997,24.89746,0.7,-116.06521,-1128.9222,0.004100835,-4.8862753,-4.3959074,-0.8724167,0.55845046,0.7827921,6.885966e-09,0.3,5.4086723,78.11568,78.25972,78.50006,78.58324,0.2424579,0.39374998,7.348487854003906,54.8961390097936
51,510000,82.34649936372418,-84.26468,0.0,-64.77963,-0.031011144,5.3477836,1.0,1.3495902,-15.950089,1794.5594,34.872913,19.149197,102.262375,102.703026,102.87577,102.403885,38.80216,0.7,-115.8127,-973.1747,0.00031003566,-5.6965117,8.9910345,7.6241765,7.632408,8.62515,3.1038187e-06,0.3,5.29959,79.05585,79.04281,79.108444,79.09048,0.31633997,0.43124998,8.44860053062439,55.971945714950564
52,520000,79.63924694453269,-84.61388,0.0,-11.645758,-0.026857022,4.4739413,1.0,1.46485,-6.0195894,1235.4648,47.50659,15.973015,101.2249,101.47945,101.095436,101.02099,5.478715,0.7,-114.9557,-1200.5695,4.8822258e-05,-7.543641,2.4467847,1.3889322,-2.5542874,1.2556586,6.1973694e-08,0.3,5.587919,79.0755,79.01938,78.93092,78.93376,0.13670903,0.40625,8.137879371643066,57.03910247484843
53,530000,83.73744527128837,-87.8946,0.0,-9.616004,-0.025528798,4.080415,1.0,0.9043598,-17.07485,1879.9252,38.60421,16.793097,102.63059,102.86874,102.568756,102.428734,4.0418673,0.7,-116.127846,-1079.2325,3.43594e-06,-1.7722352,11.41846,11.02061,10.502657,10.603888,1.0186341e-09,0.3,6.1122932,81.848694,81.95206,81.814545,81.71575,0.11768857,0.515625,8.319364070892334,58.10748625596364
54,540000,81.90614183235813,-83.39988,0.0,-25.058922,-0.048427355,5.103927,1.0,1.908144,-11.507473,1531.4937,165.12949,21.247627,103.35263,103.403145,103.53757,103.36572,6.944104,0.7,-113.047714,-906.9276,0.00053325976,-3.733944,7.210394,10.695126,6.593483,7.4429035,2.0275575e-06,0.3,5.5423555,77.89194,77.839165,77.857124,77.94049,0.18089525,0.41718748,8.412531614303589,59.1771625995636
55,550000,78.64909862544079,-87.85591,0.0,-25.032959,-0.024157738,4.8370514,1.0,1.0266927,-5.660918,1165.7303,36.1941,17.563068,101.15377,101.366806,100.97082,101.12149,32.484966,0.7,-114.69353,-922.5208,0.002322244,-8.776886,5.048218,5.1567955,5.6071014,5.634759,2.861023e-07,0.3,5.521366,82.34152,82.42813,82.34035,82.36163,0.356829,0.47031248,7.8957812786102295,60.234775384267174
56,560000,81.26738529637267,-85.25986,0.0,-26.370987,-0.038094696,4.7298307,1.0,1.8852208,-6.533554,1555.3514,104.22981,18.484253,102.0294,102.039604,102.17131,102.092766,4.842023,0.7,-115.33256,-1155.262,2.0672625e-05,-4.8110027,3.272369,4.0779257,0.8516561,3.8313513,3.9934528e-07,0.3,5.3774323,79.87575,79.93174,80.04959,79.90888,0.14858535,0.41875,8.378507137298584,61.30275967518489
57,570000,80.72556073365813,-86.770325,0.0,-2.5054483,-0.039884698,4.6564636,1.0,1.0534532,-9.461002,1638.4778,50.015846,17.874882,101.205025,101.3576,101.28231,101.04689,25.207859,0.7,-116.09589,-1192.8837,0.0014078107,-7.8097916,1.2081866,-0.8094648,1.738761,1.3476752,2.9354124e-08,0.3,5.6748743,81.085236,81.10953,81.02208,80.95911,0.25724247,0.578125,8.456290245056152,62.36745915412903
58,580000,80.77115487057576,-84.72808,0.0,-38.821156,-0.0313364,4.4342036,1.0,1.919894,-2.2949028,1383.9982,73.20027,19.255629,101.74124,102.14479,101.21038,101.60646,10.271164,0.7,-119.617195,-1417.1063,0.0022124308,-5.930393,4.8282213,0.0039311647,-0.8580401,0.46916556,1.7813291e-07,0.3,5.5440826,79.075714,79.12144,79.32303,79.35551,0.19099832,0.46406248,8.258582830429077,63.430384294191995
59,590000,82.43691559819263,-84.4962,0.0,16.088596,-0.037941005,5.052619,1.0,1.3848796,4.29176,1663.0314,41.795166,20.274544,100.39474,100.375206,101.00286,100.85597,12.718092,0.7,-114.05723,-1164.7084,0.0042644613,-4.8011117,-5.9286823,-5.956933,-5.22244,-5.0503473,1.5103143e-07,0.3,6.077288,78.48725,78.454865,78.701004,78.661316,0.25255388,0.47031248,7.693542003631592,64.47567012707393
60,600000,80.46788539306316,-87.68773,0.0,40.21242,-0.029539738,4.2737465,1.0,1.1780018,-19.606977,1277.8627,45.574623,18.130486,101.57477,102.342896,101.61611,101.652985,6.9212847,0.7,-115.4051,-980.319,0.0040214607,-8.756832,11.852657,10.341448,12.403697,12.5073395,1.4717266e-05,0.3,6.0749655,81.61538,81.72836,81.616,81.47566,0.17594433,0.46875,8.69555926322937,65.52796593507131
61,610000,80.55352272351665,-83.90959,0.0,-61.80059,-0.04347841,5.076571,1.0,1.8097047,-20.506842,1474.9321,105.64323,20.069712,103.033356,102.616905,102.48287,102.2641,12.94017,0.7,-116.04166,-1179.5676,0.0010588777,-5.4149485,17.125278,17.42688,18.632935,18.456434,1.0967306e-07,0.3,5.789808,78.20216,78.23883,78.02608,77.971565,0.24069834,0.49531248,9.077794075012207,66.61224363247554
62,620000,80.44106191879992,-86.01747,0.0,9.388647,-0.03271711,5.3681498,1.0,1.5762045,-3.535009,2207.7983,40.737907,22.77447,100.898254,100.77942,100.68774,100.95591,4.2437983,0.7,-119.92133,-1892.9092,0.00032025727,-2.8938627,2.4082017,2.1141167,0.9712776,0.752456,5.720824e-07,0.3,6.6209917,79.49455,79.53331,79.41991,79.35177,0.13397181,0.5234375,9.520299911499023,67.70403408606848
63,630000,79.16105935890921,-84.801346,0.0,-45.66362,-0.031963356,4.310901,1.0,1.260859,-2.6261997,1571.0228,147.26,17.566109,101.26668,100.90375,100.19952,100.663734,6.2511725,0.7,-114.5831,-1570.3287,0.0008926874,-2.9578764,1.9305342,0.8037158,0.60481095,1.0387218,2.514571e-07,0.3,5.4754486,79.37361,79.40683,79.3927,79.480354,0.10040164,0.42343748,9.313567876815796,68.79282113313675
64,640000,82.68440255999603,-84.42255,0.0,-60.718124,-0.04417291,4.870358,1.0,2.471491,-4.1672063,1345.1705,119.684746,19.03978,102.03899,102.3467,102.56134,102.0982,49.994255,0.7,-114.191536,-1482.5687,0.0011164811,-3.2244267,0.039216638,0.3740964,1.2955302,3.9532478,4.4563896e-07,0.3,5.577861,78.88603,78.878204,78.92981,79.04999,0.40059373,0.43906248,9.490713834762573,69.88453090190887
65,650000,78.622881410805,-85.66268,0.0,-35.77063,-0.041347515,5.116574,1.0,1.8218638,-13.96866,1614.1129,76.813995,16.71363,101.74255,101.31602,101.67854,101.54826,3.7077048,0.7,-112.68438,-1340.8372,4.624744e-05,-5.6810255,6.5301304,5.9755635,10.406056,9.752329,6.2864274e-08,0.3,5.410505,80.257286,80.39116,80.57941,80.53215,0.1479904,0.40625,9.139798164367676,70.96892786423365
66,660000,81.63710016812114,-83.96135,0.0,-27.663412,-0.039234262,5.437145,1.0,2.3706222,-3.703209,1541.8145,219.6878,18.487701,101.1582,101.04926,101.186295,101.262146,11.328534,0.7,-112.4995,-1608.5266,0.00031061593,-5.2509966,0.2350291,2.4619112,1.4285078,4.3055506,3.8574218e-08,0.3,5.579571,78.386,78.477974,78.54875,78.81326,0.17035928,0.38906252,9.540174722671509,72.06385178168615
67,670000,77.96078460940056,-87.26766,0.0,-56.551502,-0.033028442,4.6528354,1.0,1.4353768,-4.920919,1890.2529,69.78461,16.959236,100.01685,100.24373,100.13676,100.8222,4.191749,0.7,-112.48197,-2185.723,0.00100061,-5.427202,2.2681098,2.30021,3.8181455,3.9213076,6.712508e-08,0.3,5.6857805,81.736435,81.7047,81.44032,81.48219,0.14471266,0.4765625,8.835080862045288,73.14730505545934
68,680000,78.90344855402509,-87.60196,0.0,20.37868,-0.028646981,5.163443,1.0,2.1674047,-15.36239,2006.9642,118.48648,21.732168,101.17015,101.036026,101.32626,101.766525,5.8988123,0.7,-113.73558,-1162.4055,0.0017616434,-2.8092308,10.709558,12.543468,9.780628,10.930757,4.4921762e-05,0.3,6.118815,81.59037,81.61836,81.94047,82.037704,0.178963,0.35,8.620701789855957,74.22672065893809
69,690000,76.9213351806279,-85.18422,0.0,-18.857012,-0.054647356,4.8096595,1.0,1.2407694,-15.208006,1766.4027,100.96013,20.730335,101.00576,100.91268,101.304436,101.064514,3.5653882,0.7,-112.85109,-1350.6836,0.00046239616,-3.2107165,4.9447026,4.0138,3.5255888,7.4386387,3.0510828e-06,0.3,5.7262197,79.447495,79.479126,79.67177,79.70011,0.11855516,0.38906246,8.914657592773438,75.31140719254812
70,700000,80.9942063912174,-83.56906,0.0,-32.949924,-0.05831262,5.920909,1.0,1.9939365,-18.144808,1765.87,107.60562,20.936985,101.33031,101.51293,101.77682,101.45067,11.868139,0.7,-113.825645,-1460.5852,0.0015708138,-8.67514,9.28141,9.8124695,10.592598,9.122918,1.0186341e-07,0.3,5.804229,77.86556,77.86339,77.982155,78.04912,0.29915076,0.42343748,8.74795126914978,76.39268117745718
71,710000,81.91069283705534,-87.0706,0.0,-74.109436,-0.03705902,5.0773187,1.0,1.4537282,0.92689717,1403.811,32.6587,16.697544,100.2286,100.103195,99.85683,99.7445,13.758993,0.7,-114.245255,-1427.3601,0.00047573174,-4.686103,0.1789068,1.751199,3.848784,3.3041518,2.2919266e-07,0.3,5.562785,81.57475,81.51338,81.29587,81.26521,0.16118814,0.48749998,9.108440399169922,77.4774432261785
72,720000,82.41637935082065,-87.008194,0.0,-27.235909,-0.042992283,4.6824794,1.0,1.1248724,-11.04385,1525.3175,56.60325,17.015121,101.29535,101.14069,100.81875,100.40815,2.838104,0.7,-113.276115,-1588.8578,0.0020021764,-8.502087,1.2873173,2.784409,0.54017997,1.4221233,3.3561548e-06,0.3,5.791789,81.284454,81.36105,81.09627,81.18884,0.1034866,0.4609375,8.817239046096802,78.55565919478734
73,730000,81.31469850483603,-85.313736,0.0,-19.088676,-0.05172,5.053102,1.0,1.2338831,-9.99636,1850.9963,43.330254,18.288483,100.86201,100.88752,101.25885,101.08145,23.49095,0.7,-116.858,-1913.4354,0.00023430039,-4.741571,7.148325,6.260298,5.803362,5.1416416,1.9016444e-08,0.3,5.7220354,79.636246,79.66823,79.91092,79.854774,0.2305503,0.39843747,8.658920049667358,79.6328762571017
74,740000,80.6454635205901,-84.96041,0.0,13.266407,-0.0538383,5.462693,1.0,1.8975025,-9.360199,1840.4451,73.28319,16.72452,101.22704,101.41105,101.22291,101.22287,7.834278,0.7,-113.91853,-1355.906,0.0010128007,-4.723279,6.2714148,5.590919,5.6249905,5.1953154,3.22744e-07,0.3,5.8546705,79.18296,79.05646,79.1363,79.214355,0.20448408,0.40625,8.96019458770752,80.71307691733043
75,750000,82.30600582155716,-85.5095,0.0,-67.663216,-0.047270443,5.0755396,1.0,1.2411017,-0.005170822,1697.5588,60.11697,22.208212,101.029236,101.405075,100.705734,101.27602,4.5223904,0.7,-114.88435,-1693.6688,0.00020684308,-3.1596963,0.7378664,1.4382324,1.674769,0.33415276,1.3201498e-08,0.3,5.439375,80.11907,80.13353,79.9027,80.10521,0.14621526,0.46875,9.063884258270264,81.79622604052226
76,760000,80.76620239410167,-86.31241,0.0,-26.79348,-0.037128128,4.983698,1.0,1.1783824,-8.155826,1460.5521,33.748837,19.623034,100.98526,100.684296,100.81228,100.83921,3.266145,0.7,-116.528366,-1751.8926,0.00015912141,-5.350006,1.8061024,1.1281662,1.056305,1.4619437,5.4761767e-06,0.3,5.918879,80.467964,80.46942,80.65093,80.65148,0.14862758,0.36562496,8.925038814544678,82.87577195564906
77,770000,77.65803589706607,-84.74085,0.0,-1.9971976,-0.04357241,5.3668003,1.0,1.0100478,-10.890442,2215.1345,21.100254,18.219978,101.4929,101.30609,101.40389,101.49656,7.8015823,0.7,-115.455666,-1397.9626,0.00028067827,-3.1660156,7.778535,8.535658,9.69656,9.353897,6.5846134e-06,0.3,5.9007854,78.9756,78.87418,79.1208,79.20148,0.20674565,0.3421875,8.479809522628784,83.950650091966
78,780000,77.76534201611874,-83.33716,0.0,-16.904682,-0.049951293,6.362935,1.0,2.096346,-13.540891,1592.657,143.68321,19.700195,100.699425,100.616714,99.8036,99.86571,4.626394,0.7,-117.60479,-1551.8168,0.001380835,-5.130134,7.8422394,8.87114,12.008405,11.679434,6.67572e-07,0.3,5.677091,77.83008,77.6945,77.40144,77.48567,0.14952728,0.4296875,7.272300481796265,85.01084994077682
79,790000,81.0018302348944,-85.798904,0.0,-30.071598,-0.06428778,6.224102,1.0,2.7910032,-16.075346,2326.733,274.33112,18.790237,102.0657,101.78781,102.24411,102.09722,38.584473,0.7,-116.2506,-1263.1768,0.0021922265,-5.5979633,14.120603,14.875406,15.062994,14.992285,1.2233545e-05,0.3,5.7005935,80.208755,80.13469,80.56673,80.57325,0.42375916,0.371875,8.904973030090332,86.09650705258052
80,800000,83.03388577472712,-85.17166,0.0,-44.36575,-0.0559702,5.4442296,1.0,1.4891162,-9.96372,2057.546,47.892357,16.787052,99.09754,98.724,99.84431,99.15041,3.8147476,0.7,-113.92564,-1559.2878,0.0008038758,-10.296116,5.620277,7.0256443,9.552811,8.786138,7.1874815e-08,0.3,5.694074,79.580025,79.5421,79.75974,79.673676,0.116289,0.44687498,9.0713210105896,87.18410944541296
81,810000,79.47099019607249,-83.874435,0.0,-92.004074,-0.07375578,5.4734087,1.0,0.6934794,-11.700804,1783.0034,30.454575,19.945576,101.15288,101.36064,101.05495,100.95091,6.529033,0.7,-115.925804,-1695.8845,0.00037475885,-3.8271399,9.827136,9.394014,8.832847,11.555798,2.4728362e-07,0.3,5.4514294,78.48045,78.48018,78.41443,78.447266,0.12210797,0.5046875,8.617618322372437,88.2611069838206
82,820000,78.2238858302705,-85.14519,0.0,-9.587761,-0.05203045,5.6838155,1.0,1.9081564,-6.479767,1906.2009,136.81367,17.35854,102.00395,101.89182,101.69567,101.577675,12.704951,0.7,-115.77867,-1311.8452,0.0026148355,-2.2422323,5.4441643,7.7260823,6.1712184,8.00746,4.710164e-08,0.3,5.969428,79.19743,79.18574,79.43709,79.4913,0.25677124,0.484375,8.65483283996582,89.34317295153936
83,830000,80.43099379102996,-86.04529,0.0,18.555069,-0.06824607,5.6891413,1.0,1.0472769,-5.9542074,1858.0437,25.831383,16.817898,100.15665,100.024925,100.12286,100.04827,11.624677,0.7,-114.70574,-1489.1292,7.884257e-05,-4.4053993,3.298149,3.2854016,4.8238306,3.8524346,7.533817e-08,0.3,5.9237447,80.22999,80.28526,80.06796,80.095764,0.19613144,0.5046875,9.07133173942566,90.42319235006968
84,840000,81.21852957322089,-85.58515,0.0,6.9733677,-0.04837623,5.718326,1.0,1.4055204,-14.370847,1893.4604,105.88034,16.29101,101.1045,100.84643,100.245056,100.47812,22.127354,0.7,-113.29146,-1470.1412,0.0003961209,-1.7901311,14.133126,14.636908,14.280394,14.247259,6.1973694e-08,0.3,5.856351,79.72089,79.77463,79.6452,79.60622,0.25121894,0.5,9.056696891784668,91.50567383766175
85,850000,81.88448851125133,-84.609406,0.0,-18.578804,-0.07287281,5.938082,1.0,1.6571873,-1.9656448,2168.3513,95.1254,16.967577,99.271545,99.375465,99.57173,99.625305,8.519407,0.7,-110.29994,-1990.66,0.0007839836,-5.6641693,2.5219564,3.5508053,3.2009258,3.5032065,2.8397887e-06,0.3,5.491708,79.089226,79.10251,79.33247,79.39293,0.15748502,0.4046875,9.11476182937622,92.58845516443253
86,860000,79.2153480375279,-87.053024,0.0,6.727333,-0.06784899,4.9938893,1.0,0.9355364,-11.892244,1856.5432,42.06664,17.515545,100.70623,100.815674,101.22846,100.58157,2.166065,0.7,-112.58985,-1462.1172,0.00037895015,-5.9318933,9.968454,11.575507,10.870212,10.65326,3.7734281e-07,0.3,5.7891855,81.25444,81.21976,81.29771,81.256355,0.07852955,0.428125,8.857861518859863,93.66870766083399
87,870000,81.63521808333104,-86.36978,0.0,5.6722918,-0.0668397,6.320329,1.0,2.122992,-14.777233,1942.1521,73.269104,18.880001,100.14259,100.127,100.06161,100.1184,3.5643516,0.7,-112.61039,-1374.6249,0.0014371113,-3.4050126,12.71479,13.780568,13.857348,13.873649,2.3497269e-07,0.3,6.327115,80.17317,80.16957,80.156494,80.24615,0.12724793,0.39218748,8.984616994857788,94.7514247695605
88,880000,83.26115536240341,-83.438995,0.0,-30.427767,-0.06624389,5.1922765,1.0,1.7824371,-10.370816,3223.7017,80.30299,18.22571,100.57732,100.26557,101.128075,100.87666,6.6345243,0.7,-112.59025,-1986.7506,0.0071144123,-8.085495,0.90049505,0.13023448,3.406663,2.9778056,5.847949e-07,0.3,5.6442814,77.89171,77.86502,78.20213,78.09503,0.18109755,0.39218748,9.270454168319702,95.83684155941009
89,890000,81.74767687343468,-87.261505,0.0,40.520164,-0.08475041,6.2023215,1.0,1.0145259,-11.977812,2723.6035,34.74444,19.546732,100.15413,100.0521,100.10594,99.98901,5.0917234,0.7,-115.48606,-1728.7571,7.2768016e-05,-3.9535503,10.746826,12.201514,9.804163,9.910782,1.1637283e-06,0.3,6.068731,81.17924,81.279144,81.345856,81.25902,0.12445327,0.509375,8.71845531463623,96.91673435370127
90,900000,76.31483344553143,-88.47916,0.0,-9.095823,-0.07513487,5.327934,1.0,0.7156126,-14.934896,2106.33,16.918213,19.935772,100.9294,101.359085,101.21354,100.90688,3.0441961,0.7,-115.33475,-1632.7262,0.0010353238,-1.5907149,8.166808,10.058613,7.760289,7.736292,1.9720755e-08,0.3,6.060965,82.49176,82.46947,82.53377,82.60475,0.12507187,0.36874998,8.174673557281494,97.98632750511169
91,910000,81.78632059845151,-85.61789,0.0,-4.047798,-0.077650815,6.72165,1.0,2.1772885,-5.1044736,2281.5369,109.00605,18.290426,100.21235,100.18413,99.68075,99.603806,4.2284203,0.7,-112.0583,-1609.9249,0.0068478277,-6.6927567,2.3392258,4.7596903,6.7726574,6.229979,1.0086224e-07,0.3,5.757204,79.80626,79.91503,80.008415,79.90208,0.1644918,0.428125,8.988564729690552,99.07048663695653
92,920000,83.84093225461442,-83.50707,0.0,25.021074,-0.08206976,6.3695273,1.0,1.8545455,-0.7351148,2096.7124,55.86465,19.161457,99.0364,98.842026,99.54719,99.46419,8.165107,0.7,-113.170906,-1628.4529,0.000987636,-4.109886,1.7167633,2.1222835,3.2925982,2.453321,0.0,0.3,5.6022234,78.03468,77.92753,78.42201,78.330086,0.22306491,0.471875,9.048621892929077,100.15145933230718
93,930000,81.47669241827822,-83.603745,0.0,-53.35312,-0.09143943,5.6884027,1.0,0.97810113,-9.159382,1726.6221,21.194637,18.401798,101.141945,101.29529,101.44259,101.452965,6.396739,0.7,-112.76712,-1761.2871,0.0009505952,-7.391315,-0.78599834,-2.402171,-3.0215392,-1.7420924,2.4789477e-07,0.3,5.3952856,78.23122,78.239685,78.43266,78.43005,0.106677175,0.43124998,8.691331148147583,101.23054037888845
94,940000,82.30537628026684,-86.45873,0.0,-4.170685,-0.095027044,6.6881633,1.0,1.2354965,-12.677529,2127.0503,26.734978,18.300587,100.50351,100.563644,100.49134,100.14384,16.126396,0.7,-116.66432,-1697.504,0.0032152103,-5.3363485,5.5434265,6.232689,4.5423756,6.405901,2.673303e-07,0.3,5.867212,80.718994,80.7118,80.384445,80.4091,0.21444713,0.4890625,9.002493858337402,102.31387439966201
95,950000,81.64827690605347,-82.54006,0.0,-53.578243,-0.14040469,7.638808,1.0,1.7938325,-10.7970085,2228.394,74.60948,18.229729,99.15075,99.15434,100.151436,100.02049,20.211494,0.7,-115.57101,-1398.7938,0.004265737,-4.5588584,10.699041,10.737913,10.79702,9.661742,1.6093254e-07,0.3,5.426283,77.07522,77.10892,77.21706,77.15474,0.1786926,0.4703125,9.082350730895996,103.40167594353358
96,955000,78.43087137400721,-86.27632,0.0,-71.06082,-0.09031641,6.1880984,1.0,0.8501991,-7.2342963,1779.7773,18.258091,18.883644,100.1817,100.27328,100.172295,100.109215,18.465822,0.7,-114.43334,-1724.6539,2.035062e-05,-4.834521,2.4697855,6.1238046,1.8903284,7.122787,1.7968704e-08,0.3,5.880132,80.465416,80.48028,80.643295,80.53849,0.2964184,0.43593746,8.677137851715088,104.01385559240977
97,960000,79.98491555840029,-83.72629,0.0,-0.89813614,-0.10983815,6.789325,1.0,1.3864744,-13.165518,3571.1553,49.95145,20.457695,100.12422,99.73098,100.01734,100.047485,5.0019684,0.7,-110.55565,-2012.9796,0.0008814035,-2.458131,8.684696,8.967687,5.679166,9.746413,3.277499e-07,0.3,5.879636,77.86076,77.878815,78.12573,78.12857,0.12814301,0.4015625,8.570126056671143,104.62250192165375
98,965000,82.62201447748838,-86.358826,0.0,-51.325413,-0.06880843,5.871137,1.0,1.8294063,4.3920417,2096.8853,104.55765,20.26733,99.92772,99.8743,98.87125,98.891815,14.280005,0.7,-116.7941,-1589.4343,4.6520145e-05,-5.7776165,-6.2494106,-6.4956055,-8.069386,-7.7544622,7.700874e-09,0.3,6.0710516,80.38011,80.43423,80.07336,80.11319,0.15755945,0.465625,8.92470121383667,105.2370952963829
99,970000,77.56849076599502,-80.282135,0.0,-48.88944,-0.13162808,7.566791,1.0,1.3559229,-8.168621,2047.7267,29.275002,16.389238,99.45546,99.76661,100.667145,100.427185,10.6178665,0.7,-110.445145,-1716.2711,0.005712633,-3.1422417,8.253771,7.9671364,9.444701,9.468832,1.8331223e-06,0.3,5.2828603,75.03619,75.0956,75.364845,75.37089,0.2027255,0.36249995,8.388911008834839,105.84208744764328
100,975000,83.07765492229993,-86.07682,0.0,78.627396,-0.092412524,6.305986,1.0,1.373813,-7.962857,2302.5505,45.497784,20.603827,99.224556,99.52467,99.50062,99.588356,8.801964,0.7,-113.37233,-2111.8508,0.00013123179,-2.3813658,-0.30254126,1.7342494,3.3378425,1.6526034,9.561656e-07,0.3,6.6042233,79.59733,79.55065,79.88933,79.81735,0.18535501,0.3984375,8.479442596435547,106.4521264076233
101,980000,82.4053297039782,-84.80332,0.0,-25.455013,-0.09606057,6.8233933,1.0,1.4429405,-1.5975201,1761.8794,106.17172,15.49152,101.169334,101.2683,101.70461,100.70799,8.544674,0.7,-110.386765,-1400.8926,0.0002155304,-3.92977,1.1621325,2.1429806,0.9177861,0.7724135,9.00065e-08,0.3,5.817257,79.089676,79.087395,79.24341,79.10807,0.18019773,0.4984375,8.146043062210083,107.05746074517567
102,985000,81.21618590057774,-82.98993,0.0,-19.130678,-0.1253589,6.754346,1.0,0.94803417,-11.04711,2484.363,42.538822,18.242767,100.95531,100.237206,100.15148,100.05473,9.45309,0.7,-112.986824,-2210.3945,1.0268763e-05,-5.9303665,4.013278,3.2142277,4.0316987,4.9081926,5.9764716e-07,0.3,5.733884,77.450424,77.385056,77.40589,77.306,0.13994443,0.4921875,7.901845455169678,107.65454769531885
103,990000,78.50774074032645,-85.453735,0.0,-68.93377,-0.10088114,6.7764244,1.0,1.1487346,-5.911466,1620.119,34.209736,17.429861,99.70153,99.604355,99.275276,99.615074,23.7324,0.7,-112.2658,-1474.7418,0.00092795683,-2.4825854,0.81062925,0.34487307,1.3380148,1.3072864,1.8887222e-07,0.3,5.7881956,79.80605,79.780045,79.83974,79.83975,0.18740658,0.42343748,7.713258504867554,108.24593719244004
104,995000,81.55442768363163,-84.99807,0.0,10.993551,-0.096880786,6.5795593,1.0,0.75795126,-5.1349134,1995.742,37.4354,19.059586,100.39026,100.74585,100.25855,100.85414,10.462907,0.7,-112.82285,-1592.6766,0.00034717482,-4.3025727,0.28257406,0.62288475,1.1283426,1.5532278,5.657785e-09,0.3,5.8578596,79.191605,79.235466,79.075294,79.300766,0.12931354,0.37031248,8.062347650527954,108.84344180027644
105,1000000,77.71738162181484,-84.54538,0.0,8.565026,-0.14475708,7.2129974,1.0,2.3666322,-9.30044,2207.0325,150.78436,17.951313,99.67341,99.264626,99.32125,99.69527,23.61681,0.7,-113.47833,-2320.18,0.0013711341,-3.395525,4.3409986,3.047753,2.6667593,2.6884973,4.0745363e-09,0.3,6.0860405,78.51424,78.558075,78.345634,78.36595,0.24029556,0.44687498,7.582622766494751,109.43246359030405
