Xixo99/comfo/baselines/comfo6_perterbation_actor/20230222_actor_perterbation/walker2d-medium-replay-v2/COMFO6_s2_20230222_131118_walker2d-medium-replay-v2_84.87.csv
,step,reward,actor_loss,alpha,alpha_loss,critic_loss,max_actor_loss,max_alpha_loss,max_critic_loss,max_mle_prob,max_q1,max_q2,max_target_q,max_v,max_value_loss,max_weight,min_actor_loss,min_alpha_loss,min_critic_loss,min_mle_prob,min_q1,min_q2,min_target_q,min_v,min_value_loss,min_weight,mle_prob,q1,q2,target_q,v,value_loss,weight,eval_time,time
0,0,3.045600593098674,,,,,,,,,,,,,,,,,,,,,,,,,,,,,,,,,
1,10000,4.925236037731805,-25.062479,0.05877056,-13.428035,1.4306319,12.899211,22.060715,55.029907,16.02561,44.857975,44.864212,44.820446,44.13964,3.0269747,0.7,-47.27381,-39.36108,0.0010407422,-9.918995,-10.68491,-10.972726,-11.129766,-10.878121,3.398011e-06,0.3,1.3577993,24.625961,24.66031,24.54472,24.216236,0.0868749,0.47500002,0.981370210647583,1.8811719457308451
2,20000,4.582956976352728,-38.10019,0.0035578022,-18.454422,3.423148,-1.3696274,270.59274,46.797752,28.649935,66.32703,65.86287,68.92194,65.87323,12.788928,0.7,-69.034744,-71.18607,0.00033780455,-11.120104,-3.0304356,-2.895114,-1.2706265,-2.322495,3.373022e-06,0.3,0.90910786,37.493996,37.507484,37.794037,37.71273,0.25472265,0.37812498,1.1682088375091553,2.489347342650096
3,30000,2.094004078667039,-44.84656,0.00019689692,-22.817814,7.132645,9.3031025,251.22731,600.96265,20.607052,83.333595,84.56671,83.87721,84.07719,7.048738,0.7,-85.62855,-120.42058,0.0005432871,-13.903995,-9.02402,-9.101831,-2.5515308,-10.333494,5.699298e-06,0.3,0.10222952,44.089046,44.117188,44.29895,43.923412,0.36857113,0.4796875,0.9598400592803955,3.0964061617851257
4,40000,4.910542290822063,-51.50278,1.05089075e-05,-21.002369,4.994587,6.130199,280.54816,152.37943,16.946117,89.241196,88.95772,88.77139,88.654045,12.527004,0.7,-90.3073,-155.495,0.0030551646,-10.363377,-10.209814,-7.440846,-8.745825,-5.8268604,7.429061e-06,0.3,0.2968706,50.546265,50.522743,50.575653,50.737343,0.4012069,0.4296875,1.2488420009613037,3.711132121086121
5,50000,19.41252288709338,-54.380283,5.547957e-07,-23.765018,6.865632,14.3757515,372.78326,158.03137,20.834234,103.49269,103.65481,103.78556,103.21978,16.986336,0.7,-104.84961,-175.53857,0.0025088624,-10.965553,-13.0370245,-13.056764,-17.633856,-14.224142,1.7158045e-05,0.3,0.96442,53.22132,53.228317,53.51806,53.059967,0.49624276,0.50312495,2.758463144302368,4.345235200723012
6,60000,12.630054380194677,-55.13371,2.9010446e-08,-26.178743,4.1739736,3.8700933,370.5598,62.385048,19.964664,100.939354,100.41356,100.58975,100.14354,19.877129,0.7,-100.517,-228.44301,0.0007728129,-14.342241,-0.18309522,-5.8108883,1.5222971,-1.5818546,9.953947e-08,0.3,0.14065412,53.979286,53.92044,53.786774,53.709557,0.5272019,0.45625,1.808823585510254,4.969525027275085
7,70000,31.444056035491165,-56.851463,1.5558731e-09,-34.828423,6.9683475,4.4444437,575.3796,153.70032,15.863819,99.36013,99.545845,98.24396,98.73992,24.516817,0.7,-100.41721,-252.452,0.0018521575,-12.475884,-6.7631836,-7.184967,-8.311871,-5.9069796,1.261651e-07,0.3,0.025209628,55.86225,55.942806,55.2697,55.426582,0.7257148,0.4921875,3.5624427795410156,5.617191215356191
8,80000,30.432927232509616,-59.468056,8.284258e-11,-34.815975,3.680215,6.6170783,617.33417,73.035286,24.054401,99.8145,99.80808,99.39219,99.319336,10.47425,0.7,-101.458206,-260.63223,0.0004426114,-12.0714035,-10.945917,-9.887597,-7.9960504,-7.7565074,2.926495e-06,0.3,0.8658258,58.315235,58.304962,58.35076,58.341118,0.5127838,0.4140625,3.513155460357666,6.267601335048676
9,90000,45.62049613045119,-57.082546,4.4901834e-12,-42.106255,7.2892528,4.3740773,657.7482,367.82642,17.321861,107.1246,106.144455,106.194084,106.49139,20.63833,0.7,-108.44366,-334.76062,0.0031895565,-13.029845,-3.605432,-6.111497,-6.4434047,-6.2825885,4.1585417e-06,0.3,0.6559179,56.05231,55.98832,55.5859,55.817333,0.45593613,0.43125,4.911880970001221,6.936785308519999
10,100000,52.94893590994446,-58.138428,2.3581666e-13,-45.221466,7.973899,7.9039984,619.05835,255.05157,32.701424,104.70423,102.92929,104.966675,104.39446,27.521646,0.7,-106.72951,-362.2656,0.0047469465,-13.111798,-10.221808,-8.864538,-7.4713144,-10.337129,2.6833268e-06,0.3,0.94323385,56.997124,57.052902,57.837296,57.543945,0.6086601,0.409375,5.242453336715698,7.612248746554057
11,110000,57.276500074795386,-55.77829,1.25988265e-14,-64.147705,6.3748827,6.3123636,619.82263,499.76114,34.71806,110.05823,109.91959,109.47271,110.07248,6.461682,0.7,-111.044525,-406.5311,0.0018505577,-11.812835,-5.8743253,-4.326023,-5.5532813,-5.518,2.5348447e-06,0.3,0.31138384,54.876644,54.90307,54.927902,54.979675,0.5064409,0.47187498,5.832974672317505,8.302130655447643
12,120000,55.86088116393291,-56.42756,6.7195494e-16,-54.466263,4.8554,14.006796,845.8561,110.66287,18.436415,100.753494,100.52051,101.20804,101.0304,12.777212,0.7,-101.90611,-471.81604,0.00025036756,-15.405119,-15.36559,-17.482546,-15.942451,-14.231282,2.0186417e-06,0.3,0.709564,55.18639,55.22426,54.8002,54.945084,0.65563536,0.46249998,5.742180824279785,8.98272713025411
13,130000,47.60274914451294,-57.982018,3.6297943e-17,-69.84776,3.896022,-0.40379047,828.9078,78.21813,14.124788,100.65092,100.677414,102.28663,101.609535,9.06112,0.7,-101.715126,-561.2386,0.005881635,-17.259285,-3.6326053,-0.78250414,-3.6025333,-3.135078,1.1942972e-05,0.3,0.20749025,57.07341,56.829422,56.97409,57.109978,0.5889616,0.4421875,4.727304220199585,9.634243206183116
14,140000,64.6074763211238,-55.71215,1.9880974e-18,-78.317474,5.48277,8.846565,1001.69183,124.284485,19.093676,106.79443,106.55193,106.943245,106.12981,44.604877,0.7,-109.26183,-427.36017,0.028280567,-12.00054,-9.949569,-9.967093,-9.486935,-8.844563,2.4556359e-08,0.3,0.7174552,54.640194,54.605255,55.208336,55.012142,0.93345654,0.4734375,5.931806325912476,10.303790132204691
15,150000,81.71570589562191,-56.63704,1.0795782e-19,-70.44821,3.9303548,15.074811,941.0227,74.63345,22.755798,104.057556,103.69479,103.29614,102.91108,51.21965,0.7,-106.73818,-499.87158,0.0044277916,-16.672892,-14.910595,-14.582273,-13.404096,-15.166755,2.8642535e-08,0.3,0.35157984,55.376564,55.362072,55.1773,55.449974,1.088829,0.46406248,7.233295202255249,11.013839491208394
16,160000,52.534258154803545,-54.687355,5.882473e-21,-95.507675,3.6109881,0.1724348,1398.8535,77.816025,17.61124,105.18666,106.06054,105.90369,105.17893,7.115948,0.7,-107.405304,-546.14984,0.0003197196,-17.010618,-1.387672,-2.2489696,-3.678855,-4.8296847,6.82121e-08,0.3,0.5067423,53.665215,53.55529,53.592613,53.321198,0.47069067,0.503125,4.867459774017334,11.686472288767497
17,170000,62.63670258611261,-54.894325,3.214511e-22,-81.39402,5.0359006,8.408282,1043.7535,70.15616,16.179176,102.0482,102.98428,102.23625,100.95626,25.54188,0.7,-105.34146,-710.5784,0.000977573,-16.553963,-7.924723,-10.04557,-10.480512,-8.758383,7.700874e-09,0.3,0.4419704,53.878662,53.75815,53.86216,53.832317,0.8352446,0.4765625,5.782106876373291,12.374311331907908
18,180000,59.22571424243381,-55.093582,1.7879431e-23,-80.4731,4.69647,13.176161,1295.023,83.558716,18.655315,102.11215,101.52941,100.465515,101.37519,6.496401,0.7,-104.01442,-727.0058,0.011774201,-14.7856455,-15.470773,-12.826328,-7.821538,-12.472051,6.486702e-06,0.3,0.6167243,54.07772,53.955376,54.008125,53.87645,0.4470505,0.4578125,5.533892393112183,13.050510632991791
19,190000,57.36458587493601,-58.848793,9.870452e-25,-48.922344,6.1597323,11.581027,1533.8389,93.6395,21.254395,105.416695,106.27146,107.041336,106.33653,7.15296,0.7,-108.50549,-723.30615,0.040938053,-23.112364,-13.1755495,-15.184272,-13.422588,-12.863775,1.2355624e-06,0.3,0.9412061,57.703922,57.91419,58.940598,58.329433,0.5088217,0.465625,5.701763153076172,13.738175563017528
20,200000,65.85857336549338,-56.254013,5.465742e-26,-92.74399,5.227602,8.188183,1667.3854,167.63573,16.174568,104.2438,104.36266,105.6481,106.05722,12.26694,0.7,-104.98475,-764.08954,0.000695021,-14.915375,-13.03872,-11.769774,-9.74372,-11.627799,7.338531e-09,0.3,0.72358847,55.04525,55.05464,55.65462,55.486176,0.5645621,0.44062498,6.039033651351929,14.430849556128184
21,210000,81.29403631705944,-55.744003,3.024565e-27,-69.90379,5.9381638,12.715977,2159.5764,148.1394,21.735163,103.392715,103.38734,106.47978,103.86908,14.220063,0.7,-105.437706,-754.5694,0.004838745,-13.33391,-11.23387,-11.978726,-13.22539,-11.285888,1.0043324e-06,0.3,1.1977882,54.76841,54.735107,55.42296,55.14231,0.73875844,0.46406248,7.363994359970093,15.143115746974946
22,220000,46.519356414020514,-54.722248,1.6721523e-28,-125.82808,4.2589025,13.625969,2068.4878,79.65165,16.168251,105.745415,105.68907,106.497345,105.47027,18.507553,0.7,-108.84746,-717.30975,0.00531515,-13.791085,-11.854915,-12.388083,-14.809111,-13.044285,1.9421961e-06,0.3,0.5612064,53.68625,53.469223,53.62573,53.61821,0.68374413,0.45,4.44557785987854,15.807175453503927
23,230000,48.41214402736563,-58.031303,9.384859e-30,-74.06537,4.597608,12.811721,2695.9402,137.28589,18.458183,103.99784,105.84322,105.39741,105.62284,30.457735,0.7,-108.70224,-867.4275,0.0022916668,-13.400904,-12.888419,-12.03727,-10.346382,-12.850445,1.32149535e-05,0.3,0.89216757,56.78421,56.781693,56.874996,56.87554,0.7232817,0.44843748,4.857375860214233,16.47841459910075
24,240000,68.11894371018805,-55.95907,5.204106e-31,-96.76906,5.9432764,11.206892,2152.6377,150.49759,17.105179,101.3307,101.022675,100.35003,100.9568,20.526241,0.7,-102.29227,-819.1033,0.016103497,-15.018988,-10.960861,-10.964968,-11.230242,-11.798145,3.4735306e-06,0.3,0.62693065,54.81184,54.74313,55.537033,55.577263,0.6527313,0.415625,6.728151798248291,17.18206148147583
25,250000,63.442444267135755,-58.177826,2.879806e-32,-91.335205,4.901223,2.5640876,2632.611,110.90084,15.802853,99.43914,99.79122,99.62341,99.99954,37.33614,0.7,-100.83389,-1054.3936,0.0057331487,-15.560909,-4.900644,-5.34669,-5.1311135,-2.8668046,2.1713204e-07,0.3,0.8409386,57.0853,57.104813,57.07091,57.105827,0.71234095,0.49374998,6.048034429550171,17.870364852746327
26,260000,77.81667927149851,-58.973923,1.5933729e-33,-120.84863,4.067034,7.287137,2427.3171,76.906456,17.597408,104.294174,103.41752,104.064545,104.18922,15.249212,0.7,-105.66217,-933.82684,0.00692473,-15.829796,-7.7806997,-7.3370256,-8.119995,-9.983684,2.3534521e-07,0.3,0.8403739,57.82387,57.844513,57.570503,57.582664,0.5062842,0.45,7.316500425338745,18.578681695461274
27,270000,69.29413930039166,-58.426224,8.859153e-35,-54.722866,3.748838,7.2397056,2844.5676,50.025757,24.28643,101.25063,101.058044,101.58042,101.53761,29.427713,0.7,-103.87576,-836.7748,0.02335581,-17.538988,-7.8183694,-9.490842,-8.551702,-9.996168,3.727223e-06,0.3,1.0526427,56.97139,56.81429,57.356457,57.322132,0.93207324,0.4546875,6.459411382675171,19.27878963947296
28,280000,61.07876609490949,-52.111332,4.9961243e-36,-102.461784,4.8995132,4.840198,1851.5273,64.51278,20.892101,105.085236,104.72967,103.587585,104.9428,41.865467,0.7,-105.504295,-1283.084,0.007886943,-18.40215,-6.9484453,-4.81569,-5.029147,-5.8397384,2.346933e-06,0.3,0.6959745,50.906322,50.88938,50.877724,50.998436,0.81955665,0.4265625,5.530601501464844,19.965142635504403
29,290000,75.27073692097994,-58.360603,2.7906325e-37,-114.58441,4.876594,13.808855,5385.655,81.68338,22.158108,102.072556,101.57251,102.772675,102.59975,28.854546,0.7,-101.30838,-1032.7686,0.0109527195,-13.78017,-10.558345,-11.994565,-12.448896,-9.474379,4.91318e-06,0.3,0.47861186,56.931953,56.92041,57.2835,57.4853,0.8940949,0.43906248,6.8431291580200195,20.67067827383677
30,300000,70.2622685482835,-57.952366,1.5556453e-38,-88.46178,5.435649,7.915644,2647.8743,118.03812,16.975052,101.38707,101.51677,103.02174,101.14969,101.23908,0.7,-104.550415,-1074.1165,0.0021962423,-15.32434,-8.987303,-9.924591,-8.78517,-8.897868,9.586189e-05,0.3,1.1605753,56.72281,56.66504,56.715683,56.800323,1.4617219,0.3796875,6.182342052459717,21.366606589158376
31,310000,62.84833693383051,-58.06813,8.68728e-40,-166.8389,3.3607745,5.795409,2066.916,82.37592,16.514252,101.35793,101.633995,102.70382,102.25368,15.04914,0.7,-103.33452,-1167.1562,0.007797585,-14.583703,-2.6679688,-3.2017095,-5.7205896,-1.8808639,2.5778283e-05,0.3,0.66566324,57.10328,56.920887,57.09387,57.103245,0.5174494,0.5078125,5.840591907501221,22.055461959044138
32,320000,79.01844808456148,-56.312675,4.8521e-41,-96.58143,4.7941537,9.669152,2599.6028,99.73966,27.310978,101.86285,102.46245,102.351654,102.17341,16.833057,0.7,-105.2511,-1000.2725,0.0017297367,-15.274048,-10.073086,-11.346982,-9.538243,-10.490538,2.3093891e-07,0.3,0.9475011,54.70847,54.600517,55.054928,55.20031,0.8198562,0.4046875,7.01125693321228,22.763774875799815
33,330000,54.72992515064079,-55.650227,2.763e-42,-134.24603,5.089552,12.237886,1618.1538,211.46466,18.006826,99.17684,99.556625,100.417435,100.59841,26.73881,0.7,-100.554794,-1191.4271,0.0041696797,-15.618031,-14.15469,-12.324713,-12.343379,-12.021147,5.3468125e-06,0.3,1.0443422,54.499626,54.555218,54.891563,54.979324,0.70324147,0.4125,5.302022933959961,23.444776920477548
34,340000,51.03597354908299,-56.49855,1.54e-43,-148.02713,6.0269814,4.9405375,3174.7244,219.389,18.365664,104.0772,105.31181,101.51065,101.71273,14.324114,0.7,-108.090904,-1307.9076,0.051309735,-13.118931,-6.1976833,-5.844446,-7.11338,-8.436613,2.3665314e-06,0.3,0.95475507,55.192364,55.197926,54.527283,54.636932,0.7988558,0.48437497,4.711958408355713,24.11397094329198
35,350000,50.388126079124504,-53.360836,8e-45,-108.05026,5.4018655,6.20196,4186.5225,94.55971,16.295168,98.88778,99.18957,98.540955,98.04933,19.348,0.7,-100.04448,-1356.2228,0.0068843532,-15.893595,-3.10261,-1.7935587,-2.4397712,-3.1931539,1.7853465e-06,0.3,0.2868138,51.961998,52.20651,52.105453,52.19082,0.696061,0.4578125,4.733257055282593,24.785776233673097
36,360000,88.54886932257143,-54.62047,0.0,-69.51546,6.625044,12.701428,8531.299,214.854,21.953392,97.12614,94.788055,95.63696,96.142265,23.957237,0.7,-99.98789,-1591.1016,0.0003843737,-15.647395,-9.458507,-9.950557,-9.142432,-8.7057905,8.000358e-07,0.3,0.46566635,53.556377,53.41372,54.01115,53.725327,0.60197467,0.4390625,8.575908899307251,25.51958523988724
37,370000,70.13497833606625,-61.067467,0.0,-158.18353,4.19316,4.4139013,3882.315,107.461,23.346596,100.06439,100.323296,101.9234,101.33657,6.489052,0.7,-103.395996,-1506.1609,0.0012945633,-11.980335,-4.248212,-4.069429,-3.9835052,-5.245965,2.7723146e-07,0.3,0.9268332,60.033043,60.116043,60.402454,60.365517,0.57920194,0.403125,6.89436149597168,26.22049713929494
38,380000,66.35111633254193,-57.5085,0.0,-140.02112,5.893013,3.8509054,4698.795,205.88098,20.8296,99.14682,100.57892,98.84344,100.02907,6.979207,0.7,-102.11554,-1176.5986,0.015811058,-15.352635,-3.954534,-4.9693117,-3.55878,-6.0505133,7.6065774e-08,0.3,0.5329975,56.242676,56.290848,56.002377,55.843933,0.60287404,0.4671875,6.647239446640015,26.919674770037332
39,390000,78.5519836269809,-57.411877,0.0,-140.36844,4.923472,7.713118,3483.1995,58.654053,33.629795,102.10962,102.1176,102.13065,102.36099,105.71201,0.7,-102.97373,-1385.452,0.0036843286,-15.498337,-7.14886,-8.500512,-7.6995487,-7.3094826,6.755884e-06,0.3,0.75436497,56.183533,56.00113,55.195118,55.61642,1.0342003,0.4515625,7.5357911586761475,27.633746655782065
40,400000,71.68028175384133,-55.810997,0.0,-88.026535,4.2591343,3.8825753,3434.9343,77.64626,31.198812,99.211006,99.05962,99.96036,100.03679,7.879383,0.7,-100.61031,-1448.931,0.0039390023,-17.096025,-6.645131,-5.987851,-7.1913447,-10.926845,2.739718e-07,0.3,0.8978215,54.40815,54.64988,54.56073,54.2992,0.53814936,0.49375,7.022160053253174,28.34054564634959
41,410000,81.64193486016839,-56.90197,0.0,-163.84338,3.8784392,9.521154,2632.8533,67.98206,15.446516,100.13051,100.72533,100.340294,99.60319,31.92989,0.7,-102.4168,-1239.27,0.0065133357,-12.375216,-9.209287,-10.299238,-9.837527,-10.054694,2.499924e-05,0.3,0.87470865,55.806396,55.840584,55.694084,55.702183,0.774099,0.48125,7.4822258949279785,29.052705017725625
42,420000,79.05971577455101,-52.723972,0.0,-237.70782,5.292079,2.8218384,2500.252,157.54465,17.084354,102.22043,102.32164,102.51028,102.279,9.062756,0.7,-104.83928,-1571.0955,0.0045714257,-16.572828,-2.077893,-3.2850823,-2.8373191,-2.2473245,3.4113035e-07,0.3,0.08374378,51.590977,51.715256,51.620888,51.730362,0.6574384,0.4421875,7.341405630111694,29.760510396957397
43,430000,72.72953353236747,-55.83828,0.0,-190.38786,5.1126404,9.528593,1834.1539,98.44612,19.29082,103.55201,104.45132,104.29855,104.967896,13.531381,0.7,-105.51766,-1573.1415,0.002719703,-12.851244,-7.9113603,-7.998134,-9.278458,-8.369635,1.756723e-05,0.3,0.63859737,54.63595,54.732887,54.819572,55.17778,0.89214814,0.38437498,6.78863525390625,30.460724492867786
44,440000,74.63370792931633,-56.63128,0.0,-117.37896,4.434708,7.1539865,3936.374,123.43983,34.97309,99.18173,99.181915,98.88026,99.166214,15.169238,0.7,-102.02222,-1666.0605,0.0028133173,-12.916084,-9.640918,-9.006657,-9.030651,-8.998402,4.5264025e-07,0.3,0.7627728,55.2326,55.113407,54.736137,54.837605,0.6093885,0.4890625,6.906060218811035,31.16205041805903
45,450000,77.17540980909578,-56.351837,0.0,-114.850945,4.836178,10.686949,8566.514,98.100044,23.675167,100.30543,100.614716,100.634125,100.40747,20.987663,0.7,-106.1947,-1453.1959,0.0014774087,-13.5993805,-6.107162,-5.9960704,-5.6439023,-5.835807,3.9599627e-06,0.3,0.36964872,55.116856,55.160263,54.551636,54.38214,0.7574785,0.465625,7.104248285293579,31.865643711884818
46,460000,57.05715764779855,-57.30662,0.0,-140.77649,3.8245263,13.197727,4989.598,69.64171,16.418533,100.85724,101.56666,101.356895,101.89295,6.5045404,0.7,-104.69945,-1795.8092,0.0017517982,-15.378298,-10.910858,-10.833251,-11.265299,-10.463445,5.784212e-07,0.3,0.8245555,55.976433,55.96666,55.983,55.96018,0.5305575,0.459375,5.354521751403809,32.53986796538035
47,470000,82.0974963308327,-55.395653,0.0,-203.0362,4.9815216,11.883791,5127.879,150.42891,19.422535,98.69081,99.01489,97.33601,97.94632,7.9247723,0.7,-99.67255,-1656.5958,0.0028296132,-14.259679,-13.991776,-12.486383,-14.00189,-13.831535,6.2291915e-06,0.3,1.1086915,54.48163,54.519108,54.04999,54.22488,0.5147252,0.5,7.608285427093506,33.25728342533112
48,480000,81.20919771043809,-54.760094,0.0,-230.43533,5.266529,3.4555478,2399.7593,241.81967,15.88986,98.72816,99.159645,99.15438,98.964935,19.439936,0.7,-100.004585,-1780.9412,0.0023905563,-14.331381,-5.0739965,-6.60683,-7.3638215,-5.945291,4.1953174e-07,0.3,0.7842129,53.436703,53.52642,53.243973,53.357708,0.71520025,0.465625,7.22381329536438,33.96789449453354
49,490000,70.35640003694749,-56.094597,0.0,-229.51303,4.1350374,11.641274,6316.072,95.17666,25.232618,100.463875,100.71707,100.42724,100.59901,48.54165,0.7,-102.898705,-1556.178,0.0012416244,-16.518673,-11.120656,-11.050961,-14.320288,-13.393467,1.10175456e-07,0.3,0.0274899,54.803825,54.83807,54.41962,54.475407,0.9717876,0.49062496,6.426568984985352,34.663451023896535
50,500000,80.91968527322678,-54.962837,0.0,-201.0567,3.9786954,18.010746,4797.573,52.70325,19.328747,98.282074,98.15901,97.96915,97.88154,11.189699,0.7,-100.3328,-1680.2389,0.0053760977,-16.46523,-15.69974,-14.369624,-14.532216,-14.817527,3.260774e-05,0.3,0.4837623,53.65862,53.4896,53.366783,53.474583,0.58964944,0.4671875,7.190476894378662,35.372846921284996
51,510000,79.59204762924035,-53.893322,0.0,-175.56015,3.3663344,8.439126,7993.654,40.911324,16.43702,99.47787,99.31623,99.57932,99.44501,27.769812,0.7,-101.71207,-1653.9103,0.00026167725,-16.687578,-8.100109,-8.962288,-8.047392,-7.228121,1.8218242e-06,0.3,0.3855244,52.51339,52.562515,52.370502,52.441383,0.6588798,0.42031246,7.105928182601929,36.07767714262009
52,520000,77.4847631227439,-56.142513,0.0,-241.05687,3.7356398,10.580289,4363.871,80.658134,23.669094,99.2804,98.429306,98.22047,98.3087,13.344962,0.7,-100.05437,-1792.8093,0.009485927,-13.105869,-11.253825,-9.40974,-9.459887,-9.688864,8.716172e-06,0.3,0.99461,55.077637,54.9397,54.728096,54.502144,0.64649343,0.48749998,6.938753128051758,36.785170845190684
53,530000,84.70542359879467,-55.242226,0.0,-227.57603,3.7428591,4.135069,4023.383,89.10548,16.193243,102.013176,102.53131,103.00085,103.114296,32.018948,0.7,-103.59363,-1843.8318,0.002868468,-16.862476,-6.6003323,-4.7444906,-6.365993,-6.857582,4.0045456e-06,0.3,1.0612711,54.109234,54.15668,54.26066,54.22621,0.8037603,0.453125,7.530012369155884,37.50022396643956
54,540000,88.20285764182304,-54.082573,0.0,-220.38503,4.7084274,10.492449,6729.9575,106.53206,25.99356,97.43707,97.65278,99.032166,98.307,19.020584,0.7,-99.22342,-2185.9294,0.00084607076,-15.392509,-5.285364,-4.4851584,-4.601487,-5.2925797,4.206151e-05,0.3,0.66859806,53.054733,52.895603,52.88364,53.010048,0.5058874,0.44687498,7.6926140785217285,38.21571720838547
55,550000,80.11942272759221,-58.1007,0.0,-176.2178,3.950285,6.535252,6299.363,66.47019,25.726788,102.82013,103.814995,104.31418,102.646324,13.042908,0.7,-107.830414,-2134.7227,0.0031304401,-11.412053,-8.025623,-7.899121,-9.631389,-9.689899,5.6735008e-08,0.3,0.8649461,57.02561,57.022156,57.13116,56.95376,0.60377383,0.425,7.2511701583862305,38.919742166996
56,560000,70.4438488063916,-55.57756,0.0,-104.82944,6.435665,11.1898365,5564.987,374.13367,22.102812,100.253716,99.668846,99.92563,99.86627,16.444746,0.7,-102.39083,-2111.6772,0.0002689234,-15.406904,-10.1866455,-9.986409,-10.731464,-10.048894,1.8901367e-06,0.3,0.97159475,54.18692,54.044598,54.055088,53.913467,0.6950537,0.4921875,6.302425146102905,39.60654964844386
57,570000,83.71580731783061,-55.71464,0.0,-71.67543,4.232086,9.222626,9669.507,118.2184,14.977812,101.93894,99.255554,98.92649,98.913506,11.541414,0.7,-102.16662,-2058.942,0.0007650099,-16.230312,-8.251963,-8.676132,-8.9626255,-8.0625515,5.3788245e-08,0.3,0.4622829,54.42177,54.364227,54.24433,54.26615,0.68154854,0.465625,7.489943265914917,40.320403802394864
58,580000,72.59612590567782,-56.6434,0.0,-247.04247,8.033905,9.945354,3746.6018,574.4143,20.120567,101.24312,101.507645,101.25559,99.740524,19.578482,0.7,-102.34291,-1983.4817,0.0029013806,-13.291613,-10.164059,-10.629247,-8.52801,-9.125848,9.00065e-08,0.3,1.0426059,55.30258,55.254898,55.690975,55.725372,0.78843236,0.43593746,6.56318473815918,41.019577558835344
59,590000,78.71717141568018,-56.347145,0.0,-201.55707,3.7497299,3.3052115,11180.052,37.945786,15.311811,102.76974,102.71285,102.8543,102.70229,13.9188385,0.7,-106.54157,-2251.6653,0.0019266785,-12.595408,-0.6940626,-3.650455,-0.62949544,-0.9238457,2.0975993e-05,0.3,0.3671071,55.227673,55.24105,55.7655,55.747772,0.6299741,0.409375,7.096871852874756,41.72505162556966
60,600000,59.64593107668284,-52.992455,0.0,-264.19623,4.153028,8.876821,7177.3257,48.237793,24.640074,99.33469,99.983864,99.68916,99.515686,12.721244,0.7,-99.06117,-2610.5388,0.00031271728,-14.086158,-7.053923,-5.8946233,-9.988124,-5.475356,2.9929681e-06,0.3,0.22708116,51.93581,51.99495,52.097954,52.118355,0.72043824,0.41562498,5.467765808105469,42.40839541753133
61,610000,79.55099360798971,-54.239624,0.0,-178.3539,5.6421423,2.4206266,8562.982,283.966,21.546638,100.779205,99.02214,99.37604,98.73792,23.480932,0.7,-102.030464,-2406.3552,0.0015306475,-14.300413,-5.8152347,-8.161544,-7.3086476,-6.5469933,2.7016722e-06,0.3,0.41472113,53.037956,53.080948,53.514145,53.08922,0.7644023,0.4984375,7.060595512390137,43.11561793088913
62,620000,82.48473263150342,-55.597794,0.0,-177.38101,3.7636137,7.07119,7118.4927,39.483692,25.465754,104.276825,105.13156,102.36998,103.22134,16.726439,0.7,-105.527824,-2355.899,0.0006072967,-17.297285,-6.9922495,-6.302611,-7.6035504,-7.9022427,5.106151e-07,0.3,0.77166903,54.377792,54.385517,54.368675,54.381588,0.7831471,0.459375,7.730069398880005,43.83115252256393
63,630000,82.47280405575219,-59.143154,0.0,-353.5094,3.810061,6.619315,3138.199,48.011734,19.137493,99.09647,98.55367,98.37862,97.77581,35.901417,0.7,-100.57299,-1960.2764,0.0049723648,-13.12134,-4.8022504,-4.9906664,-5.6312814,-5.664493,5.2823452e-06,0.3,0.9183607,58.080063,58.196457,57.990494,57.88542,0.8187326,0.51875,7.670492887496948,44.54855213165283
64,640000,77.25525080046525,-53.477997,0.0,-223.42326,4.8880587,6.6288357,7431.2915,125.05535,22.49931,99.45951,99.36136,98.67489,99.402916,26.130186,0.7,-103.412315,-2189.4233,0.00466957,-17.587147,-7.169773,-9.669441,-8.610741,-7.711424,1.9620638e-05,0.3,0.51043963,51.69262,51.78993,51.517433,51.84545,0.96083945,0.4375,6.9287590980529785,45.25636281967163
65,650000,78.39815693388039,-56.051933,0.0,-222.56651,4.568701,9.853558,6203.5967,214.37485,23.280468,97.393326,97.17124,97.63777,97.93499,7.139969,0.7,-99.22303,-2115.5308,0.0005413413,-14.647473,-9.066059,-8.471757,-7.468646,-8.118602,2.6494671e-08,0.3,1.049474,54.9851,54.73933,54.841587,54.942398,0.58740205,0.4046875,7.207892656326294,45.96708016792933
66,660000,81.62568472639708,-56.772423,0.0,-303.85825,4.5941415,5.657255,2936.9167,88.348495,19.266659,99.22872,98.29213,98.75406,98.51577,42.301888,0.7,-100.25847,-2632.232,0.0023964243,-15.946006,-3.6596112,-4.0147877,-2.05401,-3.429769,1.4635197e-06,0.3,0.93544686,55.535397,55.589417,55.266006,55.343742,0.92278814,0.5046875,7.307668447494507,46.67876992623011
67,670000,66.54154443963749,-55.5313,0.0,-133.87791,3.6279235,11.13352,5481.7876,41.972176,23.362799,97.75523,97.391335,97.32732,97.04776,19.199657,0.7,-98.45523,-1962.9198,0.0031504808,-19.696972,-9.852336,-9.146184,-9.628051,-12.09787,3.0925833e-06,0.3,0.94137317,53.84841,53.85086,53.512848,53.709343,0.6781464,0.4265625,6.344838857650757,47.378045014540355
68,680000,74.9964769955957,-53.384285,0.0,-366.46338,4.839153,12.241483,3926.2727,97.317566,18.440231,98.98127,97.90485,98.67571,98.7068,12.333444,0.7,-99.87274,-2359.9946,0.008954822,-15.297115,-11.04366,-10.105322,-9.070415,-9.956477,1.0913936e-06,0.3,0.22135887,52.23796,52.15219,52.93175,52.846043,0.6286848,0.4234375,6.726967096328735,48.08324001232783
69,690000,76.34247243041492,-56.955414,0.0,-250.65483,3.2811162,7.3532357,11682.885,39.037132,17.413591,99.21164,99.04387,98.11812,100.17811,29.941572,0.7,-101.699615,-2446.6328,0.0040114853,-16.015667,-7.27659,-7.1060257,-7.5587254,-7.894809,3.4113035e-07,0.3,0.6751515,55.73497,55.947678,55.48274,55.630318,0.7768899,0.4578125,6.738029956817627,48.78485857248306
70,700000,80.57290383836542,-56.3764,0.0,-282.42056,4.7192483,8.729632,3356.9714,120.1418,23.452208,100.60237,101.02755,100.011314,99.67964,43.653736,0.7,-101.080315,-2585.396,5.628285e-05,-15.732529,-9.314665,-8.901455,-12.160942,-7.9200034,5.57804e-08,0.3,0.43906093,54.678085,54.854847,54.426037,54.766888,0.9958787,0.45,7.13904881477356,49.49427399635315
71,710000,83.56606547993444,-55.87944,0.0,-332.84192,4.170863,7.185313,9008.349,169.3773,15.11446,103.99003,103.73175,101.19796,102.00406,12.415653,0.7,-105.05931,-2630.5596,0.005222505,-12.567497,-6.2242785,-8.248408,-4.1413546,-7.3791814,5.193571e-05,0.3,-0.2084207,54.588493,54.54653,54.168335,54.188225,0.7886976,0.5046875,7.423084735870361,50.206256262461345
72,720000,85.77292793064257,-54.48451,0.0,-283.40698,5.1016564,6.075552,3949.452,289.34827,19.075745,96.1725,97.193,95.35767,96.053635,20.266748,0.7,-98.5151,-2466.9387,0.005920437,-11.378824,-14.448959,-8.555673,-9.093297,-7.8447194,1.4668331e-05,0.3,1.0547708,53.429054,53.482758,53.033688,52.9674,0.7094706,0.49062502,7.818948745727539,50.92668718894323
73,730000,72.78803338031175,-53.298977,0.0,-90.784584,5.4788213,11.8329935,12543.108,280.3762,28.79447,101.88448,100.42998,101.732605,101.86576,16.103582,0.7,-104.22542,-2886.7205,0.0030300342,-11.715105,-10.669512,-9.960325,-10.008509,-10.058627,4.2786996e-06,0.3,0.44154644,51.88586,51.834454,52.229626,52.378597,0.7818887,0.4203125,6.463519096374512,51.62213804324468
74,740000,81.81523459775615,-53.31539,0.0,-209.94672,3.846881,7.897434,5433.523,43.078712,18.720032,103.28421,103.25433,103.11942,103.0812,12.587048,0.7,-104.093414,-2967.0525,0.0074501885,-14.109386,-5.49237,-6.025423,-6.636164,-6.0054817,2.0594965e-05,0.3,0.26062313,52.075745,52.090164,52.016544,52.116745,0.8216431,0.446875,7.201906442642212,52.33517142136892
75,750000,87.01569292782708,-53.360134,0.0,-175.09732,6.0249243,11.6820755,9596.027,193.83493,15.695794,100.57758,101.41435,100.38048,99.70557,45.520153,0.7,-103.47931,-2654.0134,0.005336009,-14.262873,-10.380986,-12.050176,-8.384919,-9.014208,3.349662e-07,0.3,0.040398777,52.03056,52.068497,52.278,52.12197,1.0547554,0.46406248,7.778806209564209,53.0557408452034
76,760000,81.21746005942926,-53.392044,0.0,-256.5901,5.577653,8.731083,4038.652,127.763626,15.998442,100.43434,99.69217,99.43875,99.834724,13.043753,0.7,-101.90157,-2826.0525,0.0015554252,-15.635998,-6.7700343,-8.3258505,-7.892606,-7.399872,2.3965473e-05,0.3,0.8021699,52.28125,52.07935,52.562447,52.54602,0.79560494,0.40937495,7.133343458175659,53.76288650433222
77,770000,82.20614418127421,-54.228714,0.0,-440.40134,4.356204,10.196484,5783.1855,110.862045,18.026176,96.528366,96.87051,97.650604,97.6736,103.328896,0.7,-99.30902,-3059.008,0.0003491533,-25.48336,-11.568943,-11.637379,-11.479011,-10.674749,2.8610231e-05,0.3,0.084198125,53.085625,53.05375,53.474644,53.385212,0.97416687,0.41718748,7.229119300842285,54.473495384057365
78,780000,91.52340917226039,-56.095055,0.0,-325.77274,4.7082253,8.231836,4407.819,103.21825,16.286314,99.41111,100.14048,99.70016,99.295906,9.320624,0.7,-101.529,-3123.3674,0.0008943352,-13.768896,-11.851007,-9.3400135,-11.709467,-10.689819,1.1259847e-05,0.3,1.2012243,55.063053,55.056213,55.07573,55.010036,0.5064657,0.49999997,8.072277069091797,55.19800523519516
79,790000,78.3288530642528,-54.905754,0.0,-354.54132,3.5080945,12.971062,4766.037,31.241219,35.781956,97.95097,98.692566,99.3843,98.528885,17.012327,0.7,-101.79949,-2897.6572,0.005769665,-15.402082,-11.582071,-14.795353,-13.375742,-11.358062,3.1267013e-05,0.3,1.077557,53.60772,53.646446,53.90159,53.93673,0.7243184,0.4296875,6.987654685974121,55.906962331136064
80,800000,82.86900219146538,-54.120323,0.0,-362.85843,3.547564,2.968366,5212.4434,64.37111,22.766605,97.29178,99.60743,98.73379,97.81224,130.32541,0.7,-102.46175,-3353.0222,0.011302494,-16.152796,-2.8533158,-5.3635063,-3.4592383,-2.1805143,9.29035e-07,0.3,0.4175716,52.65241,52.53434,52.664543,52.986458,1.173393,0.45,7.880215406417847,56.62796445687612
81,810000,83.25067573290754,-56.34237,0.0,-425.29135,2.8162208,9.332272,7631.0776,23.396152,25.681877,101.09273,102.41984,102.13637,100.008194,23.381239,0.7,-102.462944,-2806.208,0.013030679,-15.274003,-3.8901813,-5.427775,-5.8455963,-5.551058,1.9597065e-08,0.3,0.46620157,54.962303,55.17472,55.008904,54.998516,0.67837644,0.453125,7.342294216156006,57.34323360125224
82,820000,86.6642387349476,-55.802643,0.0,-218.87569,3.7199128,10.354786,13029.919,88.38231,26.056227,97.54527,98.901886,97.39542,98.139275,13.1504545,0.7,-99.80529,-3091.7263,0.0048453137,-15.311566,-9.032135,-11.150624,-9.585113,-9.533745,1.0043324e-06,0.3,0.55685824,54.32023,54.47725,54.21972,54.361862,0.6048224,0.48125,7.753521203994751,58.06329478820165
83,830000,83.09771604121946,-55.884567,0.0,-257.64905,3.3778412,7.6669526,7317.0186,72.12879,28.545517,97.38498,98.02311,97.61923,97.52398,34.08549,0.7,-99.376526,-3312.438,0.0039399965,-15.932436,-10.61792,-9.6475935,-11.132719,-10.259997,1.8672262e-06,0.3,1.0176246,54.416508,54.400406,54.33159,54.09817,0.7959702,0.46249998,7.342720985412598,58.77510820229848
84,840000,87.25698085534745,-53.40858,0.0,-314.15277,5.355831,7.2863894,7254.8667,162.01614,19.62675,101.3343,102.43802,103.25967,100.60828,84.868675,0.7,-103.514275,-3703.9773,0.0069405944,-11.571341,-9.8011,-8.114092,-10.5702305,-8.201023,4.351015e-05,0.3,0.8198068,52.069817,52.25764,51.690254,51.848377,1.0902361,0.4828125,7.863461256027222,59.496033775806424
85,850000,86.79236630650175,-55.448193,0.0,-271.40195,5.1020927,5.947609,7497.0713,228.44754,18.739328,99.376396,98.938705,99.595245,98.92778,10.791899,0.7,-99.756714,-2955.2878,0.0059202975,-16.00785,-4.1563396,-2.5114875,-4.2513075,-3.7080257,2.7723146e-07,0.3,0.6931282,53.926414,54.007416,54.224266,54.283325,0.56329584,0.421875,7.6763269901275635,60.21507132848104
86,860000,84.99231921996564,-57.178017,0.0,-325.253,3.4784837,11.090329,13518.914,46.915554,18.759087,103.04323,101.93755,102.03191,102.22178,11.478053,0.7,-103.3737,-2724.5244,0.0062099383,-16.44459,-9.7032995,-11.660275,-10.89629,-9.352855,4.4154975e-05,0.3,0.6316886,55.948944,56.0642,55.927498,55.96122,0.6190604,0.46875,7.501168489456177,60.93170295159022
87,870000,83.17794600962354,-56.616566,0.0,-383.05298,4.4154882,7.052722,5414.0923,106.45505,22.642609,99.126335,98.67159,99.05739,99.202995,18.430136,0.7,-99.718765,-3163.3953,0.0045859823,-18.944136,-8.405697,-6.903831,-5.70605,-5.563183,1.7881394e-08,0.3,1.2755169,55.178642,55.477646,55.5615,55.592262,0.8751265,0.44687498,7.730181455612183,61.65190279483795
88,880000,82.60357278769418,-55.618847,0.0,-337.21802,6.578796,5.3048882,8241.425,258.5687,25.681328,99.98294,99.44665,98.79588,98.685875,23.203003,0.7,-101.62513,-2975.0518,0.012915377,-14.912375,-5.654289,-5.7084227,-5.5886292,-5.6396627,2.48532e-05,0.3,0.97547203,54.289978,54.231472,53.986256,54.186577,0.87868243,0.4609375,7.54063606262207,62.36252892812093
89,890000,91.21867894000565,-57.331837,0.0,-276.01508,4.9692154,11.602746,6568.6714,96.850586,15.247927,96.405495,96.285194,95.69358,97.17365,202.6206,0.7,-99.60703,-3370.2375,0.0085809715,-20.746862,-10.912443,-10.508891,-11.72809,-10.836838,7.4005397e-06,0.3,0.804784,55.756542,55.772396,55.227905,55.600037,1.5671211,0.4578125,9.311450004577637,63.10619900226593
90,900000,78.67338220675222,-54.20736,0.0,-431.18896,6.3233128,9.849649,6419.323,70.590744,13.059333,95.21939,95.32682,98.08702,96.61143,7.4957895,0.7,-96.02759,-2653.1208,0.02406647,-11.622923,-8.839263,-8.141425,-8.595239,-7.0548854,7.2671105e-07,0.3,0.7259521,53.135914,53.136177,54.29105,53.9832,0.6180759,0.40156248,7.350462198257446,63.81508428255717
91,910000,88.13013767742682,-55.38227,0.0,-317.0943,4.2803793,11.654208,7227.6226,166.96957,18.278227,98.88216,98.68895,99.34605,99.84568,71.2437,0.7,-99.739746,-3355.1833,0.0001322284,-17.14249,-4.9818115,-6.416139,-7.6300807,-9.145503,3.3386368e-06,0.3,0.8663694,54.10418,54.08939,54.3525,54.084553,0.9720475,0.45624998,8.30251669883728,64.53685053189595
92,920000,78.60275412031325,-56.03369,0.0,-250.86487,3.8423598,14.604466,16092.659,76.27913,16.267408,98.12823,98.008995,98.34004,97.59847,8.904716,0.7,-100.46494,-3496.8665,0.005180539,-17.016176,-12.074213,-10.974581,-12.120598,-11.331399,1.261651e-07,0.3,0.40508032,54.443893,54.524376,54.189865,54.274048,0.5490737,0.47968748,7.05839729309082,65.24406230052313
93,930000,74.41547688090778,-54.603012,0.0,-385.46185,4.6202135,8.928681,4774.6475,96.00709,24.982084,99.205536,99.90915,99.868675,98.61582,29.295612,0.7,-102.57921,-3534.65,0.009219344,-22.387545,-8.827122,-9.633315,-10.186357,-8.92115,2.728484e-07,0.3,0.9648085,53.224415,53.32236,53.13472,53.4981,0.77097046,0.421875,6.733041048049927,65.94339735507965
94,940000,80.21915659371294,-55.16156,0.0,-492.701,3.663008,12.596452,15573.183,53.763206,14.86006,99.86969,99.34584,98.41324,99.7186,9.648766,0.7,-101.906235,-3639.7307,0.007219881,-15.188254,-7.289981,-7.5760965,-8.486394,-7.8956027,2.3136847e-06,0.3,0.7323617,53.92861,53.93543,53.897648,53.935352,0.5359322,0.46406248,7.362870454788208,66.65185886621475
95,950000,86.9518971655337,-54.757286,0.0,-291.3712,3.2682438,18.269665,20870.04,35.13437,18.020397,101.102936,100.55652,101.94812,102.46187,15.799048,0.7,-103.30083,-3738.1926,0.007937552,-23.992908,-19.956661,-18.811653,-15.518648,-15.761552,1.4039589e-05,0.3,0.6692304,53.714657,53.684376,54.211887,54.131115,0.58956015,0.4640625,8.67000436782837,67.3862063129743
96,955000,79.23691194862205,-53.817604,0.0,-471.50717,3.4146433,8.437567,11342.119,42.79531,19.136244,95.95693,95.39401,96.346344,95.92593,7.748036,0.7,-98.21151,-3645.2073,0.014173968,-21.753525,-8.000373,-8.460431,-7.4592843,-8.313867,3.2638053e-07,0.3,0.44726342,52.640125,52.60019,52.8538,52.868706,0.47896615,0.4515625,7.627938270568848,67.80872846444448
97,960000,85.36072067483425,-58.062603,0.0,-372.15775,2.6658008,10.227428,6855.137,33.975395,22.56335,99.36769,99.61137,97.1944,99.23226,12.03204,0.7,-101.54872,-4348.83,0.0062134583,-12.994573,-10.271728,-12.269654,-9.02172,-11.704879,9.254739e-06,0.3,0.97717065,56.74938,56.657352,56.63707,56.31434,0.6911829,0.496875,7.475361347198486,68.22459615071615
98,965000,88.36504772332624,-54.279095,0.0,-231.29404,3.4799128,11.18364,20316.467,51.1032,14.430454,101.81163,102.386536,101.878494,101.63688,86.080444,0.7,-102.63848,-3805.8748,0.006177426,-17.722721,-10.724416,-9.524975,-11.414244,-9.732288,6.391638e-08,0.3,0.2715208,52.7424,52.89857,52.690372,52.769096,1.1241469,0.4109375,7.834885597229004,68.65154109795888
99,970000,81.85001497473509,-54.62809,0.0,-255.03734,4.579372,8.995107,8348.821,216.28409,36.19966,98.43148,97.784454,98.54509,98.42367,22.602583,0.7,-102.18768,-3482.4478,0.0032936414,-18.20273,-10.595592,-10.752046,-7.721304,-8.476772,1.0514911e-05,0.3,1.3291438,53.09838,52.938313,53.207184,53.167076,0.7309923,0.4421875,7.28168249130249,69.0697097659111
100,975000,92.10267998585952,-54.22506,0.0,-404.1278,4.0341234,14.512704,14028.582,124.48421,14.043296,97.30817,96.860115,96.66256,96.70282,23.640514,0.7,-98.52418,-4205.468,0.0012641409,-14.172987,-14.887346,-13.66236,-13.763116,-14.208107,6.23415e-08,0.3,0.0976332,53.058487,53.01627,52.924065,52.824158,0.8255638,0.49374998,8.274735450744629,69.50233870347341
101,980000,81.73079389862914,-55.058807,0.0,-201.2547,3.9857445,9.569038,8764.499,63.255886,13.740118,102.922455,103.59639,104.38845,104.46506,18.023521,0.7,-103.94208,-3552.194,0.0016705503,-15.331776,-8.71411,-10.156851,-11.23939,-9.394901,1.8054371e-06,0.3,0.6053641,53.693207,53.888985,54.213356,54.208614,0.711945,0.39218748,7.247130870819092,69.91805596748988
102,985000,83.23878837995684,-58.254093,0.0,-304.26654,4.488621,8.701271,13117.042,58.0058,20.334866,102.11493,101.3632,103.30205,102.395546,10.389727,0.7,-103.360535,-3534.2825,0.00413833,-18.806309,-10.246666,-10.367184,-13.664954,-10.670886,4.0065675e-06,0.3,0.9620377,56.88821,56.783356,56.659286,56.655777,0.5218484,0.47500002,7.50110125541687,70.33665611743928
103,990000,82.97516661020354,-55.758514,0.0,-249.76338,5.0511684,4.7759514,21202.01,191.89053,22.175404,100.92139,100.50542,100.57272,98.98175,12.70287,0.7,-102.94914,-3143.241,0.0055840025,-14.61621,-4.668804,-5.549085,-2.9761117,-2.428931,2.0597636e-05,0.3,0.67757297,54.68698,54.620197,54.619797,54.957115,0.68100244,0.4375,7.332122564315796,70.75439831415812
104,995000,87.87044632053205,-58.539238,0.0,-98.281784,3.187037,5.1103363,14691.826,42.904896,16.389805,103.38001,103.22505,101.83357,101.92814,7.315885,0.7,-104.576836,-4013.4282,0.0024135704,-16.828102,-6.0701804,-5.252465,-4.933152,-6.358008,1.5959424e-05,0.3,0.8109427,57.13456,57.082104,56.893074,56.768856,0.61620605,0.49218747,7.786312818527222,71.18243455886841
105,1000000,85.96266972327935,-52.973946,0.0,-451.12506,4.6315413,13.951945,6490.675,82.50673,17.392828,97.0046,95.60867,97.85704,97.362366,54.329235,0.7,-98.1218,-4721.1665,0.002152741,-14.228359,-11.031814,-11.799673,-9.477489,-11.261914,1.0300835e-06,0.3,0.26427943,51.882656,51.73652,51.96383,52.04005,0.88144755,0.43281248,7.59149956703186,71.60242035786311
