Xixo99/comfo/baselines/comfo6_perterbation_actor/20230225_mle0/hopper-medium-replay-v2/COMFO6_s2_20230226_082942_hopper-medium-replay-v2_86.61.csv
,step,reward,actor_loss,alpha,alpha_loss,critic_loss,max_actor_loss,max_alpha_loss,max_critic_loss,max_mle_prob,max_q1,max_q2,max_target_q,max_v,max_value_loss,max_weight,min_actor_loss,min_alpha_loss,min_critic_loss,min_mle_prob,min_q1,min_q2,min_target_q,min_v,min_value_loss,min_weight,mle_prob,q1,q2,target_q,v,value_loss,weight,eval_time,time
0,0,4.241186661297207,,,,,,,,,,,,,,,,,,,,,,,,,,,,,,,,,
1,10000,5.725449237263836,-29.662964,0.06600965,-4.100651,0.7650596,3.4084995,21.342108,40.8234,4.5843368,55.827305,55.86826,55.72206,56.14309,3.4145038,0.7,-55.55205,-18.735954,0.0004642597,-72.20398,-3.2550654,-2.6184845,-2.893539,-2.6788507,1.1684443e-05,0.3,-9.836682,28.946484,29.021606,29.099806,28.696812,0.13953772,0.47187498,0.6432607173919678,1.7976211826006572
2,20000,5.900107898512634,-47.20919,0.058615185,-0.17736644,1.7585309,-4.102362,34.35197,78.78952,6.7604218,78.4045,79.08831,77.75271,77.46858,9.853546,0.7,-79.85247,-26.896154,0.000107504384,-101.294655,3.8806443,3.9399085,3.962903,3.8727279,2.2011663e-07,0.3,-16.587757,46.08818,46.1434,46.13053,45.833885,0.3951968,0.45625,0.6717720031738281,2.356517501672109
3,30000,18.49035953728824,-58.198277,0.07092961,-0.18400328,1.9289218,-4.3353715,27.905148,39.005577,4.6498594,88.25872,88.62738,88.219734,88.16068,21.401756,0.7,-88.06812,-28.439587,0.00045304233,-121.181206,-0.2104038,-1.1417693,-0.92427284,0.097809345,1.18813475e-07,0.3,-17.386564,56.510094,56.548874,56.547363,56.526913,0.5993938,0.49843752,1.568833589553833,2.9302905718485515
4,40000,21.57989616084559,-60.77617,0.068757854,-0.044619918,2.8587627,3.791223,24.219889,91.836624,6.5652194,94.24793,94.52444,94.662766,94.900116,12.391086,0.7,-94.85635,-17.243488,0.004355331,-119.604294,-5.884972,-5.323014,0.7459317,-5.3534536,4.708636e-05,0.3,-18.247875,59.421345,59.394455,59.495674,59.622665,0.6715895,0.425,1.693561315536499,3.5054161667823793
5,50000,38.04479938253709,-66.473145,0.067703545,-0.22779599,8.104128,10.478458,26.560095,708.02295,5.5685,98.61202,98.61537,98.416695,98.29662,88.64458,0.7,-98.37742,-27.292599,0.001139808,-228.87209,-9.552086,-12.380038,0.29531595,-10.215379,3.0367112e-06,0.3,-16.902386,64.83933,64.85387,65.52633,65.67847,1.5204688,0.40625,2.6795408725738525,4.098485000928243
6,60000,25.637257019614307,-63.584618,0.070538945,-0.5648623,7.8091283,9.950598,31.713459,707.37524,3.3836417,99.726814,99.638954,99.44663,99.61039,115.76284,0.7,-100.17611,-16.625181,6.3388725e-06,-192.67728,-16.533749,-20.46091,-17.982536,-18.743044,9.6400445e-06,0.3,-21.398603,61.526768,61.567886,61.63869,61.754383,1.45464,0.4484375,2.0412838459014893,4.681056495507558
7,70000,23.025361705529992,-66.62748,0.07262064,0.48404792,5.3717966,1.4444972,28.68397,176.9056,4.0743575,99.56401,99.84868,102.1589,101.39131,48.226048,0.7,-101.254135,-25.192852,0.011300877,-209.23431,-1.1890503,0.27129132,1.1643391,-1.162628,2.861023e-07,0.3,-20.696342,64.993416,64.96257,65.42552,65.19327,1.1747637,0.453125,1.8772156238555908,5.2590954025586445
8,80000,82.44227338595445,-67.910995,0.07316049,-0.86801016,3.8399186,-0.115471244,24.153704,282.7614,3.4987917,98.194145,98.13428,98.75639,99.22841,40.400826,0.7,-99.78539,-20.312557,0.0004798791,-146.26878,-0.07690987,0.07121158,0.57676005,1.7302201,2.2893511e-07,0.3,-21.760809,66.12033,66.05856,66.20207,66.556625,1.0605135,0.42812496,5.95404839515686,5.906194059054057
9,90000,25.090107533792217,-64.38353,0.0720638,0.24666238,3.5989642,2.0584908,34.000233,256.89642,2.7222247,99.78587,99.64726,99.9533,100.23187,73.12214,0.7,-100.00528,-20.190336,0.0073325383,-182.398,-5.997588,-5.9676228,-3.3288229,-4.571669,1.983176e-06,0.3,-21.036884,62.63021,62.62188,62.850586,62.698708,1.0502537,0.4890625,1.9812934398651123,6.48695467710495
10,100000,10.537224720053759,-67.64598,0.072477765,0.96116966,3.7961836,-1.2584114,20.2486,162.55627,5.4642205,98.8423,98.96564,99.39557,99.719,80.10688,0.7,-98.9587,-17.92018,0.0013117986,-148.01247,0.5939884,0.4638296,1.1789858,1.9453974,9.676412e-05,0.3,-23.961615,65.54245,65.494415,65.853745,66.170166,1.3213415,0.41562498,1.037466287612915,7.052655986944834
11,110000,9.688980358311857,-68.9944,0.075275935,-0.7042687,3.4974978,-0.50222117,19.914452,86.760956,4.2201343,100.23191,101.1602,100.17271,100.30524,27.182783,0.7,-101.05422,-15.981009,0.0006130463,-198.27847,-0.91944534,-0.690472,-2.81936,-2.244885,7.152558e-06,0.3,-22.375135,66.90221,67.01874,66.43144,66.51177,1.1271456,0.49843746,1.1443092823028564,7.616781485080719
12,120000,8.938613348649719,-70.762856,0.07463,0.23452143,6.107632,2.7636933,21.148245,641.8484,4.5579286,99.86858,100.13346,100.28932,99.52752,19.519178,0.7,-100.17883,-21.664038,0.0010899041,-199.50002,-2.5881886,-5.9786067,-2.1868508,-2.3109488,2.118107e-06,0.3,-22.621866,69.07022,68.939804,68.700775,68.94635,1.0705085,0.48125,0.9259696006774902,8.1783989071846
13,130000,9.91189648800929,-64.86245,0.07558153,0.5620403,6.3377237,3.7244816,27.805243,301.14618,5.206692,100.76196,99.682304,101.030785,100.398636,123.14972,0.7,-99.48554,-21.252645,0.0043341983,-253.37494,-3.382501,-3.0740204,-4.699976,-2.5506296,6.4177924e-10,0.3,-23.842356,62.67263,62.64257,63.37496,63.515503,1.8739777,0.4140625,1.049360752105713,8.739800759156545
14,140000,9.720959963090916,-66.694885,0.07681669,-0.532094,4.4014187,-3.2156372,34.627007,162.32715,4.210246,100.433495,100.36605,99.63795,100.171295,144.46416,0.7,-100.17805,-20.444813,0.0010662656,-185.54056,-1.8180364,-0.014795631,-2.53232,-5.1823635,4.0065675e-06,0.3,-22.41782,64.39166,64.40099,63.963024,64.63115,2.043095,0.44843748,1.1898553371429443,9.30441836118698
15,150000,9.705943395826615,-70.54479,0.07619491,-0.3498531,3.8472147,1.9870287,19.05903,88.50833,5.708844,100.50611,100.60916,100.49484,100.262314,60.249725,0.7,-100.49221,-19.949099,0.00033825432,-86.32033,-2.7102997,-2.276182,-1.9766552,-1.5189738,2.6287278e-06,0.3,-18.529339,68.7254,68.69068,68.92677,69.136475,1.2483308,0.4359375,1.041186809539795,9.865596294403076
16,160000,10.149423726037567,-66.489,0.077533625,-0.30483317,3.0267675,5.4574733,24.446062,45.19662,6.219968,101.6511,101.09033,102.54202,102.68565,47.301983,0.7,-101.193,-14.713872,0.0006296314,-121.362656,-7.7339544,-5.899258,-5.8354363,-6.269602,1.2661079e-05,0.3,-21.384087,64.60346,64.603195,64.87909,65.201996,1.4485638,0.42812496,1.0665414333343506,10.428239611784617
17,170000,10.064806755310395,-66.10483,0.07689684,-0.6499717,3.700407,7.9578247,18.216625,235.97887,5.6535034,100.45491,100.61664,101.16268,100.95306,80.37043,0.7,-100.34083,-21.123096,0.0006766544,-222.40054,-9.207281,-8.585231,-10.321371,-8.337618,2.5863219e-05,0.3,-21.800352,64.263626,64.16229,64.508255,64.3148,1.6119165,0.46875,1.0727770328521729,10.990060997009277
18,180000,10.780508878043294,-66.57132,0.07800042,-0.74156034,2.8520336,-1.3044505,19.403952,39.465233,4.6137004,101.73169,102.0092,101.711044,101.84192,28.618612,0.7,-101.90611,-26.078636,0.012926781,-265.2192,1.4251242,0.6672796,0.8592775,1.18011,1.0299683e-05,0.3,-20.27715,64.595276,64.59726,64.30317,64.47822,0.9112262,0.47031248,1.1410324573516846,11.552141960461935
19,190000,9.995675678740517,-66.984955,0.0789517,-0.39750043,6.6452923,-2.32377,20.030817,419.32468,4.4122,101.03821,101.355156,102.25334,102.38719,53.538853,0.7,-100.93539,-17.954836,0.0011824709,-456.85464,-3.015501,-2.6575265,-5.160215,-1.3024501,5.092006e-06,0.3,-20.452927,65.083244,64.95195,65.226395,65.46387,1.2321091,0.4140625,1.0228967666625977,12.113249150911967
20,200000,100.88170488973918,-66.625,0.078857146,0.18275109,6.649431,-5.564849,23.683859,299.10336,5.671985,102.3688,102.29285,101.90998,102.12327,63.0249,0.7,-102.42034,-19.50595,0.0047843643,-305.52963,2.2818003,2.6846204,-0.44354427,0.8008094,4.541944e-08,0.3,-20.761728,64.750595,64.704605,63.840633,64.18674,1.7281783,0.4796875,7.399618625640869,12.779530274868012
21,210000,65.51887788043209,-66.02711,0.081006505,-0.19754529,7.118029,-0.8204707,23.855844,678.4271,5.48041,102.07603,101.812065,100.99536,101.798485,56.770107,0.7,-102.077194,-21.99337,0.0002639157,-139.81657,-1.1112779,-2.136281,-0.89180976,-1.0470071,6.0770377e-05,0.3,-22.2715,63.93555,63.8835,63.11184,63.7238,1.1001084,0.40625,4.962890863418579,13.404987684885661
22,220000,99.15326609961294,-68.052185,0.08029369,0.38312036,3.107234,9.744792,24.475815,91.5383,5.132465,101.98692,101.91205,101.57085,102.21838,466.91302,0.7,-101.672325,-23.38074,0.0055240924,-189.80356,-8.346486,-3.7365665,-2.6679475,-5.38113,2.4314506e-05,0.3,-22.006044,65.902374,65.92127,65.84962,65.9637,2.5727859,0.45156246,7.139171361923218,14.068124397595723
23,230000,88.8692364786256,-68.06745,0.07822096,0.049085543,3.3370001,6.3398423,25.040415,57.22029,5.5253706,103.404495,103.48872,103.86338,103.84692,192.98169,0.7,-103.33547,-18.623,0.00028929446,-160.20793,-12.504163,-13.372575,-16.76805,-13.670394,1.8346327e-05,0.3,-22.880114,65.93953,65.98343,65.63353,65.814804,2.2013392,0.4609375,6.117743015289307,14.716753999392191
24,240000,59.623292953527795,-69.58666,0.079568446,-0.0042847395,4.0487046,-1.394695,25.055355,220.22556,2.5252523,103.520226,103.252235,102.5576,102.02984,15.583219,0.7,-103.044266,-21.87052,0.0041529313,-587.6968,-1.2712913,0.23868376,-3.1562908,-3.8162467,9.995518e-07,0.3,-23.62646,67.48245,67.512085,67.247955,67.355194,0.8251582,0.46249998,4.175186395645142,15.333603513240813
25,250000,90.11789438594721,-67.190384,0.07931742,-0.37689877,4.25016,-0.32314587,23.040226,93.675316,6.376677,102.48098,101.97946,101.9649,102.08059,97.02877,0.7,-101.93318,-19.9906,0.0096492935,-126.719955,0.0545609,-0.88734424,-1.8496246,0.6386827,7.745531e-06,0.3,-20.278599,65.26698,65.24789,65.01143,65.48604,1.5203232,0.42499998,6.294904947280884,15.987060785293579
26,260000,71.47252977363152,-69.26748,0.08038117,0.15497157,2.4921756,-4.0589147,25.448467,24.593376,4.1494107,103.65975,103.32678,103.13784,102.85939,22.208649,0.7,-103.32609,-18.887447,0.0031083496,-177.0456,4.3784094,3.711995,4.6888585,5.3566213,1.5196566e-06,0.3,-22.25002,67.130226,67.25787,67.042725,66.91756,0.96440464,0.50625,5.192137241363525,16.620500306288402
27,270000,90.11087428407012,-64.81799,0.08135037,0.22554426,3.507152,-2.7325332,27.974974,52.320557,3.3381052,101.56857,100.825424,101.2767,101.33349,17.266348,0.7,-101.322685,-17.225756,0.00021239801,-284.43066,2.4960542,2.3301861,0.54484504,-0.4748828,0.00010861613,0.3,-21.408215,62.97072,62.959293,63.21214,63.545532,0.97071224,0.42343748,6.366269826889038,17.27564995288849
28,280000,61.20980366563057,-65.72249,0.08012273,0.64996725,3.4572773,0.6368687,24.899864,50.0126,7.9607043,104.99749,103.47076,105.2598,103.02268,59.61269,0.7,-105.00631,-20.442356,0.00024730258,-162.91373,-1.862668,-2.0431633,1.0464491,-0.35095227,5.906513e-05,0.3,-22.055882,63.546852,63.667828,63.902027,64.14456,1.1518817,0.434375,4.251262187957764,17.893129948774973
29,290000,87.90709130820899,-68.40272,0.08191772,-0.2252636,5.6249557,1.6407223,18.788946,314.20755,5.3665814,102.277756,101.880424,104.179504,103.63566,427.78018,0.7,-101.746956,-17.8459,0.01134027,-228.64377,-3.6571727,-0.8923536,-0.4059894,-0.69265056,4.758197e-06,0.3,-23.009682,65.84899,65.93469,66.585365,66.94028,3.4801157,0.4265625,6.171209812164307,18.541848238309225
30,300000,66.05620439432349,-69.83424,0.080373906,-0.24691921,2.8299122,-1.6556929,23.923845,39.31641,4.2483897,102.51092,103.08234,101.88942,102.08303,215.10648,0.7,-102.6499,-16.853756,0.00095597125,-181.32857,0.27354464,2.0439253,0.18991473,-0.9041481,6.3895245e-06,0.3,-20.679901,67.45457,67.48286,67.06477,67.65218,2.181832,0.453125,4.620881795883179,19.168166383107504
31,310000,62.45805410777779,-67.54561,0.08103459,0.18776809,6.6485386,3.7138987,27.338318,83.89125,7.9153204,106.300766,105.12229,104.37222,104.79202,206.54102,0.7,-105.077095,-19.531822,0.0017025513,-210.04541,-1.5153507,-0.637795,0.050221644,-7.070892,1.3253929e-06,0.3,-22.885609,65.418594,65.390976,64.46382,64.94744,2.2059455,0.4765625,4.508569717407227,19.791407263278963
32,320000,88.7873331699128,-67.19602,0.080737166,-0.14925784,3.0925639,-3.586898,20.030163,121.041695,4.8186965,102.30523,102.064606,101.77805,101.727135,191.92758,0.7,-101.926865,-22.970255,0.0075800847,-166.0083,2.5648816,2.5193307,1.0965966,-0.13383552,9.4335704e-08,0.3,-24.8577,65.212616,65.15907,65.35209,65.21774,1.8897809,0.503125,6.589384317398071,20.448137966791787
33,330000,64.89786190019547,-66.01311,0.08213987,-0.94816077,4.4559927,-2.5393178,27.152271,94.40892,5.9856668,102.39326,102.041725,102.87396,102.98019,63.38905,0.7,-102.23805,-19.16137,0.00032891394,-192.07278,-5.1085,-6.747977,-4.0751224,-1.0267833,1.9900442e-06,0.3,-20.763065,63.919167,63.803703,64.00079,64.36688,1.3251696,0.4453125,4.507462739944458,21.070390911897025
34,340000,50.74234147190414,-66.54494,0.081897885,0.07984853,4.696403,0.7075169,25.978096,307.54617,3.1580012,100.73349,101.44544,102.01807,101.93206,32.85759,0.7,-101.09264,-17.579992,0.0007285443,-401.98907,-0.97927517,-0.10598576,-0.9933618,-1.1558285,1.3496493e-06,0.3,-22.913969,64.53627,64.63468,65.264786,65.1445,0.93881524,0.4171875,3.623229742050171,21.675259538491567
35,350000,50.87334039701774,-69.61985,0.08136725,0.41919872,3.3746052,-2.3263881,19.85229,87.67821,6.539143,102.71591,103.20011,103.030266,102.81473,78.74615,0.7,-102.717,-22.882164,0.0007208866,-152.29283,2.2058532,1.052809,3.1671107,0.6377468,1.6137958e-06,0.3,-22.269196,67.489334,67.281685,67.97565,67.94072,1.1563138,0.4609375,3.4830477237701416,22.28069922129313
36,360000,50.375498270542195,-65.645164,0.08138941,0.716047,3.3684893,-0.31917515,20.21264,182.18774,4.6469564,103.24491,103.30935,105.19237,105.16724,65.38774,0.7,-103.26994,-18.335926,0.009152077,-160.0518,-2.7325795,-2.2995324,-1.1227816,-1.856245,1.3690443e-08,0.3,-19.983372,63.802753,63.678535,64.31151,64.31093,1.1180837,0.40156248,3.5335121154785156,22.884974586963654
37,370000,54.09068335868059,-66.71047,0.081305064,-0.33160555,3.175815,2.9226072,29.0569,107.73608,4.942349,102.78293,102.9057,103.171425,102.63845,22.35474,0.7,-104.58882,-19.01484,0.011522219,-142.8669,-3.3165805,-3.2304833,-2.0321472,-2.304152,7.2985817e-06,0.3,-21.855228,64.70391,64.70099,64.56188,64.481995,0.83442724,0.4734375,3.7542026042938232,23.493743042151134
38,380000,60.18877918966715,-68.77586,0.0820613,-0.8095285,2.8858254,-2.730608,19.970005,55.762623,5.07474,103.3061,104.38084,103.11676,102.74397,204.2825,0.7,-103.03419,-16.97928,0.00043474516,-151.1094,2.1197906,2.7684908,0.9327103,2.3910248,7.054943e-05,0.3,-18.614632,67.242355,67.22859,67.05668,66.96828,1.8312364,0.509375,4.257701635360718,24.11003800233205
39,390000,78.18558651749933,-69.64675,0.083835974,-0.11813228,3.686808,1.8490465,18.77678,190.07445,7.0492125,103.0271,103.31992,103.295044,103.35192,55.14518,0.7,-103.00493,-15.610107,0.0006730171,-225.96169,-2.7574892,-2.7298641,-2.9793973,-3.4329815,8.962391e-06,0.3,-23.09918,67.81865,67.72046,67.20168,67.36009,1.0758544,0.484375,5.646764039993286,24.751166653633117
40,400000,64.37093007770423,-66.30472,0.0830736,0.13856228,4.286714,1.8843498,19.861517,219.28911,5.256034,103.93552,103.54865,104.411385,104.55468,29.821579,0.7,-104.568924,-25.104097,0.0005728605,-227.76031,-1.754962,-3.7103565,-1.5599351,-5.2147136,7.00589e-05,0.3,-24.528847,64.24302,64.338936,64.18546,64.180466,0.8952422,0.4515625,4.549654722213745,25.371624080340066
41,410000,83.56832592678019,-69.05185,0.08034118,-0.43742302,3.273956,-1.0445559,16.677435,69.815346,4.4732795,102.158485,101.914406,102.1457,101.711075,80.763824,0.7,-101.86738,-18.444387,0.00028099847,-205.30084,1.6619432,1.6138501,1.3898593,2.039851,3.3795834e-06,0.3,-23.617046,66.89723,66.971695,66.95912,67.28482,1.5087689,0.43124998,5.873592376708984,26.016983981927236
42,420000,82.6283414155528,-65.863144,0.0816466,-0.010041773,3.9014297,-2.705575,31.746983,74.61929,7.0759177,104.21169,103.96894,104.475716,104.168045,55.18748,0.7,-105.93994,-18.711132,0.00051483867,-114.39933,1.0486796,1.2674199,1.5598097,3.2766025,1.5161349e-07,0.3,-18.709309,63.920143,63.986694,64.128204,64.377686,0.99417615,0.45,5.938337326049805,26.662777745723723
43,430000,40.17539007469008,-66.6776,0.08299483,-0.18583551,3.4708748,-1.2317923,16.209335,84.30927,5.9623337,101.93884,102.336555,101.76763,101.67809,137.79446,0.7,-102.30879,-19.570415,0.00055803923,-277.43698,1.9871018,1.1677291,0.9849499,1.2651366,4.4093395e-06,0.3,-22.96511,64.523834,64.65047,64.76311,64.950356,2.0183148,0.44375,2.866482973098755,27.258393625418346
44,440000,75.09078801124438,-68.994835,0.08226005,0.39988375,5.2342253,-4.7889075,19.462984,262.25958,6.5836678,101.946365,101.66306,102.29722,101.93874,346.0348,0.7,-101.34866,-14.818393,0.0066696852,-122.07924,4.6528373,4.9338484,5.4471865,5.089365,3.3807012e-08,0.3,-19.1647,67.12304,67.09497,67.20108,67.11103,2.732765,0.5015625,5.2503955364227295,27.891659903526307
45,450000,41.54081266128109,-65.67616,0.08220943,0.21424554,4.9120054,0.12346152,23.511602,270.23553,4.769041,102.870445,102.03294,102.76781,102.26813,42.628117,0.7,-103.81694,-19.24784,0.0025218409,-170.43811,-6.0223765,-4.6942177,-4.304929,-5.3166504,1.0043324e-06,0.3,-24.404697,63.038548,62.917084,63.02318,63.216194,1.4703522,0.4421875,2.9211525917053223,28.48724834918976
46,460000,84.870167359493,-65.19318,0.08032814,-0.33748648,4.36271,-2.5615973,21.515095,105.03302,5.4260764,102.25186,102.74134,102.17749,102.408714,224.35805,0.7,-102.138504,-17.732813,0.0028705704,-273.74484,1.4221385,1.9572909,0.9100732,2.7429838,2.6191243e-05,0.3,-25.24079,62.76947,62.85997,62.94024,63.614876,2.2176433,0.396875,6.045577764511108,29.134735321998598
47,470000,60.28074117236953,-65.85173,0.08207128,-0.0005399827,3.909419,3.5379496,17.940826,234.88611,3.2884974,103.163414,103.29744,102.99234,103.09779,256.47556,0.7,-102.90292,-14.945729,0.0006242459,-465.75723,-5.879275,-6.780866,-5.924674,-3.0593965,3.3807012e-08,0.3,-24.165592,63.13507,63.26071,63.06639,63.338608,2.1086354,0.42031252,4.2980968952178955,29.751718465487162
48,480000,48.93928508042196,-69.7248,0.08228433,-0.04200232,2.8315597,-1.1295043,24.351027,34.453846,5.2009106,104.89284,104.39729,104.696815,104.57276,22.011185,0.7,-104.324066,-16.568436,0.0024611428,-367.09976,-3.7399645,-3.900911,-1.6907868,-3.2437215,1.043228e-05,0.3,-20.780016,67.750244,67.850525,68.102264,68.030334,1.1640341,0.46718752,3.3918473720550537,30.35125974416733
49,490000,66.75209647972825,-68.792114,0.08000972,-0.07436928,4.377553,0.30379057,22.200338,129.99352,5.783981,105.5884,105.55405,107.0171,107.80953,193.84505,0.7,-106.302055,-18.17485,0.011108961,-394.2173,-0.92681247,-0.05962026,1.3147724,0.42645052,3.914183e-05,0.3,-24.994596,66.43963,66.3771,66.75951,66.78147,2.3629441,0.4609375,4.843667030334473,30.976728971799215
50,500000,57.111170981083816,-64.916794,0.08223567,-0.07298246,3.48984,-1.7630783,23.319506,51.95229,4.328779,105.4526,105.097,104.7389,105.50797,14.295755,0.7,-105.95274,-17.153004,0.00089962804,-240.76843,0.8291675,1.6092656,-0.13432318,0.8828062,8.617753e-06,0.3,-24.922188,62.313866,62.38428,62.57039,62.8344,1.0552716,0.40468746,4.076509475708008,31.591725293795268
51,510000,65.46599873497735,-67.75598,0.08196549,0.57479024,4.4200387,5.458094,36.76603,190.35968,7.5277653,103.69059,103.1629,104.76162,103.30518,35.33353,0.7,-103.20381,-14.955129,0.0067984066,-408.43576,-2.2638783,-4.779113,-5.4225626,-4.8501167,3.0196245e-05,0.3,-25.025822,65.23474,65.138275,65.13954,65.38878,1.271601,0.478125,4.5336480140686035,32.21403292020162
52,520000,65.96620638939201,-66.35543,0.081712715,-0.1892241,3.41258,-0.124808714,24.978483,114.11073,4.387993,103.37174,103.72147,103.265366,103.52748,197.78525,0.7,-104.032295,-15.97024,0.007049053,-188.4611,0.059569716,-0.92736644,-1.9882289,-3.616699,8.217688e-06,0.3,-20.942886,64.20528,64.11266,64.117035,63.993244,2.1020107,0.5109375,4.622095584869385,32.836441799004874
53,530000,57.08094505226208,-68.200775,0.08045426,0.15165943,3.1691518,0.38421857,21.791998,100.37602,5.4523587,105.14413,104.928535,103.89059,103.59089,42.96937,0.7,-104.707,-23.002129,0.00051758887,-189.34529,-5.5334086,0.5247311,-3.8961449,-2.4845102,1.4715898e-05,0.3,-23.077438,66.17857,66.158295,65.96738,66.04043,1.108928,0.43906248,4.048827171325684,33.45002352396647
54,540000,67.26150752932175,-64.85807,0.080649726,0.057061233,3.090683,1.90396,29.161257,76.681274,3.8810177,104.19766,105.39579,104.29665,103.76393,306.41913,0.7,-103.48334,-24.642616,0.00520567,-198.30646,-6.42357,-6.046955,-5.741262,-6.296812,2.9171753e-05,0.3,-22.31355,62.780495,62.834625,63.036808,63.39307,1.9034209,0.41562498,4.8778297901153564,34.07753052314123
55,550000,65.01691412563608,-68.29501,0.08021,0.04550843,3.6436734,-1.0235572,24.264742,37.361626,3.432533,105.07389,105.11253,105.195404,105.7754,145.66792,0.7,-104.841064,-19.01828,0.00973481,-227.54881,-4.163779,-2.7234602,-0.03351897,-7.5563874,6.5045316e-07,0.3,-22.844517,65.86099,65.79498,65.42424,65.76604,1.6379682,0.465625,4.6374053955078125,34.70041321118673
56,560000,65.79426922867894,-64.90852,0.081794396,0.400112,9.091532,-2.891899,25.407135,1408.7356,5.8239937,103.16716,103.15727,103.71943,103.68259,60.588543,0.7,-104.32264,-16.636671,0.005257733,-858.59235,-5.187317,1.4031687,0.60245836,0.15795422,7.8112794e-07,0.3,-26.382565,62.880615,62.751408,62.823776,63.25783,1.16712,0.4296875,4.693537950515747,35.32485144138336
57,570000,55.636855485681124,-64.69554,0.07940188,0.106662564,2.9780674,-3.416728,21.720095,43.11531,4.3920155,104.13702,103.848885,105.58245,104.53184,28.964613,0.7,-104.647736,-17.58785,0.0009259559,-246.17233,-4.0063763,-4.6891866,-3.9049966,-0.8118309,6.4892854e-05,0.3,-26.684412,62.235134,62.201935,62.253124,62.65142,1.0963237,0.4375,3.8743996620178223,35.93579859733582
58,580000,78.51326158248759,-64.56063,0.08044973,-0.5430393,3.2165174,2.052973,19.105635,242.9223,5.4643965,103.068306,103.383606,105.23201,103.27814,31.755217,0.7,-103.745674,-19.315,0.00049764017,-511.99237,-1.6216179,-0.90213275,-1.4170427,-1.6939216,8.8796224e-07,0.3,-23.268948,62.46218,62.549767,62.65217,62.59724,1.0580767,0.4453125,5.638103485107422,36.57637898921966
59,590000,66.86344139763455,-66.022,0.08053336,-0.7217181,4.537957,-1.8915079,28.97641,184.46138,6.9375706,103.14476,104.279,103.85072,104.58564,259.78827,0.7,-103.43548,-20.292366,0.0038290883,-234.40614,1.9092125,2.4554162,1.5054421,1.4584787,2.4818992e-06,0.3,-22.197418,63.83297,63.742443,63.244926,63.690212,2.6438336,0.4796875,4.889226913452148,37.20391271909078
60,600000,68.51455643223743,-67.622856,0.08003348,-0.46041068,2.781488,-0.7958101,23.2635,33.792717,9.212416,103.472145,103.88928,103.67101,103.820694,115.238075,0.7,-103.53081,-17.260303,0.000312399,-379.74115,-2.7115157,-3.8747969,-2.1267836,0.920309,1.9398867e-07,0.3,-21.034595,66.010315,65.89795,66.316734,66.5465,1.1053808,0.45624998,5.176488161087036,37.83372585773468
61,610000,74.49499063687054,-68.2827,0.07917285,0.21180463,4.017165,0.6149183,24.822811,196.72897,5.1440487,103.28813,103.067986,104.42523,104.34575,244.12921,0.7,-103.21073,-17.231533,0.004492363,-161.66554,-0.73022306,-1.5133748,-2.2075617,-1.0730696,7.838826e-06,0.3,-24.318527,66.17368,66.09744,66.25502,66.65735,2.2258205,0.4109375,5.319628477096558,38.4677118897438
62,620000,66.79078350606528,-67.453705,0.079420246,-0.0011739731,2.739718,-2.244721,21.782963,53.72815,5.5963717,103.50608,103.103874,103.963104,103.119446,10.024765,0.7,-102.77029,-21.574068,0.004001827,-211.8697,-0.54001427,-1.5450909,-1.7253075,-0.2825988,1.4685793e-08,0.3,-23.473278,65.75004,65.779526,66.14639,66.10947,0.6225499,0.4125,4.657269716262817,39.09154432614644
63,630000,60.48698066740936,-64.50218,0.0787494,0.3628003,3.1273763,-3.7832513,19.120884,56.580967,5.3153763,103.34914,103.11542,103.63448,103.83409,15.25522,0.7,-103.64146,-15.94423,0.0008835813,-169.70816,0.6100209,1.6294094,-0.087151125,-0.85967577,1.6362594e-05,0.3,-23.981695,62.610348,62.624466,62.859562,62.929924,0.8404962,0.4484375,4.283344745635986,39.70974610646566
64,640000,58.49500363003539,-67.26373,0.07837365,0.02824375,3.7767496,-0.59925693,26.924227,120.03252,6.443882,104.08614,103.92087,105.44558,105.88425,68.95777,0.7,-104.32919,-17.037241,0.0015650089,-408.11267,-1.2361814,-3.4589012,-3.699577,-5.92024,4.67366e-05,0.3,-25.852772,64.78255,64.788864,64.92949,65.29593,1.3416989,0.4265625,4.190881013870239,40.32447302341461
65,650000,69.67805136594869,-67.31154,0.078517474,-0.04705461,4.5129986,-0.88033086,21.849596,39.505486,5.4032345,103.787025,102.82863,104.785164,104.21632,317.13312,0.7,-103.67011,-21.462378,0.004142763,-195.46516,1.127846,0.4068824,2.647363,2.841293,1.3991795e-05,0.3,-22.751667,65.15077,65.166306,65.85785,66.198,3.3923225,0.41562498,5.222533941268921,40.95682757298152
66,660000,63.40473326866203,-67.392136,0.07798193,-0.21139418,3.1475754,0.24350184,22.156458,47.884598,3.956183,105.5507,107.12503,105.66741,105.13248,37.44531,0.7,-106.683815,-17.71695,0.00016280089,-350.096,-0.12977856,-0.7755074,-0.66908,1.079282,5.234433e-06,0.3,-27.420155,65.08802,64.96685,64.75418,65.539,1.3594573,0.3734375,4.669929027557373,41.57604021231334
67,670000,63.299542595949355,-67.07068,0.07962084,0.13554516,3.9660978,-0.3973732,21.025522,44.45653,5.1224365,105.044716,104.85645,105.06434,104.87523,89.99896,0.7,-105.03056,-18.577345,0.012925286,-183.80676,-2.6695142,0.015562475,-1.1484292,0.4703746,4.364745e-07,0.3,-23.11914,64.54423,64.518326,63.950554,64.27663,1.543795,0.47031248,4.78826904296875,42.19724845488866
68,680000,67.21855628338744,-65.79056,0.077527404,0.26971245,2.898878,-0.942286,27.53904,43.74581,6.5863132,103.684395,104.14368,103.3722,103.066765,446.54202,0.7,-103.64639,-20.799595,0.0019846477,-178.71046,0.897271,0.7321439,-0.3328406,0.043534935,2.9511284e-07,0.3,-23.397902,63.75407,63.86666,63.767593,63.59383,3.004825,0.4640625,4.7249391078948975,42.81954730351766
69,690000,70.07293643678551,-68.88853,0.077967055,-0.2835778,3.347013,-3.7075415,32.958904,57.98575,6.76694,104.9723,105.370636,105.129776,106.05966,82.96578,0.7,-107.45563,-16.88035,0.003222311,-193.2002,-2.9605017,-5.3037586,-3.197506,3.091868,8.584274e-06,0.3,-21.78186,67.03761,67.05429,67.33974,67.32547,1.4898696,0.484375,5.04662299156189,43.44633073409398
70,700000,64.10667655753143,-68.25873,0.078075655,-0.3277265,4.322591,-0.6853109,23.25917,85.32908,6.664405,102.86297,103.07729,103.44063,103.538994,49.939518,0.7,-102.611855,-18.32141,0.0026202125,-146.84598,0.18296343,1.0390389,0.23199117,-4.2931876,0.00017009399,0.3,-20.410778,66.584465,66.59567,67.31642,67.46893,1.1996181,0.43125,4.664736747741699,44.06824694474538
71,710000,69.41073613238999,-67.203415,0.07625523,-0.37945086,3.8383074,1.0571412,23.444427,117.44563,7.6458087,102.66568,103.229996,103.59553,103.25404,256.28043,0.7,-102.634,-19.276491,0.0074857133,-252.01125,-0.6318711,-0.5042669,-1.6957233,-2.4342015,3.001282e-05,0.3,-21.089417,65.48735,65.470535,65.944115,65.88663,2.296152,0.45156246,5.166646242141724,44.69864058097203
72,720000,69.15527152687841,-63.559654,0.076682754,0.35339013,2.6917224,-0.8454304,19.273216,87.066055,4.1138783,103.2323,103.59326,103.817245,103.63128,310.4326,0.7,-103.74942,-16.132742,0.0016702828,-203.66054,-1.4213212,-1.6832929,-2.4233394,0.19653189,1.6963866e-05,0.3,-26.05072,61.60839,61.5794,61.475803,61.547447,1.9109488,0.46718746,5.053865194320679,45.32600420713425
73,730000,73.68482193787614,-68.9991,0.077189766,0.29608005,4.851279,-2.5470264,23.876732,57.25187,4.37483,105.72954,105.6002,106.15322,106.21736,66.95601,0.7,-105.978806,-20.181637,0.0037072813,-1363.6217,-0.8112099,-0.7419551,-0.2008763,0.5410888,2.3041664e-05,0.3,-29.934498,66.81157,66.70969,67.26416,67.40703,1.5707178,0.4328125,5.17423415184021,45.95719399452209
74,740000,90.57022459381055,-67.64659,0.07780471,-0.5934551,3.0180814,3.5635378,23.312252,39.56325,5.2006416,106.74594,105.02646,105.29411,104.38165,53.148827,0.7,-106.34772,-21.90137,0.0005681932,-233.75638,-0.61967534,-1.5860524,0.71777046,-1.7531574,2.8651612e-05,0.3,-25.77428,65.94126,65.657455,65.86183,65.81725,1.0086838,0.4375,7.0067970752716064,46.61639035542806
75,750000,72.27052839913028,-69.91829,0.07520547,0.10238963,3.4046714,-8.166412,20.753761,157.73248,5.830619,103.273346,103.58497,103.7106,104.24349,72.63392,0.7,-103.58596,-19.560074,0.009055237,-186.48329,7.5997863,7.686149,6.6298447,6.6655154,7.8482554e-07,0.3,-26.507,67.76988,67.74213,67.956024,68.218735,1.501518,0.4109375,5.175568342208862,47.24537413914998
76,760000,64.72362355357572,-66.124054,0.076005764,-0.5262807,4.7345085,-1.0185785,22.729689,61.241814,4.758881,104.093666,103.27447,103.608345,103.3131,80.154854,0.7,-104.43816,-28.93006,0.0024551288,-747.1242,-1.7284397,-0.04533732,-2.799788,-3.2800057,6.992312e-07,0.3,-32.388546,63.585335,63.57435,63.454174,63.67827,1.7000942,0.471875,4.532209157943726,47.86733396848043
77,770000,73.26539775020726,-64.72474,0.076263286,-0.08260329,5.491722,3.1701787,24.523983,152.8256,5.242077,106.00813,105.137024,106.31758,104.05985,944.0984,0.7,-106.22449,-16.367807,0.007922592,-1088.9532,-9.967887,-8.756977,-0.6419833,1.9098369,2.7245552e-08,0.3,-33.055595,62.398438,62.466812,62.833916,62.52035,8.453248,0.45,5.180613279342651,48.49952867428462
78,780000,84.0298974209706,-63.67814,0.07842098,0.011609167,2.712008,0.46774375,21.909292,65.2218,4.209003,104.77901,104.89005,104.61477,104.88273,94.5455,0.7,-104.42404,-21.918419,0.00042106793,-466.54828,-1.2548728,-0.62240905,0.6960319,-1.5840671,1.1627377e-05,0.3,-25.943743,60.82737,60.93579,60.921867,61.267487,1.976073,0.4296875,5.920136451721191,49.14504547119141
79,790000,46.82579189269948,-64.31262,0.07650893,-0.36354923,3.7995691,-1.295204,32.18501,82.093475,4.1377535,104.40287,104.81513,104.68858,104.82538,21.296377,0.7,-104.11791,-22.936071,0.004760475,-225.44138,1.5079706,1.4225919,-0.091224164,1.5019696,3.0865842e-05,0.3,-23.049065,62.152985,62.175102,61.996147,62.24048,0.9999071,0.46249998,3.3364756107330322,49.74767729441325
80,800000,56.512853536323114,-66.64652,0.07863989,-0.8568796,3.2310138,0.4277773,20.797125,50.74468,3.9374995,108.16312,107.23764,107.017845,105.248886,44.76738,0.7,-107.89543,-20.978128,0.0008811124,-456.1817,-0.5784557,-0.04373157,1.2072272,1.4645882,4.0944606e-06,0.3,-23.723442,64.624725,64.684525,64.66498,64.783104,0.94936156,0.4421875,4.054993152618408,50.360799411932625
81,810000,70.2897142203823,-68.89909,0.07627444,-0.7983365,2.9181733,-4.537285,27.857788,86.290085,6.4184837,105.3389,104.40028,104.85945,104.28135,17.770115,0.7,-104.45005,-26.249557,0.00089094,-305.05984,-0.8200669,1.1379976,-0.63707227,3.4940875,3.4226105e-07,0.3,-25.538826,66.94842,66.87323,66.90608,66.92413,0.9349978,0.490625,4.970895051956177,50.99125132958094
82,820000,61.278606960317376,-66.48031,0.07687721,0.25686896,7.8466845,-1.7703284,28.877134,1091.5886,5.715848,105.11901,105.201225,106.018005,105.92574,54.751457,0.7,-105.372,-18.299631,0.008023014,-303.79172,1.0110114,0.003578961,1.858793,1.6799715,4.62741e-06,0.3,-25.80881,64.39305,64.31117,64.451195,64.37552,1.7366328,0.47968748,4.346112489700317,51.6096277197202
83,830000,83.13974619964098,-64.41173,0.07699433,-0.22794485,5.024724,-0.562027,30.646812,299.44708,4.522206,105.66465,105.02162,105.21777,105.07327,34.140705,0.7,-105.57621,-12.928408,0.0033343248,-582.53406,-3.1494234,-2.4898603,-0.92684615,-1.5218834,2.1129382e-07,0.3,-24.162575,62.580956,62.54222,62.67157,62.65874,1.2063305,0.4484375,5.918134689331055,52.25565486351649
84,840000,64.07373637782095,-65.197845,0.07648138,-0.06622411,3.263145,-1.6026444,23.54781,40.790226,3.109829,103.50858,103.268005,103.64395,104.16104,361.24258,0.7,-103.18944,-20.961224,0.005906469,-423.0107,1.1044614,0.69125354,-1.974078,-3.7713127,4.754111e-07,0.3,-27.550644,63.608734,63.5915,64.02013,63.813442,2.3797307,0.453125,4.5190839767456055,52.87717819611232
85,850000,84.4229436562684,-67.58469,0.07586924,-0.24414307,3.2408533,-0.24995303,26.858315,41.692703,9.891224,106.07699,106.330345,105.33571,105.522,58.5896,0.7,-105.900444,-16.60412,0.0022352482,-284.45746,-1.6433659,-2.4899497,-5.480439,-5.3452854,3.4192274e-06,0.3,-24.612719,65.46496,65.57747,65.47511,65.63612,1.2071903,0.4375,5.8472535610198975,53.52227441867193
86,860000,71.80516836025578,-64.8587,0.0742843,0.2261638,2.9550261,-4.811884,32.371086,47.861214,4.508273,105.68744,105.6822,106.48772,106.3821,58.123085,0.7,-105.15545,-23.061754,0.00048178772,-353.67807,-1.4708923,-2.2825289,-2.584874,-0.4919513,4.050431e-05,0.3,-27.394516,62.22935,62.22399,62.377605,62.58311,1.6319549,0.44062498,5.114784002304077,54.15444943904877
87,870000,73.78842394756154,-64.44798,0.07767374,0.69688815,6.3876953,0.9157976,31.868807,69.58597,8.410856,105.172295,104.83638,104.43139,105.06714,120.61756,0.7,-104.64074,-19.217508,0.0025259075,-1111.0858,-0.17308605,-0.16887492,-0.7999832,-0.5179281,3.1481537e-05,0.3,-26.325405,62.6642,62.60782,63.51565,63.461315,1.382633,0.4140625,5.288992881774902,54.7883891304334
88,880000,74.87224417661237,-67.51378,0.07375753,0.28586468,2.4642894,-8.628412,26.663671,37.147198,5.6900263,103.24954,103.441376,103.23503,103.71839,49.84976,0.7,-103.93844,-17.860802,0.002337298,-204.15247,0.43575662,1.034971,-0.6040372,3.807991,3.4026874e-05,0.3,-23.867826,64.93725,64.95416,64.94146,65.175766,1.4631156,0.4296875,5.321975946426392,55.423807779947914
89,890000,71.09895512115094,-65.36961,0.07559238,-0.24533804,3.136897,2.8858547,27.036213,48.915657,3.8588133,103.22644,103.29015,104.31915,104.58569,65.46343,0.7,-103.760574,-16.083353,0.002152106,-266.99127,-3.587814,-2.3320136,-1.663358,-2.461176,3.79431e-05,0.3,-29.97831,62.97843,63.043343,62.80217,62.914124,1.4209771,0.4421875,5.165005922317505,56.05563000440598
90,900000,80.97524653718052,-66.65804,0.07595296,-1.2053952,3.984081,-1.2998099,16.052074,44.097282,3.73517,105.62613,105.34331,105.570625,105.02809,132.93349,0.7,-105.08082,-33.605732,0.0028411124,-355.97824,1.3410997,0.76893085,0.9008891,0.919893,1.2990314e-05,0.3,-24.453085,65.03909,64.94872,64.9779,64.86377,1.816603,0.475,5.746490240097046,56.69897318681081
91,910000,70.56669661053073,-67.96333,0.07619396,0.1654706,3.2259812,-3.2492385,19.348053,60.391106,7.5716896,104.523865,105.41705,105.57102,105.802444,91.018845,0.7,-106.21639,-22.539476,0.00023469911,-177.74881,-2.9572241,-1.6306695,-0.0270538,-0.020133913,4.7310885e-05,0.3,-25.243362,65.89398,65.77345,66.16214,66.26262,1.2591302,0.42499998,5.0582594871521,57.3299834728241
92,920000,68.26399774267591,-66.31059,0.07460068,-0.38854232,3.8294468,-3.2687376,25.462076,47.014557,4.5688257,104.52648,104.840195,105.216606,104.83159,26.631498,0.7,-104.627594,-18.181065,0.0039133327,-157.83743,1.4078035,1.9086924,1.9410058,3.2323837,1.8310548e-05,0.3,-21.547848,64.39464,64.4895,64.73711,64.97197,0.9687384,0.4359375,4.73876953125,57.95549237728119
93,930000,86.29983421097529,-65.93944,0.07144481,0.28006512,4.690781,-1.6417408,19.504663,230.85643,6.890601,104.711174,104.30817,105.16148,105.08021,52.64249,0.7,-104.2198,-22.559113,0.012053544,-350.06815,-0.81998396,0.95211554,0.8647105,1.3062894,1.089822e-05,0.3,-29.082607,63.529076,63.48515,63.578045,64.12455,1.3770299,0.40625,6.153425455093384,58.603535735607146
94,940000,88.10417998825315,-65.02197,0.07356545,0.2439298,3.284938,0.5397331,21.676317,62.968624,4.4684353,106.66118,106.01897,105.64066,106.71544,49.666,0.7,-107.49839,-18.288223,0.013752977,-457.19122,-0.1647327,-1.0244843,0.17822665,1.4331564,7.2760204e-06,0.3,-26.463793,62.947285,63.023872,62.789726,62.945816,1.0754501,0.471875,6.329918146133423,59.25585308074951
95,950000,87.30288923089667,-65.08711,0.07202431,1.0501593,2.8659852,-1.5595024,24.38517,104.345505,4.914053,104.90694,104.59629,105.391365,104.24306,154.28941,0.7,-104.69806,-16.866722,0.0028714791,-781.6979,0.45114726,-0.5656171,1.3922851,-1.8544065,1.323241e-05,0.3,-29.073792,62.888695,62.785206,62.74427,63.02101,2.3755496,0.45,6.162791013717651,59.90530225833257
96,955000,93.04808571264708,-65.319046,0.07110785,-0.094395906,3.171391,1.4061152,21.033373,59.20923,5.6473856,104.8032,104.873215,104.38244,104.76894,236.49634,0.7,-104.53554,-21.52086,0.00070481014,-254.46645,-0.7646127,-0.822766,-1.8594468,-0.27093798,2.3862115e-06,0.3,-26.553003,62.950264,62.79433,62.353184,63.143097,2.5623894,0.4359375,6.655817031860352,60.28924495776494
97,960000,90.60801268979134,-64.00827,0.07395603,0.92733496,3.7352824,1.0023271,23.383562,100.27904,6.103985,104.96786,105.32803,106.66298,104.86003,44.88429,0.7,-105.10053,-17.24682,0.0010165977,-3702.4773,-1.709558,-1.3034817,-5.4333553,-4.8524137,2.5883492e-06,0.3,-40.684837,61.395943,61.278595,61.687687,61.55513,1.2895297,0.49374998,6.382519006729126,60.66933489640554
98,965000,95.12767175185704,-66.94782,0.075408064,0.1440333,4.7980804,2.5168438,35.900887,73.420425,16.009716,106.40577,105.639305,104.92012,105.40057,33.105434,0.7,-106.75118,-16.834953,0.0018552855,-268.73077,-7.9200935,-9.982639,-7.222603,-6.519713,1.177541e-06,0.3,-24.895798,64.82814,64.7518,64.74968,64.97151,1.4132776,0.465625,6.8341450691223145,61.05677310228348
99,970000,81.68843075245029,-66.48227,0.07351313,-0.19493902,3.4424357,-3.9056451,22.46793,81.96681,5.806917,103.012215,103.58253,103.96011,105.459496,137.71178,0.7,-104.21634,-19.061735,0.0065374356,-243.7489,4.6018114,3.660081,1.6656543,3.5163708,3.0821834e-06,0.3,-26.510921,64.44745,64.49658,64.45784,64.56482,1.8554752,0.4546875,5.836313724517822,61.42729719877243
100,975000,82.785228089198,-68.40559,0.070825815,0.53225166,2.9463525,-3.6462364,22.99894,33.89887,5.003597,105.71211,105.05855,105.829704,105.62917,526.12177,0.7,-106.84358,-19.614285,0.0054452675,-144.72646,0.90212107,0.48397404,0.889792,1.0023522,4.7052552e-05,0.3,-22.382736,66.679115,66.73157,66.6508,66.82149,2.9875972,0.4328125,5.880467891693115,61.798794968922934
101,980000,90.5845193010117,-65.64588,0.072258,0.124937445,3.6018624,2.6244898,30.919565,96.85454,5.1162663,105.335686,105.307,105.569786,105.38909,24.096289,0.7,-105.52991,-19.463026,0.0019069165,-361.33307,-3.562166,-2.0304003,-1.849354,-2.645255,2.2251897e-05,0.3,-25.847858,63.729977,63.761406,63.938812,63.89527,0.9266387,0.4375,6.374930143356323,62.17926763693492
102,985000,85.52160420517882,-64.964905,0.07149402,-0.007212132,3.6264834,-2.713517,21.990582,69.5983,5.373365,104.16147,104.334145,104.80824,104.51682,15.424058,0.7,-104.541855,-19.467823,0.005298433,-237.819,2.9834862,3.3941338,1.7516363,2.5165293,8.5371976e-05,0.3,-25.095268,62.981415,63.049614,63.36975,63.367348,0.81455564,0.434375,6.050440788269043,62.55382760365804
103,990000,79.07013443372381,-64.428055,0.07430223,-1.1275604,3.2825384,-2.94827,24.155256,77.31733,4.624604,104.17817,104.98492,104.44851,104.70854,285.0912,0.7,-104.11659,-21.926025,0.001491922,-297.17346,-0.21745044,0.9282898,-0.91369396,-0.7623578,5.341719e-05,0.3,-25.172737,62.104675,62.225468,62.360878,62.887405,2.4044487,0.40156248,5.706576347351074,62.92276173432668
104,995000,88.08268171434965,-66.93073,0.07107521,-0.96557033,4.2239637,-2.4471028,31.939121,98.79953,5.012958,105.21938,105.218666,105.183876,104.98495,38.89689,0.7,-104.898155,-16.656128,0.0022988091,-1279.2758,0.1908046,-0.31115758,0.10552902,-1.9029722,2.1090982e-05,0.3,-30.264725,65.26022,65.36336,65.242676,65.039024,1.1654446,0.5234375,6.350238084793091,63.30195767084758
105,1000000,79.56149605435532,-63.830715,0.06989945,0.16946937,4.726228,-1.0432272,28.587397,134.44571,3.2884605,102.90612,103.43952,103.33676,103.00524,42.33095,0.7,-103.418304,-19.65458,0.0025169067,-324.87546,-0.72096586,0.59698856,-0.6628542,-1.5299063,1.3553556e-05,0.3,-23.548733,61.82176,61.894444,62.155327,61.95153,1.1855816,0.50937504,5.648187637329102,63.6706127166748
