Xixo99/comfo/baselines/comfo6_perterbation_actor/20230225_mle0/hopper-medium-replay-v2/COMFO6_s1_20230226_072655_hopper-medium-replay-v2_51.92.csv
,step,reward,actor_loss,alpha,alpha_loss,critic_loss,max_actor_loss,max_alpha_loss,max_critic_loss,max_mle_prob,max_q1,max_q2,max_target_q,max_v,max_value_loss,max_weight,min_actor_loss,min_alpha_loss,min_critic_loss,min_mle_prob,min_q1,min_q2,min_target_q,min_v,min_value_loss,min_weight,mle_prob,q1,q2,target_q,v,value_loss,weight,eval_time,time
0,0,4.3683048114539575,,,,,,,,,,,,,,,,,,,,,,,,,,,,,,,,,
1,10000,6.496157155525142,-29.798767,0.064703524,-3.968823,1.4717474,4.660358,13.057371,62.80916,5.6415696,57.720974,58.06008,56.802723,57.569412,2.6878145,0.7,-57.42156,-19.539984,0.00021873496,-79.995445,-4.733381,-4.177842,-5.661349,-5.214319,1.20442755e-05,0.3,-11.247322,29.130203,29.111319,28.73258,28.53077,0.12001142,0.465625,0.6947684288024902,1.8193396131197612
2,20000,17.169864274468335,-49.287643,0.058524825,-1.3325448,3.51543,-1.9103912,28.514572,365.29926,5.2733893,79.20817,79.20952,78.58312,78.37711,25.170694,0.7,-79.329544,-20.711893,0.0027977922,-97.033325,-0.06900127,-0.1483639,-0.30733037,-1.5574753,2.263114e-08,0.3,-16.150906,48.101803,48.102676,47.889538,47.66174,0.48724037,0.50624996,1.423835039138794,2.3914526184399922
3,30000,13.100677612337504,-56.809753,0.06786903,0.28112555,3.0152175,5.3204045,31.612497,64.118576,3.6608672,86.840805,86.22465,86.603485,87.02725,44.06315,0.7,-88.22601,-22.659399,0.0052619893,-118.215225,-4.526397,-4.832841,-3.224607,-3.416658,1.9900442e-06,0.3,-19.31861,55.14232,55.140587,55.625095,55.72291,0.8995513,0.4359375,1.3209068775177002,2.9611923495928445
4,40000,41.03536049887297,-63.850426,0.06697307,-0.2309376,4.5248117,-1.4944639,27.649765,248.3675,7.510529,96.04425,96.55163,97.1923,95.62188,112.65622,0.7,-95.81606,-20.34256,0.0035723462,-201.24654,-10.990023,-11.209871,0.043287285,-9.34505,8.6838264e-07,0.3,-16.937895,62.37685,62.41269,62.85376,62.796303,1.5568191,0.43906248,3.061189651489258,3.555560326576233
5,50000,44.051302637794194,-62.326004,0.06913112,-0.1555705,37.49018,0.8060008,20.187933,8489.27,4.6933765,96.05879,95.30112,97.01614,96.17342,29.830584,0.7,-95.82408,-17.897488,0.0005482387,-123.86018,-0.72589344,-0.99802375,-0.5216615,-0.29743987,2.8749926e-07,0.3,-19.391745,60.832047,60.79422,61.258316,61.589447,0.89658993,0.4765625,3.2499380111694336,4.156084402402242
6,60000,43.67890026685922,-66.019615,0.06863626,-0.1971619,4.591025,2.2226164,29.217518,242.57237,4.292631,99.23836,99.602005,99.42682,99.04162,23.447868,0.7,-99.08835,-18.454412,0.0027567232,-146.81068,-7.8882565,-6.502667,-12.562716,-8.081953,1.0024011e-05,0.3,-20.081665,64.125534,64.330246,63.805756,64.14223,0.9489213,0.43749997,3.306013822555542,4.757655362288157
7,70000,23.860662710113527,-67.11464,0.06930318,-0.5155663,3.827812,6.770274,24.601295,155.36801,5.9601126,101.82247,101.566444,101.51446,101.223785,184.19449,0.7,-101.38809,-20.626156,4.727958e-05,-252.95879,-6.250311,-6.790851,-8.257261,-8.899995,2.5566553e-07,0.3,-19.828297,65.573906,65.53371,65.96536,65.989006,1.4984567,0.4453125,1.9721670150756836,5.336399308840433
8,80000,85.5298390270815,-66.66945,0.07045973,-0.5142975,3.1929317,-1.2655276,21.910467,146.9578,5.892377,102.42803,102.85159,101.78677,102.02219,61.20333,0.7,-102.369576,-18.545803,0.0011001751,-186.0628,-1.3587143,-1.7372762,-2.2999432,-2.5195684,4.075871e-08,0.3,-21.353882,64.98688,64.961876,64.9084,65.1834,0.9992303,0.4296875,6.7788190841674805,5.995214219888052
9,90000,58.336708783564006,-68.13449,0.07266151,0.24311289,4.1836605,3.282718,28.127525,305.8885,5.948664,101.02958,100.55441,100.58091,100.39998,98.614685,0.7,-100.33623,-21.516336,0.000657615,-125.56656,-11.631811,-12.49979,-0.77700657,-9.473804,9.019811e-06,0.3,-18.877373,66.32974,66.41419,66.42064,66.76693,1.5588746,0.3875,4.4951252937316895,6.616737115383148
10,100000,15.493634164435196,-67.45906,0.07237602,1.0431871,3.5154262,-5.0739284,28.826216,157.84229,6.1359787,99.15952,99.87157,100.49317,100.30434,22.962181,0.7,-100.099945,-20.075956,0.01578373,-994.49036,0.036051005,-0.23489526,-0.3378494,0.3807036,1.5196566e-06,0.3,-24.646873,65.47295,65.58,65.69832,65.97981,0.85819435,0.421875,1.4665420055389404,7.188115938504537
11,110000,105.14061652677742,-65.805984,0.07215865,-1.2402294,3.937964,3.8099954,15.726486,189.31711,5.434472,102.45075,102.40284,101.21096,101.55873,15.371356,0.7,-102.985435,-16.311333,0.0053077834,-170.72221,-2.6363063,-3.205648,-4.50595,-3.2224808,7.984194e-07,0.3,-21.738953,64.10279,64.09945,63.304222,63.551632,0.7957399,0.45156246,7.275529861450195,7.855026928583781
12,120000,94.15803459307122,-70.40144,0.07427734,0.24770042,4.12011,-3.6279104,24.755419,113.38478,5.1110687,101.743355,101.41474,102.51742,102.46838,81.18494,0.7,-102.25461,-16.813526,0.0017385391,-168.68576,3.5558069,3.0693889,3.5660348,3.0069845,3.78645e-05,0.3,-20.186522,68.53923,68.57609,68.13363,68.36348,1.2722919,0.465625,6.721379995346069,8.513997753461203
13,130000,61.76049504297389,-68.33983,0.07576772,-0.067849234,4.3118,-3.4342728,28.006508,177.40668,6.999115,102.68993,102.53373,102.857475,103.009926,45.384403,0.7,-102.82465,-15.816111,0.0054283915,-209.9045,-5.475111,-3.6925845,-4.326297,-2.4538276,1.1036609e-05,0.3,-22.499977,66.3871,66.44395,66.74866,66.83295,1.0251248,0.459375,4.422963380813599,9.13326422770818
14,140000,40.203398051238814,-70.26578,0.07524225,0.01821597,7.1235266,-0.54940766,21.127989,362.3877,5.284531,101.20724,100.604546,100.009224,100.49159,94.733826,0.7,-102.0071,-15.651484,0.007920831,-287.3514,-0.11556023,-1.2976974,-3.5921192,-2.0957885,0.00012657164,0.3,-22.98716,67.941956,68.05789,67.35481,68.05664,1.6315135,0.4453125,2.839414358139038,9.727773221333821
15,150000,25.65938991660249,-67.05675,0.076013945,-0.3223411,2.5901327,-2.3976707,22.00899,40.31588,3.5918655,103.97762,103.3818,103.45741,103.87143,71.376396,0.7,-103.83225,-18.725414,0.0011138725,-190.54604,0.67723566,1.611404,0.9135786,1.4562137,4.6367124e-05,0.3,-21.872078,64.876274,64.9397,64.79799,64.64118,1.3026072,0.50468755,2.092103958129883,10.309835298856099
16,160000,40.55399906045766,-67.86418,0.07503516,-0.8642403,3.865273,10.746434,17.176027,188.13997,6.2158456,101.69213,102.26985,101.672554,100.548416,14.423859,0.7,-103.605225,-15.936444,0.004770719,-223.60713,-8.683701,-10.55718,0.033185508,-12.611912,2.118107e-06,0.3,-21.299078,66.18623,66.15825,65.73117,65.69641,0.73662347,0.471875,2.745755195617676,10.901793579260508
17,170000,69.8324295321135,-67.05748,0.07603014,0.18903866,3.627533,2.317587,30.353876,68.79649,6.67686,101.71245,101.45799,102.03785,102.16719,23.979406,0.7,-101.787224,-15.820493,0.00023333385,-538.88574,-1.0381687,-2.5003502,0.124525264,-5.928652,7.839078e-06,0.3,-27.06217,65.34781,65.17817,65.142334,65.23827,0.9574968,0.490625,5.148403167724609,11.530679138501485
18,180000,43.09197709907861,-70.23317,0.07583143,-0.97291875,4.777717,-1.0222455,25.959164,147.34451,3.5572457,102.059395,102.582924,101.06581,101.402756,229.15956,0.7,-102.229904,-24.746204,0.008235778,-255.67393,-2.4645665,-2.3918905,-4.1850123,-2.1569777,6.6750094e-06,0.3,-23.916187,68.16371,68.142685,68.19397,68.20029,2.019971,0.49062502,3.1797406673431396,12.128047283490499
19,190000,50.29045211658575,-67.987335,0.07617643,0.10709268,5.149805,-1.2415445,23.587969,299.19507,3.9239743,101.92447,101.96743,101.88356,101.7587,17.880358,0.7,-102.42171,-18.212427,0.017507317,-147.62968,1.9966868,3.2395883,0.91367215,2.9804094,1.08486975e-05,0.3,-20.931908,66.26201,66.07364,65.9236,66.34352,0.94257635,0.4375,3.9480056762695312,12.736370996634166
20,200000,36.015315061861905,-67.320625,0.07747171,0.1800795,2.6545873,-2.2599287,22.28482,55.0816,4.5899434,101.23556,100.88329,102.8509,102.44102,39.587494,0.7,-101.40662,-19.097778,0.00071805116,-180.31175,-4.107094,-3.3318796,-5.1888914,-0.55779505,3.3448265e-05,0.3,-23.259483,64.98002,65.04883,65.14612,65.18591,0.881701,0.4484375,2.551367998123169,13.324000986417134
21,210000,43.40832221053332,-68.94678,0.07765706,0.6007819,4.1490216,-2.372112,23.208813,181.81635,9.242422,101.590256,101.28821,102.90951,102.541916,181.61201,0.7,-101.56246,-20.601238,0.008080702,-123.00238,2.075167,2.478938,1.3399527,2.1071672,3.8083354e-06,0.3,-21.708605,66.94441,67.028755,67.47516,67.54109,1.6956398,0.45156246,3.264094591140747,13.92106145620346
22,220000,38.46966405803175,-67.59059,0.07900652,0.26289168,3.712053,-1.3455565,20.558746,98.17665,4.787931,102.46349,102.10666,101.92024,101.76087,19.529879,0.7,-102.009834,-16.739002,0.00050236617,-236.36475,-1.7257144,-2.6707125,-0.9107816,-0.5667079,1.0524572e-06,0.3,-23.359932,65.70429,65.698685,65.50613,65.43655,0.928979,0.4859375,2.880317211151123,14.512735414505006
23,230000,45.6330177651791,-66.778114,0.07998007,-0.038446918,2.801403,1.9169122,22.7891,79.37419,5.262379,103.61553,104.36771,104.18931,104.867294,44.469624,0.7,-104.53929,-17.58757,0.0025213042,-148.3723,-6.8918943,-4.969492,0.29531595,-5.0062556,1.810561e-06,0.3,-20.424221,64.98396,65.10962,65.01309,65.1714,0.82236725,0.44687498,3.3031110763549805,15.110730520884196
24,240000,97.55476137101408,-67.95146,0.08111247,-0.120746225,2.535216,-1.8433617,31.672745,32.911774,3.7538745,101.989235,102.17409,102.377205,101.718994,281.8411,0.7,-102.0406,-17.579344,0.00062637165,-241.30327,1.621903,1.8413825,0.7570529,1.7661674,6.2864274e-08,0.3,-23.74029,65.85455,65.81257,65.64417,66.045975,2.3325427,0.4265625,7.341141939163208,15.776690542697906
25,250000,71.76430236398997,-68.07729,0.079365864,0.81123805,2.7546659,-0.5590677,34.979313,77.7795,3.7039368,103.51566,103.48718,102.72725,102.73273,19.589666,0.7,-103.75049,-22.091175,0.00059623946,-226.66766,-2.5135427,-2.16928,0.6327119,-4.881716,1.550722e-06,0.3,-23.99141,65.90462,65.99162,66.19374,66.076294,1.0281907,0.4265625,5.141156435012817,16.40343934694926
26,260000,76.58163263352299,-69.52641,0.07970511,0.46496943,4.988798,-1.4633989,22.957615,63.42752,6.2305717,101.48082,102.02056,100.57943,100.44918,44.659603,0.7,-102.70983,-17.230196,0.034185126,-240.8958,1.4066281,1.2365916,0.20759082,-0.112125665,6.4977215e-08,0.3,-20.287716,67.863396,67.754364,66.826584,67.27585,1.466218,0.49374998,5.587651014328003,17.039143800735474
27,270000,71.19702517416937,-65.1632,0.08079089,0.10011777,3.6647854,0.5869992,27.435984,115.15325,3.9128904,102.39564,102.595856,102.00342,102.10044,46.841904,0.7,-103.48173,-15.015148,0.0019816274,-1102.643,-2.622587,-3.519377,-3.0125422,-1.9757706,1.1684443e-05,0.3,-31.820929,62.919266,63.087357,63.09662,63.384537,1.3243897,0.4765625,5.050896167755127,17.66664431889852
28,280000,61.88849339629863,-68.64197,0.08156733,-0.109164394,3.8723373,2.9784372,28.595217,157.36777,2.5983477,102.34029,102.89907,104.104774,103.189644,24.279097,0.7,-102.21903,-16.317932,0.00078354316,-318.13693,-3.1774151,-2.668236,-1.6205925,-3.2813575,1.754769e-06,0.3,-22.692297,66.56718,66.537865,66.754585,66.605896,1.0427091,0.51875,4.356321573257446,18.28563205798467
29,290000,55.44995652192684,-67.2003,0.081237435,-0.42283705,3.6279025,-1.4534432,20.182318,86.44418,3.8613122,102.08694,102.04198,102.76552,102.51918,92.06307,0.7,-102.63236,-29.014296,0.009000665,-217.73456,-3.676797,-6.706144,-6.5998726,-3.7446895,2.52296e-05,0.3,-22.494883,65.143265,65.01941,65.192474,65.43274,1.3858165,0.4453125,3.892289400100708,18.89492307106654
30,300000,49.12062279549838,-64.46724,0.081808515,-0.55302477,3.6116288,8.75972,20.562992,156.6268,5.4935713,103.63158,103.123825,103.14344,102.50639,40.535645,0.7,-103.546165,-18.916746,0.002543428,-463.00424,-7.664669,-9.860078,-0.9972539,-13.567142,1.9480242e-06,0.3,-20.614252,62.75082,62.728455,62.34133,62.46479,1.1030506,0.515625,3.444580316543579,19.500048871835073
31,310000,69.28029382358216,-67.31625,0.08300484,-0.015190065,3.3235164,-4.6264205,16.044357,78.79318,7.4042087,104.49018,104.395325,105.23096,105.069046,59.57357,0.7,-104.03843,-20.76322,0.00028949097,-297.6023,-2.5763226,-2.7655315,-3.6798725,-2.2209144,2.6142265e-05,0.3,-23.396225,65.66234,65.44787,65.40222,65.30809,1.2967894,0.4734375,4.96619725227356,20.127681998411813
32,320000,48.60342527138314,-67.88777,0.08173518,0.12906073,4.33402,6.2622976,21.866467,93.79664,4.4442744,102.73879,103.035995,102.14594,102.48968,32.25047,0.7,-102.70106,-23.675337,0.0024151718,-173.17989,-8.675012,-8.734117,-11.164597,-6.7569065,3.339995e-05,0.3,-21.831436,65.56093,65.6638,65.6417,65.849,1.0488605,0.453125,3.4284884929656982,20.730555244286855
33,330000,59.07995604810385,-69.12736,0.0819616,-0.3326719,4.1575413,1.0594118,26.465124,110.97908,11.914062,104.840256,104.38795,104.74147,104.74935,81.081566,0.7,-104.38047,-16.648708,0.006163786,-438.14163,-3.003151,-4.045964,-4.5706215,-4.6919265,1.0825635e-06,0.3,-24.478283,66.80846,66.78134,66.91427,67.07723,1.1769266,0.44375,4.1251184940338135,21.346104848384858
34,340000,64.79513044769148,-68.60472,0.08224895,-0.17851484,4.678257,-8.612262,25.864374,85.11413,4.3853745,103.21676,102.8558,103.570984,103.55836,172.01605,0.7,-103.67162,-20.326328,0.0015897864,-244.24692,5.4460855,4.032955,0.8439321,0.24817342,2.5262532e-06,0.3,-26.490799,66.36438,66.3667,66.91676,67.120476,1.7521915,0.39999998,4.600934982299805,21.969847973187765
35,350000,64.8838690356563,-68.83392,0.08261257,0.009069949,2.7942028,-2.4956949,18.813137,34.70642,3.630839,103.66184,103.44716,104.011,103.66708,149.16202,0.7,-103.68756,-14.724812,0.012001738,-191.95789,3.6921906,2.7917526,3.520303,4.73808,4.0877495e-07,0.3,-24.783108,66.79141,66.94565,66.707054,66.84723,1.6887913,0.47812498,4.68274188041687,22.593899460633597
36,360000,48.36181176976214,-63.514,0.08106936,0.6504627,5.232126,0.96835506,25.176537,108.43933,3.8284333,104.03233,102.97928,103.57235,103.82665,17.594923,0.7,-103.9021,-14.242682,0.0045178393,-302.12146,-0.5943797,-2.1448421,-2.5094612,-2.0454783,4.586582e-06,0.3,-23.019451,61.289837,61.508133,61.14329,61.247303,0.726994,0.4609375,3.474506378173828,23.198482378323874
37,370000,58.820182203040794,-67.12109,0.08129031,-0.020494595,4.921829,1.3901792,22.666937,173.2424,4.278532,104.95182,104.53978,104.313065,104.09829,129.6644,0.7,-103.996666,-21.132257,0.00085178774,-270.38943,-6.418775,-7.490116,-11.325637,-3.0561144,9.9836325e-06,0.3,-25.01717,64.07622,64.20126,64.64851,65.1024,1.8991175,0.4203125,4.638514280319214,23.822425961494446
38,380000,66.70436960071288,-67.03354,0.08198251,-0.18565163,5.6282535,-7.1106205,23.990002,114.672714,4.4496574,105.23337,105.18813,104.68366,104.72606,66.51558,0.7,-105.16275,-19.413435,0.0022441254,-163.67337,-1.1496508,-2.8160722,0.5639901,-1.7022805,3.7324688e-05,0.3,-22.9857,64.47522,64.40732,63.62516,63.918846,1.7872975,0.51874995,4.783270835876465,24.448466765880585
39,390000,43.372805079535745,-69.52646,0.08059773,0.09233406,7.9098873,0.7127404,27.723194,975.50964,5.7758107,103.44143,103.12122,103.508545,103.42499,105.963524,0.7,-103.50282,-17.575655,0.0012654234,-220.5456,0.28565705,0.31393868,0.7825967,-0.0050499737,1.0774417e-05,0.3,-20.955357,67.33752,67.4015,67.41863,67.427185,1.3213804,0.490625,3.124668598175049,25.04727783203125
40,400000,49.431897530405436,-66.830185,0.08191469,-0.23800859,4.229187,-0.36954534,22.024689,96.17403,5.658472,105.42833,105.295845,104.95664,105.34425,81.48454,0.7,-105.11463,-15.791223,0.0028400025,-357.6482,0.050079882,0.77674264,1.0050613,2.0953164,1.8978135e-05,0.3,-22.561838,64.84999,64.91582,64.95458,65.38417,1.6030979,0.42499998,3.620170831680298,25.653844169775645
41,410000,49.488767530241425,-64.45721,0.08028869,0.50561035,4.2640066,2.510349,21.081648,79.244354,5.4148455,102.59661,102.32564,103.15652,102.705894,39.78908,0.7,-102.74866,-16.94569,0.00028918986,-159.51704,-1.195277,-0.014869332,0.63921577,-2.8397377,1.9509736e-05,0.3,-24.588772,62.268883,62.129326,61.97219,62.286404,0.9153967,0.4234375,3.549884557723999,26.258775786558786
42,420000,54.94818266572087,-68.893745,0.08221987,-0.058968842,3.1362784,-1.9278787,21.373753,76.97218,3.5833411,105.31506,105.312515,105.251816,104.93585,199.1052,0.7,-104.805725,-18.140373,0.0015656957,-393.31076,1.3978118,2.2393878,1.0167443,2.0563512,3.6310405e-06,0.3,-22.659746,66.69182,66.89005,66.43007,66.70868,1.3725365,0.459375,3.9087724685668945,26.86987694899241
43,430000,45.22759708044,-66.896126,0.08243681,-0.17960003,2.8543382,-2.0567408,21.534094,41.47324,4.2453074,104.757904,104.64581,104.448296,105.00485,50.504272,0.7,-105.011154,-22.64647,0.0005465767,-151.50003,1.8619576,2.3012311,0.8325622,0.8694596,8.507702e-06,0.3,-23.260185,64.61589,64.71157,64.47337,64.945335,1.4439793,0.42499998,3.2845091819763184,27.469163882732392
44,440000,56.832313080800176,-67.54463,0.08260034,-0.88670754,3.512835,-4.650144,24.057299,39.406677,5.875374,103.048676,103.93822,104.48948,104.60196,23.192757,0.7,-103.899155,-19.756977,0.0063476097,-524.9178,-2.1640358,-0.9720838,-3.887343,-2.964828,4.172325e-08,0.3,-24.11453,65.4855,65.67259,66.05583,66.07936,0.96870303,0.4453125,3.9672889709472656,28.082738586266835
45,450000,50.30374808897823,-68.41781,0.08251147,-0.46145806,7.2243147,0.38800183,20.719091,155.15454,4.8914566,103.155785,102.99771,103.87418,103.75145,231.53873,0.7,-103.18525,-26.581436,0.0016848526,-378.18216,-0.21205634,-1.6015881,1.1803167,-6.626954,4.0770698e-05,0.3,-21.718618,66.40976,66.447914,67.49806,67.241135,3.0176306,0.46562502,3.634023427963257,28.690265810489656
46,460000,44.23055731356678,-66.47641,0.08236885,0.34592748,3.6675506,2.9826117,25.308914,177.43115,5.069022,103.70478,103.124626,104.27673,103.74247,242.62338,0.7,-103.49511,-16.30274,0.0011257154,-337.54996,-6.656762,-5.9173403,-5.4940367,-3.1814308,6.6174134e-06,0.3,-22.1381,64.20011,64.16043,64.668175,65.02894,2.135149,0.40625,3.2903172969818115,29.291956547896067
47,470000,54.86205579071315,-69.13057,0.08431671,0.06608488,4.505997,-1.5911515,19.638378,127.368164,6.951738,102.98252,102.74303,102.91798,102.61979,146.02802,0.7,-102.8298,-17.76364,0.01771392,-363.08704,-0.75481844,-1.5477737,-2.4302604,-2.240559,9.292916e-06,0.3,-25.248821,67.12506,67.12007,66.79355,66.73622,1.752224,0.5046875,3.840320110321045,29.902270237604778
48,480000,47.505242776149856,-67.82312,0.08261507,-1.0566117,3.4277737,-0.28318986,18.125422,78.31645,5.1789045,105.69602,105.49602,105.12932,105.3657,97.83244,0.7,-105.289276,-17.713402,0.008454611,-768.2599,-0.95570475,-2.0231473,0.57549155,-2.0732613,7.852487e-06,0.3,-24.291546,65.80567,65.76744,65.58687,65.76662,1.1305205,0.45,3.3164749145507812,30.505280947685243
49,490000,47.241679492591324,-66.14026,0.082639955,0.07641238,3.595199,-5.1336927,21.131508,97.01216,5.884492,104.90711,105.575966,104.03607,103.88057,85.64569,0.7,-105.00501,-18.290495,0.0015541916,-186.30585,6.315896,4.310969,5.967436,4.8460984,1.8482187e-05,0.3,-22.683542,63.74726,63.759796,63.449085,63.585083,1.527708,0.48125,3.3625168800354004,31.106911659240723
50,500000,46.61415278021335,-63.79223,0.08366336,0.40536648,7.941613,8.887488,24.970901,843.96387,5.539629,103.53076,103.464386,104.74663,104.15845,82.597115,0.7,-103.67447,-15.499011,0.0031795495,-411.68866,-4.5412245,-5.9063473,-0.29444346,-1.6381097,7.5338176e-06,0.3,-24.533112,61.519035,61.377213,61.933315,62.059006,1.2487937,0.41875,3.3411905765533447,31.71084280014038
51,510000,46.98388690951234,-67.3207,0.08272111,-0.5496309,4.2010784,-1.0675144,18.766712,420.78308,4.8745403,105.60491,105.13265,104.60417,103.4867,57.615562,0.7,-105.07893,-17.674746,0.012786001,-529.2175,-9.063441,-5.35751,-10.108684,-7.2577085,1.7532218e-05,0.3,-24.528004,65.70238,65.65329,65.30846,65.439354,1.119192,0.465625,3.3652143478393555,32.314131665229795
52,520000,43.32837920602747,-65.06547,0.08375215,-0.2501594,5.9175806,-0.1811955,21.634155,618.6133,4.467326,105.23831,105.35956,104.53848,105.448,74.731514,0.7,-105.91907,-24.524734,0.00808668,-596.26654,-7.345684,-5.7623844,-4.2200084,-2.3646512,1.9325596e-05,0.3,-20.829924,63.3826,63.36194,63.252098,63.40636,1.4093027,0.45156246,3.164715051651001,32.91387555599213
53,530000,46.646948391486134,-66.69978,0.08333726,0.98889714,3.5313687,-1.3561265,21.522812,58.762943,4.9355955,106.367226,105.84942,105.87081,104.83282,54.202724,0.7,-105.67626,-17.68446,0.0009767325,-129.67084,0.032307327,1.4145125,-2.2473102,-0.8338207,7.411912e-06,0.3,-22.111435,64.26033,64.234,63.93434,64.17262,1.196253,0.47187498,3.3479268550872803,33.51633673111598
54,540000,56.585701781528726,-66.47096,0.083099,-0.3870188,3.4262245,-2.6845384,23.378525,48.182896,5.61659,103.948006,103.75025,104.482895,103.220245,105.18642,0.7,-104.44059,-20.732004,0.0043808315,-591.5613,2.5046115,2.6579173,0.78273606,0.29983816,1.0029899e-05,0.3,-26.922491,64.52514,64.47604,64.337616,64.41044,1.3550222,0.4421875,4.094455718994141,34.13038673003515
55,550000,44.90401644890996,-64.84364,0.08414225,-0.63690156,4.4831038,0.114898205,17.725374,144.76869,4.8885136,104.01074,103.52137,103.98267,103.26322,134.54501,0.7,-103.79943,-19.949078,0.00094292837,-413.28232,-7.313119,-7.3950853,-13.698952,-10.763794,1.10175456e-07,0.3,-25.596954,62.63094,62.62256,62.769913,62.741844,1.6984779,0.5109375,3.17024302482605,34.7281898021698
56,560000,44.68042296986329,-68.47566,0.0842093,0.31636053,7.469881,-3.4325984,28.668133,908.23016,4.294571,103.53986,104.37471,103.36015,103.51616,11.582606,0.7,-103.60918,-23.232954,0.00021825261,-311.03964,-6.7725315,-9.121458,-8.770777,-6.730186,3.3500373e-06,0.3,-24.874058,66.486145,66.46248,66.83246,66.73181,0.8857099,0.4484375,3.388364315032959,35.331515578428906
57,570000,44.59271927799814,-66.76878,0.08196918,0.20842832,6.852857,-4.458794,19.421957,946.2317,5.0848293,104.91645,105.20797,104.47771,104.29858,94.3685,0.7,-104.17123,-16.136435,0.002276038,-1480.5507,0.86389244,0.0708527,0.6791786,-0.005123675,4.6214407e-07,0.3,-34.10639,64.472015,64.447586,64.2236,64.45935,1.5202819,0.45,3.192741870880127,35.93135042587916
58,580000,45.49408834884767,-67.07164,0.0822765,-1.0045327,5.0884914,-5.207846,18.913464,79.09223,4.793616,102.99611,103.48711,104.37272,104.12321,61.316723,0.7,-103.20266,-16.268196,0.0038653163,-347.96405,2.6128097,1.3743281,-0.43908605,4.6920166,5.4566367e-06,0.3,-22.705555,65.05084,65.01507,65.70261,65.7617,1.214848,0.4140625,3.214226245880127,36.53188027938207
59,590000,59.00702518426214,-68.03984,0.08124551,-0.3210205,3.8856387,-5.0870833,21.299229,220.65436,6.7732277,104.23123,104.349335,103.71218,104.45128,21.606852,0.7,-104.71145,-19.482931,0.0055404957,-332.72723,-2.20205,-1.5788374,-0.0023076423,-1.1449184,3.319513e-06,0.3,-23.133526,66.47235,66.31532,66.183846,66.485214,0.74428713,0.44062498,4.14880895614624,37.14752372900645
60,600000,60.555290203868886,-64.63079,0.08204405,0.13381955,2.2419524,-2.1803844,23.477877,26.763527,5.0752015,105.01297,104.70908,105.121735,104.92774,26.857447,0.7,-104.80903,-19.688566,0.0006704119,-403.33777,-1.5765556,-0.17440486,0.41694915,0.34813258,3.0367112e-06,0.3,-24.612526,62.449463,62.476646,62.48984,62.5188,0.9244925,0.4765625,4.2257726192474365,37.76402449607849
61,610000,61.56699834089115,-64.70337,0.08036219,0.34877643,4.0476456,-0.71041405,23.04403,61.15428,3.450573,103.421104,103.686104,104.900795,104.68742,323.72336,0.7,-103.12782,-18.158037,0.0013316467,-423.72827,-2.7814145,-3.6869755,-2.8251965,-0.61483645,8.451753e-09,0.3,-25.297745,62.87331,62.965275,63.61848,63.056835,2.2299945,0.4609375,4.278613090515137,38.381781307856244
62,620000,46.04086597208244,-66.57574,0.08294984,-0.13752629,4.5132117,-5.4717913,21.229553,271.4823,3.9359622,104.69013,103.98554,103.55008,103.55048,347.39246,0.7,-103.95273,-18.02758,0.003132122,-1546.8767,0.5732027,-0.13772148,0.52311885,-0.4086424,1.1914351e-06,0.3,-29.718252,64.57703,64.41018,64.06735,64.11717,2.786535,0.47812498,3.2089948654174805,38.98322300116221
63,630000,54.73084969795807,-68.50952,0.08119863,0.1619219,2.7015233,-0.13703316,25.615988,56.20853,4.2035513,106.45072,106.19661,106.197235,106.39189,18.460735,0.7,-106.636284,-19.094097,0.00017996604,-291.54376,-6.3905964,-7.8928347,-2.498012,-5.611658,2.7591288e-05,0.3,-27.619663,66.15287,66.0553,66.35254,66.24787,1.0652175,0.4484375,3.9147021770477295,39.593604826927184
64,640000,60.462720226396684,-66.28017,0.081409566,-0.22433892,4.154318,-0.7457663,26.113083,328.68127,4.6981635,104.80924,104.99244,104.96736,105.481384,22.941982,0.7,-105.66846,-17.828737,0.0027166826,-147.57962,0.87878835,1.1471152,0.56471765,0.5483905,7.9970346e-07,0.3,-24.00101,64.11927,64.07153,63.877068,63.838837,1.0379221,0.5125,4.268306493759155,40.21286886930466
65,650000,52.73160107558129,-64.05875,0.08138898,0.40218937,4.5531583,-1.0135751,26.253838,414.07288,5.6899614,102.93468,104.23162,103.53065,103.30387,82.267334,0.7,-103.23412,-17.236612,0.0019583153,-227.53517,-1.3769104,-2.9275365,-3.005131,0.8274528,8.124595e-05,0.3,-24.910275,61.726776,61.75831,61.979385,62.16652,1.4319227,0.40625,4.1463587284088135,40.8263313571612
66,660000,46.54251629920782,-66.2248,0.080970936,1.1080601,4.7717404,-3.1899698,24.011158,170.23729,7.528961,101.449524,102.02723,101.95629,101.88801,136.02235,0.7,-102.37609,-14.212801,0.0016454447,-686.20667,-3.1859055,-2.9682248,0.14733268,-2.6040554,5.657785e-09,0.3,-24.75153,63.773895,63.99521,63.756676,63.91072,1.7499408,0.48593748,3.6360814571380615,41.430421725908914
67,670000,58.38430741316299,-66.69,0.0807912,0.120312445,2.6868715,1.1008933,20.60404,71.48102,4.1920543,104.12695,103.81312,103.290764,103.22532,116.71405,0.7,-104.854645,-19.218649,0.0028586108,-397.07724,-0.87821037,-4.207711,-2.2236624,-2.6323576,1.5973811e-06,0.3,-22.787262,64.76401,64.66977,64.37807,64.56003,1.2081485,0.4734375,4.509913921356201,42.05026769240697
68,680000,58.016066995080315,-69.02308,0.080069914,-0.51492965,2.5562263,-1.8976729,31.67948,53.897163,9.953361,105.85544,106.03059,104.681114,104.775276,56.777874,0.7,-105.560875,-20.468895,0.0017231856,-235.6088,1.551003,2.196754,1.1405617,2.7821345,2.8032036e-05,0.3,-23.433384,67.31065,67.19334,67.02548,67.56924,1.0880784,0.44375,4.0492939949035645,42.65930607318878
69,690000,60.5919817924084,-65.865036,0.07852414,0.21753688,3.94352,0.4546018,21.531267,152.15369,4.205962,103.94705,104.1951,103.758766,104.37234,12.445296,0.7,-105.15523,-18.60648,0.0002782052,-202.53928,0.22683656,-0.12435502,0.84209585,0.9774567,5.784212e-07,0.3,-24.9655,63.696106,63.63571,63.591896,63.823116,0.7876041,0.42343748,4.431288957595825,43.276516715685524
70,700000,52.00324869152211,-69.16832,0.079847515,-0.75294274,3.3393362,-2.9483423,25.087053,85.0672,3.4310753,103.89847,103.782814,103.95329,103.74031,26.806217,0.7,-103.78459,-17.083023,0.0011897404,-294.77853,2.8689697,3.0172698,2.671525,2.6672657,3.3884702e-05,0.3,-22.118229,67.46474,67.318634,67.63428,67.56674,1.0705621,0.4640625,3.7123870849609375,43.88168953259786
71,710000,65.64526366331694,-67.19783,0.07927321,0.3052712,3.9185348,-0.3668571,22.293072,145.35349,8.739702,105.04865,103.5869,105.623085,104.63734,91.05843,0.7,-103.42992,-22.93303,0.004875269,-1003.43976,0.5423128,0.22677708,0.26283473,0.34570926,1.2029778e-07,0.3,-31.009567,65.30568,65.0918,65.5222,65.465034,1.5542135,0.4578125,4.750406742095947,44.50304785569509
72,720000,61.634976746735745,-69.23331,0.079175346,0.2581892,2.748283,-0.27555326,23.631891,68.23436,5.8609753,105.33659,105.58826,104.69293,105.45389,129.08832,0.7,-107.20233,-16.427948,0.00018554193,-428.52734,-2.04743,-0.5959872,-0.81895936,-0.64005727,2.4950832e-06,0.3,-25.921093,67.024254,66.95858,66.71898,67.03154,1.2832103,0.44687498,4.50855565071106,45.121604732672374
73,730000,53.304798236510706,-64.93173,0.07895765,0.7168968,3.8198073,-1.3146348,33.295998,90.41588,3.894122,104.26129,104.724014,105.53296,105.415665,20.548208,0.7,-104.65681,-17.0478,0.0008955163,-391.43372,-13.071115,-11.796172,-14.628215,-13.269692,2.9611947e-05,0.3,-24.994576,62.83491,62.81598,63.35694,63.46583,0.8662077,0.41718748,3.8862383365631104,45.728386000792185
74,740000,63.0062275999553,-68.03453,0.07834709,0.116088375,5.393387,1.178019,21.157433,224.79987,4.6182146,103.90657,104.085884,103.23235,102.528786,204.74445,0.7,-103.64491,-15.212405,0.005985409,-380.64548,-1.155307,-1.2710918,-0.7590755,-1.8295101,4.8500322e-05,0.3,-26.545818,65.590065,65.53646,66.24349,66.65407,2.5787997,0.4125,4.622105836868286,46.348081811269125
75,750000,59.33279797481663,-67.50612,0.07799616,0.19736119,5.2958307,-2.0247178,26.916374,170.30775,3.8804998,104.957794,105.30579,105.38676,104.17008,201.34547,0.7,-105.38645,-21.477808,0.0044859448,-735.6018,-2.8196826,-1.2952127,-5.0248337,-2.8304224,1.8729407e-06,0.3,-33.54313,65.06392,64.974464,64.45615,65.01137,2.4097075,0.4734375,4.303994417190552,46.961626442273456
76,760000,42.565062837781475,-66.76082,0.07916477,-0.3086528,4.0953817,-2.9670093,22.591814,144.57803,5.277749,103.944305,103.84284,103.79514,103.98242,64.6771,0.7,-104.016075,-28.038128,0.0032102438,-778.94464,-0.6910984,-0.8405019,-0.27595636,-1.1202104,3.6386626e-07,0.3,-29.873611,64.38762,64.496445,64.73601,65.03878,1.6744232,0.42343748,3.0099527835845947,47.556276369094846
77,770000,56.1900168917654,-67.19606,0.07796091,-0.56222725,3.7430058,-0.65119886,18.755714,78.88603,5.567712,103.35303,103.23447,103.073296,103.05773,56.643055,0.7,-102.98246,-21.352386,0.0008835961,-470.81085,-0.31749082,0.4360578,-0.8339413,-0.7580688,7.4689046e-06,0.3,-28.80132,65.03679,64.92349,64.6597,65.20478,1.3500497,0.44374996,4.036129713058472,48.169333378473915
78,780000,59.2162833285079,-62.94796,0.079253174,0.36674303,5.1024647,-0.60166633,32.00703,96.74456,3.0571208,103.719345,103.30628,104.10389,102.29916,125.71402,0.7,-104.63514,-17.552683,0.001389591,-972.3108,0.6274348,0.7801187,-5.3403378,-2.1394963,9.545877e-05,0.3,-28.234959,61.051895,61.023243,60.750145,60.93358,1.2517745,0.490625,4.189876556396484,48.78605282306671
79,790000,54.57664350912187,-66.94075,0.07817281,-0.54174405,2.1664503,-3.8918924,22.145107,36.481308,2.6888573,104.22095,103.64482,103.56128,103.576805,187.1189,0.7,-105.73337,-25.256502,0.002465094,-1296.7686,-2.9993978,-2.9105759,-3.538727,-3.8563724,1.8729407e-06,0.3,-29.001873,64.56546,64.671814,64.67151,65.15794,1.7989774,0.42343748,3.849353313446045,49.397258619467415
80,800000,60.89167766172808,-65.386154,0.07856719,0.54600215,3.1824653,-1.8305813,21.961765,67.03205,8.031087,105.2192,105.47131,105.478714,105.89631,53.291553,0.7,-105.27901,-21.466902,4.740624e-05,-240.6061,-0.7614522,-0.334386,-1.1411037,-1.0301313,3.4686025e-07,0.3,-25.079346,62.98679,63.150806,63.32293,63.87783,1.3248191,0.3984375,4.269218921661377,50.017158635457356
81,810000,65.6588774168583,-69.455925,0.07778106,-0.8965308,4.6326947,-2.5534546,21.00244,117.2592,4.735447,105.39669,104.90072,104.826996,104.92382,47.303528,0.7,-105.4194,-21.00241,0.00043117037,-457.50967,-2.1632278,-1.877268,0.6567211,1.5863497,6.119907e-06,0.3,-24.401087,67.481964,67.650665,67.68424,67.97664,1.2610356,0.41249996,4.720893859863281,50.64162763754527
82,820000,64.23936635546758,-64.05742,0.07776792,0.909882,5.4498196,-2.7066648,30.775324,253.45381,6.3331127,103.73187,103.35257,103.574265,103.11322,149.13203,0.7,-104.62247,-13.288608,0.00042823522,-1109.9587,0.21664637,1.2359513,-2.6379502,-1.731448,5.9655287e-07,0.3,-30.411526,61.679153,61.811874,61.23417,61.37989,1.6364872,0.48749998,4.549598932266235,51.26157765785853
83,830000,51.925359104574056,-66.38115,0.07857714,-0.032647565,3.996659,-5.9908266,21.806004,83.3618,4.9453907,105.454285,104.34063,105.94138,105.505005,21.522549,0.7,-105.12096,-22.018167,0.0011557003,-238.5965,2.4941196,2.7589135,2.0086763,2.5579634,1.517724e-06,0.3,-27.582813,64.46858,64.42941,64.92071,64.73804,1.0523399,0.46874997,3.7783737182617188,51.871210209528606
84,840000,58.14629721525567,-63.777195,0.07781231,-0.46058312,4.842802,2.1265638,23.752295,186.41794,5.808811,102.233086,102.60645,103.01981,103.04796,97.67362,0.7,-102.758804,-16.648518,0.00377978,-317.2102,-2.9258437,-2.6129825,-5.0128593,-4.9049287,0.00015821017,0.3,-27.245598,61.58281,61.6966,62.227478,62.264637,1.3730179,0.46718746,4.105249404907227,52.48383301496506
85,850000,56.382702270680475,-66.63432,0.07699225,0.51913816,2.5583847,-0.19958387,21.471624,58.108776,7.801785,107.80514,107.755684,107.3863,106.29959,56.198647,0.7,-107.84014,-16.409538,0.009917776,-1099.6105,-2.4885955,-3.7707677,-5.101432,-1.2572194,8.864663e-07,0.3,-28.554386,64.12028,64.113266,63.88767,63.79267,1.510186,0.4671875,4.006440877914429,53.09727788368861
86,860000,58.247576020859306,-64.671844,0.07779944,0.08888447,3.4666045,0.7787593,24.661222,93.367035,7.014596,103.551346,103.26919,103.06922,103.854744,43.897633,0.7,-103.03589,-19.966934,0.00024617027,-360.8732,-4.348108,-4.763919,-1.7754043,-0.5496675,1.27653775e-05,0.3,-23.944519,62.68919,62.643543,62.811882,62.88965,0.8405539,0.4453125,4.215341091156006,53.71460198163986
87,870000,76.94309770764988,-66.236465,0.07722426,0.54604656,2.6898208,-2.289089,28.867552,33.45943,4.735867,107.920044,107.65911,105.88984,106.32222,195.02739,0.7,-108.432076,-20.348486,0.0053570764,-749.5352,-2.8418617,-1.0550845,0.075330794,0.113809705,9.723158e-06,0.3,-30.484467,63.93687,64.0782,63.7882,63.839684,1.8128592,0.4765625,5.388944625854492,54.34979559580485
88,880000,77.24771024828343,-66.944595,0.07719067,-0.09612727,2.5269904,-4.3451915,24.814484,28.05275,4.80787,106.01993,105.29234,105.97821,105.84891,11.719351,0.7,-106.48396,-15.51782,0.000111216796,-538.468,-7.8191376,-5.351788,-7.518597,-7.81301,7.675885e-06,0.3,-26.204067,65.46926,65.434006,65.414444,65.197556,0.6630745,0.496875,5.456552028656006,54.98710132837296
89,890000,54.0754158875972,-64.76946,0.07773694,0.46329564,3.6579227,-2.2702286,27.81824,42.694435,4.9420767,102.35995,102.420235,103.13243,102.781685,48.12833,0.7,-102.343506,-18.950876,0.0022723528,-169.4187,1.0225489,0.24794334,-0.0026188046,0.19838828,6.3868516e-05,0.3,-25.30877,62.14652,62.11149,62.578,62.643417,1.140477,0.4296875,3.8351287841796875,55.595979829629265
90,900000,48.91180403768457,-65.78824,0.076988235,0.9667635,3.31312,-1.5471334,27.962502,47.361176,3.0697877,104.770065,105.15442,104.6425,104.00018,296.214,0.7,-104.49982,-15.697654,0.0009513955,-247.27943,0.1955927,-1.019124,-3.7424574,-0.7535288,2.8938273e-06,0.3,-27.148714,63.359135,63.314594,62.90445,62.904205,2.0491483,0.4875,3.545412540435791,56.2035777926445
91,910000,56.958540983802465,-67.00743,0.07870578,0.47779423,3.1109657,0.12865469,25.408411,47.24646,5.4685726,104.1937,104.856064,103.936134,104.20205,69.530495,0.7,-104.14447,-15.569418,0.010332311,-1264.115,-3.5110044,-4.53471,-0.52643216,-1.3463328,3.4741126e-06,0.3,-37.045944,65.10584,65.22262,65.14641,65.40883,1.0367296,0.465625,4.068296194076538,56.81648065249125
92,920000,56.53254434253727,-68.87549,0.07694962,-1.0287542,3.1411085,-2.4075897,18.995918,100.0605,5.1493,103.2196,102.7527,102.90897,102.81022,60.026516,0.7,-103.38189,-20.583084,0.0012419815,-321.57413,0.0057454705,0.43200266,-6.851121,-1.0709851,2.7088745e-05,0.3,-24.498993,66.93997,67.08087,66.82347,66.82292,1.2755601,0.48593748,4.05086874961853,57.431284713745114
93,930000,66.5924050727071,-67.66875,0.075617574,0.9058356,3.5171492,-2.647265,27.777264,39.30885,5.0871615,103.8187,103.620834,103.14456,103.17311,142.97157,0.7,-103.43229,-18.409424,0.0075201606,-288.33203,1.8235754,2.0943294,0.62861454,-0.7279688,6.519258e-10,0.3,-27.808983,65.210594,65.19669,65.36781,65.54263,2.0876179,0.44374996,4.710012912750244,58.05594737927119
94,940000,53.99239974302129,-67.16513,0.07600682,0.5558487,5.7503767,-3.1927497,19.243788,345.2069,5.4010887,102.416336,102.27247,103.21374,103.40438,299.69406,0.7,-102.36708,-17.054476,0.012163737,-268.7225,-0.46406913,0.17852235,-0.1783395,-1.3080975,1.1804514e-08,0.3,-27.527811,64.9124,64.78418,64.6925,65.110306,3.4129267,0.4609375,3.85817289352417,58.66509056488673
95,950000,52.741103633027585,-66.92047,0.077737175,-0.07825743,3.3945737,0.56809354,23.856787,210.84952,3.7895527,105.703445,105.61541,105.17116,105.2883,47.35329,0.7,-105.4574,-18.41703,0.0012474321,-478.59454,-1.6813908,-1.9609568,-1.7384948,-2.9463081,0.0002097168,0.3,-27.031828,64.6815,64.70205,64.78103,65.18019,1.1736574,0.36718747,3.8660497665405273,59.27662272850672
96,955000,49.62557120657466,-67.8402,0.07320335,0.74291,3.456211,-0.66295767,20.78875,66.06875,4.7209973,106.55111,105.85467,106.733406,106.90942,46.583973,0.7,-106.22818,-19.152304,0.0020568026,-263.7939,-3.3595214,-2.3924527,-4.9907255,-5.107735,5.2952674e-07,0.3,-26.154291,65.55113,65.628685,65.53914,65.668076,1.2959409,0.459375,3.5111889839172363,59.607290323575334
97,960000,50.389402748347656,-67.876,0.07847758,0.19620618,2.4987378,-1.9063287,25.607655,34.75806,4.7069645,104.58162,104.37169,105.00647,105.02762,21.372643,0.7,-104.903114,-21.47395,0.00032221974,-137.76328,2.0243113,1.917846,1.0382977,1.2776008,4.2734945e-07,0.3,-23.540712,65.94475,65.86145,66.06046,65.9124,0.81174767,0.4203125,3.640482187271118,59.939481445153554
98,965000,54.82991410315049,-65.52591,0.079180084,-0.15125799,3.5313425,-4.0037127,23.16977,61.096478,6.187247,104.81994,103.909134,104.9427,105.15124,68.475586,0.7,-105.84813,-19.601822,0.0023113396,-313.3872,1.2142817,-0.702421,-3.8190017,-0.32884723,3.1245117e-06,0.3,-26.140625,63.328266,63.341656,63.742332,63.718044,1.497858,0.47656247,3.8614745140075684,60.27677417596181
99,970000,53.733329141613005,-64.04126,0.07595459,-0.0713155,5.223973,0.9423264,28.92117,116.92917,7.564944,104.21886,104.28243,104.58599,105.21754,410.33792,0.7,-104.39208,-27.988682,0.003534504,-900.4569,-3.4608226,-2.8253934,-2.7223701,-3.3458598,1.739252e-05,0.3,-31.217594,61.66005,61.59687,61.59897,62.31546,3.152762,0.4109375,3.811094045639038,60.61357714732488
100,975000,47.99978653999168,-66.88508,0.07561148,0.27738613,3.0995195,-0.58693707,25.449133,55.346413,6.0472145,104.74592,103.89115,103.68816,103.062004,49.437912,0.7,-104.06242,-15.998206,0.0028770017,-6006.6216,-0.052543044,-0.8103833,-0.034018338,0.030929089,1.725338e-05,0.3,-47.457077,64.629486,64.595856,64.10605,64.19533,1.0093493,0.484375,3.4102253913879395,60.94266044696172
101,980000,52.656976094838924,-63.797928,0.07626431,-0.0908346,3.016803,-0.14878902,22.053513,41.5142,3.8435845,103.71136,103.91824,103.61616,103.66356,121.53341,0.7,-103.91819,-23.539968,0.008419519,-289.56512,-0.17649877,0.25079656,1.2288536,-1.6199858,1.1187699e-05,0.3,-23.892113,61.642323,61.6192,61.665443,61.727722,1.4401441,0.440625,3.710472822189331,61.27765920162201
102,985000,50.75646389859244,-64.83587,0.072360635,0.46110713,3.2413597,-0.6790416,23.877405,45.24803,5.5607324,104.56159,104.19727,104.06897,104.42862,39.514893,0.7,-104.21899,-16.176859,0.0052636964,-169.45483,-1.4568223,-1.5249933,-0.38651627,-2.5983553,4.3655748e-10,0.3,-23.653275,62.505768,62.43474,62.72077,62.60576,1.1382754,0.45468748,3.647494316101074,61.61271069447199
103,990000,53.31458341141191,-66.57703,0.0741497,-0.02948001,2.8820014,0.70456016,18.177837,35.23399,5.032336,103.2631,103.83247,102.80917,102.96243,67.19907,0.7,-103.48015,-16.616173,0.0015111719,-253.63443,-0.6528609,-0.9932301,0.70040685,-0.39887267,2.4258159e-06,0.3,-24.815609,64.37536,64.37025,64.562744,64.83847,1.0201653,0.4265625,3.979249954223633,61.952932727336886
104,995000,59.570648318432454,-67.35659,0.07923619,-0.3624323,2.7154987,0.52042484,23.611944,59.13601,3.5263057,105.53281,105.719475,105.16815,104.71543,211.38632,0.7,-105.317154,-15.559907,0.008521581,-167.80487,-0.24638629,-0.8532845,-0.37232852,-2.7747624,7.700874e-09,0.3,-22.60151,65.11827,65.20039,64.87398,64.864716,1.6729484,0.51093745,4.292834997177124,62.296545430024466
105,1000000,46.339849180961046,-67.07471,0.08152334,0.627864,4.9499316,-2.0507963,25.992563,126.88229,2.6256669,105.58032,105.12779,104.33172,104.5332,26.622782,0.7,-105.65649,-13.565458,0.0072061946,-309.16986,-3.8428702,-0.78318477,-6.8997164,-0.2794078,0.00012483691,0.3,-27.101332,64.678406,64.695206,64.33564,64.50399,1.0551778,0.4359375,3.2891740798950195,62.62453893025716
