Xixo99/comfo/baselines/comfo6_perterbation_actor/20230225_mle0/hopper-medium-replay-v2/COMFO6_s0_20230226_062020_hopper-medium-replay-v2_97.45.csv
,step,reward,actor_loss,alpha,alpha_loss,critic_loss,max_actor_loss,max_alpha_loss,max_critic_loss,max_mle_prob,max_q1,max_q2,max_target_q,max_v,max_value_loss,max_weight,min_actor_loss,min_alpha_loss,min_critic_loss,min_mle_prob,min_q1,min_q2,min_target_q,min_v,min_value_loss,min_weight,mle_prob,q1,q2,target_q,v,value_loss,weight,eval_time,time
0,0,4.790915371627843,,,,,,,,,,,,,,,,,,,,,,,,,,,,,,,,,
1,10000,6.137479043301529,-30.164623,0.06478225,-3.2180095,3.7209532,3.9355295,17.720444,494.22058,4.404641,55.72204,56.580193,55.50036,54.661907,1.8103293,0.7,-55.572662,-19.043093,0.00014814323,-116.51728,-3.915311,-3.803363,-0.9660715,-3.9873154,5.086704e-06,0.3,-11.993403,29.485739,29.508646,29.166275,28.823997,0.13812394,0.5453125,0.6562309265136719,1.7866143743197123
2,20000,17.259909599784017,-46.226334,0.055899527,-0.16451202,2.545239,1.7470592,43.44293,111.93607,9.744932,80.576485,81.36045,81.100365,80.66004,23.565187,0.7,-82.158356,-23.124607,0.0073540392,-190.01518,-3.9050634,-3.7300963,-7.3067446,-4.1991386,5.0655655e-07,0.3,-20.991245,44.775314,44.83992,44.894535,44.893772,0.6627099,0.40625,1.4398250579833984,2.3544326186180116
3,30000,22.737055799809223,-56.083355,0.06668298,0.9192586,4.3544574,-0.024476126,32.607327,214.94312,6.8705654,89.008,89.28209,89.21659,88.72841,82.601326,0.7,-88.726494,-21.352524,0.0027614094,-173.64833,-3.4578338,-3.374295,-0.28802982,-1.6484283,2.4035282e-06,0.3,-17.447868,54.62207,54.57156,55.082558,54.98604,0.8781478,0.4328125,1.8054108619689941,2.9240205605824787
4,40000,97.00476958261545,-60.523136,0.0702452,1.2005444,2.5775023,4.26131,21.896944,48.447777,4.7059827,95.116516,94.39552,94.17354,94.0009,18.795023,0.7,-94.89171,-14.857451,0.0013364723,-190.08118,-4.542971,-3.644055,-8.559952,-9.173264,2.673303e-07,0.3,-17.495739,59.096863,59.140232,58.97743,58.981194,0.83489716,0.46718752,6.97455620765686,3.5827717145284015
5,50000,31.5838864830499,-64.531,0.070197284,-0.7235908,3.4712617,1.3037394,28.25315,162.47049,4.0542135,97.97423,97.201836,98.65371,98.6617,10.183509,0.7,-97.576,-17.354454,0.0020063082,-112.366615,-5.1348166,-1.0588857,-0.7927072,-0.5668495,8.250936e-06,0.3,-16.73677,63.083015,63.17878,63.726242,63.640396,0.62427485,0.41875,2.4748218059539795,4.165999245643616
6,60000,74.01592927129525,-64.61007,0.07234959,-0.293528,4.635323,-1.4004899,22.580227,260.85028,4.7017746,100.46796,100.36787,100.69495,100.67924,7.902461,0.7,-100.20424,-23.144312,0.0030721168,-157.25276,-5.594885,-5.8214808,-4.684089,-2.0597322,5.019869e-06,0.3,-18.342384,63.062485,62.971634,63.324936,63.576103,0.6035735,0.42343748,5.435386657714844,4.796843349933624
7,70000,90.4224452562776,-64.54698,0.07372303,0.33592921,3.5583186,8.304263,41.05859,118.28683,3.592259,100.32188,100.147026,100.49458,100.371185,132.37376,0.7,-100.29048,-19.883308,0.0021252893,-143.56494,-12.412117,-11.402723,-13.790836,-9.076485,5.8137057e-06,0.3,-21.155615,62.36048,62.383865,62.28534,62.729073,1.9214511,0.45624998,6.470229148864746,5.441176811854045
8,80000,8.450302420980487,-65.839005,0.07424244,-0.36037958,3.4934368,1.0218424,20.638603,190.93237,3.8170292,101.15273,101.26063,101.0341,100.37598,31.130793,0.7,-101.453674,-19.037264,0.003885627,-137.39244,-5.164847,-5.1881585,-6.458514,-4.3880224,1.0561605e-06,0.3,-18.545801,64.265366,64.31662,64.27469,64.22633,0.8441053,0.45468748,0.8757829666137695,5.994585863749186
9,90000,66.10074882551176,-67.25995,0.07394517,0.81293994,3.9823604,2.333321,25.82195,101.295654,4.855981,100.782166,100.84897,100.07379,100.4566,96.38831,0.7,-101.23367,-12.778927,0.0046804007,-146.39189,-2.5191152,-4.3376784,-4.8212147,-2.6456072,3.5008427e-06,0.3,-18.956291,65.3164,65.26966,64.68271,64.51322,1.6423621,0.54375,4.732885122299194,6.612210794289907
10,100000,8.604741190798954,-66.80312,0.074896626,0.0016416758,3.1084979,7.8495245,28.985863,101.5098,4.5768957,100.845055,100.09948,100.08806,100.11221,83.71745,0.7,-100.56259,-15.235685,0.0011775271,-136.74301,-10.457847,-8.696043,-11.312128,-8.654969,5.763436e-06,0.3,-19.551298,64.9636,64.90817,64.74539,65.15115,1.2406203,0.45468748,0.8487534523010254,7.169477983315786
11,110000,8.25203890132833,-65.433495,0.075333275,0.16368203,5.0687227,1.1367699,25.994379,124.805084,4.8533125,100.9664,99.78949,101.030685,100.747734,173.50604,0.7,-99.41911,-19.625635,0.0005154326,-490.3667,-0.9410237,-1.5117213,-2.8809438,-1.5031389,4.027506e-06,0.3,-20.920681,63.496483,63.631603,64.013405,64.19025,1.4425557,0.43906248,0.8135504722595215,7.724162264664968
12,120000,29.872017093901214,-69.01322,0.07612225,0.431759,5.6400213,-3.9924757,29.0175,120.81015,5.1559525,100.637695,100.36244,101.89921,100.69219,58.226707,0.7,-99.82544,-13.807259,0.012976864,-203.77148,-6.4888663,-8.737689,-8.448878,2.1816278,2.5615273e-06,0.3,-20.189602,67.025314,66.883484,67.96513,67.894775,1.199797,0.440625,2.1583337783813477,8.303399852911632
13,130000,29.00509505058896,-65.75632,0.07662551,0.48611534,4.744512,9.166911,27.968376,126.46283,5.6607523,100.82205,100.93156,101.92238,101.24821,27.387247,0.7,-100.67134,-22.836956,0.00026741513,-634.6925,-8.354732,-10.194201,-12.5006275,-9.472275,1.4747977e-05,0.3,-24.724688,63.774826,63.54,63.729637,63.96727,0.9052919,0.44375002,2.118778944015503,8.87580983241399
14,140000,104.52584464010069,-68.65111,0.07395935,-0.014834903,3.1279929,-8.646258,24.04747,74.02994,5.164921,101.236946,100.9261,100.5213,100.27843,13.702173,0.7,-101.77003,-14.919232,0.0014290635,-106.490456,-1.9435838,-1.6013647,-1.0155019,0.4951956,1.418346e-07,0.3,-19.604893,66.62546,66.64846,66.3174,66.409805,0.80110586,0.43281248,7.062523603439331,9.537503751118978
15,150000,91.14650049651537,-66.50905,0.073715106,0.17966576,3.578671,-2.5403602,26.639328,124.00023,4.922985,100.46724,100.61381,101.40663,100.61159,20.827415,0.7,-101.64472,-26.370516,0.00023116982,-140.18437,-1.9203377,-2.2575238,-0.63144624,-1.0767204,4.0745363e-09,0.3,-21.865633,64.46678,64.5819,64.92951,64.917786,0.9160286,0.4453125,6.31562066078186,10.181410841147105
16,160000,56.10186903619553,-69.97786,0.07515824,0.06679492,3.7953017,-0.305642,28.133465,143.66104,8.160461,104.66313,104.01907,104.04008,104.06281,32.48089,0.7,-104.1009,-14.645598,0.0038315055,-140.22638,-0.44814005,-0.5049249,-0.29939255,-1.0900958,3.4226105e-05,0.3,-19.231709,67.96719,68.03987,67.7678,67.87799,1.2281199,0.45,4.025768280029297,10.78912386894226
17,170000,95.4240251435292,-67.459526,0.07531838,0.4226169,2.877533,2.234359,22.504913,46.190277,4.9303126,101.977974,102.24206,102.14592,101.99542,83.15549,0.7,-102.13106,-20.618956,0.013996996,-115.425964,-7.6416864,-8.292074,-6.125818,-4.173295,8.443092e-05,0.3,-20.729765,65.33797,65.611176,65.87823,66.02893,1.503597,0.45468748,7.177746295928955,11.450631193319957
18,180000,102.17442241026265,-68.16303,0.07453201,-0.46981496,4.6666746,1.8327763,28.562412,210.89346,4.6275163,101.43534,101.66334,100.31557,99.99648,50.79031,0.7,-100.63075,-32.048077,0.008565295,-191.86043,-4.403905,-7.0960116,-2.0564723,-3.0317154,2.1129383e-09,0.3,-21.927256,65.75244,65.77585,65.1369,65.22887,1.0809494,0.50625,7.746278524398804,12.11485840479533
19,190000,102.30563183955113,-66.79603,0.07491961,0.43508217,4.348735,0.26237428,25.628937,64.47296,7.046337,101.94591,102.30674,103.10933,102.52612,241.83632,0.7,-102.36344,-19.218542,0.006482476,-326.98776,-2.6770353,0.13452071,-0.04411328,-1.7853923,5.388574e-07,0.3,-25.132576,64.47583,64.61982,65.093864,65.49698,2.2193217,0.41718745,7.680528163909912,12.783731444676716
20,200000,98.95002667444625,-68.63887,0.07641935,-0.09229856,3.6709669,-1.3374659,22.202814,81.33476,5.237703,102.19726,102.30608,101.464455,102.122665,175.39325,0.7,-102.26386,-18.106339,0.0009262385,-132.44913,-0.76558876,-0.7199242,-1.3044313,-0.15458107,7.838826e-06,0.3,-19.235088,66.92776,66.90323,66.69325,67.083954,1.6928949,0.4125,6.151401519775391,13.423745902379354
21,210000,85.68210984370421,-68.8262,0.07566093,0.2702069,20.345402,-6.375684,26.809265,3815.7703,6.1910324,102.60895,102.74453,101.5725,101.64651,8.592673,0.7,-102.71944,-24.490376,0.0058067865,-204.39848,1.648113,1.239023,-0.25215223,0.08020118,1.8181558e-05,0.3,-22.430668,66.922806,66.902985,66.16461,66.50386,0.77829623,0.484375,6.1727354526519775,14.066273180643718
22,220000,100.01554927473326,-69.7511,0.07610207,-0.44467843,6.2304034,-2.2835014,26.796305,876.8467,4.2389216,102.25635,102.226715,101.65232,101.70902,25.700996,0.7,-102.509796,-22.261679,0.005743617,-155.77007,2.2774482,2.8158991,1.3718878,0.96523154,2.0194053e-05,0.3,-18.828604,68.03219,67.94475,67.620705,67.79281,1.3468913,0.465625,7.303970098495483,14.728132410844166
23,230000,99.2933895301759,-68.09766,0.077101626,-0.6426991,3.2801764,-3.12115,19.784212,51.411125,4.158607,100.787476,101.02012,101.922615,102.16683,119.65971,0.7,-101.514305,-27.384129,0.00029625563,-167.66032,2.460659,2.169821,0.97255266,3.0774713,1.7968705e-06,0.3,-21.139807,66.330315,66.303345,66.87059,66.9568,1.1947479,0.4203125,7.2354347705841064,15.388320914904277
24,240000,88.00880025403085,-66.911995,0.07620689,0.66386247,3.2198758,0.478569,32.235146,55.10265,4.5805135,101.176636,101.06469,101.79877,101.37902,32.2205,0.7,-101.21293,-17.213066,0.0028037014,-211.57573,-1.1382668,-0.42969093,0.7379266,-0.22784069,1.9098268e-06,0.3,-26.046654,64.849594,64.868164,64.976135,65.1867,1.2640617,0.396875,6.806682586669922,16.038382705052694
25,250000,98.99294764969578,-67.72786,0.07749877,0.15909317,3.091404,-6.376535,25.044596,38.267677,4.3720603,104.95575,104.01422,103.01332,104.37605,23.114117,0.7,-103.344635,-18.065887,0.0054784343,-133.95824,4.3385816,4.311181,-0.04932171,5.809148,5.713385e-06,0.3,-21.843887,65.75212,65.939255,65.646706,65.82997,0.96388793,0.434375,7.5150065422058105,16.70104851722717
26,260000,97.52137980821438,-68.670364,0.07884012,-0.41688073,3.150567,-2.3319614,20.55406,96.83171,5.9851065,103.65092,103.17305,103.713905,102.913086,51.671738,0.7,-103.107796,-19.29367,0.01046486,-196.14827,-0.36060834,-0.9483832,-0.29826495,2.5265043,1.0407251e-05,0.3,-24.467697,66.278854,66.26886,66.14982,66.82779,1.2157172,0.3734375,7.516447067260742,17.3591699441274
27,270000,85.51213043695753,-67.3388,0.07896237,0.21541488,78.71144,-0.20551865,19.428867,19236.148,6.023821,103.952614,103.844574,103.84514,102.69214,64.61386,0.7,-104.25275,-15.907679,0.0027181131,-346.4457,-3.6178951,-2.4998457,-2.137818,-4.5988326,4.0745363e-07,0.3,-23.006145,65.217865,65.19754,65.1418,65.309555,0.9704025,0.4890625,6.048974514007568,17.997533774375917
28,280000,90.29327906031786,-68.06864,0.07701205,-0.371803,2.951754,1.1667349,22.886566,49.846516,7.0667696,102.63423,103.17836,103.48244,103.47096,38.929024,0.7,-102.963104,-19.235523,0.0005974161,-199.57458,-1.2273779,-1.9136336,-0.29359758,-0.8095141,9.305659e-06,0.3,-22.779472,66.179886,66.064926,66.415436,66.6575,1.0411623,0.453125,6.325529098510742,18.64549829562505
29,290000,79.86351221614044,-65.75723,0.07870563,1.3773918,4.031136,-0.10969961,28.292067,253.31068,4.433315,104.165146,103.16408,104.24056,103.34071,27.330132,0.7,-103.14292,-21.764029,0.00012684829,-170.37488,-2.4922838,-1.7083519,-4.07909,-2.671513,1.3099186e-05,0.3,-21.999714,63.40386,63.35689,63.544636,63.334232,0.9732906,0.51874995,5.718631982803345,19.282573986053468
30,300000,100.88681486822742,-66.34295,0.079028524,-0.23233306,3.1220403,-2.587346,22.003338,67.34565,6.0395055,102.73265,102.27746,102.3821,102.124016,99.79855,0.7,-102.54923,-18.242535,0.0025713479,-418.25525,-3.430689,-3.2318578,-3.106494,-2.634218,7.95626e-06,0.3,-24.969975,63.999924,63.838524,63.9941,64.27378,1.4869725,0.484375,7.093682050704956,19.938896679878233
31,310000,99.62730964777698,-69.535416,0.079392,-0.47933018,4.066188,-3.1878226,39.396328,115.90204,5.780598,104.04724,103.45153,102.925514,102.9603,114.248955,0.7,-103.26254,-18.517853,0.011032429,-214.78665,1.0244914,-0.45555487,-0.0952667,2.2083702,3.1553208e-07,0.3,-23.271433,67.51544,67.45322,66.876884,67.3819,1.212651,0.44843748,6.937715768814087,20.59804585377375
32,320000,100.02617763413714,-66.549324,0.079801,0.5521716,2.9043894,-0.08882362,28.472303,38.829918,3.8042448,102.67626,102.039,102.77372,102.15801,13.34088,0.7,-102.289474,-18.496027,0.00060262886,-184.65717,-1.0401309,-2.655939,0.8176142,1.2930976,9.000651e-06,0.3,-25.710014,64.44645,64.372185,64.36638,64.2715,0.7178142,0.5,7.028698444366455,21.255749519666036
33,330000,98.63852748334328,-68.77583,0.08008601,0.20705697,3.4138122,-4.024019,17.982874,108.24817,4.990884,105.34103,104.99496,105.73449,104.634315,714.6388,0.7,-104.40441,-26.56626,0.0047479086,-251.9877,3.9117165,3.410042,0.9947948,-0.08639464,3.243814e-06,0.3,-23.801357,67.01128,67.007904,67.11606,66.926956,3.8291688,0.475,6.750805616378784,21.908491869767506
34,340000,102.77324218018495,-68.657906,0.081496656,-0.17957282,3.4190855,-1.3012822,26.913952,80.378494,9.210347,102.99746,103.16357,104.39913,104.506996,35.2829,0.7,-102.9233,-20.511436,0.00089037564,-207.64275,-0.8506589,-0.12187281,-1.2987721,-2.0968652,2.0305336e-06,0.3,-20.638245,66.88422,66.88284,67.14491,67.42592,1.1468729,0.41875,7.125746965408325,22.568782790501913
35,350000,102.3747211304419,-66.583755,0.08111845,0.4101525,2.8506894,-2.027718,37.082832,56.755814,6.3069687,105.67571,105.2874,104.54646,105.00069,78.519905,0.7,-105.752754,-23.205738,0.0008738186,-361.05673,-3.7733994,-3.0838213,-1.8216767,-5.471891,6.5718194e-07,0.3,-27.78397,64.216675,64.09068,64.22949,64.50391,1.471781,0.4984375,7.012454509735107,23.22848153114319
36,360000,102.36875105420538,-66.49702,0.08071498,0.3256481,4.437292,1.9513127,27.384789,49.67451,5.3010035,105.04835,104.3665,104.477905,105.72133,59.77436,0.7,-105.104324,-13.601393,0.0059204753,-243.37933,-5.0395074,-4.4397388,-8.930748,-4.357408,8.066151e-05,0.3,-26.172588,64.15134,64.03888,64.121704,64.71328,1.5877148,0.434375,7.1161134243011475,23.88820067246755
37,370000,102.60754515503248,-68.12923,0.0801839,-0.7826381,3.6547678,0.7620674,25.28479,105.92767,4.0733094,105.5614,104.59354,105.11747,104.40165,44.747723,0.7,-104.644325,-24.10002,0.0011637887,-309.84677,-5.749388,-2.695691,-6.1348095,-2.7568588,3.9052025e-05,0.3,-30.047577,65.74271,65.71904,65.28068,65.877106,1.0622014,0.41562498,6.964566230773926,24.550511626402535
38,380000,102.18802025151163,-65.46657,0.07927887,-0.1447944,3.7691333,-3.7649128,20.500265,133.38992,5.0180902,103.29463,103.199524,103.62845,103.78023,44.397568,0.7,-103.11428,-18.137346,0.0025102042,-152.3394,-0.829981,-0.8365644,-1.267035,1.2277484,5.1929555e-06,0.3,-24.159384,63.317184,63.387455,63.831055,63.899826,1.3584452,0.4421875,7.034165382385254,25.2118430018425
39,390000,99.63043979552934,-67.57603,0.07951618,-0.078890055,4.973644,0.88845503,18.890905,82.41458,4.621171,103.794495,103.904755,103.7439,103.293205,43.55371,0.7,-103.20767,-15.574413,0.0013610658,-184.29817,-0.3318048,-0.7740603,0.9008891,0.9433806,1.4376431e-05,0.3,-22.30862,65.65743,65.78695,65.71649,65.74681,1.359973,0.4703125,6.978591203689575,25.86952211856842
40,400000,100.63796890229575,-68.38241,0.080664575,-0.032318592,2.5123634,-7.2865963,21.746998,37.05055,4.8392296,104.3248,104.75944,104.45903,104.139465,92.35109,0.7,-104.48383,-22.176868,0.0041726558,-161.75148,-0.023992896,0.54907364,2.5097804,2.3075035,5.673384e-07,0.3,-21.389217,66.561104,66.574356,66.488815,66.159294,1.6192292,0.4890625,6.878554821014404,26.52633522351583
41,410000,101.93512067569621,-68.70697,0.08026466,0.34026578,3.2901719,-5.71469,26.025131,76.29429,5.782441,103.6305,103.93849,103.595055,103.5199,26.24563,0.7,-103.66587,-17.91037,0.0029844237,-167.34048,1.8844484,0.75218505,-4.83202,1.8587515,8.950644e-05,0.3,-22.136951,66.66789,66.60143,67.128845,67.32955,0.91869175,0.4125,7.106336355209351,27.190495749314625
42,420000,102.830399452761,-69.44293,0.0800853,-0.57630825,5.4260006,-0.49569452,19.286777,468.20288,5.7933846,104.86841,104.77895,105.07378,105.45593,52.475876,0.7,-105.20118,-21.42435,0.011539907,-306.03763,-7.404608,-5.3917766,0.35776097,-4.01698,3.994774e-09,0.3,-22.373184,67.644135,67.73413,67.610565,67.89499,0.88893473,0.453125,7.18555212020874,27.85250333150228
43,430000,98.39184855281819,-68.18425,0.08136413,-0.18265128,2.9406714,-1.0377206,20.643167,111.18236,4.657092,104.76909,104.310196,105.92647,104.900314,48.977192,0.7,-104.11792,-21.043364,0.0026691468,-728.1809,-7.758046,-9.487542,-10.84764,-8.172921,3.7222637e-07,0.3,-25.069012,66.26415,66.1287,66.117935,66.277435,1.3968787,0.41718748,6.837238311767578,28.50899092356364
44,440000,100.72626871867205,-69.01065,0.08092742,-0.5244845,2.8767614,-1.7216165,17.724382,58.70179,4.3069096,104.55945,105.46589,104.7023,104.39124,91.93197,0.7,-104.689674,-22.535406,0.0033410445,-205.10863,1.0445969,0.7320319,1.6909151,1.2921686,1.878664e-06,0.3,-22.982374,66.722374,66.84827,66.844795,66.99511,1.8441566,0.48437497,6.991966485977173,29.16785310904185
45,450000,103.59385650953486,-67.77492,0.08205005,-0.66772145,2.8003683,-2.0935163,18.754538,68.85675,5.0910187,104.74789,104.32757,104.28896,103.83619,227.90219,0.7,-105.08696,-18.928478,0.0018272516,-216.59003,1.9295118,3.2638679,0.43834937,3.2388651,9.782961e-08,0.3,-21.954403,65.78762,65.73699,65.53111,65.797806,2.0862536,0.48593748,7.045924663543701,29.82558319568634
46,460000,98.79408966226542,-68.06964,0.08168838,0.30008122,3.0292134,-2.171364,20.389042,41.68095,4.6243625,107.06224,106.55399,105.85026,106.05653,50.97572,0.7,-106.32396,-16.071922,0.0003028947,-266.85263,1.6029477,1.2348387,1.2425702,0.8787251,4.960847e-06,0.3,-25.517893,66.08372,66.116196,65.91982,66.15297,1.180858,0.440625,6.971195936203003,30.479209260145822
47,470000,101.9331151817368,-67.390015,0.08152932,-0.20880264,2.9147296,-0.22068673,25.695576,46.436184,5.063859,104.69842,104.39927,103.94859,104.13478,18.59911,0.7,-106.819046,-22.077602,0.0013064919,-237.30438,-2.381801,-2.435319,-1.0247383,-0.84361756,0.00020400721,0.3,-25.612528,65.45579,65.38696,65.270515,65.65457,0.92041206,0.41249996,7.089861631393433,31.13402054309845
48,480000,98.0435710659166,-69.33317,0.08288566,0.59480596,7.8500433,-3.8514802,26.042793,281.70007,5.244104,104.173164,104.115685,103.54474,104.079094,55.73376,0.7,-106.56874,-16.25892,0.0023125496,-198.30203,-0.21377867,0.5875082,0.6872239,0.15799844,2.4728362e-07,0.3,-25.2535,66.93874,67.10306,66.28231,66.496765,1.3321831,0.4640625,6.875905275344849,31.782123629252116
49,490000,93.33417447591637,-66.92102,0.08191098,0.62776643,3.65982,-0.80943614,23.828876,102.5529,4.128248,105.288246,105.09311,105.103355,105.34374,28.028845,0.7,-104.74005,-15.5618305,0.00076406036,-370.99045,-1.8703177,-3.715718,-1.3106735,-0.78557575,5.5776326e-07,0.3,-25.009724,64.82732,64.78717,64.72484,64.71307,1.1378639,0.45625,6.373086214065552,32.42734557390213
50,500000,102.48895403138414,-66.33615,0.08189456,-0.41131532,4.8342304,-2.5371654,19.184849,296.1265,3.9447148,102.86495,103.216576,104.140724,104.18098,126.156845,0.7,-103.42851,-17.97048,0.0065659676,-796.0165,-1.2089314,-1.4039326,-2.2341533,-2.098442,3.9131846e-05,0.3,-27.805113,64.08461,64.12544,64.709854,64.89524,2.1831064,0.4359375,7.074861764907837,33.08783941666285
51,510000,102.12844260459586,-66.34562,0.080623984,0.13111378,3.7692022,-3.7386153,28.175133,47.50651,6.2514153,105.63107,104.69307,106.861015,105.35196,160.75807,0.7,-105.154076,-14.573662,0.0028389946,-449.60974,3.422708,2.6028056,0.30159494,0.88579714,1.4270979e-06,0.3,-22.507542,64.290886,64.21814,64.35994,64.54526,1.6233512,0.42187497,6.969165563583374,33.74711365302404
52,520000,101.1392452423213,-69.74202,0.08118733,-0.8831748,2.9852858,-3.2304602,30.48508,57.351154,4.4536333,103.86554,104.12896,105.8457,105.554054,116.19839,0.7,-104.74438,-17.437063,0.0021236977,-282.23914,0.5835017,-0.3990587,-0.80181426,-0.40913865,6.996951e-06,0.3,-23.77483,67.87428,67.96494,68.10441,68.33064,1.4074894,0.4265625,7.101151943206787,34.4054193019867
53,530000,99.17103809488825,-67.6839,0.08247363,-0.122882694,3.7776327,-0.13817483,26.440731,75.30536,4.5877075,103.16428,103.66295,104.288506,103.944695,20.311775,0.7,-103.33037,-18.980633,0.0013434109,-134.31886,-2.3315668,-0.3446049,-5.23531,-5.602797,1.9639154e-05,0.3,-22.066319,65.64635,65.68233,66.02206,65.99551,1.0932316,0.45,7.088593482971191,35.0649497628212
54,540000,81.68619757967913,-68.54695,0.08293242,-1.0264642,5.5269656,-0.41178882,18.478636,422.69373,3.981632,106.67502,106.075645,106.76168,105.966965,139.69138,0.7,-106.231415,-20.038723,0.0006225821,-152.68085,0.087920904,0.3858202,1.1028737,-0.2718973,6.519258e-06,0.3,-19.765057,66.58422,66.48575,65.98653,66.31457,1.9576038,0.48437497,5.677109956741333,35.70395470460256
55,550000,102.00612284373727,-68.345795,0.08019258,0.24195644,3.0569372,-4.2189217,21.492876,107.97679,7.6488137,105.98085,105.06596,106.89114,106.00363,264.04443,0.7,-105.84162,-18.724075,0.002835291,-246.41835,-0.51737547,1.2587502,0.9980153,0.39504173,6.9849196e-11,0.3,-24.157778,66.233925,66.13245,65.97725,66.20205,2.038641,0.5,7.110969066619873,36.36597324212392
56,560000,100.25871160707351,-67.42472,0.081611216,0.19430608,4.2838535,0.52595025,18.721762,312.6706,5.865315,103.84012,103.34904,103.404045,103.2215,36.65024,0.7,-103.41522,-16.388182,0.008520644,-302.60007,-1.8731061,-1.6658807,-2.4043884,-1.9117103,8.398054e-05,0.3,-23.91178,65.65527,65.655,65.499664,65.5199,0.89206266,0.4984375,7.089912414550781,37.02892318964005
57,570000,83.78888990577155,-71.581055,0.082230225,-0.37959605,7.6737657,-5.991644,19.444473,1055.2704,4.3261914,105.87822,105.366325,105.37952,105.93008,39.693756,0.7,-106.2045,-18.165098,0.0014773197,-141.74564,5.7065973,5.984636,3.2693985,4.7036247,6.054602e-05,0.3,-22.599998,68.930046,68.90298,68.76903,69.02195,1.0601883,0.44062498,5.796388387680054,37.66718593438466
58,580000,89.46030002264118,-66.827194,0.08223149,0.25032234,3.5883226,-0.24820125,30.053242,74.22861,5.9882226,105.90332,105.67924,105.773125,106.400955,97.44274,0.7,-106.40082,-21.888407,0.0029039069,-529.65784,0.23552614,-1.8519458,0.18664166,-1.9522667,2.2883296e-06,0.3,-25.112665,64.590645,64.678024,64.598465,65.167786,1.2828858,0.3890625,6.33071756362915,38.31283693710963
59,590000,84.55524976582441,-70.35041,0.08200372,1.3262209,4.5454836,-4.4638453,20.072634,92.638336,4.7306833,108.25514,108.97657,109.296585,108.705086,18.636227,0.7,-109.47772,-16.495966,0.00042819936,-436.62863,4.0429416,3.9064832,-0.18987113,5.089495,9.070178e-05,0.3,-25.368267,67.9357,68.11537,68.18086,68.29138,1.0410521,0.4421875,5.901609897613525,38.956569103399914
60,600000,100.85572068949742,-67.90073,0.08170513,-0.60688174,3.2575352,2.3215759,17.862389,181.07982,4.7742887,104.27807,103.82481,104.67266,104.221634,33.15794,0.7,-103.38383,-19.012758,0.007329858,-266.08475,-3.0123756,-4.2521553,-0.28189096,-1.1040859,8.050836e-06,0.3,-23.918251,65.796326,65.74249,66.02031,66.41034,1.0938413,0.38593748,7.039733409881592,39.61747069358826
61,610000,99.41537122001156,-67.49269,0.08278156,0.1753656,3.1201425,-3.0589178,19.941525,80.13718,4.0490294,104.30486,104.00815,104.28631,104.68206,34.906372,0.7,-105.77591,-17.553934,0.0040362286,-195.72287,1.3782318,-2.0708354,-1.7063515,-0.9953025,2.6598675e-06,0.3,-24.111343,65.56065,65.54299,65.49242,65.64987,1.3113954,0.44843748,7.0214478969573975,40.27502986987432
62,620000,67.16645607824404,-67.27762,0.08105886,-0.23364007,3.199119,-4.5595217,26.234043,47.6355,1.8669872,105.611916,105.6738,105.23747,105.198204,28.16371,0.7,-105.9475,-17.744219,0.0038660704,-197.34486,1.1685727,1.963334,2.530577,2.976507,3.369038e-05,0.3,-22.24659,65.550644,65.592926,65.18564,65.28887,0.9886863,0.4734375,4.657918930053711,40.88702311118444
63,630000,99.72735677990826,-64.77622,0.08162184,0.15869758,2.4894497,-2.4836824,23.830624,54.190388,5.672729,104.620445,104.307175,104.73257,104.525764,11.119797,0.7,-105.22773,-17.643959,0.0011074869,-336.3406,-0.8989768,-1.0921519,-2.5105588,-1.9071954,1.2102391e-05,0.3,-26.214603,62.540787,62.62216,62.58247,62.740067,0.77890193,0.42499998,6.973952293395996,41.54219131867091
64,640000,93.41907520744918,-66.89906,0.081458904,0.44877928,2.109857,-2.128528,21.506516,35.634407,6.586329,104.93737,104.991,103.97035,104.69092,504.55716,0.7,-105.02503,-18.571375,0.0012789136,-298.32974,0.14024395,0.6492048,-1.464717,-0.97499466,0.00017257144,0.3,-24.329254,64.63611,64.61449,64.33034,64.94641,2.957746,0.409375,6.620904207229614,42.19239561955134
65,650000,99.14532499070535,-68.13519,0.080531366,-0.4439633,4.318243,-2.4176815,26.897968,184.02065,4.4501233,105.28116,105.565735,105.65226,105.69286,19.06196,0.7,-104.97038,-18.801176,0.003021689,-283.3324,0.67500454,1.7235718,-1.2361144,0.13230151,1.9509736e-05,0.3,-23.769356,66.314476,66.43982,66.28969,66.15062,0.75367785,0.4484375,7.045746326446533,42.851007390022275
66,660000,96.22390142635062,-67.82071,0.07990217,1.271935,4.8521757,-1.0416071,21.308435,68.62526,3.82408,105.07992,106.435455,105.18148,105.72916,152.96683,0.7,-107.05815,-17.719414,0.0025190257,-325.87473,-3.1840835,-0.7804471,-0.2453891,1.3999174,1.149997e-06,0.3,-29.142899,65.463554,65.46316,64.646194,65.25985,2.0964913,0.4453125,6.809395790100098,43.50692253112793
67,670000,99.6522748239545,-67.09589,0.08214165,-0.040056646,4.146634,-1.5022141,24.896505,123.95453,4.716704,103.920975,102.99403,102.96407,104.452736,28.532412,0.7,-105.33053,-18.763056,0.007917623,-320.68042,-1.5120343,-1.9888325,-1.5226295,-1.23491,1.807285e-05,0.3,-26.717314,64.83732,65.04951,64.70065,64.88693,0.97600734,0.453125,7.149707317352295,44.1677606066068
68,680000,98.17273665436683,-66.317474,0.08137344,0.1253776,4.0204926,-0.89976627,26.720148,76.22987,4.292936,105.06366,105.23817,105.59246,105.64756,29.513275,0.7,-106.080086,-31.561598,0.010290391,-176.89604,-1.6243362,0.834892,0.15857054,-3.7137246,5.5744025e-08,0.3,-23.63847,64.05702,63.945713,64.00394,64.18842,1.233628,0.4609375,6.920400381088257,44.82790201107661
69,690000,93.27903669114221,-67.07621,0.08114698,0.302562,3.2308726,-2.3221643,24.03693,102.599205,6.874182,105.48801,105.69409,105.12451,104.36106,26.748545,0.7,-105.09955,-19.894598,0.008260914,-502.63028,-2.740438,-1.1620846,-2.2104979,-1.8757416,1.3522805e-07,0.3,-27.426914,64.724304,64.86461,65.012764,65.08838,0.9869236,0.453125,6.615638256072998,45.48278777996699
70,700000,97.84443012483312,-68.93333,0.08014453,0.20783517,3.257899,-0.31793314,18.032032,51.89016,5.943477,104.27417,104.26793,105.12872,105.283066,32.390408,0.7,-104.36,-23.658768,0.015844923,-317.13245,0.1782785,0.25764406,-4.8755155,-4.2699146,0.00011424797,0.3,-23.224422,66.79137,66.92369,67.19743,67.07948,1.0804355,0.47812498,7.250409126281738,46.14314771095912
71,710000,98.81817213835944,-69.82397,0.08015621,-0.20958637,4.2724833,-3.4060926,37.704998,91.27495,5.259843,103.55598,103.85113,104.591995,105.34413,190.98735,0.7,-103.98473,-17.409323,0.0025661367,-176.05989,3.4882145,4.126987,4.8971033,5.4241934,1.2945169e-05,0.3,-20.993385,68.12898,68.13527,68.84399,68.85522,1.9071803,0.40625,6.971039772033691,46.79991888999939
72,720000,98.46344095856941,-67.751816,0.08111425,0.23878619,2.150249,0.5704806,17.611578,26.85685,4.2943583,106.78222,106.26514,106.87848,107.71076,127.81308,0.7,-106.38427,-27.823397,0.00507981,-246.0684,-0.94748074,0.42887324,-1.2676506,-0.08635804,6.106391e-05,0.3,-25.085972,65.847786,65.82654,66.00159,65.98321,1.7137582,0.50312495,7.042733430862427,47.45903415679932
73,730000,94.49306655829558,-66.89192,0.08115042,0.29472795,4.2186513,0.57342494,23.665834,73.0018,3.9591007,104.62908,104.04516,104.64056,104.644554,24.269627,0.7,-105.80184,-19.455622,0.005233542,-256.19504,-1.6870443,-2.151452,1.2821882,1.4685606,1.1189778e-06,0.3,-25.310951,64.53366,64.54861,65.08047,65.41283,0.9554868,0.440625,6.745008945465088,48.11083984375
74,740000,87.16793871621898,-66.921936,0.079906724,0.7714362,4.1499257,-1.0222961,21.464842,122.89902,5.274333,103.74187,104.48728,104.291435,104.41675,89.151825,0.7,-104.576065,-15.290359,0.00294786,-291.24652,0.96253496,1.0940795,1.2146047,0.7189298,3.45201e-05,0.3,-25.91513,64.46258,64.34921,64.06887,64.39629,1.6744289,0.465625,6.274564504623413,48.75363967021306
75,750000,93.7334798485137,-67.93141,0.08175743,-0.0020325184,2.8981085,-4.815352,30.211931,41.736504,5.3194027,106.76561,105.92419,105.259186,106.50734,73.85914,0.7,-105.59138,-19.82976,0.002372549,-190.00148,1.8653181,1.6564875,3.3469646,5.284758,1.0528933e-05,0.3,-25.86219,65.32146,65.40372,65.50716,65.570435,1.7084472,0.4671875,6.582143545150757,49.39940170844396
76,760000,83.35621650972284,-66.59337,0.080685675,0.2893066,8.623819,-2.5706432,16.399426,1281.7999,6.283457,107.91076,107.43935,106.91511,106.4662,40.81871,0.7,-107.33345,-21.078579,0.0027594399,-144.10594,-0.8791439,0.06346673,0.022995256,-1.4019434,7.681026e-05,0.3,-23.847668,64.52257,64.5549,64.29808,64.56324,1.0704948,0.465625,5.96412205696106,50.0391325712204
77,770000,98.98598082451078,-64.97266,0.08112841,0.36607558,5.237606,-3.7209795,18.930376,541.34906,4.4477735,104.42875,104.50242,104.003105,103.7254,47.68831,0.7,-104.38496,-19.591,0.00708609,-447.36316,4.0375123,2.9422753,1.5723734,1.5344256,1.735371e-06,0.3,-24.044529,62.95755,63.18998,63.01635,63.06723,1.0204163,0.45468748,6.930301904678345,50.69375854730606
78,780000,96.01201713615625,-69.00249,0.08139793,-0.43054062,2.5873466,-1.3342745,23.466185,113.447586,4.4999967,105.08249,105.49981,105.51863,104.345856,10.340037,0.7,-105.74444,-20.824625,0.004846083,-974.7642,-10.8912735,-13.135853,-10.239446,-9.506186,2.494864e-05,0.3,-31.726599,66.79208,66.66017,66.690994,66.55444,0.76806855,0.5203125,6.81284761428833,51.34670935471853
79,790000,98.98773170989134,-66.81073,0.08189597,-0.26754722,3.7809603,-1.0809828,19.740307,99.64886,4.932166,104.216576,104.14136,105.25786,105.52584,9.961781,0.7,-105.97729,-30.212864,0.0009310542,-1202.9614,-4.3225794,-3.1998088,-6.268649,-5.61825,4.002701e-05,0.3,-30.843739,64.78913,64.82732,64.49617,64.7896,0.6992291,0.42031246,7.019515752792358,52.00336900949478
80,800000,95.73533826298397,-68.7629,0.08177847,0.12365314,3.187316,-4.907218,28.357103,79.99472,6.7383842,104.89309,104.61374,106.63636,106.00337,117.27035,0.7,-104.377396,-21.566193,0.0065124715,-894.22845,0.30880386,-0.813883,-0.844846,-1.1576917,1.616038e-05,0.3,-28.154661,66.22806,66.20535,66.252945,66.14359,2.154224,0.40937498,7.233355522155762,52.65859485069911
81,810000,91.49177845970581,-67.35173,0.079508536,-0.9441923,4.8917513,5.0043473,18.044378,282.92896,6.4846826,105.695694,105.713844,105.99682,105.53816,141.63678,0.7,-105.35672,-18.868809,0.0026047959,-1214.2474,-5.356721,-4.9158897,-4.6265144,-6.7334585,4.578149e-05,0.3,-28.255527,65.31225,65.2597,65.50597,65.7072,1.9543986,0.459375,6.695504426956177,53.31123949289322
82,820000,98.51603262699736,-70.124466,0.08228611,-0.44123906,5.0143976,-1.1524221,18.166891,435.62762,3.6539044,105.3738,105.32736,105.68875,105.55197,43.916485,0.7,-106.648964,-22.830471,0.0072150114,-132.07687,1.1228725,2.5635304,1.2859404,2.9305038,9.97464e-07,0.3,-20.852942,68.01175,68.0433,67.90825,68.09091,1.2221397,0.43281248,7.453510761260986,53.97151763836543
83,830000,96.59536056727383,-66.821205,0.079885736,0.48077205,2.941639,-1.2433077,24.500927,38.249046,3.930629,103.81728,104.16367,104.36825,103.93442,30.442999,0.7,-103.960365,-16.826223,0.0012844349,-763.17004,-0.46577013,-0.45136142,-3.262269,-0.41134435,2.6997714e-05,0.3,-27.68355,64.397644,64.5066,64.685715,65.07097,0.91092956,0.42812496,7.284887313842773,54.63270469109217
84,840000,98.74524509241867,-69.55777,0.079850405,0.5440467,3.6619174,-7.350098,20.41577,101.47958,4.499621,104.894104,105.29961,104.36073,104.43047,66.54755,0.7,-104.68238,-26.162817,0.004124809,-231.44316,-3.8049688,-4.6153107,-0.7062336,-0.4867578,1.3991795e-05,0.3,-26.290577,67.16265,67.07036,67.032166,67.19304,1.3550732,0.42499998,7.626017332077026,55.29692567586899
85,850000,99.55332265493574,-66.56288,0.08083276,-0.20896533,3.921749,-0.5416209,21.065372,85.144,6.511522,103.406685,102.65754,103.6456,104.442024,31.142754,0.7,-103.95644,-19.424936,0.01272134,-185.43773,-1.6874042,-3.255734,-2.528405,-2.0491116,1.7797981e-06,0.3,-23.961365,64.27381,64.19267,64.669235,64.920166,0.8858053,0.465625,7.343052864074707,55.955475902557374
86,860000,99.18713902351136,-66.181694,0.080622196,0.1880924,3.872836,-0.59272456,19.662313,103.56509,4.0958095,104.67871,104.78555,104.918594,106.26614,267.42944,0.7,-104.64791,-16.498491,0.0007176773,-189.26108,-0.41308606,-1.8986621,0.39751187,-1.7599235,3.3328076e-06,0.3,-26.279743,63.716957,63.746872,64.16654,64.51702,2.2065806,0.421875,7.331907033920288,56.61569041411082
87,870000,100.06705205600225,-67.181595,0.080515526,0.25799018,11.77544,0.26065904,28.916916,1608.445,4.6202154,103.60382,104.712585,102.96283,104.094864,117.50042,0.7,-104.09951,-22.878225,0.0006048126,-1369.5242,-3.4463062,-1.8800871,-4.3093443,-5.9222207,1.670241e-05,0.3,-33.216988,64.5721,64.572334,63.532463,64.27948,1.363994,0.44062498,7.361504316329956,57.27953230142593
88,880000,98.67744413216705,-66.92326,0.07760881,-0.84507406,2.9492545,-1.5961747,19.720795,70.90163,6.155261,104.75078,104.78276,104.19586,104.76837,37.8649,0.7,-104.91741,-16.708792,0.0019219341,-287.95624,-1.5359086,-0.31329095,-0.15889852,-1.530415,4.9751105e-07,0.3,-23.932703,64.85205,64.81282,64.77442,65.006195,1.1520444,0.43906248,7.456250905990601,57.94266621271769
89,890000,98.0732231140634,-66.08935,0.07978044,0.29303652,3.6079035,-3.435056,31.383226,54.157257,5.233981,106.236435,105.522934,105.02324,104.7332,59.230457,0.7,-105.87121,-13.627436,0.0009289695,-377.84677,-1.9928449,-0.57547086,0.050026655,-1.0848846,2.6720269e-05,0.3,-24.612518,63.862144,63.731377,63.082275,63.75564,1.4964442,0.4125,7.452401161193848,58.60500965913137
90,900000,99.82936372433265,-68.5524,0.07706931,-0.6432528,2.9933624,-1.5257907,23.474472,55.319225,2.7297678,105.4428,106.1544,104.74357,106.3716,40.920467,0.7,-106.476265,-19.836515,0.0051653804,-139.54756,-1.5286988,-1.4018784,-2.7948952,-2.7129488,7.3385314e-07,0.3,-20.620274,66.655014,66.62666,66.33127,66.61009,1.022584,0.45,7.049315452575684,59.26062296231588
91,910000,99.0025347362298,-67.27016,0.079007946,-0.16106722,5.1133976,-2.3699048,23.103798,186.7156,5.785118,103.47881,103.19428,102.78854,102.7889,118.82723,0.7,-102.58061,-20.339874,0.0020727739,-214.79724,0.5666089,-0.08325076,-2.3029044,0.39662367,1.4420831e-05,0.3,-25.385746,64.331894,64.25023,63.732983,64.21134,1.4988934,0.4828125,7.0915703773498535,59.91647697687149
92,920000,99.84646137562746,-66.8425,0.078873925,0.26992768,3.8170896,-0.4493138,27.383593,144.91116,5.674271,104.383385,104.89744,106.405174,105.68441,36.346264,0.7,-105.614006,-16.999794,0.005175831,-380.54382,0.51089394,0.7742927,0.85135424,2.0470867,8.509628e-06,0.3,-22.333996,64.876755,64.932144,65.50488,65.97984,1.5052739,0.39218748,7.082791090011597,60.575447952747346
93,930000,93.99970973717703,-69.413315,0.07858293,-0.25481403,3.1135876,3.3991907,29.081171,89.96241,4.719651,106.20476,106.059074,106.46979,106.214035,16.48712,0.7,-106.13676,-17.114752,0.004423259,-161.36844,-0.18597221,1.1020262,0.2510898,-0.94718874,9.3989075e-07,0.3,-21.87442,67.59699,67.424675,67.49649,67.56024,1.0137637,0.47031248,6.673593044281006,61.23196802536646
94,940000,98.84963185541275,-64.910645,0.081103,0.18833151,5.1902876,-1.0388782,25.01004,410.53268,5.20375,105.192665,105.76274,104.58313,104.71673,183.29724,0.7,-105.13728,-20.555033,0.006503707,-1437.7137,-8.678661,-7.4418693,-7.4889235,-4.8158765,5.2392147e-06,0.3,-30.008133,62.419197,62.494686,62.270924,62.803253,2.1682332,0.4421875,7.127731561660767,61.89353264172872
95,950000,99.11904374868662,-65.19007,0.07894197,-0.32132363,4.4723673,-3.6008453,23.210054,216.37238,5.2491884,104.79578,105.15677,105.08068,104.81919,58.08359,0.7,-104.515915,-17.408064,0.0014972235,-253.79869,-0.7884722,0.7405146,-1.8561963,-0.78873384,3.740791e-06,0.3,-28.90666,62.595016,62.632328,62.978714,63.176876,1.2507643,0.39374998,7.10476016998291,62.55261752208074
96,955000,98.6959764223879,-67.016304,0.078052856,-0.49758744,2.9733438,-2.6341662,20.512001,46.85668,5.7882776,106.34352,106.06481,105.68969,104.81511,76.46091,0.7,-106.10119,-17.92905,0.007657341,-787.01514,2.894009,2.036683,1.5186695,2.8368733,0.00011159778,0.3,-29.643692,64.67279,64.793335,64.48828,64.79701,1.4607272,0.45624998,7.139669418334961,62.94223852157593
97,960000,98.40456794430403,-68.01167,0.07827305,-1.0675721,3.469134,-3.156099,17.653547,65.28186,3.6803484,105.728775,105.51684,106.05267,105.36088,187.11493,0.7,-105.84671,-15.222029,0.00057830807,-135.30016,-4.068354,-0.31899714,0.4458087,0.075124085,3.3347578e-06,0.3,-20.785389,66.266235,66.196976,65.89624,66.12645,1.6355649,0.46249998,7.069053888320923,63.32756250699361
98,965000,97.28538589483023,-67.91824,0.07668999,-0.38363492,3.3562064,1.3397708,25.6825,57.112495,4.2510424,106.72684,106.7838,108.84116,105.727005,11.67913,0.7,-107.5878,-23.977993,0.003046829,-357.27173,-3.0819626,-2.6307833,0.18803239,-0.65908873,6.7776245e-06,0.3,-23.47387,66.06778,66.251495,66.44198,66.42731,0.8793626,0.42343748,6.996652603149414,63.71211156845093
99,970000,97.30314082565062,-66.23271,0.078143485,0.42438912,2.6196384,-0.67776096,31.448555,50.73808,5.016044,103.59174,103.181984,103.890144,104.05467,47.07563,0.7,-103.22095,-16.500286,0.0083363615,-286.65674,-3.2577121,-3.0732946,-3.1639154,-1.3521054,3.4891245e-06,0.3,-25.841747,64.08245,64.087524,64.29007,64.306915,1.312615,0.45937496,6.882108449935913,64.09705048402151
100,975000,95.3799900661899,-69.46171,0.08222199,-0.100889444,4.278818,-4.4483795,21.499414,67.40357,5.8678894,107.23335,106.9129,107.73366,109.1976,22.933176,0.7,-107.38734,-22.36422,0.015475197,-353.97223,4.684661,4.501951,2.212266,2.7714193,0.00016159199,0.3,-26.840805,67.0999,67.151794,66.87608,67.311005,1.2636982,0.4109375,6.834823846817017,64.48376377820969
101,980000,98.41651656584625,-66.51248,0.07927923,-0.004706517,4.013835,-0.9858757,25.522236,44.592636,4.264396,108.49689,107.83092,109.27094,108.47146,109.5188,0.7,-107.89218,-21.1924,0.005344794,-758.42633,0.75331855,0.08966255,-0.25215223,0.5646244,3.2137789e-06,0.3,-26.455322,64.44307,64.48404,63.996166,64.64015,1.3451052,0.440625,7.598692178726196,64.88241701920828
102,985000,98.32010207434529,-68.30234,0.07687862,0.62393063,5.7545834,-5.289344,19.335804,726.3696,5.0135813,106.47613,107.12181,106.924,106.90326,40.04101,0.7,-106.13178,-15.473967,0.008573251,-1245.2415,-1.7049235,-1.579896,-1.9052892,-3.0620835,4.1592966e-06,0.3,-29.055737,66.25877,66.11688,65.87239,66.2148,1.0111983,0.4265625,7.0518341064453125,65.26834710041682
103,990000,95.62606734478545,-69.42032,0.07942292,-0.3279227,3.9387789,-4.0019927,24.838936,55.166283,4.920288,108.09772,107.89568,107.97721,108.131935,76.90979,0.7,-108.584595,-23.467152,0.00508641,-449.3667,1.3228383,0.69040537,-0.6320124,-0.090272784,3.1541276e-08,0.3,-24.63554,66.97656,67.00419,67.41066,67.52556,1.2576541,0.39687496,6.860882043838501,65.65298526287079
104,995000,96.58603996353425,-67.676895,0.07780773,-0.12402827,3.6487882,-1.1613221,22.14294,129.13373,4.0083375,105.76033,105.4892,106.50194,105.52159,27.340445,0.7,-106.01457,-20.157726,0.0035493192,-261.05496,-1.8557668,-0.15308756,-5.627924,-5.236292,1.9565148e-05,0.3,-25.177317,65.270584,65.19038,65.13223,65.19002,1.1712692,0.465625,6.883810997009277,66.03722786506017
105,1000000,98.50864372695048,-65.82735,0.07911541,0.5367729,3.8583355,1.4192039,26.853695,84.508156,5.003654,104.633606,104.29354,104.74538,103.96527,1497.8938,0.7,-104.56884,-16.04427,0.0015206586,-298.22375,-3.1047306,-2.0908747,-0.18329732,0.8336981,5.9352433e-06,0.3,-26.696259,63.4029,63.313515,63.56004,63.39601,6.6925926,0.41875,7.0682525634765625,66.42674063046773
