Xixo99/comfo/baselines/comfo7_perterbation_both_actor_and_critic/20230224_alphaQ0.0001/walker2d-medium-replay-v2/COMFO7_s0_20230224_092759_walker2d-medium-replay-v2_85.94.csv
,step,reward,actor_loss,alpha,alpha_loss,avg_conservative_loss,avg_smooth_loss,conservative_weight,critic_loss,max_actor_loss,max_alpha_loss,max_critic_loss,max_mle_prob,max_q1,max_q2,max_target_q,max_v,max_value_loss,max_weight,min_actor_loss,min_alpha_loss,min_critic_loss,min_mle_prob,min_q1,min_q2,min_target_q,min_v,min_value_loss,min_weight,mle_prob,q1,q2,target_q,v,value_loss,weight,eval_time,time
0,0,2.0197833659105084,,,,,,,,,,,,,,,,,,,,,,,,,,,,,,,,,,,,
1,10000,12.833046748305232,-24.878471,0.058705434,-13.177191,0.00048362836,1.4473141,1.0,3.0011802,2.3330321,66.16435,300.84497,18.878128,46.77947,46.940285,46.6667,46.370476,1.8602198,0.7,-47.688168,-37.422356,0.00015344059,-10.716723,-1.1615535,-1.5264084,-1.2474874,-1.5635505,4.1145105e-07,0.3,1.6511145,24.465054,24.437069,24.313192,24.008806,0.09189296,0.4421875,2.0654406547546387,2.6831400116284687
2,20000,15.490608343796685,-37.020275,0.0035773707,-16.709345,-0.00041034594,2.7998862,1.0,3.1903138,3.998573,105.49772,120.584694,18.483978,68.583664,68.18041,67.375305,67.55787,6.2301297,0.7,-69.725235,-68.99689,0.0006965322,-14.205664,-1.5395409,-1.9759748,-3.0214708,-2.4158132,1.3201497e-06,0.3,0.63630146,36.394093,36.396156,36.062973,35.96268,0.20921308,0.50312495,2.3536343574523926,3.6655583580334983
3,30000,5.107125311102223,-46.68262,0.00019550201,-24.300987,0.0027706437,4.2519093,1.0,4.8533792,11.514198,190.14218,123.83181,21.43126,84.812546,84.98024,84.56123,84.44346,8.431354,0.7,-84.635086,-134.7275,0.001066474,-14.130816,-11.78302,-7.6132355,-9.260397,-9.870402,1.8444902e-05,0.3,0.11268912,45.899902,45.936752,45.5276,45.582146,0.3331179,0.4765625,1.1770086288452148,4.62578585545222
4,40000,15.03405854790612,-53.41865,1.0343594e-05,-26.718086,-0.00035470753,5.210161,1.0,4.313632,4.1755667,205.77051,200.67682,18.197186,92.93699,93.743805,93.48178,94.3378,11.118306,0.7,-94.973434,-172.64351,0.002172289,-19.078117,-6.7829485,-6.0609913,-6.848479,-6.6334515,5.5645405e-06,0.3,0.50588244,52.54457,52.62235,52.50155,52.738,0.41399682,0.3984375,2.6495492458343506,5.605863348642985
5,50000,33.412901139254096,-54.679195,5.4750393e-07,-31.733376,-0.005689013,4.9354396,1.0,5.413196,2.0439672,323.23154,120.471466,20.185179,101.409546,101.27539,101.96659,101.66727,11.606755,0.7,-103.490036,-209.3788,0.0018497258,-9.533388,-4.8654838,-5.1065674,-6.2975216,-6.1134105,5.409122e-07,0.3,0.31898853,53.71582,53.68396,53.662106,53.580833,0.41420558,0.41562498,3.8323326110839844,6.612688418229421
6,60000,9.4991010758713,-55.49731,2.8866e-08,-33.301727,0.005907836,5.815578,1.0,4.5460043,9.971626,263.84845,139.86407,17.075672,99.693634,100.48726,100.07497,98.999695,9.668928,0.7,-101.2548,-232.47961,0.0007720656,-15.10964,-12.6177635,-13.719673,-13.410649,-13.399935,8.6217185e-08,0.3,0.33067143,54.50391,54.48487,54.060585,54.29112,0.41696984,0.425,1.7979962825775146,7.581697614987691
7,70000,45.429812729708026,-56.869774,1.5284507e-09,-50.768856,-0.0022502383,6.6161304,1.0,5.2626066,-7.129785,295.81555,156.4156,20.235146,108.92757,108.49296,107.87424,108.1227,13.552503,0.7,-109.20776,-332.10553,0.0025409556,-13.231098,4.884717,4.7476387,-2.594749,4.6978283,0.00010496107,0.3,0.63523585,55.92586,55.92188,55.800674,55.79203,0.57001084,0.4796875,5.154977798461914,8.604161842664082
8,80000,44.62946531832549,-53.99797,8.1375955e-11,-36.046455,-0.005408546,6.2213717,1.0,5.946224,12.792917,522.15594,271.60974,22.541132,99.73194,98.7024,99.38216,99.45136,38.15761,0.7,-101.641846,-297.19012,0.0021603678,-17.466871,-13.2630205,-13.46668,-14.32606,-12.686737,1.9074114e-06,0.3,0.31864572,52.61409,52.615456,52.406746,52.556427,0.6353073,0.4734375,4.7819108963012695,9.618560429414114
9,90000,59.76941912139241,-57.96757,4.339511e-12,-39.403107,-0.004496961,7.050489,1.0,6.48992,8.111066,826.0882,196.70511,19.928545,102.82781,102.580025,103.188,102.62798,13.738786,0.7,-104.44938,-334.39398,0.0029411833,-15.80608,-9.516082,-11.058726,-7.0021076,-9.241058,9.808399e-07,0.3,1.16598,56.807365,56.72873,57.143105,57.07617,0.58019793,0.421875,5.979418754577637,10.655223524570465
10,100000,59.002771127372675,-57.634293,2.3128952e-13,-70.28729,-0.007637016,5.849144,1.0,5.1460657,3.0654328,931.88916,126.35898,18.224697,105.62717,104.63488,104.11823,104.80466,7.918098,0.7,-110.36999,-362.36166,0.0040419493,-14.080139,-8.237027,-9.420287,-9.574021,-7.627769,1.50058595e-05,0.3,0.6192797,56.60351,56.65225,56.252712,56.544827,0.4833145,0.4453125,6.045222759246826,11.690465581417083
11,110000,72.65028623340515,-59.568745,1.22812755e-14,-46.948883,-0.005671029,6.1633754,1.0,3.3227355,5.054554,866.93835,40.727585,21.039783,106.454216,106.92551,107.502716,107.14164,69.33388,0.7,-110.22273,-367.28067,0.010393844,-16.67354,-4.83264,-3.5962002,-8.684498,-6.1449947,4.9301887e-09,0.3,0.41616815,58.43942,58.42506,58.444984,58.571503,0.9537159,0.44843748,7.208821058273315,12.749086050192515
12,120000,78.30683992914985,-56.804955,6.4991853e-16,-64.57935,-0.010671121,6.7095613,1.0,5.316902,0.09640378,630.0518,137.54022,14.967882,104.40764,104.73753,103.370026,103.18332,41.42846,0.7,-106.720375,-512.0078,0.011455018,-14.360258,-2.2242494,-0.3802485,-5.380265,1.085938,8.7448717e-07,0.3,0.39144582,55.68747,55.635967,55.51926,55.77809,0.78193796,0.42031252,7.468445777893066,13.80778784751892
13,130000,75.65322416532292,-56.047447,3.5040003e-17,-67.761314,0.0017842365,7.1133857,1.0,6.068839,12.677218,931.1603,375.4975,17.872158,106.689545,107.40318,106.22037,105.628296,80.55058,0.7,-108.88564,-506.8806,0.004257803,-27.66816,-9.33662,-10.413563,-12.064822,-10.260027,1.313393e-06,0.3,0.06306213,54.89648,54.708828,54.93336,55.172848,1.3410605,0.428125,7.426127910614014,14.868938330809275
14,140000,79.16929332220157,-56.92948,1.8583915e-18,-62.943726,-0.010355145,7.24295,1.0,5.727784,5.1623316,1222.4797,198.11427,23.486336,100.74387,100.61035,100.95053,101.752396,6.9908566,0.7,-104.08029,-570.142,0.0008303768,-18.20676,-1.5415275,-3.8616776,-8.66997,-3.2629683,2.5735866e-05,0.3,0.82071054,55.604465,55.612476,55.956,56.094845,0.4847172,0.39374998,7.099177837371826,15.924360005060832
15,150000,85.98233573766066,-57.822563,9.993458e-20,-73.55664,-0.006335122,6.9611406,1.0,3.0210686,3.2676117,697.9069,43.113293,16.606895,102.797844,104.53576,104.16547,105.718864,23.625309,0.7,-105.04379,-679.6613,0.00040671235,-16.220991,-3.7753925,-2.1787896,-1.7428654,-1.5744092,1.9197637e-06,0.3,0.72008824,56.52419,56.578705,56.66532,56.694748,0.6398723,0.41718748,7.9216132164001465,16.996651109059652
16,160000,60.73127201561256,-59.04847,5.36012e-21,-86.54495,-0.007227339,6.1228266,1.0,9.205235,13.723586,994.1046,561.50415,20.835629,102.294044,101.88859,100.90756,100.862114,52.866352,0.7,-105.600975,-634.40344,0.008618402,-19.430197,-12.850501,-12.531155,-13.250482,-11.324588,4.4983318e-07,0.3,0.6334767,57.879005,57.869034,57.10766,57.416496,0.72167087,0.4875,6.19502592086792,18.042506615320843
17,170000,63.98407775956769,-59.08613,2.8617733e-22,-75.82199,-0.019559184,6.6141405,1.0,4.017494,9.553917,1675.2377,91.29524,25.259766,103.2579,103.5823,107.04499,102.56555,38.311962,0.7,-105.216484,-537.119,0.0029684447,-19.460869,-9.76252,-9.335272,-8.75262,-9.181095,1.813217e-05,0.3,0.92932725,57.75473,57.984306,57.844315,57.738754,0.97503203,0.4953125,6.157907009124756,19.082993789513907
18,180000,52.8888693560347,-57.24459,1.531241e-23,-55.540688,0.004637386,7.035669,1.0,5.366818,-1.451787,1402.0591,218.24478,16.087027,104.116234,102.97175,103.688545,103.89539,43.322914,0.7,-105.00626,-727.1306,0.0016285884,-16.901918,-1.7325399,-6.197822,-5.280826,-1.5915928,8.3521634e-05,0.3,0.795189,56.01065,55.972343,55.640694,55.68224,0.814574,0.4734375,5.252094268798828,20.110067196687062
19,190000,68.58811373149366,-58.50625,8.159577e-25,-101.04844,-0.004202359,6.656222,1.0,4.381403,13.364059,2169.2449,98.90947,19.710842,102.33123,102.49298,102.947525,104.24054,25.909037,0.7,-104.2757,-650.3718,0.002425606,-15.783072,-19.048054,-18.973,-13.411706,-18.064997,1.2032615e-06,0.3,0.6252315,57.388123,57.402428,57.36767,57.4854,0.5831299,0.453125,6.44225549697876,21.155115854740142
20,200000,66.93485927638497,-54.35311,4.384732e-26,-111.17818,-0.007461445,7.1796517,1.0,5.8512936,16.75057,1867.3363,122.24889,20.006355,101.50825,103.406296,103.07361,103.52267,14.444548,0.7,-101.89099,-682.95306,3.4403987e-05,-13.614216,-17.498007,-16.892046,-12.928091,-14.65999,9.510736e-06,0.3,0.78911865,53.052048,53.139446,53.66283,53.669437,0.5308109,0.4375,6.330657958984375,22.205479037761688
21,210000,42.00699888220408,-59.695053,2.3517536e-27,-142.80835,-0.00818576,7.6315813,1.0,4.8263803,11.444649,885.69366,98.72516,14.483307,101.95163,102.652115,105.949005,102.05065,34.424637,0.7,-105.74384,-749.29395,0.0030144271,-12.510313,-6.8849797,-7.261589,-1.7211919,-8.20059,3.7030595e-06,0.3,0.84352696,58.540333,58.53286,58.120384,58.071968,0.7437868,0.51874995,4.2515082359313965,23.218053809801738
22,220000,67.14553935691137,-60.999687,1.272985e-28,-129.49207,-0.0027794167,7.7847304,1.0,5.9771814,-3.5018716,2217.8328,162.93591,19.299547,105.425446,106.303566,105.60508,104.633446,26.067253,0.7,-107.11979,-967.64966,0.0030619972,-16.97823,2.2205644,1.3009129,-0.37156862,1.4742577,2.3578365e-05,0.3,0.69977987,60.023098,59.759975,59.649723,59.601707,0.8254917,0.4703125,6.306593418121338,24.25742148955663
23,230000,70.40911452058877,-58.901527,6.84028e-30,-70.94576,0.0064781047,6.9679804,1.0,4.1790094,9.77461,2948.6392,138.33379,24.980957,107.3162,107.93142,106.34799,106.68099,9.39622,0.7,-112.49865,-948.8164,0.0007064131,-11.598898,-9.295191,-9.251619,-10.746919,-10.137994,2.9813484e-06,0.3,1.5524917,57.731346,57.618923,57.66406,57.608406,0.504081,0.465625,6.6219823360443115,25.30770678917567
24,240000,73.36919122090353,-56.394875,3.6881243e-31,-99.42224,-0.015047319,7.0417724,1.0,5.3562536,10.871466,1236.2242,181.87135,18.482637,104.63226,104.97972,104.86153,105.19603,13.78531,0.7,-106.76387,-774.0741,0.007261248,-16.95502,-10.128537,-9.485874,-9.506729,-8.412398,5.673384e-07,0.3,0.73032147,55.092876,55.047195,55.132385,55.55562,0.70908356,0.39999998,6.927600860595703,26.36425948937734
25,250000,78.12249684052955,-57.418423,1.9757897e-32,-96.26379,-0.0025018454,7.0852075,1.0,5.4289446,15.670637,1524.5889,93.57037,31.728119,103.88275,104.24997,104.683586,104.5893,57.32333,0.7,-108.73328,-912.5416,0.0017262951,-16.204872,-15.028552,-15.731457,-12.7247715,-17.061152,1.1957419e-05,0.3,1.3144187,56.240738,56.198135,56.425095,56.319748,1.1144989,0.5125,7.4396467208862305,27.430870946248373
26,260000,67.03725449128483,-56.80681,1.0653987e-33,-125.483055,-0.011004896,7.3010097,1.0,4.1274357,10.2887745,2810.4338,115.56959,17.389498,100.71994,101.31497,101.76189,101.99361,16.289349,0.7,-103.386826,-989.1948,0.0035866085,-12.248619,-8.595034,-10.143718,-8.9863615,-8.504772,2.263114e-08,0.3,0.2827598,55.75975,55.662014,55.89099,56.039555,0.63974416,0.40781248,6.3285744190216064,28.47592775821686
27,270000,80.3612892370038,-55.97693,5.7635734e-35,-139.11209,-0.021698808,7.8327556,1.0,4.7657733,6.5034328,2134.8132,64.23341,20.761864,101.75044,101.93086,100.48262,100.72016,16.546701,0.7,-102.55161,-833.31946,0.0006740161,-18.613762,-7.103803,-9.056054,-9.514245,-8.8468895,5.2899246e-05,0.3,0.013218626,54.660515,54.642162,54.592926,54.707283,0.7939001,0.4265625,7.560872316360474,29.542849516868593
28,280000,74.24800548315696,-59.627132,3.106024e-36,-140.59973,-0.0069679576,7.633953,1.0,6.7197113,11.518731,1574.5903,442.51953,16.684767,107.91595,107.72735,106.679276,107.283966,105.40295,0.7,-110.81172,-1060.1603,0.00063141715,-17.614708,-13.069032,-9.050692,-10.342702,-7.940212,1.446053e-07,0.3,0.60331094,58.431145,58.324398,57.92866,58.01989,1.374057,0.459375,7.036595106124878,30.59798147678375
29,290000,74.70809694172286,-53.803123,1.6984512e-37,-131.9278,-0.005740244,7.3762984,1.0,4.685358,14.352508,6777.5293,146.79744,25.37695,103.98583,104.776695,104.95899,104.4602,50.135036,0.7,-106.14501,-1257.6606,0.0014153246,-15.930126,-14.062662,-13.870756,-14.357692,-13.217856,2.5250594e-07,0.3,0.17871153,52.56356,52.518772,52.700863,52.718914,0.97913396,0.4609375,7.085644483566284,31.655978719393413
30,300000,76.558639007221,-52.562454,9.123145e-39,-143.98749,-0.011984322,7.0111175,1.0,3.7086983,7.069025,3436.8,63.927643,19.114187,99.621124,99.536575,99.78657,98.99792,18.976452,0.7,-101.14193,-1125.7301,3.7837075e-05,-11.288095,-9.659468,-9.743696,-10.139056,-8.685871,7.8482554e-07,0.3,0.38388267,51.258698,51.347286,51.37953,51.31237,0.7278279,0.4453125,7.352927923202515,32.714448984464006
31,310000,87.80801982902192,-56.22699,4.90883e-40,-118.55941,0.012647306,7.4298525,1.0,5.505382,6.2420645,1274.9673,195.68695,18.595942,98.53331,99.03357,99.16339,99.54975,58.578762,0.7,-102.06856,-1031.8358,0.0016073899,-19.22144,-8.690186,-8.113968,-11.525138,-8.047517,1.3568479e-08,0.3,0.5740129,54.769287,54.788376,54.475548,54.57019,1.0052749,0.46093747,8.08452320098877,33.78800109624863
32,320000,80.47811756442135,-56.918602,2.6639e-41,-212.2163,0.010320112,7.2331185,1.0,3.022182,17.45734,1475.277,49.57164,18.819426,102.815704,102.45587,101.4834,101.275055,21.6203,0.7,-103.825645,-1228.5449,0.012932463,-12.981152,-13.067056,-14.356905,-15.02148,-13.018271,3.2137789e-06,0.3,0.4992173,55.781433,55.84616,55.80846,55.874653,0.78249156,0.46874997,7.460011005401611,34.85148501793544
33,330000,87.00110331358167,-59.11581,1.456e-42,-146.74841,-0.0055164397,7.768163,1.0,5.554205,6.8919373,1990.037,136.0469,20.458868,105.31211,105.8421,105.65499,105.81557,34.89983,0.7,-108.4216,-1067.1404,4.9288556e-05,-17.49014,-7.8148165,-7.239301,-9.458066,-8.213683,4.1564344e-05,0.3,1.3449097,57.90241,57.936363,58.01612,58.26233,0.8198768,0.39218748,8.27419376373291,35.92892658313115
34,340000,80.85948993213698,-58.571228,7.8e-44,-151.48447,-0.007228698,8.1363735,1.0,4.759757,8.467015,2359.0164,138.46945,24.054848,106.24484,103.29919,102.4305,101.9796,11.691984,0.7,-104.83761,-1619.0891,0.0026503124,-20.17915,-7.6946287,-7.112934,-7.820446,-8.073496,1.2780311e-05,0.3,1.0255944,57.42749,57.409294,57.420197,57.530186,0.8166107,0.4265625,7.666927814483643,36.994419447580974
35,350000,69.54176828246217,-58.236656,4e-45,-131.5894,-0.0019360887,7.3174677,1.0,5.5063987,7.6388383,6816.1147,492.22723,31.075884,101.98406,102.48068,102.603325,102.14222,9.981266,0.7,-106.547195,-1298.5168,0.00037347135,-11.716275,-8.951204,-6.6090865,-9.0073395,-7.4543476,2.719708e-05,0.3,1.3083117,56.87493,56.951836,56.703465,56.952766,0.538246,0.4375,7.028329372406006,38.04855404694875
36,360000,76.17782042825995,-55.175323,0.0,-172.31303,-0.020945692,8.042913,1.0,4.5713625,19.406704,2729.4048,58.75145,17.837849,101.01322,100.42727,100.967445,101.41562,34.26543,0.7,-101.54324,-1615.9767,0.0128405485,-16.046425,-14.875554,-14.782433,-13.271578,-16.060478,4.277285e-06,0.3,0.56533474,54.099854,53.837894,53.717686,53.72396,0.9234928,0.48593748,7.501828908920288,39.111970973014834
37,370000,70.0092707397486,-56.593685,0.0,-203.70135,-0.016547816,7.0958557,1.0,4.772171,9.519435,1205.6417,71.522514,16.64918,97.036224,98.98165,101.89171,97.355644,23.879599,0.7,-100.42139,-1144.833,0.003837473,-10.976803,-9.321293,-6.26884,-10.090833,-7.332496,1.0145636e-05,0.3,0.5554859,55.58297,55.716534,55.993584,55.9205,0.6755364,0.43906248,6.9396445751190186,40.16198339064916
38,380000,83.67250486487609,-55.64412,0.0,-220.21811,-0.017508944,7.6618614,1.0,4.8616486,9.1433735,2047.3499,80.66995,14.714026,105.450455,103.77208,106.67723,105.74879,11.683115,0.7,-105.426384,-1597.7534,0.012296545,-12.922272,-9.131567,-9.821665,-10.28867,-10.811736,1.043423e-05,0.3,0.7976883,54.53149,54.659283,54.955505,54.713684,0.67212033,0.540625,8.132070064544678,41.23104981184006
39,390000,69.54325727062624,-56.167465,0.0,-182.77011,-0.0022607597,7.4637465,1.0,4.6474276,18.8577,3875.4817,52.575596,18.00888,103.58599,104.83295,103.15208,104.11283,28.796375,0.7,-105.53273,-1555.7175,0.0027240282,-15.18379,-13.58479,-14.075819,-15.623119,-13.527148,5.9146373e-06,0.3,0.2497139,55.008057,55.076332,54.443314,54.516098,0.92696875,0.465625,7.009504079818726,42.28278054396311
40,400000,74.35830725118616,-55.677635,0.0,-256.84302,-0.0071134805,8.172912,1.0,4.2978554,6.29422,2850.751,91.41579,13.957918,101.47546,100.79414,101.021225,100.62114,13.758443,0.7,-102.36685,-1857.6963,0.004142842,-21.585094,-9.862982,-9.121436,-7.719292,-8.309401,8.222822e-07,0.3,0.009539038,54.439674,54.389084,54.421936,54.45558,0.58593655,0.4140625,7.406083822250366,43.34407023588816
41,410000,86.56596445273725,-55.71374,0.0,-126.49148,-0.008298995,7.350241,1.0,6.2042427,5.875429,3701.286,159.77463,38.030594,101.46921,101.96437,101.40624,101.800865,33.761448,0.7,-104.21585,-1464.6179,0.027038448,-15.433496,-7.6507688,-5.667609,-8.464542,-5.370401,5.6158355e-05,0.3,1.295321,54.314713,54.19725,54.88566,55.099834,0.69366944,0.4171875,8.304834604263306,44.417011793454485
42,420000,82.48398044494144,-54.47258,0.0,-130.74374,-0.019663522,7.6483355,1.0,3.813013,11.098612,3846.3386,40.40248,24.36664,107.17003,108.0287,107.05292,106.41154,80.02428,0.7,-108.50332,-1702.9427,0.0029261871,-24.888868,-14.360162,-12.612497,-13.83006,-14.5314455,1.1423787e-05,0.3,0.5764922,53.20382,53.151237,53.21277,53.28608,0.97302234,0.4375,7.61957311630249,45.47988919814428
43,430000,79.98749396130945,-54.239708,0.0,-189.73654,-0.013130452,7.515739,1.0,3.5841556,10.310177,3863.3005,59.267197,24.514023,97.41771,97.6702,97.70688,98.26549,19.980917,0.7,-98.55004,-1662.9049,0.00062862533,-16.337261,-6.928176,-7.836907,-8.9034395,-8.291722,2.1930784e-06,0.3,1.0089474,53.223152,53.00641,53.57325,53.424824,0.45061797,0.4703125,7.721397399902344,46.54634613593419
44,440000,89.5994722418128,-57.661503,0.0,-130.51398,-0.019228084,7.892301,1.0,7.1426144,-0.8370757,3312.768,715.25525,18.116636,104.87903,104.80564,104.39895,104.952835,16.068697,0.7,-108.66117,-1846.897,0.0001789935,-13.285549,-0.7279651,-0.74970764,0.17501962,0.88852173,6.742587e-07,0.3,1.1385108,56.348755,56.203125,56.188843,56.392643,0.71230876,0.42499998,8.439109325408936,47.62273161411285
45,450000,75.08255657924371,-56.095127,0.0,-143.5229,-0.012446895,7.6276984,1.0,3.9082122,10.155536,2692.5696,51.235477,20.026241,97.43469,97.60844,97.57915,98.598145,11.910189,0.7,-101.54662,-1870.1968,0.014882603,-15.949524,-6.967967,-7.4020486,-6.367072,-7.79517,2.8001883e-05,0.3,1.0992441,54.775208,54.782883,55.166733,55.07116,0.7317933,0.39999998,7.058954238891602,48.678235085805255
46,460000,50.16436809814149,-55.104404,0.0,-192.23073,-0.0057511143,7.063657,1.0,4.06533,16.3811,4214.215,61.991608,14.621458,99.41805,98.68054,99.205864,98.49096,13.570114,0.7,-99.497086,-1648.052,0.0042972798,-14.627811,-13.438156,-16.703173,-14.074041,-13.158276,9.562355e-08,0.3,0.38660437,54.017982,54.046272,53.76488,53.7279,0.63968134,0.4609375,4.963852405548096,49.70165524482727
47,470000,72.63343034509475,-56.617165,0.0,-177.50714,-0.0035122745,7.7911043,1.0,4.008728,6.6491184,6187.2695,80.33151,16.582947,99.99471,99.934746,100.25554,100.374504,19.84512,0.7,-101.00526,-2020.0869,0.0027841884,-18.369942,-3.3385446,-4.804063,-5.2320027,-4.8224735,2.3087649e-05,0.3,0.6295928,55.408165,55.626884,55.113583,55.384396,0.66915345,0.41718748,6.819040060043335,50.74876217047373
48,480000,82.84408882749055,-54.14552,0.0,-213.61858,-0.005468083,8.140693,1.0,4.9240937,-2.0616326,2651.5132,84.67883,18.55357,101.51378,102.319565,102.06983,100.98489,15.455751,0.7,-103.04901,-1969.795,0.0059501585,-20.003992,-0.078629196,1.8357008,0.73240787,0.40910286,3.392688e-07,0.3,0.15928239,52.991825,52.969864,52.7312,53.128273,0.84784615,0.43281248,7.666091442108154,51.81545215845108
49,490000,76.99212063986806,-55.327026,0.0,-160.07826,-0.010667762,8.048854,1.0,4.6113544,6.4410877,5249.285,94.43461,24.833704,99.39769,100.15844,98.92604,99.76118,31.092167,0.7,-100.88603,-2049.4194,0.0015670923,-23.206755,-13.375714,-6.5356345,-6.6223607,-6.7738853,7.06343e-06,0.3,0.28604802,53.781036,53.955154,53.598984,53.857246,0.9843075,0.47031248,6.987659692764282,52.870395040512086
50,500000,78.059258543839,-54.654655,0.0,-262.02014,-0.0029524395,7.979216,1.0,4.491583,9.175087,3764.193,52.950188,19.385956,104.59941,104.05228,104.74508,104.56433,36.82453,0.7,-105.593315,-1628.268,0.00034413888,-11.281214,-7.5820227,-7.453192,-6.589486,-7.498912,2.4657463e-06,0.3,0.84506476,53.275177,53.29081,53.329292,53.34749,0.8048146,0.4484375,7.177820920944214,53.929439254601796
51,510000,86.23806725777756,-58.663914,0.0,-177.14938,-0.011210962,7.707476,1.0,4.0960417,10.656927,3193.5942,37.59856,21.29535,104.34859,105.37114,103.04273,103.57314,9.799629,0.7,-106.080826,-1931.4169,0.0057327454,-16.70002,-9.873568,-11.233351,-10.053563,-10.88505,1.4942241e-06,0.3,1.2847998,57.405167,57.43004,57.000748,56.956688,0.6401069,0.48593748,8.045746803283691,54.998407101631166
52,520000,85.33936576482736,-54.252594,0.0,-253.70833,-0.032725118,8.593833,1.0,6.5167623,7.4267864,6821.121,218.29279,27.909746,97.53211,98.04926,98.03617,97.97462,90.10928,0.7,-100.40716,-2051.5872,0.0014510364,-20.61645,-6.4677,-8.137482,-9.887335,-9.730362,8.223456e-06,0.3,0.34829837,52.868195,53.071693,52.541714,53.00901,1.5524542,0.4453125,7.838791847229004,56.069584858417514
53,530000,73.48086988649445,-55.444313,0.0,-250.21939,-0.008898289,7.7804804,1.0,3.44171,12.894276,4250.325,54.829643,14.928414,100.87364,102.446045,100.82392,101.21368,23.175655,0.7,-101.236115,-1906.4783,1.4195219e-05,-17.221851,-10.769094,-12.434968,-9.961888,-10.751102,0.00010333253,0.3,0.39609492,53.617424,53.626373,53.41298,53.34228,0.93007505,0.540625,6.928276062011719,57.12438497940699
54,540000,68.53835372014245,-58.169163,0.0,-268.4126,-0.003122091,7.45498,1.0,3.9199195,6.4587393,4744.234,87.29489,22.687939,100.1528,99.83632,100.70923,101.04757,15.776923,0.7,-101.23137,-1838.1306,0.0026299283,-20.083818,-9.619302,-9.259799,-8.385549,-7.930878,3.626013e-05,0.3,0.92051935,56.593052,56.4637,56.787052,56.854156,0.5795893,0.43281248,6.386772632598877,58.17082133293152
55,550000,83.58663593456946,-57.871346,0.0,-350.1366,-0.019475799,7.0150123,1.0,4.372056,9.703432,4382.7637,47.93103,17.320438,102.67483,101.28494,101.668274,101.81344,44.15563,0.7,-105.39881,-2054.425,0.008774433,-17.693033,-9.230851,-7.8497725,-7.499737,-7.472547,2.6153111e-06,0.3,0.53920937,56.764538,56.824013,56.84779,56.61024,0.718156,0.44687498,7.544034719467163,59.23779793183009
56,560000,64.42750164387193,-58.992783,0.0,-294.1129,-0.0060511776,7.764067,1.0,5.1987615,9.172037,2877.2205,152.4382,17.01659,99.743385,98.99957,100.02033,100.10606,27.21646,0.7,-100.93657,-1758.4817,0.0017670735,-17.236961,-4.4637775,-5.5070515,-4.144576,-8.883183,5.8137057e-06,0.3,0.8761282,58.208755,58.159855,58.435745,58.344223,0.77554226,0.4484375,6.098360776901245,60.27834817171097
57,570000,74.9562095325297,-56.277515,0.0,-228.42688,-0.017435648,7.2858973,1.0,3.730804,6.4643955,4637.5244,70.27831,21.816849,103.98109,102.607475,101.855865,102.94506,24.650492,0.7,-107.03266,-1823.5784,0.0021142797,-14.239534,-5.6501045,-5.111982,-3.2470236,-5.961262,8.050836e-06,0.3,1.1974779,54.78031,54.767757,54.531284,54.52543,0.8004408,0.47343752,7.058227062225342,61.335602196057636
58,580000,68.74038776729884,-58.075783,0.0,-249.203,-0.009570694,7.598204,1.0,5.5127378,7.1166363,4232.251,204.83098,29.442455,99.863335,99.9316,100.45762,99.219864,19.641802,0.7,-101.25148,-2041.1562,0.00010173826,-13.580616,-6.7057843,-5.421865,-5.2141147,-6.8118515,8.1472103e-07,0.3,1.329093,56.850994,56.818634,57.198044,56.747467,1.000773,0.48281252,6.520596265792847,62.37638212839762
59,590000,88.5674264482176,-58.677383,0.0,-234.53264,-0.007910022,7.07818,1.0,2.880602,7.9515,7763.5225,44.112617,18.009903,99.92253,100.13693,99.93672,99.656075,8.643944,0.7,-102.662605,-2424.8035,0.00022977061,-13.257608,-9.852108,-9.176544,-7.9334216,-8.659007,2.0861318e-05,0.3,0.72013533,57.414658,57.522095,57.786404,57.69657,0.4375984,0.4421875,8.267951726913452,63.450869246323904
60,600000,66.0161721117554,-57.487247,0.0,-181.78983,0.006970247,7.9418855,1.0,3.1729412,13.747286,7790.7583,57.915504,16.741611,98.608376,97.06833,98.12946,98.29181,15.688294,0.7,-99.210434,-2078.286,0.0005621213,-12.034053,-12.679107,-12.386357,-14.009743,-13.059808,2.3907585e-05,0.3,1.1037927,56.42843,56.357147,56.298225,56.36158,0.6234828,0.43906248,6.256950855255127,64.4879115819931
61,610000,68.7585877658024,-56.80845,0.0,-226.5454,-0.008492204,7.2138343,1.0,3.5369601,9.03571,6994.204,38.71391,35.38299,102.05824,102.14336,102.79964,102.14651,19.26484,0.7,-104.13298,-2282.2998,0.0062067164,-15.849652,-6.431193,-7.1854973,-9.253232,-7.248033,4.852066e-07,0.3,1.469598,55.223984,55.148277,55.090446,55.221413,0.55215997,0.40468746,6.661543369293213,65.53654061158498
62,620000,65.62089043768596,-55.23176,0.0,-405.6793,-0.022757387,7.5748467,1.0,4.6514635,5.258604,7669.0767,91.28294,17.360548,99.09489,100.32643,100.46781,100.137856,8.733467,0.7,-100.86022,-2248.326,0.0006197264,-16.3715,-7.7641373,-7.5417094,-8.635047,-8.571089,3.0173285e-05,0.3,0.5959693,53.842712,54.06308,53.501472,53.612335,0.8078393,0.465625,6.175480127334595,66.57528810103734
63,630000,85.15531971287147,-56.39817,0.0,-183.7341,-0.011238744,7.246751,1.0,3.640266,9.365353,5670.1255,40.28614,30.300838,98.82368,99.663864,97.594505,98.76535,13.723853,0.7,-103.46995,-2455.4683,0.0069200713,-15.47061,-4.2018785,-5.956299,-5.8616295,-5.8052015,4.8119114e-07,0.3,1.1743423,55.33979,55.21525,55.038635,55.04589,0.6557078,0.46875,7.919928312301636,67.63816341161728
64,640000,66.58856252827955,-57.315346,0.0,-197.96335,-0.015196966,7.653356,1.0,4.049019,4.108799,7453.458,100.33282,29.534409,100.8459,101.226944,101.51729,101.08092,32.72299,0.7,-103.78074,-2462.0476,0.00017142424,-16.65011,-9.714756,-5.7699356,-7.5055833,-6.4998555,2.620436e-07,0.3,1.4595983,55.87272,55.71964,55.8646,56.131805,0.8127692,0.46093747,6.6659996509552,68.66233356396357
65,650000,85.09892433986404,-58.350723,0.0,-217.6732,-0.004984308,7.8058,1.0,4.632594,5.3036795,15232.106,85.37176,19.685415,100.32849,100.93013,102.10657,99.26118,18.5414,0.7,-100.196396,-2197.559,0.00030911097,-16.444134,-6.903124,-6.8759747,-6.7940397,-4.4465976,5.9024005e-05,0.3,0.99684525,56.675453,56.741215,56.764454,57.070953,0.67084295,0.4515625,8.102423191070557,69.72379942735036
66,660000,80.23310044787162,-55.24639,0.0,-293.13568,-0.0076304725,7.6594567,1.0,4.3885407,9.939226,4412.642,70.26763,24.791996,96.91065,97.537025,96.83868,96.88453,19.499535,0.7,-99.14716,-2674.567,0.0018030899,-16.601158,-7.1207743,-6.74123,-7.857146,-9.885138,3.0196244e-07,0.3,0.40610677,54.111828,54.25579,54.026917,53.95085,0.76199937,0.459375,7.8327178955078125,70.78592391411463
67,670000,82.0244212109749,-54.330795,0.0,-279.51584,-0.018552236,7.9603477,1.0,4.3803797,9.602526,5333.475,54.786636,24.354984,97.100075,97.0514,96.34974,96.551704,8.138035,0.7,-100.14535,-2877.1318,0.008334498,-15.196512,-9.690314,-6.650133,-6.370108,-10.629683,9.809451e-06,0.3,0.85525846,52.90824,52.540924,52.238,52.262733,0.6301867,0.490625,7.672745704650879,71.84992558161417
68,680000,78.12178871195087,-56.977253,0.0,-409.2962,-0.009357129,7.9289026,1.0,3.4498296,9.3313055,10011.684,67.83716,12.584667,98.61353,98.65637,98.4344,98.021255,24.110077,0.7,-100.61395,-2742.7317,0.0038460614,-16.18317,-10.423037,-8.905365,-8.935538,-10.222744,2.5816913e-05,0.3,0.4510755,55.838608,56.03991,55.898033,55.658726,0.8164065,0.475,7.827726125717163,72.91570720672607
69,690000,79.94017855396729,-55.367447,0.0,-196.24411,-0.008839955,8.451526,1.0,4.0367723,7.4263434,6121.068,78.09869,23.281036,101.9841,100.730774,103.08164,101.422295,15.917227,0.7,-102.86002,-2664.487,0.00020513404,-18.724693,-10.308674,-8.391515,-8.861832,-8.423387,5.4957522e-06,0.3,0.242942,53.758415,53.606876,53.829674,53.94355,0.6987679,0.4359375,7.310093879699707,73.97167728741964
70,700000,75.77598398277621,-61.171806,0.0,-293.95593,-0.001554274,7.431254,1.0,2.5735316,7.671288,6579.513,40.329315,21.106918,102.32355,102.5614,103.028015,101.502625,12.253508,0.7,-107.565735,-2346.9058,0.013843733,-12.719831,-6.2651906,-5.6920156,-5.931489,-7.211842,6.30389e-09,0.3,1.576438,60.032616,60.116276,60.423332,60.123436,0.58461124,0.4421875,6.95254111289978,75.02636708815892
71,710000,84.48506594147003,-55.779915,0.0,-389.21747,-0.014151466,6.9970603,1.0,3.7091205,10.26189,4674.999,52.913437,17.255257,100.77082,101.21371,100.16816,99.51953,10.542496,0.7,-103.564735,-2630.8022,0.0048138294,-15.234402,-6.68068,-8.975048,-10.26674,-6.778959,6.712508e-08,0.3,0.660541,54.64743,54.58676,53.988464,54.12406,0.67143196,0.5109375,8.030572175979614,76.09579291741053
72,720000,72.48933703822338,-54.57088,0.0,-362.23663,-0.0040627713,7.8610663,1.0,4.182262,9.317472,6656.549,64.14132,20.504261,100.22824,100.70547,100.82587,100.98449,9.549392,0.7,-101.12356,-2629.6128,0.010044301,-12.464781,-5.127112,-9.2110405,-7.1940475,-7.0084867,1.177541e-08,0.3,0.28797475,53.294956,53.491844,53.948814,53.72848,0.568526,0.42343748,6.944970607757568,77.15126135746638
73,730000,58.231712911969105,-59.71689,0.0,-270.53943,-0.01020795,6.7901454,1.0,5.5057907,14.405209,3716.078,71.94794,15.203533,99.91108,99.85867,99.58983,99.57785,9.17932,0.7,-102.27472,-2508.457,0.0002218784,-13.527721,-14.661625,-13.519316,-10.704409,-11.993309,6.164366e-07,0.3,1.3656541,58.652798,58.620293,59.241074,58.82936,0.53880763,0.484375,5.578971862792969,78.18219173749289
74,740000,78.32041298941445,-57.22238,0.0,-298.95206,-0.0070888274,7.35569,1.0,2.9673452,8.244442,5917.3486,70.0728,21.396393,99.85968,99.42543,99.70419,99.66268,16.249449,0.7,-101.78798,-3202.0347,0.0034943959,-19.196844,-10.0113735,-7.977256,-7.881974,-9.270107,1.3205863e-06,0.3,0.15596154,55.857513,55.878845,55.97663,56.100567,0.7396195,0.396875,7.125331163406372,79.24006468454996
75,750000,84.53508084051263,-55.773598,0.0,-306.21857,-0.019396467,7.813595,1.0,3.354962,4.553866,10726.551,35.793526,19.704962,99.01008,99.00554,99.18988,98.71341,150.35182,0.7,-102.62058,-2477.4045,0.0005250304,-24.415422,-6.4729214,-5.796089,-5.5087075,-7.285674,1.440104e-06,0.3,0.6276709,54.222786,54.270622,54.09379,54.21244,1.4641938,0.43906248,7.76276159286499,80.30733983914057
76,760000,55.60644072313079,-52.986855,0.0,-218.86026,-0.011157196,7.3381324,1.0,4.0365148,11.049941,10197.673,56.478294,26.984018,97.16559,98.55854,98.02468,97.23023,16.183928,0.7,-99.48852,-2833.7805,0.00020493091,-17.909855,-7.8351684,-7.982221,-5.7830334,-6.7994456,8.079458e-05,0.3,1.1780362,51.795624,51.757797,51.95044,51.936695,0.85098803,0.48593748,5.2728776931762695,81.33508827288945
77,770000,83.38788160850706,-54.625504,0.0,-371.0797,-0.0038771615,7.5248947,1.0,3.1369314,10.624066,15478.329,67.52311,28.534153,98.560234,98.92534,98.43574,98.60832,5.6601715,0.7,-102.32674,-3004.4858,0.00038646028,-11.613048,-6.734761,-6.48372,-6.7970033,-7.4334893,4.3655746e-06,0.3,0.3408943,53.365917,53.252518,53.391777,53.086464,0.5143969,0.47187498,7.591445446014404,82.39865041573843
78,780000,81.91199583075476,-54.896614,0.0,-44.668015,-0.0074855434,8.36983,1.0,3.4082205,-2.7777047,24972.1,74.58557,31.908852,98.30471,97.84338,98.34537,97.06151,18.934004,0.7,-100.44372,-3428.3982,0.0014249724,-18.964384,-3.5037816,-5.5605626,-5.211753,-4.550807,4.8409566e-07,0.3,0.5306261,53.16413,53.2064,53.20704,53.048256,0.922011,0.471875,7.746243000030518,83.46419258912404
79,790000,84.46656112968434,-57.775295,0.0,-238.14395,-0.01521718,8.391755,1.0,4.365446,8.316085,9539.097,105.033844,17.311537,100.86462,100.59669,101.33401,101.12123,14.847947,0.7,-102.90382,-2873.0327,0.0038675107,-15.839235,-5.999073,-6.540791,-2.7819614,-8.2505865,7.8724116e-07,0.3,0.7510221,56.464935,56.44206,56.715847,56.526592,0.65656215,0.49531248,7.670832633972168,84.5299836476644
80,800000,83.70204151870371,-55.55527,0.0,-293.1957,-0.0071247146,7.7995987,1.0,3.6732063,3.1186562,7287.263,71.42877,13.834239,101.97834,100.59727,102.974884,100.994446,10.218586,0.7,-102.22078,-2907.2605,0.0004651473,-18.070807,-5.096428,-2.6637883,-5.077133,-5.4247656,2.2757042e-06,0.3,0.45037723,54.507877,54.563675,54.48378,54.521603,0.6422012,0.484375,7.728795051574707,85.59775687456131
81,810000,81.9737943306331,-54.29711,0.0,-293.46173,-0.018188162,7.4791718,1.0,3.8948174,7.1909876,8005.453,73.04502,26.600538,100.1967,100.45792,101.28013,101.13198,10.27273,0.7,-102.22371,-2951.0767,0.00569408,-16.40899,-7.505532,-7.92752,-7.4187264,-7.5579467,5.3788244e-06,0.3,0.83473253,53.30877,53.187798,53.61458,53.464592,0.65287375,0.434375,7.911727428436279,86.66545112927754
82,820000,60.07440289328775,-55.075386,0.0,-352.11948,-0.020859124,7.7162337,1.0,4.327093,8.378157,10937.789,76.979675,17.93029,100.44135,100.32574,101.26408,100.50325,63.59986,0.7,-100.81742,-3055.3984,0.0032765698,-31.797348,-6.17256,-2.9213858,-3.6583405,-4.0894456,8.501609e-06,0.3,0.8566161,53.702057,53.809715,53.88921,53.89043,0.96235687,0.44374996,5.738756895065308,87.69924972454707
83,830000,79.45931306099567,-55.842945,0.0,-340.4613,-0.005993538,7.889614,1.0,5.3513384,6.3141165,8072.1577,82.908676,20.440704,96.61032,96.102165,96.72364,97.80543,15.559964,0.7,-98.23654,-2616.1113,0.0024785334,-10.414405,-6.7203593,-8.398305,-5.711539,-5.2368097,1.1265977e-06,0.3,1.0961353,54.476685,54.745182,54.70535,54.471073,0.6422783,0.453125,7.149651288986206,88.75904544989268
84,840000,81.11830524042229,-55.717693,0.0,-314.47955,-0.014914448,8.351422,1.0,4.007418,6.5800266,4588.364,63.50322,16.43026,100.33838,100.26075,100.90502,100.31831,76.425514,0.7,-102.8848,-3102.006,0.004756322,-18.429586,-5.299363,-5.324651,-7.2959943,-8.366217,1.8127163e-05,0.3,0.79665965,54.412567,54.241364,54.28772,53.943092,1.0089325,0.50624996,7.4248046875,89.82002011140187
85,850000,80.2050275446146,-58.84934,0.0,-405.7614,-0.015844889,8.154262,1.0,5.248825,-0.20976007,5110.033,129.0318,18.426104,103.3253,105.289055,104.94642,103.41722,18.227797,0.7,-106.00913,-3121.6055,0.000834908,-15.111774,1.0240993,1.5678177,-0.021309173,2.055768,1.128791e-05,0.3,0.73558235,57.67209,57.47607,57.88089,57.50927,0.6321024,0.47500002,7.228196144104004,90.87959266901017
86,860000,75.81759805509287,-55.46193,0.0,-238.97665,-0.025487224,7.4633746,1.0,3.7854555,10.2918825,7664.4883,47.233383,38.226097,100.460014,100.06344,101.7717,99.91687,14.069995,0.7,-102.56277,-3458.649,0.0007130013,-15.774425,-14.112317,-13.145761,-14.13494,-10.185875,1.702847e-05,0.3,0.8842952,54.159904,54.080376,54.35327,54.108025,0.70060337,0.48593748,6.985250473022461,91.93286472956339
87,870000,75.88121581674822,-54.925507,0.0,-540.121,-0.01060026,8.213794,1.0,3.643936,10.370633,7184.367,37.63584,17.94691,101.05603,101.30272,100.65496,101.69878,19.447104,0.7,-103.91861,-3087.0146,0.012782456,-18.13668,-8.751736,-10.226377,-8.006044,-7.9147906,6.265007e-07,0.3,0.05531678,53.717525,53.826298,53.549145,53.83007,0.8119248,0.42343748,7.058061599731445,92.9919549425443
88,880000,54.514377315773345,-57.99212,0.0,-460.02292,-0.012724248,7.7338166,1.0,2.456407,9.003629,4724.835,21.841938,20.801899,103.89892,104.40344,104.020424,104.0794,11.820874,0.7,-106.90659,-3548.0872,0.0029210916,-13.415594,-4.6123724,-9.632078,-8.06473,-7.442158,3.939931e-08,0.3,0.4706865,56.866165,56.639324,56.808342,56.676056,0.69523954,0.46718752,5.209364175796509,94.01609830061595
89,890000,64.60606422354019,-56.833828,0.0,-507.28528,-0.014804109,8.4249,1.0,3.5089805,0.18901622,13133.12,70.405136,15.589119,102.15813,101.454926,103.363884,101.12796,31.550524,0.7,-103.68522,-3157.0537,0.0020433578,-18.387722,-1.3187255,-0.820331,-1.138695,-1.3321302,1.1513662e-05,0.3,0.3324483,55.327995,55.37194,55.384117,55.495277,0.7779319,0.42031246,6.1117212772369385,95.0590853412946
90,900000,77.37549117620117,-56.237473,0.0,-395.18835,-0.015283427,7.430307,1.0,4.0797987,12.062429,6128.3057,142.1992,16.93605,96.588875,96.97893,98.58279,97.99338,80.05965,0.7,-98.11458,-3321.6853,0.0005877577,-15.38558,-8.086824,-7.231407,-7.4769897,-7.507309,1.0145636e-05,0.3,0.8596337,54.907593,55.08453,55.042065,54.97891,0.97125554,0.4671875,7.272795915603638,96.11615218718846
91,910000,87.03308908394918,-56.195564,0.0,-386.83716,-0.008431817,7.8482165,1.0,6.0731373,5.650619,10600.966,311.41888,13.940945,97.26459,96.953575,98.27402,96.769936,20.042835,0.7,-97.99644,-3774.585,0.001068553,-19.879532,-8.420208,-8.8729925,-8.832182,-7.8549914,2.4853081e-05,0.3,0.45121142,55.06034,55.027733,55.134483,55.115036,0.83971286,0.44062498,7.885645389556885,97.18983304103216
92,920000,74.99556018554604,-55.634846,0.0,-294.62207,-0.010070304,7.694055,1.0,4.08648,7.7177606,13368.421,54.51619,28.531599,98.59054,97.26273,97.45912,97.03134,51.911354,0.7,-99.988144,-2953.5928,0.00012478814,-13.949572,-7.9443846,-6.3000383,-7.426452,-5.8471613,1.4584687e-06,0.3,0.75651324,54.435673,54.23606,53.811058,53.79487,0.8664911,0.5109375,6.881985187530518,98.23671908378601
93,930000,79.64607856325946,-54.792435,0.0,-460.41196,-0.01571771,7.902977,1.0,5.855208,4.2025204,7561.3833,367.87134,20.588203,96.70394,96.682846,95.41763,95.143875,17.048677,0.7,-98.213196,-3384.681,0.024885595,-15.050084,-7.7892294,-7.039429,-8.305999,-9.946815,1.0232737e-05,0.3,0.6066333,53.627033,53.754375,53.190346,53.181713,0.78530705,0.4765625,7.768343925476074,99.29977132081986
94,940000,87.79806548333305,-56.6313,0.0,-459.979,-0.026006723,8.084655,1.0,3.8280935,2.4441442,3886.8606,66.994125,16.193712,97.38311,97.4757,97.84783,97.72929,13.242778,0.7,-99.07851,-3366.6968,0.019265804,-14.424492,-2.9192736,-5.794162,-5.5557666,-3.6651976,5.4337364e-05,0.3,0.52054703,55.51172,55.422447,55.86865,55.83187,0.7698083,0.47812498,8.47281289100647,100.37475213607152
95,950000,89.7124196462336,-57.099007,0.0,-468.927,-0.017324332,8.937457,1.0,4.577679,5.6151457,10895.921,170.82521,19.69754,96.71915,97.017265,97.38117,97.33636,10.56335,0.7,-99.48674,-3913.7036,0.0012627835,-19.763477,-3.517171,-4.627489,-7.5334554,-4.094736,2.847677e-05,0.3,0.7320781,55.82054,55.70928,55.59193,55.588802,0.68005705,0.46406245,8.243699312210083,101.44917455116908
96,955000,78.74274596449199,-55.253807,0.0,-489.1215,-0.008967696,7.425542,1.0,3.3569913,6.7937884,6291.554,26.041727,19.275558,99.2269,99.14089,99.684975,99.45426,85.44078,0.7,-101.23573,-3701.8357,0.0028326968,-22.356443,-6.5283203,-6.678688,-6.7481675,-8.284379,1.5926053e-05,0.3,0.53278375,53.923794,53.900818,53.6175,53.82778,0.9456036,0.45624998,7.665776491165161,102.03964262008667
97,960000,84.6330694608751,-55.51528,0.0,-292.6198,-0.007913829,7.6150713,1.0,3.3361058,2.0225725,5307.3604,39.055283,17.269756,100.846886,100.858696,100.29958,101.60587,48.404278,0.7,-104.161964,-3632.483,0.0061308043,-14.001512,-4.243932,-5.3612747,-5.1782007,-2.9084644,1.571607e-06,0.3,1.0156976,54.328964,54.42657,54.152912,54.33563,0.8132005,0.43906248,8.24083662033081,102.64499444166819
98,965000,84.98397538879162,-53.888626,0.0,-405.0752,0.0003224029,7.6085267,1.0,3.897644,9.287767,9484.6455,160.85352,19.483868,99.3175,99.013664,99.38425,99.24488,81.85823,0.7,-101.32499,-3178.3508,0.010167303,-20.043465,-9.736537,-7.732535,-9.408716,-9.466429,8.919044e-07,0.3,0.8545749,52.42791,52.373264,52.367413,52.85982,1.2433989,0.3953125,8.193217039108276,103.24456210533778
99,970000,84.2212092574088,-54.834885,0.0,-357.01593,0.0018761604,8.1564245,1.0,2.717019,7.3948774,9652.058,48.084015,17.726423,98.875374,98.77022,97.61527,98.14635,21.510414,0.7,-100.23002,-3429.6506,0.0016557467,-17.650736,-10.169799,-9.792992,-11.793865,-11.057874,2.3375821e-06,0.3,0.5305448,53.431442,53.53871,53.05544,53.35006,0.70041084,0.43906248,8.491801738739014,103.85365875164668
100,975000,92.51384795372995,-54.50509,0.0,-411.22876,-0.017547907,7.7274485,1.0,3.4312518,0.13464117,6821.115,53.226974,28.146746,100.602325,102.75212,102.39858,101.38643,241.87346,0.7,-103.46783,-4351.6426,0.0010901554,-18.780373,5.4621706,3.637156,-0.5278181,0.6510682,9.12805e-06,0.3,0.5262192,53.30588,53.18928,53.229588,53.09935,1.5394375,0.4296875,8.483933210372925,104.46406725247701
101,980000,80.68785151380253,-57.04806,0.0,-586.2667,-0.017283367,7.5740104,1.0,5.787702,-0.42747736,15560.245,290.26837,20.77934,99.48782,99.45065,99.97183,99.249344,167.10019,0.7,-102.6758,-3723.718,0.004747034,-16.00983,-1.6056794,-2.48942,-5.896648,-2.678301,8.413379e-07,0.3,0.8774719,55.89173,55.838707,55.65273,56.141785,1.4298816,0.3890625,7.851067543029785,105.06258800427119
102,985000,87.6162410082857,-53.172626,0.0,-517.31287,-0.016301846,7.600391,1.0,3.652802,10.959051,12199.678,45.670906,19.865257,95.727005,96.05487,96.40679,95.58914,6.188981,0.7,-96.71731,-3416.3237,0.004429439,-14.213355,-8.578228,-9.486783,-11.745251,-6.7108116,2.6560157e-08,0.3,0.3605565,51.709038,51.511673,51.575394,51.63461,0.6051203,0.48593748,7.94959568977356,105.66093041102091
103,990000,83.20098221543061,-54.408253,0.0,-342.99268,-0.013782963,7.9954033,1.0,4.681184,5.909453,22294.71,121.38404,15.485212,96.28406,96.25142,96.0606,96.82656,8.261134,0.7,-99.30068,-3158.8025,0.0023971917,-15.084463,-5.6140804,-6.1386995,-4.0099936,-5.760377,0.0001290251,0.3,0.32699302,52.88127,53.02233,53.52334,53.44829,0.72663075,0.40781248,7.50588583946228,106.25151387453079
104,995000,91.5768264694398,-55.96739,0.0,-210.17816,-0.009286257,8.814975,1.0,6.6371274,5.7321925,25074.705,620.45667,18.23355,98.44288,97.81289,97.579575,97.372665,8.956755,0.7,-99.83349,-3303.5503,0.0031689215,-17.023567,-5.071312,-5.9480944,-4.9696884,-4.806985,1.4844421e-05,0.3,0.22937703,54.531372,54.380035,54.392895,54.706795,0.8064159,0.46249998,8.25592303276062,106.85635365247727
105,1000000,91.22531222727616,-55.909904,0.0,-424.59018,-0.015596116,8.179619,1.0,3.76085,9.4670725,22085.402,93.116425,24.459564,101.45158,102.79431,101.547935,101.20579,50.115887,0.7,-103.05577,-4169.002,0.0058521316,-17.219742,-10.097043,-7.223178,-8.751015,-8.04961,3.79431e-07,0.3,0.73500156,54.653576,54.515182,54.560196,54.392044,0.9399457,0.478125,8.274392127990723,107.46203533411025
