Xixo99/comfo/baselines/comfo7_perterbation_both_actor_and_critic/20230224_alphaQ0.0001/walker2d-medium-replay-v2/COMFO7_s2_20230225_063326_walker2d-medium-replay-v2_73.17.csv
,step,reward,actor_loss,alpha,alpha_loss,avg_conservative_loss,avg_smooth_loss,conservative_weight,critic_loss,max_actor_loss,max_alpha_loss,max_critic_loss,max_mle_prob,max_q1,max_q2,max_target_q,max_v,max_value_loss,max_weight,min_actor_loss,min_alpha_loss,min_critic_loss,min_mle_prob,min_q1,min_q2,min_target_q,min_v,min_value_loss,min_weight,mle_prob,q1,q2,target_q,v,value_loss,weight,eval_time,time
0,0,2.092772407276776,,,,,,,,,,,,,,,,,,,,,,,,,,,,,,,,,,,,
1,10000,8.152330266817273,-22.558952,0.058646232,-15.639492,-0.001697623,1.4264389,1.0,1.7440779,1.7739608,12.931496,36.787865,13.492485,48.093597,47.567635,47.950954,46.524876,2.4146094,0.7,-46.665028,-36.31232,0.00094174326,-8.73171,-3.331476,-2.5365653,-2.5209541,-1.3034668,9.7890736e-09,0.3,0.61347187,22.274721,22.280975,22.354506,22.090696,0.09188353,0.46875,1.4397332668304443,2.60821350812912
2,20000,1.2341781842994308,-38.990532,0.0035825379,-15.824833,-0.001197006,2.6961944,1.0,11.813009,3.1074977,59.87138,2094.5957,15.232553,70.83971,70.34133,71.77639,70.59349,17.093395,0.7,-71.2733,-69.98324,0.00025175494,-20.295029,-6.478005,-6.600136,-5.2348948,-6.976697,3.5699456e-06,0.3,0.9806942,38.302692,38.30454,38.39116,38.185696,0.26931787,0.41875,0.8012220859527588,3.528698416550954
3,30000,1.8092258481624273,-44.41891,0.0001951535,-18.648666,-0.0033425489,4.0780396,1.0,5.4757385,13.597063,164.93138,146.85524,17.349092,87.23534,87.13062,88.60841,87.9722,16.818718,0.7,-90.56555,-114.25545,0.00078259653,-15.56117,-13.834454,-14.061977,-12.255167,-12.803569,7.710041e-06,0.3,0.1487216,43.683437,43.633495,44.1164,44.05584,0.42720082,0.39374998,0.9648735523223877,4.45000479221344
4,40000,20.59304252242538,-49.81795,1.04178625e-05,-25.658527,0.0007011693,4.9503098,1.0,5.3513308,1.4908372,268.66302,134.22604,17.185188,91.86152,91.80367,92.7117,92.34991,8.467126,0.7,-94.67886,-161.0273,0.0018812437,-14.195248,-1.9864846,-0.7163175,-1.1652195,1.0113283,1.0105013e-05,0.3,0.21822277,48.933155,48.963028,49.708374,49.48095,0.48133913,0.37812498,2.5192933082580566,5.399077912171681
5,50000,17.958708848114988,-55.946865,5.536334e-07,-25.316784,-0.004952491,5.2565775,1.0,3.9127648,-3.5703568,390.4524,129.17603,17.137672,103.234344,103.920395,102.947624,102.40071,8.922956,0.7,-104.34203,-184.57487,0.005067203,-13.047055,0.66204333,0.16108221,0.46785095,-0.35946262,4.0737623e-06,0.3,0.68981874,54.966614,54.95473,55.033424,55.16639,0.63472235,0.39218748,2.4339256286621094,6.346108448505402
6,60000,6.49370537621486,-59.417862,2.9383108e-08,-21.187923,-0.0050282516,6.0742927,1.0,4.578454,0.6067202,579.50543,144.44891,21.1777,97.649475,97.522606,98.319534,98.77579,48.0982,0.7,-99.43476,-189.50282,0.008796357,-13.633419,-0.67559445,-0.97574496,-0.8931647,-0.976248,7.2872967e-06,0.3,0.852756,58.34835,58.154285,58.43367,58.523804,0.8096998,0.41718748,1.2131907939910889,7.2719049970308935
7,70000,42.58230308854106,-57.268654,1.5703865e-09,-37.083946,-0.0016696248,5.7673187,1.0,4.1829963,8.747919,572.73126,105.06714,18.309372,101.34864,101.74474,102.21996,102.42323,15.658804,0.7,-103.63866,-272.4252,0.004780582,-9.888402,-11.816151,-12.998023,-9.233516,-10.525675,9.077415e-06,0.3,1.089165,56.447372,56.250496,56.72589,56.655968,0.46579,0.4375,4.385636806488037,8.255961223443348
8,80000,39.85006676787087,-59.332855,8.362318e-11,-17.942944,-0.0044051246,6.5343566,1.0,5.913759,-5.866994,916.3494,141.112,24.078323,103.610054,104.02912,103.29529,102.14445,15.878686,0.7,-106.2352,-388.32385,0.00032751355,-14.617754,0.6676862,1.8376672,-1.1342429,2.8206465,1.0481745e-08,0.3,0.43542027,58.114048,58.302315,57.995667,58.29028,0.57565475,0.421875,4.024551868438721,9.232893375555674
9,90000,40.30752404208867,-58.265778,4.5262205e-12,-46.483147,-0.010545872,6.444945,1.0,4.7816772,-1.4004452,398.80136,349.79407,17.223259,102.06806,102.24833,101.918785,102.0857,19.24783,0.7,-104.878975,-318.5903,0.00015292113,-12.979882,-0.56621814,-0.62406415,0.3425652,-0.6923286,1.2542122e-06,0.3,0.21165627,57.190575,57.233227,57.01794,57.028202,0.53249425,0.39999998,4.00266432762146,10.20274475812912
10,100000,36.359502498698276,-58.880226,2.4549506e-13,-37.66906,-0.0056164856,6.1391077,1.0,4.1548653,4.691455,843.0154,85.47154,18.561893,105.23483,104.83453,104.54507,104.71642,34.046986,0.7,-106.84256,-332.34308,0.00074039446,-18.012978,-1.6864498,-2.442254,-6.5060186,-2.0589023,2.6077032e-09,0.3,0.4153863,57.91534,57.883045,57.74369,57.88688,0.5437572,0.4421875,3.816847324371338,11.175416513284047
11,110000,67.34723737660346,-54.83409,1.3231845e-14,-60.08177,0.0027770402,6.7978554,1.0,6.642519,4.3453445,949.1402,207.27876,23.443226,107.48092,108.010155,107.55894,106.43707,14.683687,0.7,-110.97306,-410.21036,0.00040750817,-26.021336,-3.5630732,-4.8762155,-5.728034,-5.62349,3.3741233e-07,0.3,0.048628524,54.00762,53.904266,53.738194,53.857903,0.720826,0.48125,6.101954936981201,12.185763021310171
12,120000,49.17277022800731,-61.61203,7.1353727e-16,-78.44368,-0.011900785,6.80058,1.0,3.355075,3.1535096,919.2682,81.39783,16.33102,103.790535,102.67472,103.04686,104.02808,13.209802,0.7,-105.2383,-477.00235,0.0036868309,-17.748129,-5.611233,-5.009745,-5.1323743,-5.9227176,2.5990887e-05,0.3,0.22793093,60.384,60.534134,60.407715,60.70437,0.4844799,0.42343748,4.549081802368164,13.164843841393788
13,130000,42.8761885203598,-56.34687,3.870977e-17,-49.89659,-0.0016576533,6.799671,1.0,6.1980143,12.418915,1247.8317,192.84067,16.308836,104.91311,104.837074,104.12841,104.01464,67.77117,0.7,-108.7243,-622.656,0.0020526256,-15.017618,-13.454281,-12.765956,-14.225461,-14.334663,1.2355624e-06,0.3,0.49453333,55.262413,55.215363,54.87502,54.730362,0.9966542,0.47968748,4.080266714096069,14.140920201937357
14,140000,37.60880432848601,-57.62319,2.0793395e-18,-72.72049,-0.011240854,6.553558,1.0,3.984263,17.262638,1138.2927,75.2152,16.047659,102.7515,102.20398,104.39207,102.94372,8.744953,0.7,-105.84755,-568.59247,0.001713369,-14.011276,-13.6376705,-14.232242,-13.809342,-15.176026,1.3448017e-05,0.3,0.9797387,56.4964,56.467365,56.69972,56.778305,0.49749547,0.459375,3.745185375213623,15.10998612244924
15,150000,59.84213867163246,-59.150967,1.1123955e-19,-92.18771,-0.0080932295,7.0088196,1.0,4.47397,2.1603127,892.7041,121.72762,24.70106,105.890305,106.422165,106.07794,105.585304,19.495045,0.7,-106.054085,-585.1128,0.0007185406,-14.912947,-4.8357353,-4.943594,-2.187983,-2.3292458,3.183038e-06,0.3,0.6488224,58.04869,58.16001,58.039776,58.252663,0.5803421,0.4109375,5.263489484786987,16.106719382603963
16,160000,48.02851511601401,-58.704544,6.0296955e-21,-70.33769,-0.014924059,7.232727,1.0,5.3384705,5.980499,990.1375,172.45306,15.878997,105.162575,106.72398,105.494774,104.80789,17.954086,0.7,-108.505165,-662.4508,0.012038861,-16.668716,-6.8722157,-6.042343,-6.2651663,-7.007604,1.177541e-06,0.3,0.9403888,57.503265,57.537933,57.1828,57.082893,0.659235,0.51874995,4.476197242736816,17.08399004538854
17,170000,55.65024699571804,-58.70397,3.2975143e-22,-100.85038,-0.0009468572,7.423552,1.0,5.73156,5.378234,749.8814,284.24432,22.619759,105.345955,107.13537,106.513954,105.72022,31.575945,0.7,-107.53341,-590.59717,0.0010774562,-13.225504,-9.071281,-9.715225,-9.56137,-8.330806,8.802745e-08,0.3,0.74798614,57.489326,57.60021,57.750183,57.565197,0.75282675,0.421875,5.100468397140503,18.074738510449727
18,180000,42.24087323683431,-56.646027,1.7850332e-23,-69.55789,-0.006815031,7.502908,1.0,4.572831,10.312129,1814.2261,69.73596,17.689861,104.63345,102.74869,105.17917,103.44426,36.67819,0.7,-105.95706,-710.4921,0.007636287,-13.939482,-14.733655,-13.587799,-11.065503,-13.20589,2.2654207e-05,0.3,0.49966002,55.340584,55.293407,55.771313,55.724987,0.7787051,0.421875,4.1161394119262695,19.051688853899638
19,190000,45.41592038681059,-57.4196,9.729962e-25,-118.94517,-0.015478042,6.9046283,1.0,5.013772,1.8941519,1330.8855,157.94649,16.051409,107.2964,107.30762,106.17594,106.74976,12.776368,0.7,-107.456505,-827.82446,1.8708699e-05,-12.841281,-4.51302,-3.1950753,-4.370145,-3.9537754,3.3003744e-07,0.3,0.3116434,56.360718,56.399956,56.325268,56.581512,0.5951564,0.41562498,4.263145446777344,20.026528199513752
20,200000,48.766198038116244,-60.1053,5.278314e-26,-83.17141,-0.012187645,6.7873216,1.0,3.881754,2.1546183,1637.7446,75.60182,20.216852,100.12689,100.59186,100.0939,100.36834,9.383068,0.7,-103.16253,-803.1981,0.0049198265,-15.843895,-3.7995586,-2.1047053,-4.043241,-5.4837937,7.3743723e-07,0.3,0.5846267,59.023045,59.031853,58.726353,58.543777,0.52192235,0.4640625,4.5842835903167725,21.007497851053873
21,210000,61.38242234095508,-56.9355,2.8631418e-27,-88.998505,-0.012049727,6.717093,1.0,4.871521,5.458275,1558.8701,76.428215,16.579739,102.64045,103.55479,103.42611,103.57268,11.434566,0.7,-104.56483,-707.0246,0.0066386797,-19.622742,-6.7336164,-8.254247,-8.329849,-7.987862,1.7214915e-09,0.3,0.0578126,55.804977,55.636215,55.643135,55.658382,0.7309474,0.465625,5.537198781967163,22.003588465849557
22,220000,66.43909517658838,-54.494488,1.5612296e-28,-157.95479,-0.00025539193,6.476581,1.0,3.894264,14.790638,1258.0375,44.010895,20.331945,106.417175,104.76428,105.380936,104.07464,54.292553,0.7,-107.27563,-839.18286,0.0019398523,-15.167923,-12.297959,-14.166477,-13.384911,-12.629442,6.204748e-07,0.3,0.14043646,53.465183,53.61367,53.126266,53.408974,0.8062286,0.48593748,6.001244783401489,23.013095966974895
23,230000,54.821814317916896,-57.829605,8.495608e-30,-72.779915,0.0008382179,8.108471,1.0,6.50665,14.646282,1916.2278,413.93176,21.165302,103.61061,101.94647,103.40226,102.767204,10.339042,0.7,-102.51443,-789.57666,0.0008828158,-13.872248,-16.762753,-19.729607,-19.092607,-17.921585,1.0353397e-07,0.3,0.10179273,56.0036,55.850677,56.072594,56.26413,0.6687106,0.4109375,5.087857961654663,24.008553655942283
24,240000,51.49741287903345,-59.56695,4.6219225e-31,-116.79839,-0.00830765,6.907402,1.0,3.7589688,7.2878313,2057.5676,80.001785,16.672218,104.22484,103.19167,103.85348,104.06182,9.866695,0.7,-106.2584,-1015.43207,0.0052853813,-14.127954,-11.274554,-10.754527,-10.751211,-8.919577,3.1589734e-05,0.3,0.45322952,58.513298,58.401085,58.2716,58.321354,0.45510548,0.453125,4.880564451217651,24.996904746691385
25,250000,57.16266729750401,-56.072952,2.532903e-32,-120.47987,-0.0037529946,6.738642,1.0,5.1591053,11.22482,1935.4176,109.31299,14.346043,105.36019,105.82321,105.62502,106.9984,117.23692,0.7,-107.651955,-814.5317,0.007158996,-17.39819,-15.908883,-14.014026,-12.201243,-14.624883,6.114351e-07,0.3,0.4572922,54.751247,54.503086,55.135323,55.34247,1.1378934,0.39374998,5.368266820907593,25.9927593032519
26,260000,63.03593789025578,-58.821655,1.3783394e-33,-109.17865,-0.011411367,7.449257,1.0,4.559523,10.541077,2161.3347,112.25763,24.61406,103.42223,102.578835,102.858246,102.227844,11.209213,0.7,-106.39666,-849.0178,0.007476705,-14.078318,-8.659597,-8.626684,-8.390668,-11.460929,7.01737e-06,0.3,0.80850524,57.6369,57.778694,57.793854,57.792007,0.551419,0.45624998,5.838324069976807,26.99500250418981
27,270000,80.32430522226818,-57.676132,7.552874e-35,-130.62042,0.0009734249,7.5392723,1.0,4.0785174,10.449368,1964.3271,95.20763,18.404202,101.27752,100.89204,101.29597,101.18038,12.466901,0.7,-101.786194,-1071.9081,0.0035557174,-13.596807,-11.493293,-10.290907,-11.545649,-8.328362,1.2795255e-05,0.3,0.52982706,56.311558,56.31598,56.123566,56.15514,0.71088433,0.43124998,7.219932317733765,28.01646917263667
28,280000,62.80086275756342,-57.68486,4.1340714e-36,-130.09851,-0.0038973272,7.579721,1.0,4.2160115,9.376115,2062.8845,77.57556,16.209831,106.17941,103.87064,105.308754,103.00965,9.091524,0.7,-105.56071,-973.1641,0.005420356,-13.878014,-8.522651,-9.710798,-9.85805,-9.427896,2.390414e-07,0.3,0.77733624,56.46238,56.451477,56.18328,56.23651,0.5637919,0.44375,5.700294017791748,29.014699069658914
29,290000,81.03125022823129,-57.691864,2.2832502e-37,-144.175,-0.00030315967,6.9520364,1.0,4.4727325,10.825695,2935.026,155.32123,15.922852,105.94467,104.830765,105.03103,104.07723,18.723251,0.7,-105.88526,-1071.6986,0.007236669,-15.606825,-11.223051,-10.791093,-10.984329,-10.571799,3.1541276e-08,0.3,0.6311925,56.421524,56.411545,56.429176,56.537315,0.85446197,0.45,7.159077405929565,30.04142722686132
30,300000,64.04700476449973,-57.919334,1.2495195e-38,-120.5854,-0.019909872,7.064342,1.0,4.4556885,-6.46338,4060.003,75.61547,28.959126,102.10181,102.34829,102.47649,102.72095,120.64448,0.7,-103.925285,-1300.3561,0.0053918413,-16.731808,0.70010215,0.64102197,0.09342612,2.6587496,0.00011445274,0.3,0.2733842,56.64422,56.645283,56.940487,57.320686,1.2794638,0.39218748,5.883380174636841,31.04412924448649
31,310000,83.32726535839406,-57.90471,6.85732e-40,-135.47632,-0.012506554,6.975498,1.0,3.6892388,4.505668,2258.729,44.614925,13.009434,100.59275,101.49319,100.53211,99.78761,5.2563944,0.7,-103.19079,-1092.9084,0.00010073045,-14.185461,-4.822829,-5.533614,-4.603134,-4.491013,2.4556357e-06,0.3,0.68111676,56.4731,56.39564,56.50246,56.436302,0.4439086,0.47968748,7.551212549209595,32.074326459566755
32,320000,65.36663289052595,-57.43866,3.7649e-41,-180.09729,-0.0036231936,6.7892795,1.0,5.348487,3.682233,2313.8328,284.766,20.39245,99.84923,101.26449,100.72631,101.00005,60.008907,0.7,-101.304306,-1206.3699,0.0019248438,-20.623665,-2.3103929,-0.85902137,-2.522717,-2.6694226,1.7968704e-08,0.3,0.6628306,56.16261,56.06839,56.310295,56.022858,1.0447913,0.47187498,6.613431215286255,33.087369883060454
33,330000,72.37198727325872,-57.6845,2.053e-42,-127.86572,0.0057122516,7.8750544,1.0,4.516083,0.46407747,3902.114,156.2414,18.055302,105.81505,104.82145,104.33105,105.69022,21.043262,0.7,-106.69003,-1328.5767,0.011079366,-12.5759735,-0.3748532,-2.5280306,-2.8321831,-2.766725,6.706605e-05,0.3,0.84047943,56.505722,56.51084,56.480217,56.634525,0.8221359,0.4609375,6.694952964782715,34.103400162855785
34,340000,82.34383761385054,-60.201283,1.14e-43,-223.07794,-0.0033763652,7.2757697,1.0,3.9454577,11.990559,1409.6847,49.43714,14.211715,103.73226,104.750694,105.80695,102.926994,14.072853,0.7,-105.000114,-1096.3453,7.141254e-05,-10.0093775,-8.5902815,-8.453142,-8.391892,-11.398441,1.53515e-06,0.3,1.0059707,59.185673,59.098377,58.59431,58.498055,0.598469,0.5078125,7.138269424438477,35.127939999103546
35,350000,65.28476552392118,-57.686707,6e-45,-94.60149,-0.0040634773,7.402855,1.0,5.009496,7.1173115,3422.7136,169.03409,23.577557,101.59036,101.632385,100.94333,100.595276,40.116608,0.7,-103.45534,-1305.4521,0.013386429,-20.90281,-9.644191,-10.589273,-9.299741,-9.520359,3.450358e-06,0.3,0.9124752,56.06845,56.056458,55.815937,55.697777,0.8735834,0.465625,5.839470863342285,36.12759755452474
36,360000,59.32925695991864,-55.782265,0.0,-104.61638,-0.014101281,7.3922095,1.0,4.8880973,15.958948,2608.651,172.6512,17.798935,100.35339,99.643585,100.21712,98.965324,25.590456,0.7,-102.134155,-1354.9745,0.0002856911,-28.322765,-20.403036,-16.438684,-16.803425,-16.618864,1.1655892e-05,0.3,0.52664447,54.596542,54.53142,54.357327,54.364235,0.77886724,0.4546875,5.510516166687012,37.1205760439237
37,370000,67.24609124099808,-59.946983,0.0,-113.93544,-0.0060997237,7.5968614,1.0,5.7490225,11.396919,3730.2993,229.48083,25.521818,99.076675,98.79122,99.35365,98.50098,24.532986,0.7,-102.88834,-1327.1152,0.007307248,-17.82228,-10.188473,-7.8855863,-9.1719885,-9.652781,2.2380382e-06,0.3,1.2023033,58.598373,58.5847,58.850746,58.48893,0.5645751,0.465625,6.267061710357666,38.12439013719559
38,380000,71.31906803910965,-58.333076,0.0,-211.73772,-0.0030311686,8.329047,1.0,4.617255,13.4051075,3559.611,53.481842,13.557848,99.93103,101.13666,101.11775,99.64148,24.737623,0.7,-101.49044,-1233.246,0.00030005025,-19.335686,-6.225325,-8.774525,-8.697281,-11.826426,1.0058284e-06,0.3,0.36265504,56.94864,56.736603,56.853203,56.544567,1.0178752,0.509375,7.075675010681152,39.14634584585826
39,390000,60.13359384620149,-57.33354,0.0,-209.74498,-0.0015397453,7.427912,1.0,3.807417,8.973666,2944.5085,81.13533,15.091951,106.29806,105.61956,107.672134,107.20651,12.18153,0.7,-107.89058,-1374.3594,0.0035365154,-17.512575,-8.678693,-9.751572,-11.327886,-9.942496,3.286358e-06,0.3,0.5072841,56.34607,56.297188,56.614197,56.21515,0.6067223,0.5109375,5.611050844192505,40.141106454531354
40,400000,62.03272241374713,-56.51123,0.0,-221.22113,-0.00028694348,7.312403,1.0,4.151371,2.291217,2029.3124,119.18151,16.085413,98.2049,97.74237,97.8648,97.72324,13.225237,0.7,-99.011505,-1487.5724,0.00015108811,-16.450607,-3.6605117,-1.9068521,0.68704367,0.24594295,4.752539e-07,0.3,0.40527713,55.629784,55.51747,55.63796,55.58882,0.67713964,0.43593746,5.501459121704102,41.13616058429082
41,410000,67.95066224275165,-58.357445,0.0,-106.91475,-0.01885467,7.139474,1.0,3.3162332,9.9777565,4995.222,67.31508,19.691368,99.36746,98.66746,98.57795,98.258835,11.694825,0.7,-101.14023,-1593.0685,0.00059244304,-14.546189,-16.26476,-14.959375,-17.196234,-12.937132,9.782961e-08,0.3,0.67607236,57.05719,56.95021,56.813034,56.836586,0.66522634,0.48281252,6.1104207038879395,42.14795204003652
42,420000,61.3284765054815,-54.208176,0.0,-274.9095,0.00441295,7.967406,1.0,4.454198,6.0448065,1991.8522,109.124306,19.742764,100.94774,100.34436,102.10894,102.234474,15.409389,0.7,-101.65758,-1555.8868,0.005172474,-18.728447,-6.761696,-8.559521,-6.7450094,-7.395769,2.6418712e-07,0.3,-0.08022457,53.03813,53.00554,53.18982,53.38495,0.72005796,0.4125,5.579864263534546,43.148241980870566
43,430000,51.876800990599584,-56.94223,0.0,-74.361336,-0.0032979057,7.083294,1.0,4.185149,12.528708,5018.6934,72.10437,18.01046,103.569115,103.66876,102.84761,103.4308,22.736246,0.7,-104.61144,-1785.7775,0.007221622,-24.253006,-9.441278,-10.485044,-12.350615,-12.742657,7.518611e-05,0.3,0.5460993,55.44094,55.560368,55.484856,55.65752,0.7814847,0.43124998,4.899846792221069,44.134347863992055
44,440000,68.60235286740601,-54.60824,0.0,-224.13371,-0.009488488,6.980057,1.0,5.3629327,12.09901,4634.867,474.83313,20.005936,101.47084,100.88333,100.1468,100.625534,21.282684,0.7,-104.01209,-1537.5967,0.006728601,-13.691317,-15.855556,-13.204229,-9.59875,-13.444535,2.4858339e-06,0.3,0.59017396,53.43989,53.44461,53.198578,53.33436,0.5910531,0.4578125,6.219125032424927,45.142909928162894
45,450000,91.36681349580249,-56.237007,0.0,-251.46957,-0.0032124363,8.163612,1.0,5.638941,7.7789707,2706.6384,238.65717,22.06712,101.1073,101.08128,101.41417,99.607796,34.55198,0.7,-102.00147,-1862.8854,0.0038275656,-19.829123,-8.839863,-9.234833,-8.342166,-8.289742,3.8508298e-07,0.3,0.48412964,54.67056,54.83978,54.468525,54.61091,0.87071776,0.5109375,7.998423337936401,46.184918681780495
46,460000,75.36152843100447,-58.226807,0.0,-185.27261,0.0056521753,7.1586223,1.0,5.6161613,10.322123,2355.1355,432.94055,17.964918,101.854065,101.181595,101.382935,101.601265,14.740499,0.7,-103.702675,-1761.2275,0.00045914622,-15.754784,-12.381765,-10.185655,-11.094972,-9.330641,6.67572e-07,0.3,1.2567936,56.84623,56.857033,56.852554,56.607937,0.6279768,0.43906248,6.720280885696411,47.20264716545741
47,470000,52.55377201282753,-60.099052,0.0,-228.79494,-0.0054043136,7.796384,1.0,3.3405612,6.814804,4476.1357,43.351685,22.146603,99.76385,99.16957,99.07162,99.38024,6.9608526,0.7,-101.74697,-1615.2147,0.007143862,-13.614017,-14.046952,-11.993949,-12.161359,-13.827007,0.00013553881,0.3,0.8921579,58.94342,58.921883,59.127796,59.01243,0.5948616,0.4296875,4.842194557189941,48.18336368401845
48,480000,56.07513499434533,-58.31392,0.0,-269.23566,-0.018356359,7.6947136,1.0,3.9291892,-3.2245157,3129.9536,191.97162,22.091492,97.457016,97.353714,97.483635,96.66095,25.36828,0.7,-99.43236,-2055.444,0.010308847,-18.788858,-0.17027688,0.33443022,-0.7877187,-1.2888167,2.5448344e-06,0.3,0.40942168,56.96895,56.996613,56.898308,57.21043,0.64547193,0.421875,5.126928329467773,49.174635434150694
49,490000,64.06685280802378,-54.91955,0.0,-111.81403,-0.014113671,7.1233835,1.0,3.9275246,9.052414,5699.764,62.07668,14.375687,103.0522,103.5606,102.724625,103.48134,9.125702,0.7,-104.805725,-1767.5854,0.0018987665,-19.329273,-9.76589,-12.209896,-11.824125,-12.151187,2.7730523e-06,0.3,0.14172724,53.510815,53.56754,53.528973,53.771603,0.6572206,0.4171875,5.778710603713989,50.17256565888723
50,500000,74.41577879820683,-54.319946,0.0,-199.11273,-0.014051899,7.8812685,1.0,4.8653526,9.246893,5106.341,143.88376,16.696444,101.84514,101.017296,101.17481,101.54552,17.917927,0.7,-102.98506,-1690.7357,0.011906667,-17.114998,-9.759597,-11.279147,-11.541294,-10.60224,6.1406e-06,0.3,0.2352321,53.02186,53.058956,53.0821,53.45613,0.89690304,0.390625,6.648692846298218,51.18676156600316
51,510000,63.28316798926714,-56.44262,0.0,-275.88864,-0.008301765,7.5975685,1.0,4.3314486,9.009601,4839.9927,88.85118,12.902017,98.67221,99.386116,100.367584,100.93772,41.433376,0.7,-101.134384,-1660.5613,0.0076587596,-21.213867,-12.9430065,-10.624428,-13.163831,-11.762833,1.6461534e-06,0.3,-0.30580342,55.19921,55.335228,55.33355,55.083984,1.1605136,0.49531248,5.831993341445923,52.18260292609533
52,520000,64.28561054517833,-57.447342,0.0,-200.21616,-0.0036614225,7.7512536,1.0,4.3388968,0.23132646,3175.908,96.54529,24.465519,100.33352,99.14625,99.9463,99.90802,7.2225327,0.7,-100.83672,-1728.3666,0.0188712,-11.685667,0.9288792,-0.002354145,1.4394403,0.70371395,5.5919434e-05,0.3,1.158922,56.138992,56.051857,56.653862,56.72866,0.57549095,0.39062497,5.681497573852539,53.18379739522934
53,530000,67.92119540169271,-55.704777,0.0,-272.19543,-0.008251103,7.394465,1.0,4.9047284,9.382281,2476.4097,183.82901,19.62589,96.33757,97.28447,97.57301,97.836975,24.790178,0.7,-99.65298,-1901.3851,0.00510627,-19.293976,-6.539918,-4.9359055,-5.3956623,-4.3347697,2.3379944e-05,0.3,0.50754327,54.69838,54.730957,55.24721,54.952812,0.7998005,0.46875,6.041613817214966,54.19109653631846
54,540000,83.6460569307597,-58.26446,0.0,-197.35844,-0.0028985243,7.311645,1.0,2.911113,6.377475,3864.7004,33.026672,20.583519,102.467354,103.43084,102.994354,102.66824,47.28907,0.7,-104.54632,-1873.4379,0.001216446,-15.714174,-7.934309,-5.497698,-5.317414,-5.862314,2.1612323e-05,0.3,0.9955709,56.784966,56.83364,56.870483,56.95385,1.0447662,0.40468752,7.331188201904297,55.2194938937823
55,550000,75.00771898800771,-54.663006,0.0,-220.98817,-0.0094878925,7.929471,1.0,5.095023,19.870758,3922.4248,96.56962,18.233757,99.7142,99.23694,100.320564,99.25064,29.789467,0.7,-102.06674,-2395.5132,0.00015613706,-17.476479,-14.104238,-12.828822,-13.308475,-16.015142,1.3377884e-05,0.3,0.8636894,53.429188,53.408466,53.205975,53.166306,1.0374689,0.48593748,6.506451368331909,56.231931014855704
56,560000,47.70541696419117,-53.57543,0.0,-183.0524,0.00090260024,7.5054765,1.0,4.2529306,8.526754,3217.0044,114.36279,23.000324,99.71296,99.96097,99.757675,99.70261,48.445217,0.7,-101.90198,-1990.5183,0.00085122255,-19.505568,-7.55694,-7.7146826,-8.233481,-8.168691,1.2409565e-05,0.3,0.6556771,52.419888,52.45065,52.18377,52.450527,0.9517875,0.43125,4.457040071487427,57.213507990042366
57,570000,77.42409294962931,-55.299126,0.0,-236.79227,-0.013044006,7.41887,1.0,4.609213,8.244687,2932.134,48.010582,16.929573,102.49506,101.60529,101.46465,101.37566,14.733956,0.7,-102.86125,-2110.4343,0.009099358,-17.88637,-11.272803,-9.988838,-11.826918,-9.952431,3.1302716e-05,0.3,0.08859371,53.795853,53.65739,53.082954,53.360607,0.5603112,0.4765625,6.732705593109131,58.23008269071579
58,580000,71.93967803252742,-54.67958,0.0,-238.55801,-0.012711457,7.3495264,1.0,4.6788626,9.034545,4942.547,177.37595,19.508831,97.49256,98.60392,99.63683,99.24884,13.23482,0.7,-100.49171,-2185.2615,0.0003198607,-12.077625,-12.722025,-8.9858885,-11.571738,-10.076593,3.64491e-05,0.3,0.5013937,53.58732,53.247074,53.13691,53.084816,0.70305234,0.4609375,6.25310754776001,59.23525811036428
59,590000,77.5290217235037,-55.742847,0.0,-221.77264,-0.017955674,8.292697,1.0,4.6651163,7.9598856,8630.015,116.43501,20.660595,99.134186,98.711235,99.93627,97.565414,80.518364,0.7,-99.49687,-1809.7676,0.00083533884,-16.156593,-7.248782,-7.426489,-8.786353,-9.610941,1.478009e-07,0.3,0.7392641,54.48723,54.56329,54.589676,54.283573,1.2170658,0.4640625,6.910336971282959,60.254108893871305
60,600000,57.08492421703693,-52.69228,0.0,-239.29301,-0.003723637,8.953208,1.0,4.92037,12.715586,5927.511,135.47995,17.751707,97.98052,98.42538,98.594635,99.03545,15.227551,0.7,-100.088936,-1775.5585,0.0046907873,-12.429265,-13.820645,-15.193312,-13.537348,-12.613265,1.9655608e-06,0.3,0.45157337,51.323624,51.317326,51.741608,51.417103,0.8212614,0.4359375,5.415435552597046,61.249403190612796
61,610000,59.45559244733295,-57.81722,0.0,-330.56564,-0.015193782,8.107574,1.0,3.3797512,11.792637,3192.3118,36.197155,24.442493,97.46554,98.158516,97.916046,97.99707,35.889225,0.7,-99.41959,-2252.4773,0.0067858994,-30.058323,-10.711218,-13.903649,-11.257362,-10.648744,2.0126197e-06,0.3,0.6801126,56.405075,56.498657,56.243656,56.385963,0.8191681,0.45624998,5.412479877471924,62.245791375637054
62,620000,77.35131527438517,-58.24678,0.0,-211.94849,-0.008434634,8.229068,1.0,5.2057695,8.353607,5223.105,143.89914,19.816414,100.37534,99.95733,99.66888,99.61983,28.994463,0.7,-100.999084,-2349.2627,0.009541615,-15.018762,-5.2450657,-4.778405,-4.8938136,-6.319664,4.790154e-06,0.3,0.9865261,56.937923,56.983364,56.549095,56.681347,0.80354404,0.47812498,6.853956937789917,63.26034919420878
63,630000,65.60302213544996,-57.94049,0.0,-126.421234,0.0059072445,7.4082665,1.0,4.25188,12.087233,6075.4834,87.25093,16.868435,100.95241,101.35408,101.0112,99.96022,62.58215,0.7,-103.51784,-1950.2343,0.00020341773,-19.426508,-10.499999,-11.534367,-9.482859,-10.728495,3.2502958e-06,0.3,1.4022348,56.449547,56.345177,56.0983,55.976406,1.0940847,0.47812498,5.864413022994995,64.26786324977874
64,640000,77.48805778458359,-59.338898,0.0,-216.41626,-0.00472626,7.6383715,1.0,4.18469,7.763893,5821.7964,68.13208,24.432877,101.60683,100.44473,102.327995,100.96811,19.47674,0.7,-101.43087,-2504.0442,0.002379709,-14.664652,-9.044073,-10.131263,-9.230388,-8.99223,3.091229e-05,0.3,1.2091603,57.98809,57.956387,58.58372,58.407913,0.7175445,0.42499998,6.878287076950073,65.29079862038294
65,650000,42.81991031456739,-55.389423,0.0,-385.6402,0.0010305023,8.070577,1.0,4.3529706,4.1425095,4585.0938,56.360332,21.068035,97.61101,99.055626,98.92587,98.84407,33.239384,0.7,-100.15757,-2544.3894,0.0010280433,-18.286783,-0.487808,-2.430624,-3.6790998,-1.8650494,6.070896e-06,0.3,0.57072175,54.354904,54.203796,54.391216,54.223038,0.8216555,0.484375,4.152062654495239,66.26593661308289
66,660000,78.40431363727146,-57.04073,0.0,-225.75394,-0.004155554,7.495923,1.0,4.3526053,13.448663,5806.7104,100.8013,26.934616,102.186676,101.647095,102.98343,100.636375,15.935071,0.7,-102.870926,-2968.502,0.012182595,-15.599727,-10.14171,-12.255312,-12.136999,-11.451801,1.969475e-05,0.3,0.84783137,55.52593,55.42637,55.435707,55.522194,0.77417713,0.41875,6.96890115737915,67.28576387961705
67,670000,79.35396902368124,-56.57282,0.0,-310.18774,-0.008605393,6.795073,1.0,3.9805398,8.411706,5231.005,65.06764,21.219767,97.62177,95.558914,98.184715,96.81218,6.4920845,0.7,-99.68117,-3275.1064,0.00565508,-18.098011,-7.545289,-8.159018,-8.466739,-8.471644,4.4146438e-07,0.3,0.5121417,55.370476,55.248734,55.800285,55.577797,0.515394,0.45,7.761186122894287,68.32219845851263
68,680000,70.49592242921152,-57.002872,0.0,-314.28357,-0.0058506685,7.7845354,1.0,4.5670967,8.92271,9082.803,324.5426,35.999023,97.79261,98.45262,99.28225,99.05141,72.75901,0.7,-99.290375,-2760.8567,0.0002788735,-12.383728,-4.2035494,-3.807726,-4.901145,-2.486289,5.673384e-07,0.3,0.623775,55.761215,55.772633,56.19938,56.07622,0.8771261,0.42343748,6.3160364627838135,69.33450809319814
69,690000,73.5142870981784,-56.02228,0.0,-220.7027,-0.015179194,7.9828563,1.0,5.894638,5.2725387,7306.747,191.16391,30.758703,101.15343,100.91223,100.4691,99.86858,20.197464,0.7,-103.689896,-2490.5745,0.032321468,-19.064589,-3.639376,-5.9001074,-5.1777534,-5.1210103,7.207447e-07,0.3,0.20469517,54.504295,54.45751,53.850662,54.136173,0.82056355,0.484375,6.514199495315552,70.34525237083434
70,700000,82.68269163632034,-59.090042,0.0,-286.825,-0.010368419,7.901075,1.0,4.8190346,6.8539104,13811.963,88.93004,16.56522,100.654274,100.84025,99.96579,100.17325,15.384301,0.7,-102.54186,-2599.6267,0.04110761,-20.014637,-7.838271,-7.960633,-9.883135,-10.598321,1.6770792e-07,0.3,0.2802053,57.773945,57.841286,57.07511,57.05867,0.6167691,0.515625,7.822538614273071,71.37869251569113
71,710000,82.2337819185344,-55.43795,0.0,-350.64227,0.0135498615,7.3432918,1.0,4.50687,12.217789,8344.255,65.95599,23.64368,98.82026,99.16382,100.56264,100.092606,10.4151125,0.7,-101.62958,-3040.3801,0.028975975,-17.716677,-12.163534,-11.800576,-11.863733,-11.9706545,3.6670826e-06,0.3,0.9442272,54.391655,54.54771,54.988,54.762547,0.57083434,0.42343748,7.392754793167114,72.41040574709574
72,720000,74.87524424034171,-55.570854,0.0,-281.47873,0.008755296,8.020561,1.0,3.8222437,13.242746,4570.202,56.360916,30.467741,98.875015,98.02805,97.20222,97.69988,20.698792,0.7,-98.88322,-2753.778,0.0028139064,-14.621474,-14.102129,-14.160084,-12.309711,-13.99929,8.003478e-06,0.3,1.0591719,54.55726,54.405846,54.677208,54.34684,0.7300812,0.4796875,6.766607284545898,73.42957117160161
73,730000,65.75117676837245,-58.255997,0.0,-203.09647,-0.016192554,8.106412,1.0,4.655197,12.069019,9551.616,284.72568,16.299162,100.8835,100.86755,100.16448,99.047966,21.55693,0.7,-104.40393,-2471.5244,0.0023375775,-19.657463,-5.8611584,-10.87158,-10.155819,-6.3051796,2.9511284e-07,0.3,0.7424697,56.979443,56.979797,56.811333,56.83589,0.6970688,0.490625,6.2153801918029785,74.43634742101034
74,740000,66.32431282177645,-55.073967,0.0,-212.18875,-0.02157272,7.5387073,1.0,3.7881203,10.524866,7798.982,136.21887,31.670969,101.53493,102.185616,101.666245,100.85786,5.244737,0.7,-104.887276,-2637.0269,0.0015584589,-15.357576,-10.252861,-7.793193,-9.4521265,-8.908068,7.197331e-06,0.3,1.1628373,53.73475,53.747345,53.757603,53.598953,0.51634926,0.4734375,6.193340301513672,75.44571053981781
75,750000,73.22603997575905,-56.573067,0.0,-81.64307,-0.014855349,7.373099,1.0,4.4062834,12.002615,10135.932,68.14694,24.785662,102.74612,103.37675,104.01169,101.485344,86.19619,0.7,-106.05725,-2876.551,0.012548667,-23.8647,-13.182424,-11.819928,-9.322984,-10.312649,2.0539737e-07,0.3,0.6035781,55.00345,55.029686,55.168884,55.095478,1.011579,0.45468748,6.896080017089844,76.46330169041951
76,760000,83.80964048238111,-55.98575,0.0,-334.29904,0.0029509643,8.083989,1.0,3.61822,14.320847,5797.285,47.196045,16.329933,101.0011,100.9042,101.22117,101.57479,13.938628,0.7,-103.38231,-2680.5327,0.010201526,-17.921618,-15.841861,-14.40296,-14.633802,-15.603674,3.243814e-06,0.3,0.4045291,54.564987,54.494884,54.79222,54.949764,0.78138727,0.41875,7.989044427871704,77.49993725617726
77,770000,53.844311720748514,-55.263084,0.0,-354.0481,0.0001080079,7.6824455,1.0,3.58802,6.6546993,10999.763,103.725006,23.770813,100.33338,99.190414,99.47761,99.27039,17.084162,0.7,-100.48569,-2705.9517,0.0006420512,-14.315754,-6.252779,-7.859518,-7.023718,-7.8811255,5.645219e-05,0.3,0.7481917,54.176964,53.95411,53.74614,53.74554,0.744364,0.475,5.016172170639038,78.48666449387868
78,780000,71.22588448065449,-56.981133,0.0,-349.61325,-0.0037362434,7.2415633,1.0,4.3690257,5.6884556,7323.038,148.80588,30.36399,97.27261,97.97811,96.49089,95.54264,30.170761,0.7,-98.944496,-2680.7947,0.005950509,-18.663519,-9.126354,-9.793926,-9.667827,-10.781085,3.2172945e-06,0.3,0.60429764,55.498833,55.61728,55.84987,55.622234,0.8523503,0.509375,6.477621555328369,79.50273466507593
79,790000,83.23283983768594,-56.704445,0.0,-194.91304,-0.01521388,8.206456,1.0,4.4107585,7.871518,9826.713,139.9636,20.448257,99.013,98.57966,98.32503,98.66926,18.233114,0.7,-99.994545,-2864.9866,0.0017491749,-15.9818535,-8.775959,-9.194569,-9.503262,-9.1244955,2.903649e-05,0.3,0.20678152,55.22401,55.402824,55.551765,55.518795,0.6342907,0.4421875,7.34590220451355,80.53329054117202
80,800000,47.862625506128275,-57.303696,0.0,-307.10025,-0.0025271426,7.965057,1.0,5.300055,16.98927,12855.05,122.9088,20.34307,98.429855,98.35954,99.51042,99.24879,102.718475,0.7,-99.37555,-2835.8037,0.0005226801,-17.80887,-0.54090023,0.39536035,-2.4649644,-1.0192511,1.8843959e-06,0.3,0.44446674,56.05641,55.922806,56.49091,56.560997,1.1925583,0.390625,4.46529483795166,81.51510100762049
81,810000,86.36160005816569,-59.37285,0.0,-502.6051,-0.005019864,7.894382,1.0,4.0884743,13.121607,3890.4714,99.468285,17.414108,97.809975,98.84865,98.73911,97.83191,11.563301,0.7,-99.29844,-3597.5798,0.0024384414,-24.010075,-9.7322,-8.354465,-6.073108,-9.111709,1.5826152e-05,0.3,0.8217817,58.307102,58.34198,58.568813,58.36258,0.56636584,0.4765625,7.589698791503906,82.54522433280945
82,820000,56.49066732310596,-57.56676,0.0,-385.1,0.009768764,8.005076,1.0,3.9508662,7.8111057,7131.058,108.42677,16.58722,97.10225,96.354836,97.167915,97.42396,28.442636,0.7,-98.951195,-3021.9338,0.006569742,-15.697365,-6.6651087,-8.099975,-6.5413823,-7.9427733,4.906108e-06,0.3,0.7075558,56.29474,56.033318,55.938435,55.901558,0.7736796,0.4859375,5.164183855056763,83.53494379917781
83,830000,69.62224165178728,-57.834217,0.0,-431.49396,-0.005290147,7.6114883,1.0,4.864852,9.749926,7343.4897,229.50496,17.6526,98.03664,98.17761,97.24095,98.04557,57.39145,0.7,-100.42599,-3160.6306,0.0013068351,-15.755582,-9.589259,-9.479736,-10.792463,-12.009218,7.5375838e-06,0.3,0.66683877,56.334282,56.410103,56.085518,56.282993,0.7920035,0.43124998,6.33250880241394,84.547221215566
84,840000,79.74418651626443,-55.678604,0.0,-333.47113,-0.0062276134,8.112449,1.0,3.20078,16.612076,13033.711,52.84601,19.477013,100.80812,99.86635,99.827484,101.71673,19.471823,0.7,-102.30826,-2955.224,0.005073218,-13.851105,-16.960585,-19.23287,-17.40903,-16.447813,1.0515378e-05,0.3,0.8646538,54.46695,54.293667,54.453217,54.279762,0.6394358,0.47500002,7.127923965454102,85.56805919011434
85,850000,70.27628078087189,-54.57003,0.0,-259.39386,0.0037009807,7.53893,1.0,3.772371,13.729861,8787.582,54.86409,21.48732,98.494385,99.16487,96.43126,97.10435,21.998533,0.7,-101.092,-3310.2566,7.996941e-05,-23.74992,-9.874107,-10.602022,-9.865706,-13.290803,4.8567476e-06,0.3,1.1343212,53.26808,53.09617,53.14667,53.41364,0.9286209,0.45,6.328715085983276,86.57699399789175
86,860000,65.54090799137914,-52.92025,0.0,-457.92264,-0.0031576715,6.796879,1.0,3.8884532,9.557076,8850.781,42.00094,14.957491,96.92809,98.459595,95.28389,97.50153,12.193296,0.7,-99.32715,-2539.4836,0.0063024303,-14.367172,-8.535664,-11.255753,-9.665436,-7.994156,1.3495563e-06,0.3,0.4937181,51.970177,52.003033,52.254814,52.153385,0.6343554,0.4484375,5.948021650314331,87.5801238656044
87,870000,70.62514699341868,-56.21203,0.0,-345.91266,-0.017482525,7.638125,1.0,4.253802,7.375831,6550.3696,210.46115,16.575508,99.263336,99.72859,99.42134,99.536896,23.505817,0.7,-102.115486,-2772.973,0.0017106978,-16.523132,-11.223775,-9.120659,-10.719823,-8.038618,2.913973e-06,0.3,0.63200355,54.94093,54.82084,54.66664,54.824364,0.73604023,0.4265625,6.320585250854492,88.59201991558075
88,880000,81.34655219448094,-54.661034,0.0,-184.54248,-0.0148106385,8.574079,1.0,4.386131,10.606531,16124.1875,107.86442,17.316105,99.32777,99.220474,98.89304,98.79274,19.41857,0.7,-100.49864,-3217.3535,0.0044537457,-28.893396,-9.14514,-8.063167,-7.0412135,-9.865665,5.2952773e-06,0.3,0.090257615,53.339115,53.54255,53.25898,53.255337,0.9294814,0.490625,7.2934889793396,89.60788321097692
89,890000,69.99057141703614,-55.257545,0.0,-398.55487,-0.006691396,7.467476,1.0,3.2643366,8.67852,8538.226,106.16895,17.971027,102.60359,101.788536,103.18205,103.61499,11.547835,0.7,-104.26602,-3762.176,0.01579155,-16.356613,-8.383605,-9.866737,-9.5708475,-10.24714,1.170598e-05,0.3,0.70488846,53.98592,54.131428,54.337315,54.41218,0.66064656,0.37656248,6.2792067527771,90.61744265158971
90,900000,81.85149089651912,-54.26364,0.0,-455.45847,-0.005267026,7.0430055,1.0,3.447699,14.161421,10091.282,66.7047,38.65869,102.1151,102.3611,102.32964,102.438705,11.247245,0.7,-103.40392,-2966.0552,4.3092878e-05,-16.657978,-13.966803,-10.307196,-9.660053,-9.335302,0.00010627307,0.3,0.595495,52.891716,52.98577,52.91617,53.068836,0.5922407,0.4578125,7.317852973937988,91.64285140037536
91,910000,65.56249024979074,-58.320282,0.0,-332.79483,-0.01817574,8.428687,1.0,3.4247894,5.6011744,8859.929,56.93065,26.947308,98.38978,98.11903,98.7624,98.87352,8.879047,0.7,-100.48833,-4025.762,0.00084702304,-14.676067,-2.3578925,-2.6032882,-3.6877458,-1.4128675,3.439745e-05,0.3,1.0778872,56.952934,56.948044,57.24563,57.173775,0.6282443,0.4484375,5.97564959526062,92.65091058413188
92,920000,61.50136239330293,-57.604305,0.0,-229.1452,-0.016753053,8.526985,1.0,4.0642195,6.278713,12181.177,94.198586,18.241884,102.01829,100.90962,102.44049,103.35359,19.760672,0.7,-105.4564,-3654.805,0.0003866016,-18.782793,-2.5423326,-4.7025385,-1.8339772,-2.8361516,1.370674e-07,0.3,0.6849389,56.007896,56.037033,56.53223,56.572456,0.96741486,0.40625,5.647397994995117,93.64679281314214
93,930000,76.33424887551861,-56.87115,0.0,-522.20844,-0.018052857,7.231561,1.0,3.2169766,6.8158684,8089.771,36.23183,16.426468,98.36597,98.454124,98.386314,99.39526,25.212692,0.7,-101.40578,-3074.158,0.010692211,-15.290867,-10.329321,-6.870369,-7.7060347,-10.720507,4.249625e-07,0.3,0.21503256,55.438805,55.48943,55.256874,55.308945,0.7342643,0.4609375,6.82215142250061,94.66364021698634
94,940000,73.26475073971534,-55.89332,0.0,-225.9305,0.00095416716,7.2306046,1.0,3.3606362,10.522883,9773.972,72.59718,15.570323,99.17587,98.58752,98.926575,99.22465,22.889725,0.7,-101.043846,-4098.021,0.007053244,-13.074041,-7.858533,-6.517808,-7.0038915,-8.024412,3.4296397e-06,0.3,1.7556511,54.568134,54.539745,54.382607,54.307915,0.8972279,0.5124999,6.714897155761719,95.68457628091177
95,950000,72.77975080480564,-56.911285,0.0,-262.49173,-0.01726469,7.955465,1.0,3.5151591,8.398059,6605.048,125.201065,19.969582,100.338554,100.7811,100.226456,99.35906,8.11312,0.7,-101.72004,-3386.755,0.0032839724,-16.453426,-7.1672525,-8.957258,-9.451814,-9.460344,8.507702e-06,0.3,0.73777914,55.485245,55.41131,55.488068,55.33426,0.65715444,0.4453125,7.316878318786621,96.71221658786138
96,955000,74.37266172176533,-52.39481,0.0,-298.8794,-0.013956472,7.9239693,1.0,3.498868,8.032086,10335.9795,57.577873,17.340343,97.20941,96.61436,96.83224,96.7001,33.46213,0.7,-100.48695,-3223.0366,0.002978739,-15.147611,-8.753306,-8.138052,-9.490648,-9.443565,3.2891287e-06,0.3,0.1028976,50.722614,50.82191,50.584816,50.60294,1.0485277,0.4828125,7.403758525848389,97.28677252133687
97,960000,78.44894122541058,-55.834187,0.0,-368.23633,-0.017619476,9.031531,1.0,4.1037555,12.437279,5395.909,43.17411,17.513456,97.79391,97.255,97.179955,97.248116,8.304044,0.7,-99.21522,-4026.8376,0.0038489313,-14.511384,-12.278831,-10.331505,-10.286897,-9.455329,3.228779e-08,0.3,1.0339687,54.696785,54.69078,54.199425,54.47196,0.5885844,0.4421875,7.7962000370025635,97.88516951402029
98,965000,76.68057995200489,-56.636658,0.0,-441.4618,-0.024110036,8.453986,1.0,5.852039,13.867708,8208.56,236.83464,28.79325,99.81408,100.45781,99.46681,99.204025,57.948635,0.7,-102.015785,-2981.3228,0.0014566556,-14.613313,-8.74895,-7.800164,-9.385216,-6.5202417,1.466833e-09,0.3,0.93230015,55.284973,55.36598,54.87895,54.87762,0.9558931,0.50312495,7.727689504623413,98.48296720186869
99,970000,80.20429591593297,-54.51517,0.0,-265.35876,-0.0022472718,7.85989,1.0,4.5226173,7.76457,12677.987,131.62735,16.958683,97.49496,98.19405,98.35208,98.55591,11.723194,0.7,-99.04255,-3172.0051,0.0050139544,-13.228009,-7.861021,-6.901641,-6.2645307,-6.516468,5.7176636e-05,0.3,0.1335771,52.699158,52.94189,53.195564,53.07762,0.748989,0.42812496,7.9283154010772705,99.07858612537385
100,975000,79.10887553479972,-55.227055,0.0,-403.48453,0.00652164,8.260334,1.0,4.990077,5.7997465,8067.8535,108.41079,16.142649,101.07456,100.83998,101.95001,100.74952,14.798628,0.7,-102.13213,-3657.7986,0.0006049181,-17.621296,-7.4721737,-5.6666503,-6.977607,-3.9798012,1.7462299e-09,0.3,0.5873796,53.658478,53.611763,54.047703,53.91227,0.91417503,0.5046875,7.790650844573975,99.67231900294622
101,980000,75.43389848799919,-54.267696,0.0,-314.65842,-0.0053959857,7.7205667,1.0,5.0684586,10.37842,9913.267,67.79708,18.223797,104.62367,105.27994,105.229935,105.92405,9.784759,0.7,-106.82593,-3494.6697,0.011152022,-15.57501,-6.2609444,-9.457347,-10.600696,-9.901756,2.054422e-06,0.3,0.5614888,53.104614,53.15429,53.753754,53.445442,0.58418804,0.43281248,7.4356865882873535,100.26179147958756
102,985000,64.25169391960762,-52.494934,0.0,-356.60806,-0.0054357233,8.228124,1.0,4.900384,11.376198,13799.683,81.61606,20.936893,99.16341,99.36636,99.752594,99.079735,7.9239097,0.7,-99.54948,-3690.132,0.0038073873,-14.781479,-10.929634,-11.140078,-9.356939,-12.465787,2.3723162e-05,0.3,0.42893314,51.17237,51.216473,51.346214,51.061947,0.6236263,0.509375,6.329348087310791,100.83241872787475
103,990000,72.85844437859501,-54.137695,0.0,-479.94135,-0.010967565,8.079738,1.0,4.5414195,14.297023,9506.393,211.3704,24.908638,98.844536,99.6739,99.40101,98.55763,13.534932,0.7,-100.64265,-3754.5095,0.00362948,-13.7270565,-11.709958,-12.308917,-10.502048,-12.100593,4.0233136e-08,0.3,0.7820895,52.706673,52.823067,53.26659,53.253254,0.6803094,0.4296875,7.258974313735962,101.41953185399373
104,995000,67.61841195638057,-54.359894,0.0,-433.96704,-0.0147036705,7.4462676,1.0,3.6638649,2.3901243,5614.814,100.4442,15.110694,102.63313,101.999115,102.14683,101.25631,75.24526,0.7,-103.768974,-3448.799,0.0065451604,-21.791828,-1.630401,-1.8467166,-2.3013113,-3.325882,9.9012805e-06,0.3,0.13570829,52.910973,52.8369,52.744675,52.890076,1.1359673,0.4390625,6.8286192417144775,102.00189487934112
105,1000000,62.72517798872933,-54.67379,0.0,-278.17075,-0.009155161,8.828479,1.0,3.945198,17.104065,12488.822,107.95532,22.418877,98.901535,98.93998,99.078156,99.252716,36.010994,0.7,-99.613335,-4513.6167,0.00097124826,-20.347713,-17.134455,-17.60937,-15.759008,-16.32675,6.9849198e-09,0.3,0.6881164,53.085373,53.180122,53.067413,53.263866,0.9903569,0.4765625,6.299127101898193,102.57314825852713
