Xixo99/comfo/baselines/comfo6_perterbation_actor/20230225_noise0.01/walker2d-medium-v2/COMFO6_s1_20230224_195349_walker2d-medium-v2_79.65.csv
,step,reward,actor_loss,alpha,alpha_loss,critic_loss,max_actor_loss,max_alpha_loss,max_critic_loss,max_mle_prob,max_q1,max_q2,max_target_q,max_v,max_value_loss,max_weight,min_actor_loss,min_alpha_loss,min_critic_loss,min_mle_prob,min_q1,min_q2,min_target_q,min_v,min_value_loss,min_weight,mle_prob,q1,q2,target_q,v,value_loss,weight,eval_time,time
0,0,1.6646109397822417,,,,,,,,,,,,,,,,,,,,,,,,,,,,,,,,,
1,10000,32.574952204415666,-36.877995,0.08308126,-4.180312,0.48813802,-10.249699,36.59032,17.55498,13.583601,45.26813,45.307693,46.209084,45.007393,0.48088112,0.7,-55.38312,-31.109795,2.650429e-05,-6.1976385,6.8801436,6.8849626,6.9618716,6.968219,3.3043037e-08,0.3,4.68159,32.59455,32.611244,32.80626,32.279556,0.023683993,0.40781248,8.786701917648315,2.174168761571248
2,20000,56.59384426820746,-57.4466,0.005818311,-6.1237307,1.4662473,-8.719551,54.073524,168.74437,14.310962,72.26069,71.90639,71.695076,71.46412,2.7778244,0.7,-85.62734,-54.517952,0.00062713755,-21.559582,12.391964,12.10347,13.764065,11.596071,3.1578395e-06,0.3,4.6089406,52.927994,52.84684,52.734005,52.421806,0.06237954,0.4921875,5.4559242725372314,2.8634547273317974
3,30000,53.156660374420895,-72.50487,0.00038126225,-5.042178,1.0926622,-21.343626,81.97601,40.23256,16.432022,89.62429,89.48697,90.716194,90.84151,3.8516262,0.7,-105.87978,-84.33479,0.00010522957,-15.269693,19.812805,19.570404,19.690279,19.595594,2.4314505e-07,0.3,5.1662073,67.23141,67.24968,67.44599,67.13704,0.107587285,0.46406248,5.3175153732299805,3.5460694352785747
4,40000,67.98381898148423,-76.35504,2.6187057e-05,-5.995698,1.7667687,-12.298505,144.50456,49.127945,15.714979,96.58682,96.99912,96.98412,96.75927,5.5546675,0.7,-104.59902,-106.92195,0.00064650516,-8.661477,7.7688236,8.075931,6.261999,8.954752,7.92247e-07,0.3,5.077992,71.28931,71.28474,71.28344,71.326584,0.18000294,0.41875,6.5055859088897705,4.254245797793071
5,50000,71.75543266180048,-80.354126,1.8751697e-06,-9.062365,1.115986,-8.641181,192.8907,34.362206,18.968472,99.18765,98.98663,100.63804,99.09973,8.237519,0.7,-111.58539,-168.21613,0.0019129147,-6.615977,-1.6351392,-1.0226312,-2.7854695,-2.8869483,1.6770792e-07,0.3,5.3979783,74.896545,74.92913,74.86214,74.900185,0.15794505,0.39374998,7.013446807861328,4.9698767304420475
6,60000,65.91667459957506,-83.68202,1.3958746e-07,-8.393752,3.570185,9.214193,203.19144,286.0964,16.54626,103.14593,102.61007,103.58921,103.86184,6.942056,0.7,-117.400314,-149.4826,0.000191067,-2.2886086,-12.284586,-9.566357,-4.93496,-6.7761307,8.840289e-07,0.3,5.362034,78.30214,78.33438,78.59468,78.48558,0.14418507,0.4171875,6.308972358703613,5.673263104756673
7,70000,69.66550237626463,-85.96101,1.075878e-08,-2.414004,1.2922258,9.04357,303.8109,31.608454,17.922201,104.12295,103.92829,104.63061,104.11892,10.254217,0.7,-119.06406,-197.5555,0.003178461,-5.28376,-8.795585,-9.549966,-10.453096,-9.819994,3.5708655e-07,0.3,5.90052,80.113525,80.118195,79.986145,79.9803,0.2263009,0.4109375,6.700674057006836,6.380075216293335
8,80000,69.51199546958368,-83.74872,8.5197427e-10,-10.273975,2.4383998,-14.556435,253.0111,250.65692,15.781931,103.596405,103.446465,103.70907,103.23577,6.9343514,0.7,-115.96342,-208.84348,0.0024571898,-5.97123,11.862212,12.074127,10.64257,10.064698,1.5713082e-05,0.3,5.023592,78.6539,78.68359,78.45988,78.45993,0.19017316,0.49062502,6.721234560012817,7.093780966599782
9,90000,72.827199634279,-87.4697,6.872425e-11,-2.55158,1.4960107,6.0994606,320.2058,56.3452,23.433887,103.25881,102.85113,103.56565,103.12675,5.4784794,0.7,-122.85392,-235.31017,0.0012699887,-6.818902,-5.417853,-6.259407,-0.5475483,-3.0039225,2.9354124e-08,0.3,5.952714,81.61328,81.52095,81.89264,81.81955,0.14646266,0.46249998,7.062952041625977,7.807929484049479
10,100000,77.83244725040996,-86.73251,5.7249214e-12,0.75252676,3.280304,0.8391485,419.46332,324.3171,22.341162,105.76221,105.49338,103.77346,103.7833,4.2228107,0.7,-126.17219,-304.2519,0.008898157,-5.799803,0.46159935,-0.67267156,0.89462423,-1.2230768,1.2732152e-05,0.3,5.8290634,80.862755,80.90448,80.81958,81.140335,0.16406128,0.38906246,7.155850172042847,8.526521305243174
11,110000,71.91843573050444,-88.769684,4.947874e-13,-4.7335205,1.6451621,-15.973417,397.1342,54.57805,18.158197,103.904205,103.74585,104.4502,104.67537,6.332129,0.7,-118.388565,-272.7902,0.00033033808,-6.4686575,11.307701,11.384401,10.474835,11.107377,1.3205863e-06,0.3,5.6497383,83.244865,83.14664,83.243706,83.430984,0.1439467,0.43124998,6.901607275009155,9.242542290687561
12,120000,76.26820606057464,-88.541916,4.425771e-14,-9.463911,1.465117,-11.131563,341.72668,59.519753,15.381997,106.46793,106.81407,105.94852,106.50062,2.2836847,0.7,-116.87588,-321.89215,0.00080922956,-5.1890554,6.6755786,5.223704,7.5384493,6.9379835,4.884653e-07,0.3,5.5410037,83.16016,83.076355,83.209694,83.10127,0.12957546,0.52656245,7.289907455444336,9.962910028298696
13,130000,74.11385456068234,-89.10254,4.069665e-15,-3.1015167,1.8334739,-17.893066,368.1243,93.87134,18.741276,105.30222,104.83628,105.17775,105.13171,14.919886,0.7,-117.80536,-384.5327,0.00050664437,-6.2491665,14.534279,16.311573,16.630632,15.114456,1.5161349e-07,0.3,6.041386,83.09773,83.032486,82.6963,82.58316,0.26530653,0.5046875,7.212175607681274,10.676144591967265
14,140000,81.93333159670807,-86.11566,3.739579e-16,-0.7404442,1.3120921,-23.47678,437.8704,54.901066,16.972116,103.73289,104.55218,104.36527,104.40506,3.9470842,0.7,-117.18547,-301.8922,0.00060411415,-8.54587,12.682581,13.488208,11.501248,10.458508,1.7462299e-11,0.3,5.7393475,80.47083,80.52826,80.61357,80.49582,0.1502169,0.4953125,7.8978376388549805,11.393863654136657
15,150000,75.78567057726691,-84.74629,3.619935e-17,-16.044762,1.5586303,-3.7192276,382.0127,59.840347,22.608803,103.12012,102.56542,102.95551,102.83241,3.9216692,0.7,-124.16829,-309.22177,0.0006844707,-3.2738929,-1.2567717,-0.9812081,-0.31898463,-2.2466958,1.3801432e-05,0.3,5.4116583,79.42958,79.45387,79.516815,79.32804,0.17967732,0.4859375,7.245471000671387,12.100456047058106
16,160000,77.11979410156563,-88.0013,3.478362e-18,-14.548655,1.692642,-22.541397,508.94855,117.66426,17.015146,102.27142,102.5578,102.79155,102.87343,4.389899,0.7,-117.03519,-506.0471,0.0031215153,-3.340746,15.836458,12.834718,12.186809,13.648101,2.7016722e-06,0.3,5.682662,82.437096,82.41029,82.53717,82.64,0.15634602,0.4328125,7.433051824569702,12.816484121481578
17,170000,79.23108546127123,-86.83574,3.361813e-19,-24.93105,1.8169003,-21.671041,661.1887,86.0251,19.70572,103.41425,103.13388,102.341705,102.91786,13.16734,0.7,-114.86532,-421.13223,0.00013153983,-3.7026806,11.781607,13.153163,14.81888,14.168086,1.5093713e-06,0.3,5.4110413,81.505295,81.535355,81.44867,81.501465,0.28720516,0.403125,7.871717929840088,13.547741389274597
18,180000,75.08007292052051,-88.76343,3.32115e-20,-17.260563,1.693927,-9.329731,729.7595,100.42345,21.200329,102.565834,102.553856,102.51301,102.896965,6.2267127,0.7,-114.418175,-430.42093,0.0006337684,-3.1159132,6.1685753,4.8078356,2.8177333,2.5862815,1.6873628e-05,0.3,5.7445073,83.07644,83.19005,83.52439,83.45453,0.13338567,0.428125,7.356646299362183,14.27299298842748
19,190000,78.74265093360995,-87.225266,3.2538811e-21,-18.243793,2.1885529,-8.934872,512.4096,94.83421,14.877241,101.97974,102.01373,102.488495,102.33258,10.157031,0.7,-112.42272,-485.7474,0.002860678,-3.7258255,3.5544863,3.7096605,-0.20775878,5.076368,0.00028808115,0.3,5.505789,81.69774,81.65058,81.98891,82.15468,0.23179244,0.33124998,7.7273218631744385,14.998857669035594
20,200000,79.32622723937129,-86.4684,3.307025e-22,-24.158453,1.2684143,-5.3942657,774.62524,62.701324,19.92632,102.49345,102.2406,102.874146,102.83264,8.968013,0.7,-118.88742,-771.04266,0.00077677716,-3.845817,4.2112246,2.9734268,6.5491114,4.2682023,1.8887222e-07,0.3,5.7153034,80.74426,80.851776,80.962425,80.79019,0.17450042,0.49374998,7.972424030303955,15.73212271531423
21,210000,77.94300700081669,-89.25686,3.4368325e-23,-16.963236,1.1819618,-22.89556,725.15125,46.020004,19.345427,104.45765,104.75511,103.57448,103.27715,6.572971,0.7,-118.73752,-461.14233,0.00091375044,-3.7216463,13.809144,13.402956,14.382879,12.9754,1.5493424e-06,0.3,5.5421324,83.81048,83.71213,83.51864,83.49396,0.11993636,0.5140625,7.777254581451416,16.46547466913859
22,220000,77.55057379030187,-86.056015,3.7513795e-24,-31.29286,3.9888444,-24.866438,609.12146,732.8573,18.676287,102.35309,102.36315,102.22855,103.4203,6.888274,0.7,-117.373665,-689.3956,0.0014860458,-7.4475684,17.498457,16.595108,16.71095,17.478153,3.3255202e-07,0.3,5.64193,80.44852,80.52377,80.5934,80.48804,0.16222486,0.45937496,8.127083778381348,17.196940314769744
23,230000,81.64444646250404,-86.796646,4.0372498e-25,-16.454622,1.980834,-5.1421256,843.81714,154.71394,19.951685,102.482544,102.69415,102.55047,102.71678,6.0451474,0.7,-119.04583,-463.46954,0.0062951637,-2.7521455,0.88729817,0.026453435,1.2113827,3.0311992,3.2172945e-06,0.3,5.7683964,81.11043,81.114334,81.18211,81.36393,0.13163397,0.41249996,8.540076732635498,17.936483267943064
24,240000,68.28096498905205,-87.47783,4.5083792e-26,13.672176,1.0350201,3.5897675,657.5675,34.129177,16.291143,102.28975,102.04202,102.497055,102.09786,6.2375097,0.7,-115.76868,-704.24146,0.0011156836,-2.9680686,-0.77894163,0.4921217,1.3265405,-0.07112026,4.928559e-07,0.3,5.657767,81.83113,81.83021,81.720825,81.769585,0.1267471,0.5296875,6.863837480545044,18.649427231152853
25,250000,76.08527109846315,-85.43231,5.1669084e-27,-1.5758204,2.1485724,-3.8372386,744.29755,123.25374,19.634756,102.893456,102.85871,103.25263,103.26284,8.035924,0.7,-118.41404,-580.05316,0.0009780962,-4.2048416,0.7954629,-0.7021463,1.0345343,0.5583006,3.3003744e-09,0.3,5.707507,79.75835,79.75438,80.03546,79.861694,0.18014523,0.4484375,8.102508306503296,19.379469581445058
26,260000,82.66982987703555,-86.93225,5.9989304e-28,-23.29504,1.8229471,-24.823397,986.0078,107.97963,17.388811,102.960754,102.151474,103.003845,102.46975,11.548482,0.7,-115.01763,-625.75,0.0040733377,-6.4235954,20.646057,19.780752,21.457603,20.28015,1.6430278e-07,0.3,5.510792,81.51973,81.43881,81.4326,81.085976,0.30802655,0.5515625,8.301795482635498,20.110590410232543
27,270000,73.38459222048061,-85.05886,6.834571e-29,-14.235711,3.386262,-5.325027,719.6106,477.0378,19.72408,104.64287,104.83374,103.93776,104.44419,10.018879,0.7,-115.18143,-565.7804,0.00040422997,-5.6772475,6.4632072,4.598735,3.7519805,4.752207,6.712508e-08,0.3,5.647376,79.42673,79.55085,79.09242,79.20413,0.18767297,0.4421875,7.500631809234619,20.83548562526703
28,280000,74.44547322622616,-89.14199,8.086798e-30,2.204935,1.3047402,-15.727358,1216.5546,43.491554,23.231707,104.691895,104.91161,106.3964,106.48977,6.1567717,0.7,-121.56969,-920.12524,0.00017681072,-4.65009,8.050219,5.9870152,8.447101,5.37217,4.541944e-08,0.3,5.9659595,83.238556,83.23628,83.27426,83.24684,0.1312916,0.453125,7.434152603149414,21.55772745211919
29,290000,75.97817158862871,-87.80229,9.753233e-31,-15.360723,5.134603,-22.95792,866.7693,848.3966,16.038355,102.30447,102.31031,101.99923,101.86452,23.574144,0.7,-112.2459,-878.6991,0.0019101021,-6.8030667,19.328688,17.524136,13.603409,17.600483,3.521098e-07,0.3,5.4684134,82.31095,82.259964,82.48865,82.28608,0.21407405,0.4796875,7.712052345275879,22.28213366270065
30,300000,64.19355101912369,-88.84825,1.1712204e-31,4.6165714,1.7819868,3.2982178,927.394,123.036896,19.80598,102.89184,103.32364,103.422775,103.2652,6.4672713,0.7,-115.29227,-744.1662,2.6411435e-05,-5.4024167,3.4882474,4.353162,0.8023056,1.2087493,3.9131845e-07,0.3,5.9499283,82.97583,82.9799,83.26819,83.132126,0.1620768,0.4265625,6.601146697998047,22.989861114819846
31,310000,77.31112688159922,-86.63957,1.4301937e-32,-20.763714,1.5134909,-22.403112,1118.3894,55.679195,18.162752,103.74674,102.34304,102.83101,102.67273,7.5959663,0.7,-116.943756,-849.85986,2.3959728e-05,-1.3090456,16.558718,19.015825,17.56304,18.282276,4.3830546e-06,0.3,5.786398,80.923775,81.10524,81.127464,81.06923,0.16061139,0.5140625,7.788322448730469,23.716001709302265
32,320000,83.51821808887128,-88.617355,1.7642548e-33,5.589417,0.7140885,-2.86039,938.77936,35.88186,20.039341,102.60251,102.533165,102.698166,102.63782,11.686071,0.7,-121.18703,-827.1726,0.00038952735,-5.8230133,2.5618725,2.9534547,1.5693707,1.1903486,1.3985381e-06,0.3,6.044088,82.71112,82.57389,82.76453,82.81673,0.21879967,0.4140625,8.11770248413086,24.445870876312256
33,330000,82.82197873567613,-87.14749,2.2256792e-34,-24.256462,1.8472744,-10.710079,906.87744,51.77791,17.406528,104.86304,104.67765,105.346924,104.264885,13.117721,0.7,-116.446594,-1040.3053,4.3078908e-05,-5.7059116,2.3063397,0.16041136,1.2971538,0.24375474,7.4103014e-07,0.3,5.8366966,81.418274,81.44962,81.31157,81.288956,0.21764483,0.45468748,7.94059419631958,25.176037001609803
34,340000,77.6997059740119,-86.0518,2.81512e-35,-28.17622,0.9599259,-14.552292,1027.3088,37.42979,18.421818,103.81493,103.69298,104.423965,104.03347,2.3761024,0.7,-117.375946,-868.767,0.0001636353,-3.276472,7.2589273,5.120908,6.070961,7.6470566,1.4709076e-08,0.3,5.7024984,80.35018,80.437805,80.61363,80.5143,0.097858444,0.475,7.637258052825928,25.904598331451417
35,350000,74.43139932224648,-85.564575,3.6688765e-36,-5.2043004,2.506898,-10.987915,1260.9985,269.1681,25.283592,101.87857,101.572426,103.23686,102.72159,7.738337,0.7,-115.49861,-819.325,0.0004524517,-5.9663987,5.2102804,2.6747308,9.543602,3.2796745,1.5716068e-08,0.3,5.5445814,80.08386,80.046196,80.512314,80.42908,0.1627435,0.43281248,7.244886636734009,26.6234094897906
36,360000,67.08795146734042,-88.37225,4.6883577e-37,15.993471,3.4379861,-11.246006,1068.6084,418.7802,19.594418,103.95317,103.50896,103.556496,103.80351,10.645539,0.7,-116.96489,-849.19806,0.0002684354,-3.2208633,2.2919445,-0.9432903,-0.23301208,0.19552153,1.9252185e-07,0.3,6.181349,82.24529,82.165886,81.97805,82.144226,0.2421222,0.44374996,6.476912260055542,27.32743537823359
37,370000,77.07309968472754,-86.98207,6.217581e-38,6.036776,2.4836817,-2.2267408,1024.8389,95.30493,19.217453,103.38532,103.05476,103.09627,103.043365,9.157895,0.7,-120.4527,-1171.6205,0.00047691405,-5.0703626,-5.6010613,-4.301555,1.0901089,0.39887613,7.888302e-08,0.3,5.834669,81.2778,81.2215,81.19839,81.267395,0.3406439,0.45156246,7.485119819641113,28.051915387312572
38,380000,79.60306067946314,-85.68713,8.312868e-39,-30.701723,5.5017467,-17.214273,959.6479,329.36902,19.015596,103.41211,103.480675,103.12794,103.084854,15.343468,0.7,-116.907135,-784.3986,0.0019417147,-3.889493,8.007408,8.871909,7.666317,10.652688,6.849295e-08,0.3,5.668147,80.071976,80.21361,80.323204,80.31209,0.3341154,0.4765625,7.837977409362793,28.779473904768626
39,390000,65.0587689460229,-88.12585,1.119416e-39,-8.095318,1.0806984,-15.738327,965.4368,45.332294,17.504747,103.748856,104.02403,103.74467,103.6133,4.0065255,0.7,-118.55827,-1117.6495,0.0011354676,-5.149063,17.519493,17.709797,16.935507,17.530441,1.4096265e-06,0.3,5.945294,82.23231,82.21358,82.02714,82.09346,0.12768903,0.5265625,6.430621385574341,29.485178645451864
40,400000,80.17526926070306,-85.62847,1.55796e-40,-25.646498,1.517199,-10.637433,1358.8512,91.02373,20.723755,102.7671,102.57064,102.65514,102.153046,4.0102987,0.7,-119.27021,-728.6179,3.7637656e-06,-3.2462687,5.284772,5.936759,5.9110403,5.4654493,9.562355e-08,0.3,5.6132064,80.10814,80.16945,79.913956,80.09018,0.13512576,0.4421875,7.736542701721191,30.21607859134674
41,410000,81.92758212834056,-87.68462,2.1154e-41,-28.888367,1.2522229,0.46204877,1190.982,39.255806,18.480824,102.49085,102.59111,102.39237,102.72471,27.559702,0.7,-116.45981,-850.82794,0.0004625626,-3.8916411,-0.8445908,-1.5242312,0.38650522,0.8101236,1.5103143e-07,0.3,5.974248,81.70059,81.68594,81.95458,81.8852,0.28314355,0.44374996,8.15263557434082,30.94935357173284
42,420000,75.61832948521683,-88.54694,2.986e-42,-14.464479,1.1964223,-9.223845,1360.4863,61.194447,18.879608,101.861176,101.48974,101.256485,101.78581,20.081665,0.7,-119.193436,-902.29407,0.001403016,-3.5521665,7.4914646,4.912695,8.546855,9.976696,2.6911905e-06,0.3,5.7482038,82.936905,82.845856,82.80412,82.81003,0.19619825,0.41718748,7.471081733703613,31.67100132703781
43,430000,72.15107694288963,-86.817696,4.16e-43,-12.868546,1.152619,-0.6312711,1331.4236,37.817444,17.24921,101.215965,100.95346,101.150795,101.08868,10.618659,0.7,-114.79047,-1181.8947,4.462042e-05,-1.9218049,2.3211153,2.1531813,1.5364606,1.1669948,3.182504e-05,0.3,5.536012,81.332825,81.26161,81.22229,81.404076,0.1916194,0.390625,6.999156951904297,32.387372664610545
44,440000,82.85663691098634,-86.85477,5.9e-44,-0.4993229,1.8228891,-23.067692,1589.0028,117.448044,16.967522,101.957184,101.945656,102.84075,102.284256,10.522861,0.7,-117.09932,-1553.2516,0.0004894371,-6.4372315,15.715164,15.396273,15.295912,15.872518,1.478009e-07,0.3,5.515021,81.34772,81.37101,81.52572,81.54359,0.14601251,0.4484375,8.17020845413208,33.12236139376958
45,450000,80.57471591790998,-88.93237,8e-45,-4.4905562,1.6104608,-23.9926,1472.6149,66.51928,23.443874,101.93783,101.96297,102.50134,102.93517,2.8033426,0.7,-118.13307,-995.4446,0.0014760534,-2.8690948,23.350237,21.445219,21.7377,21.914528,6.106391e-07,0.3,5.7911224,83.349815,83.18938,83.33913,83.44729,0.095190145,0.434375,7.792242765426636,33.84504628976186
46,460000,79.91742484108184,-85.94608,1e-45,-29.168856,0.9082459,-17.18741,1315.4131,33.378456,18.840286,103.079025,102.53967,102.3175,101.653046,7.7060976,0.7,-117.48597,-1091.381,0.0005405088,-9.29848,5.2083077,4.841291,5.343823,5.5562863,3.168988e-06,0.3,5.842347,80.17674,80.07755,80.27149,80.38869,0.1789956,0.4265625,7.640775680541992,34.566096770763394
47,470000,82.91972117988723,-88.1694,0.0,-46.6143,1.6089481,-15.111629,1087.2114,61.47129,17.535246,101.556015,101.946304,102.12949,101.96874,90.39638,0.7,-114.065796,-1376.5219,0.00421434,-3.004274,12.9902725,13.133149,10.615724,12.774607,5.136055e-07,0.3,5.5287104,82.70128,82.73253,83.04495,82.6704,0.50269943,0.48593748,7.8943939208984375,35.297748279571536
48,480000,80.60976763987789,-85.002625,0.0,-20.919971,1.2671046,-19.046486,1550.4828,43.057858,20.999077,102.91432,102.907875,101.7408,103.28061,16.656775,0.7,-122.04229,-1336.5619,0.0011275664,-4.930196,9.297207,9.004285,8.645699,9.424313,1.7123239e-06,0.3,5.6288013,79.39253,79.34363,79.24911,79.35597,0.16389826,0.43593746,7.855551481246948,36.02859245141347
49,490000,81.6309959210218,-84.34225,0.0,-8.52353,3.4338055,-13.413143,1193.4208,525.03564,18.464195,101.682625,101.52325,101.85656,101.698044,2.9540765,0.7,-118.271126,-1433.4178,0.00090518134,-5.502584,3.9339502,3.7676995,3.7049458,2.0732238,8.6217185e-08,0.3,6.0145416,78.481964,78.35663,78.41545,78.53754,0.119239196,0.48125,8.087994813919067,36.759999708334604
50,500000,77.88885532409687,-85.193985,0.0,-14.045414,1.5097528,-13.218613,1239.9044,37.254707,16.48657,102.191864,102.20779,102.486786,101.98012,11.197452,0.7,-115.89368,-1249.5145,0.0015458812,-4.287616,6.32167,4.7948775,4.9796743,4.7145023,1.9069267e-07,0.3,5.9505014,79.36577,79.26936,79.367,79.30888,0.20378658,0.403125,7.708874702453613,37.48868883053462
51,510000,72.98392103629206,-83.82971,0.0,-34.415756,1.4819183,-1.3121716,1215.5647,61.11377,16.518688,101.61255,101.26195,101.87994,102.1973,3.5542238,0.7,-114.359695,-1043.0782,0.00054840586,-2.8580167,-0.24979627,-0.6325836,1.0025669,0.74206024,1.9016444e-06,0.3,5.505929,78.427475,78.3788,78.430435,78.44937,0.14476341,0.4640625,7.233245372772217,38.20647724469503
52,520000,81.63693675381158,-87.4489,0.0,-25.377827,1.447226,-20.89777,1634.0386,59.430748,19.603123,102.93544,103.10236,102.48201,102.38169,7.702038,0.7,-112.0755,-1399.3562,0.000719715,-7.1787887,21.897955,22.024559,21.182163,22.034332,4.1564343e-07,0.3,5.5246325,81.952866,81.963974,81.857285,81.943695,0.19618472,0.4515625,8.088080883026123,38.93712863922119
53,530000,72.93536719446713,-86.34489,0.0,-113.178474,1.0770602,-2.2823236,1009.3898,83.28633,15.206235,100.59834,100.407646,100.76252,100.82717,5.2979817,0.7,-113.60052,-1255.3192,0.0003444769,-3.1769457,1.3110023,3.0358112,4.8708487,5.748378,8.332019e-07,0.3,5.3270664,81.09009,81.0874,81.28401,81.35803,0.10015935,0.36875,7.199330806732178,39.65631601015727
54,540000,82.57474623949516,-87.40448,0.0,6.7064056,5.3419876,-6.0057034,1516.2415,629.7389,19.408026,101.142075,101.20068,101.27532,101.17809,11.58113,0.7,-117.12217,-1537.139,1.9841653e-05,-6.6934056,0.72356355,-0.099541664,1.58421,1.8917905,6.708317e-07,0.3,6.0032244,81.54561,81.507385,81.38968,81.466095,0.19634679,0.46406248,7.901443243026733,40.38482188781102
55,550000,82.28953213764937,-85.788956,0.0,-6.7730446,3.0071926,-11.138033,1812.2343,239.97336,19.96305,104.184166,103.81343,103.66456,103.59958,17.995892,0.7,-117.540924,-1553.4838,0.00038884446,-7.1201544,7.589931,9.669572,1.1452296,6.31269,1.4183752e-06,0.3,6.0924425,79.91377,79.8568,79.650345,79.682175,0.24051428,0.4578125,7.994207143783569,41.116874225934346
56,560000,77.91258742469239,-86.56224,0.0,-36.271767,0.8173256,-10.593458,1424.4054,19.92775,17.491692,102.108696,101.62424,102.05487,101.71852,13.247585,0.7,-111.79293,-1718.5851,1.5133992e-06,-3.8463244,4.1915994,5.1512413,4.7636867,6.229563,9.2375565e-09,0.3,5.578285,80.92558,80.89371,80.83255,80.9516,0.16044323,0.51250005,7.642019987106323,41.844197762012485
57,570000,73.27204300000504,-85.88311,0.0,-99.30089,0.960193,-24.906368,1594.3015,49.123123,17.663633,102.55858,102.21413,102.31106,102.1284,1.5144736,0.7,-113.80101,-1477.8403,0.0003922938,-3.0671358,19.971775,19.802084,19.698538,19.446182,2.521556e-08,0.3,5.4031,80.53598,80.498055,80.34369,80.28626,0.072684005,0.55,7.106611490249634,42.56063232421875
58,580000,75.30493562209566,-87.384964,0.0,6.6766777,2.5650816,-17.19692,1351.8694,191.20355,20.928188,101.484375,102.277565,101.24778,101.3758,51.75921,0.7,-114.56076,-1304.9314,0.00049278804,-3.4789805,15.742109,15.785669,13.958654,16.83868,2.9511284e-07,0.3,6.0075655,81.40365,81.41336,81.33385,81.2629,0.4631891,0.4890625,7.366289377212524,43.2809472322464
59,590000,77.62334040222979,-86.56279,0.0,-62.829315,1.2279942,5.172817,1906.1012,56.892136,20.742977,99.60343,99.52433,99.92634,100.243744,3.3101666,0.7,-113.49272,-1314.6384,0.00039761752,-6.855937,-7.63673,-5.5350184,-5.4849424,-3.6501343,7.986091e-09,0.3,5.7431316,80.84009,80.99124,81.11476,81.12671,0.09555115,0.44687498,7.562539339065552,44.011085001627606
60,600000,71.11808140645635,-85.27868,0.0,-48.67562,1.4858751,-17.370073,1791.4215,35.25999,19.080952,101.77598,101.836945,102.267365,102.400536,6.7760878,0.7,-115.29727,-1210.027,0.0010638523,-3.270856,14.512705,12.756101,15.01203,14.5582695,5.5950954e-07,0.3,5.4798613,79.91195,79.87781,79.86223,79.92859,0.16875735,0.41562498,6.871471405029297,44.7239581823349
61,610000,73.82974723676206,-85.4701,0.0,-61.402065,1.1483641,-2.4620209,1540.4502,39.045036,17.369923,101.16313,101.20903,101.37328,101.33525,9.813169,0.7,-116.69701,-1245.5154,0.0013900476,-6.932765,2.7345448,2.1861346,0.39094338,1.3560035,3.0840164e-07,0.3,5.7549133,79.700226,79.710686,79.58592,79.61449,0.19819938,0.465625,7.202683448791504,45.442844875653584
62,620000,81.81733913539442,-84.538994,0.0,11.264606,1.0907707,-0.32229233,1716.9912,42.656956,21.041351,102.18209,102.13166,102.14609,101.96626,12.460321,0.7,-118.0126,-1150.8905,0.00013620884,-6.2569656,6.1222496,5.305849,5.05552,4.646365,6.1973694e-08,0.3,5.622149,78.96011,78.98135,78.825455,78.73186,0.19195898,0.515625,8.035041093826294,46.176767448584236
63,630000,76.71389451802125,-88.11384,0.0,-16.780449,1.5938252,-17.000479,1559.4468,89.812195,18.056118,102.18977,101.81035,102.07472,102.12066,3.943731,0.7,-114.88983,-1281.3976,0.0003400941,-3.8996243,10.167629,9.786974,9.979487,9.5562315,1.2824487e-06,0.3,6.117239,82.07384,82.05601,82.29556,82.33382,0.08679737,0.4203125,7.3344457149505615,46.89788023233414
64,640000,82.30405120299538,-88.48235,0.0,5.1184464,1.3813858,-15.493069,1682.5925,75.56102,22.298397,102.635254,102.80353,102.91567,102.016754,5.334982,0.7,-113.5983,-1537.416,0.004146465,-3.4796534,7.0346146,7.3691463,1.0575716,7.2743673,5.409122e-07,0.3,6.2106495,82.29321,82.35506,82.18093,82.124146,0.12510784,0.4578125,8.106845378875732,47.62222261031469
65,650000,82.26488902810001,-87.649414,0.0,4.171962,1.8404163,-15.784485,2138.0178,66.1737,19.79124,100.112144,100.130104,100.458664,100.30485,4.5444202,0.7,-116.46849,-1104.9022,6.5089785e-05,-4.594905,11.179968,11.303655,8.943288,9.327084,4.0233136e-08,0.3,5.7971735,81.962585,81.943375,82.15898,81.99549,0.14292717,0.4359375,8.019093990325928,48.35646133422851
66,660000,83.8033981597805,-84.8712,0.0,-32.973007,1.4852464,-12.097222,2359.2695,123.60626,17.560331,100.94104,100.57617,99.91495,100.55682,17.739914,0.7,-114.54127,-1311.4805,0.00011418463,-5.558595,7.21779,7.9587045,5.553243,6.535563,2.1129382e-07,0.3,5.5857487,79.471664,79.36409,79.509735,79.50522,0.23717968,0.46875,8.071233034133911,49.0862527569135
67,670000,82.01362956155262,-87.89569,0.0,-37.536797,1.9154005,-21.428482,1639.0686,130.37915,17.128296,102.02209,102.18666,102.34504,102.11901,14.436953,0.7,-115.49283,-1792.1415,0.000305288,-3.0787632,13.855328,13.319893,15.010447,15.190705,5.657785e-09,0.3,6.330925,81.685265,81.61832,81.6783,81.5582,0.19323026,0.4765625,8.055034875869751,49.81615967353185
68,680000,82.46609804169464,-87.225105,0.0,-27.624146,1.33174,-16.047428,1818.2523,41.515564,20.743181,101.360725,102.06021,102.26443,102.138336,3.4297342,0.7,-115.57705,-1353.1931,0.00073641376,-5.0504847,6.5104985,8.03772,5.877115,7.6730795,4.7036624e-06,0.3,5.935865,81.32254,81.36929,81.55496,81.60926,0.09303276,0.3578125,7.935316801071167,50.54590125878652
69,690000,83.27173855751768,-85.81632,0.0,-43.33615,1.3858032,-5.17937,1660.9274,120.54514,24.618126,102.00948,101.707565,101.60863,101.383514,11.650529,0.7,-115.73987,-1338.318,4.939933e-05,-2.6021428,0.43901038,1.0237231,1.5231059,0.9201967,2.806948e-07,0.3,5.690347,80.223404,80.215324,80.28117,80.24372,0.22772945,0.4265625,8.727343559265137,51.28931543827057
70,700000,77.58986045926608,-85.36423,0.0,-27.320057,0.9651199,-25.210997,1828.4315,29.873844,18.611996,100.89596,101.42455,101.3339,101.19245,6.525969,0.7,-116.76785,-1580.7585,0.0012391214,-3.2133293,19.679432,19.239332,19.194368,19.581993,7.1253163e-07,0.3,5.64762,79.69465,79.63474,79.70275,79.79632,0.13322955,0.4140625,7.670862913131714,52.009851761658986
71,710000,77.80843717815851,-86.63246,0.0,9.159128,1.5846441,-13.960876,2886.6953,60.240097,26.920307,100.57094,100.79757,100.76402,101.321,9.431102,0.7,-115.87405,-1192.3861,0.0060523604,-3.9189906,7.919202,9.378354,8.127264,7.714705,1.3442165e-07,0.3,6.0919952,80.7034,80.60516,81.01346,80.851135,0.29112113,0.49218747,8.12866997718811,52.7397873878479
72,720000,73.31439179484215,-85.73258,0.0,-75.28047,1.5621811,-16.763748,1974.0463,48.638813,16.7642,102.36507,102.866905,103.479294,101.851875,8.276552,0.7,-111.45444,-1420.1893,0.00037577358,-3.5705705,8.393381,6.154109,6.1221848,6.8494353,2.3519797e-06,0.3,5.9638453,79.922165,79.84488,79.91424,79.82161,0.15899834,0.403125,7.684626817703247,53.46437409321467
73,730000,82.25661442112538,-85.54544,0.0,-60.195015,1.4945953,-9.242157,1765.9434,153.08644,17.836107,102.34857,102.50177,102.66589,102.84682,5.770782,0.7,-115.24386,-2310.239,0.00054778537,-8.875689,10.7757435,9.651324,9.42887,9.906597,9.562355e-08,0.3,5.4017496,80.13695,80.16279,80.227554,80.30426,0.1516533,0.4140625,8.473436832427979,54.197802408536276
74,740000,75.73666469744799,-84.89926,0.0,-88.64726,0.75215137,-5.201956,1980.4017,40.449722,21.089357,100.25952,100.22047,100.16782,100.484566,5.4224763,0.7,-119.02908,-1404.1664,0.0005236064,-5.003197,5.4566727,3.4116848,4.6350193,3.5503392,1.8331223e-06,0.3,5.655781,79.2734,79.23358,79.14325,79.17227,0.10178024,0.38906246,7.639847993850708,54.91795295874278
75,750000,82.34043640909047,-88.62338,0.0,-29.143774,1.0897866,-20.148928,1673.7931,66.0741,19.497639,101.80659,101.597694,102.39263,102.39116,12.70612,0.7,-113.84376,-1493.9965,0.00041674182,-2.1930413,14.525748,16.168226,15.78129,14.7394705,4.4921762e-07,0.3,5.7708178,82.93068,82.99661,82.99848,83.02454,0.15084264,0.42343748,8.34278154373169,55.652828160921736
76,760000,82.35113112406431,-88.04298,0.0,3.1514235,1.6606574,-10.387861,2291.5332,86.58848,19.52605,101.0543,101.60206,101.14434,101.234375,4.9958115,0.7,-115.16633,-1589.5898,0.0010373723,-3.6335902,2.3378983,4.1604934,9.765619,9.4986515,2.0444393e-06,0.3,5.818266,82.292244,82.38728,82.19949,82.12827,0.1454744,0.565625,8.323235273361206,56.383727816740674
77,770000,80.97403680212248,-85.75486,0.0,-50.317177,2.213035,-4.5717745,1631.1385,71.72211,17.247423,99.99458,100.474525,100.86892,100.34195,8.599691,0.7,-117.37151,-1457.9932,0.0020675866,-9.044423,2.0315619,3.781497,3.2581525,3.7682514,8.962391e-06,0.3,5.7481318,80.11423,80.128845,80.560356,80.51202,0.16406009,0.36874998,8.418778657913208,57.1152681350708
78,780000,80.35560601881377,-85.592804,0.0,-33.748955,1.6189934,-21.387363,2046.8461,54.38085,19.532188,100.53353,100.69088,100.6946,100.779564,12.553892,0.7,-118.6455,-1563.0515,0.00023769028,-4.3872275,16.227602,15.726272,13.054629,13.9418335,1.04882936e-07,0.3,5.7469773,79.94248,79.87479,79.95333,79.894745,0.15890771,0.4234375,7.9204065799713135,57.84247000217438
79,790000,83.07932759603176,-87.34017,0.0,1.0880022,1.2362804,-14.01163,1291.8942,23.349808,19.05304,100.70714,100.79053,101.1281,101.26322,5.4937344,0.7,-113.1329,-1617.7911,0.002443452,-3.7013893,9.68524,10.359195,9.669001,11.512544,1.7161987e-05,0.3,5.8086796,81.59689,81.74243,81.918015,82.053406,0.18814117,0.33749998,8.185612440109253,58.572259644667305
80,800000,82.89551614206313,-84.85256,0.0,-47.995667,1.5734615,-2.2021558,1982.0831,51.6402,18.35471,100.12103,99.93479,100.21107,100.35496,7.993988,0.7,-112.775925,-1557.0999,0.00025309954,-5.403857,8.844423,4.4337683,11.216937,10.177041,2.2006861e-06,0.3,5.43871,79.422775,79.44968,79.70073,79.5978,0.22617659,0.490625,8.120594263076782,59.303618892033896
81,810000,82.40134516137996,-84.37846,0.0,-46.830826,0.85371685,-15.20577,1765.4088,14.793833,17.080183,101.760895,101.22411,101.69878,101.78524,5.1258583,0.7,-115.34851,-1735.5472,0.0032100198,-3.9604845,6.4870415,7.4973845,8.340547,5.088894,2.0186418e-08,0.3,5.851162,78.61165,78.54546,78.65848,78.74001,0.13080534,0.42499998,8.149286031723022,60.038880574703214
82,820000,82.41657954126669,-86.196686,0.0,-35.86625,2.0902026,-15.657888,2331.7651,136.2927,17.248335,100.73983,100.51284,101.25711,100.64462,46.06276,0.7,-112.75109,-2191.6506,0.0066450727,-4.8822565,10.922447,11.482717,13.084276,11.474789,2.231216e-07,0.3,5.8130207,80.4811,80.46201,80.88691,80.719505,0.30266955,0.4921875,8.035205364227295,60.768627957503
83,830000,74.23151031361459,-87.62599,0.0,0.3812847,0.97243536,-4.704547,2000.9908,24.823925,20.132965,104.017784,104.532875,103.99431,104.0324,3.1597798,0.7,-117.816246,-2052.2715,0.0002477719,-3.2686806,-3.4196317,-4.360593,-1.7206771,-1.9607043,6.538278e-07,0.3,6.0849447,81.642975,81.595955,81.70131,81.74528,0.116036214,0.39999998,7.265851020812988,61.484366126855214
84,840000,82.31839082560985,-86.62661,0.0,41.319626,1.0333962,-13.085459,2811.9595,26.151556,18.111048,99.90464,99.74784,99.998146,100.35694,5.097689,0.7,-114.644714,-1560.9073,0.005365636,-1.958314,-4.8800297,-2.6022966,-2.5741115,-2.1665287,3.177791e-05,0.3,6.326931,80.368515,80.40724,80.6789,80.685776,0.100406215,0.38281247,8.107322454452515,62.21938842535019
85,850000,81.31787744298917,-86.47264,0.0,-26.151926,1.2971396,4.835126,1991.5365,26.482044,22.606213,99.792595,99.96462,99.96093,99.889145,3.6321943,0.7,-116.54373,-1745.2275,0.000569067,-6.0640845,-2.5644069,-2.3159406,1.1965265,-1.5835925,7.2217485e-06,0.3,5.294575,81.175095,81.145096,81.32274,81.257996,0.16782814,0.3828125,8.07387900352478,62.9506135503451
86,860000,82.91450142728628,-85.29402,0.0,-5.618698,1.1711198,-23.244196,2581.3025,37.975914,18.399197,100.76126,100.51952,100.83755,100.854065,2.6108222,0.7,-115.88255,-1715.2051,0.0014175721,-5.2668233,11.966536,11.869098,12.507425,14.791985,6.2864274e-08,0.3,5.913479,79.3975,79.341515,79.69003,79.663086,0.10443104,0.41875,8.085171699523926,63.679779779911044
87,870000,81.86284811902715,-87.254845,0.0,-86.64054,1.5402144,-25.51667,2577.0984,117.4892,26.424984,102.082756,102.06596,101.85399,101.95241,2.102,0.7,-114.7742,-1731.1709,0.0002773137,-4.643147,21.77297,21.169342,21.657974,21.728697,3.3003744e-09,0.3,5.7890334,81.51068,81.54326,81.69514,81.72843,0.076519474,0.390625,7.965675354003906,64.41016198794047
88,880000,82.95922280163084,-85.595795,0.0,31.534792,1.1729832,1.2700975,2111.8242,40.495728,17.044907,100.041145,100.09017,100.141266,100.076836,3.242303,0.7,-113.455956,-2145.4272,0.0012447506,-5.0754704,-0.086499095,1.1287997,1.7206692,1.1587653,1.23507525e-05,0.3,5.91072,79.83761,79.819435,80.07875,80.09256,0.13549058,0.34531248,8.090858697891235,65.14391364653905
89,890000,81.71135526682843,-84.265686,0.0,-67.30636,1.820014,-6.2974405,1940.3068,82.097015,17.669474,100.82306,100.71624,100.7149,100.396416,26.040335,0.7,-113.92356,-1585.0701,0.00014448597,-5.439357,0.98001766,3.939528,5.854593,5.0017314,4.3592883e-07,0.3,5.8430624,78.44334,78.499886,78.60391,78.46525,0.24579471,0.5234375,7.896806001663208,65.87165805101395
90,900000,82.50798537244665,-86.0011,0.0,29.66527,1.9131372,-16.668346,2012.6985,185.81491,18.866053,101.694595,101.64479,101.352,101.217606,4.912548,0.7,-116.49904,-1968.1581,0.00018996617,-2.9762921,10.83813,10.222816,11.426772,12.435087,3.1124404e-05,0.3,6.2950487,79.74249,79.72954,79.484886,79.645805,0.1503845,0.43593746,8.182223796844482,66.60493206183115
91,910000,84.22463259337295,-83.387955,0.0,21.193102,2.0204506,-12.3964,2357.7693,68.23584,18.82679,101.79444,101.681274,101.33745,101.53998,10.339133,0.7,-118.44376,-2477.1487,0.0036884323,-6.667717,1.6916001,-0.05054748,0.155173,3.1823857,2.135774e-05,0.3,5.829174,77.52319,77.43328,77.14325,77.24078,0.23564684,0.5421876,8.111695051193237,67.3384944319725
92,920000,82.67822270488355,-85.50894,0.0,55.909145,0.9470915,-8.63119,2433.937,35.535862,20.141186,100.87372,101.18256,101.21746,101.23983,7.3295474,0.7,-116.8656,-1802.2672,0.000527534,-4.7123632,4.628758,4.964777,4.658677,3.9025607,2.6494672e-06,0.3,6.1659613,79.30984,79.52226,79.24092,79.28465,0.16492584,0.521875,8.114864349365234,68.06860462029775
93,930000,77.32776359664226,-86.14375,0.0,26.197239,1.8957871,-8.952897,2496.5593,73.91965,18.275032,100.91692,100.40693,101.02424,100.72116,3.2944968,0.7,-114.63986,-1709.8436,0.000565883,-5.3643417,4.9268045,5.4356556,4.482392,4.3879886,1.478009e-07,0.3,5.8607683,80.34906,80.24629,80.04739,80.03357,0.19289154,0.5203125,7.627722501754761,68.79202758073806
94,940000,80.46055732691765,-86.889046,0.0,3.0658665,0.91217244,-2.6627572,3261.0205,38.281296,21.98545,100.886406,100.93161,100.50845,100.504555,3.8946657,0.7,-117.46906,-1390.6246,0.00023467236,-3.6950884,1.6524992,0.65524864,2.041011,1.7712812,3.7222637e-07,0.3,5.746868,81.193115,81.07408,80.884926,80.86874,0.075776726,0.49218747,8.014026403427124,69.52263218959173
95,950000,77.29484836399625,-86.608116,0.0,-28.739471,1.0631623,-7.385488,1882.2361,36.58564,16.309713,100.14136,100.037025,100.03106,100.50762,4.554839,0.7,-113.91176,-1611.2748,0.00027365575,-4.474953,7.298272,5.6354146,6.604024,6.794464,5.0920065e-08,0.3,5.806902,80.86159,80.92273,81.04072,81.11334,0.10880305,0.45,7.77258563041687,70.24922941128413
96,955000,82.39193091451511,-89.05891,0.0,-74.137634,0.85850847,-14.261073,2394.338,31.962816,16.052746,102.21395,101.648346,102.209,100.994705,7.35728,0.7,-112.49544,-2116.1675,0.00028767594,-3.9869165,8.789127,9.591692,7.0349126,6.714926,1.1445372e-07,0.3,5.5596733,83.65999,83.624016,83.35123,83.33241,0.10244864,0.51093745,8.16073226928711,70.6858399271965
97,960000,81.04600654079516,-85.216675,0.0,-46.187817,2.6702096,-14.423246,2228.2324,412.24286,19.319773,101.414185,101.05064,101.4346,101.66256,4.615498,0.7,-115.39676,-1412.6652,5.756435e-05,-4.7910156,5.962736,5.8716288,5.4026875,7.9160037,2.2838005e-06,0.3,5.6231565,79.70285,79.608635,79.741776,79.733315,0.093775734,0.4109375,8.054077386856079,71.11697532335917
98,965000,76.48860026672348,-86.20196,0.0,-62.491974,1.3213542,-17.196774,2277.814,55.01724,19.841402,102.07512,102.40157,102.15125,101.94691,9.321002,0.7,-115.04933,-1577.8593,0.00024498632,-9.688725,12.362581,11.284106,12.860478,13.89307,3.0510828e-06,0.3,5.607962,80.63435,80.60665,80.58348,80.67184,0.22195348,0.40156248,7.693864345550537,71.5456749121348
99,970000,74.39539326642604,-85.8208,0.0,-16.438322,1.1488016,-16.903172,2197.0012,41.24533,19.506552,100.08979,99.975204,100.54702,100.27138,26.380926,0.7,-114.04162,-1856.66,0.00014530777,-4.2093935,11.071953,10.423155,10.5760145,9.488399,7.627707e-07,0.3,5.8144693,80.09941,80.15924,80.49593,80.34477,0.33582363,0.38437498,7.3531999588012695,71.96072396437327
100,975000,82.48863680777475,-84.96364,0.0,-23.373398,1.5738558,-10.103689,2831.281,87.008575,19.569641,99.81652,99.937965,99.86664,99.92332,6.2498107,0.7,-115.43739,-1824.4971,1.4816702e-05,-7.1727557,-0.34831083,-0.43637443,0.6179311,1.5137565,4.5997695e-07,0.3,5.951114,79.218445,79.041275,79.40072,79.39689,0.17740321,0.39687496,8.15527892112732,72.39695006211599
101,980000,79.27105522685589,-86.745224,0.0,18.325737,1.1422045,-0.8037782,2623.15,28.109016,18.71645,100.676025,101.10819,101.39397,101.33007,7.3035016,0.7,-114.85627,-1478.9402,0.00021183124,-4.5206566,1.4258566,2.821703,1.3140135,5.622662,1.446053e-07,0.3,6.130246,80.73475,80.76219,80.79402,80.809425,0.19471239,0.43749997,7.708149194717407,72.82480955521265
102,985000,77.76791474267309,-85.278656,0.0,-72.70926,0.67228496,-17.899181,2480.6758,20.891754,21.42773,101.16027,101.04191,101.24065,100.93878,4.3375406,0.7,-115.785995,-2098.8037,0.0002426944,-6.8380494,6.7503557,6.450205,6.2134724,5.516117,1.0515378e-05,0.3,5.4925685,79.81995,79.787224,79.8799,79.8955,0.111955434,0.41718748,7.758388996124268,73.24994724194208
103,990000,82.41693817700404,-84.92145,0.0,-26.041668,1.6659758,0.94291544,2446.5085,124.41636,23.211645,102.40618,102.33473,102.01949,102.23703,6.164188,0.7,-117.81975,-1794.2299,0.0003257423,-6.847042,-1.0623915,-1.6952568,-1.4521071,-0.7178327,7.0549436e-07,0.3,5.7886333,79.14064,79.24533,79.221634,79.208786,0.12863347,0.44843748,8.067474842071533,73.68620881239573
104,995000,81.61305994550547,-84.79857,0.0,-34.557323,1.1087728,-13.263222,2948.0093,71.606804,22.603617,100.84654,100.97095,101.27134,101.13165,8.533217,0.7,-117.33039,-2128.8293,0.00014755875,-9.434566,9.300011,10.633348,9.437231,10.869057,4.52415e-06,0.3,5.537922,79.30313,79.41199,79.62959,79.456955,0.1273133,0.45624998,8.035459041595459,74.11694277127584
105,1000000,78.5714561107856,-84.50862,0.0,-34.013477,2.1939745,3.8308861,2428.1843,268.08408,17.466753,99.87696,101.282814,100.1405,100.50246,7.0638747,0.7,-115.468765,-1745.1211,0.0003275078,-4.2121143,-2.4299603,-3.1190722,-2.9592803,-1.4136958,6.885966e-09,0.3,5.9493217,78.77655,78.6762,78.58739,78.50113,0.16411269,0.475,7.832160711288452,74.54730419715246
