Xixo99/comfo/baselines/comfo6_perterbation_actor/20230225_noise0.01/walker2d-medium-v2/COMFO6_s0_20230224_103537_walker2d-medium-v2_80.67.csv
,step,reward,actor_loss,alpha,alpha_loss,critic_loss,max_actor_loss,max_alpha_loss,max_critic_loss,max_mle_prob,max_q1,max_q2,max_target_q,max_v,max_value_loss,max_weight,min_actor_loss,min_alpha_loss,min_critic_loss,min_mle_prob,min_q1,min_q2,min_target_q,min_v,min_value_loss,min_weight,mle_prob,q1,q2,target_q,v,value_loss,weight,eval_time,time
0,0,1.777053287312132,,,,,,,,,,,,,,,,,,,,,,,,,,,,,,,,,
1,10000,59.740283637889824,-36.89721,0.08322825,-4.3516436,0.43821815,-9.312141,28.455406,20.651201,17.42516,45.72363,45.798317,46.305878,45.072746,1.3248096,0.7,-58.123035,-32.23048,0.00038427423,-7.37429,6.9301286,7.060924,7.0227675,5.8992743,2.0975968e-07,0.3,4.81644,32.450317,32.470436,32.38585,31.91951,0.03487211,0.49374998,6.031381130218506,2.1197226921717327
2,20000,62.853837762129075,-57.545357,0.0058020293,-2.4017532,1.4526417,-17.270994,67.65444,56.772045,16.884996,70.932945,70.92526,70.10316,70.49093,1.9875506,0.7,-83.59562,-57.12083,0.00037751632,-5.581425,14.164485,14.189513,11.270501,13.919999,1.2078498e-06,0.3,5.3194294,52.25413,52.24931,51.984734,51.850433,0.05213969,0.421875,6.554311990737915,2.811398426691691
3,30000,56.70814004412149,-69.60081,0.00038071885,-1.9092569,2.4598398,-18.607988,82.5764,269.59314,17.160585,87.3311,86.912125,87.751915,88.11569,5.1485753,0.7,-98.46132,-82.4705,0.00044577318,-4.995034,16.71596,14.2960615,15.305196,16.198177,4.649442e-06,0.3,5.5350227,64.131226,64.05075,64.09497,64.0587,0.11445003,0.42812496,6.40558123588562,3.4971560716629027
4,40000,69.63659747570438,-75.857544,2.6533216e-05,-9.579068,1.2470641,-23.38631,140.68805,57.05438,22.08583,94.87262,94.94587,95.44199,94.5091,3.9507546,0.7,-107.5238,-114.08206,0.00050460943,-5.029726,18.5879,18.441692,18.106306,18.72669,9.562355e-08,0.3,4.95849,70.9079,71.0347,70.95966,70.994644,0.14585249,0.41562498,6.88519024848938,4.196915578842163
5,50000,68.32718011667129,-82.601364,1.8924612e-06,-5.7403703,1.2668288,0.6374595,163.29695,39.66072,16.476313,100.3887,100.55875,100.97435,100.884346,1.8592144,0.7,-112.57483,-125.37033,0.0010647404,-5.290656,2.3538594,3.8821058,2.5458436,3.8071375,6.519258e-08,0.3,5.4211626,77.20384,77.22354,77.45775,77.4456,0.09743722,0.39999998,6.855185270309448,4.892482344309489
6,60000,78.8066826411243,-83.059814,1.3929754e-07,-9.561878,2.6668968,-0.8004586,163.98572,241.01129,17.765917,102.90321,102.63888,102.44696,102.596466,3.8768978,0.7,-115.65131,-151.51779,0.0003319519,-3.6727755,0.027152836,-1.032009,-4.014271,-3.248849,1.0300835e-06,0.3,5.62247,77.577225,77.46889,77.36253,77.41104,0.14231196,0.46093747,8.45471477508545,5.610427172978719
7,70000,77.88615021025393,-83.478294,1.04349684e-08,-12.976872,1.9261496,-9.328039,228.08684,111.5511,17.161188,101.43551,101.83952,101.87256,101.87173,12.304477,0.7,-115.98946,-165.39809,0.0016359149,-3.6328,3.197113,2.7058115,4.759373,3.8875983,7.731458e-07,0.3,5.2772293,78.199425,78.2359,78.27661,78.39436,0.17510544,0.4265625,7.477528810501099,6.317951480547587
8,80000,74.52262887382564,-86.05711,8.153198e-10,-4.0229464,1.4625933,-23.877838,269.06137,26.432865,18.911045,102.64191,102.833694,103.46474,103.03845,2.8402727,0.7,-116.95582,-229.32497,0.0028616823,-9.445069,17.12942,17.13068,16.505396,17.65596,1.9016444e-06,0.3,5.7946367,80.186935,80.23863,80.64809,80.53638,0.10341508,0.4890625,7.286678314208984,7.023305610815684
9,90000,72.4545836702695,-88.58916,6.5258965e-11,2.82427,1.6621792,-20.155018,343.01883,57.31259,18.670527,102.82029,102.6936,103.09554,102.27164,9.849961,0.7,-119.231766,-221.86423,0.000117336924,-4.996958,17.907291,17.402605,20.538538,18.873089,7.377821e-08,0.3,5.9075947,82.789894,82.706894,82.82663,82.82451,0.15970066,0.45156246,7.2698047161102295,7.728087961673737
10,100000,79.54014105857145,-85.178665,5.439344e-12,-7.758956,1.4271588,-21.674805,359.1126,42.32421,20.76443,103.55688,103.45834,104.470215,103.1792,2.5093384,0.7,-118.747215,-318.41272,7.5211865e-06,-6.0327973,8.690981,8.357763,9.277729,7.579124,3.8574218e-08,0.3,5.6224837,79.71887,79.57964,80.00328,79.876724,0.112441935,0.421875,7.88948392868042,8.445354008674622
11,110000,79.269037081877,-84.21042,4.671874e-13,-3.64798,3.573426,0.48685968,379.991,289.17502,19.279491,103.80401,103.816086,103.767334,104.36995,8.310836,0.7,-117.13083,-278.8506,0.00026865397,-6.997379,-1.6336708,-2.3308616,1.4361503,0.86063266,4.0745362e-11,0.3,5.5175877,78.72146,78.63536,78.88414,78.880775,0.20639515,0.4265625,7.692231178283691,9.160136131445567
12,120000,74.21939211123498,-83.988495,4.023351e-14,-4.859967,1.8113927,-24.011642,413.99945,95.54886,17.034895,105.018654,105.44922,105.43194,105.41471,6.3852377,0.7,-116.00426,-337.41916,0.0002980983,-3.579935,15.570405,16.604765,15.81006,15.462624,5.1660464e-07,0.3,5.730868,78.21992,78.28804,78.088135,78.1464,0.19623443,0.47968748,7.006951093673706,9.860386137167612
13,130000,71.10378353589046,-87.01569,3.57231e-15,-9.401321,3.150795,-3.4833531,457.2005,537.1304,17.891241,103.42975,103.471085,102.79812,103.04868,14.233239,0.7,-118.28946,-368.32275,0.00011907541,-3.1344533,1.1299576,3.3449621,1.2150018,0.6833496,6.1390897e-09,0.3,5.537284,81.580635,81.53197,81.52809,81.6349,0.14090887,0.4421875,6.922956466674805,10.563387211163839
14,140000,67.92295273376502,-88.82341,3.2592933e-16,-15.03771,1.4897575,-9.870593,401.01437,73.45605,16.845242,103.29901,103.50312,103.76579,103.76464,11.896748,0.7,-118.14754,-443.35696,4.3015985e-05,-4.91791,9.821,11.240855,13.235972,12.30932,4.9874075e-07,0.3,5.5685353,83.38318,83.28692,83.52211,83.55229,0.13290794,0.396875,6.490348815917969,11.256066612402599
15,150000,72.7413529236354,-88.367615,2.987006e-17,-13.165112,1.7858003,-9.7152815,389.40384,50.07242,14.831977,102.981636,103.2633,102.39162,102.56171,2.6350446,0.7,-116.59664,-641.7157,0.0005985485,-4.0442624,6.6529093,6.8189106,8.548288,6.105677,5.0466045e-09,0.3,5.726555,82.655396,82.77605,82.80675,82.773674,0.13895214,0.453125,7.278393745422363,11.95909912586212
16,160000,64.77377659524221,-86.865326,2.7841733e-18,-1.3020856,1.4662334,-6.2738724,461.06488,66.38448,17.335596,105.6505,105.21087,105.02883,105.03792,4.460979,0.7,-117.70909,-475.37952,0.00071561383,-5.983201,-1.9167261,-0.9172538,-3.270817,-7.199782,9.277763e-07,0.3,5.9099493,81.097946,80.99175,80.90047,80.90845,0.15001482,0.5421875,6.227827548980713,12.650085771083832
17,170000,73.5877728405181,-86.43806,2.7056755e-19,-6.5860105,1.4773808,-8.990417,385.93405,62.702217,18.03566,102.8206,102.92797,103.05853,102.80857,11.583017,0.7,-117.39281,-458.95206,0.0006976566,-7.058234,4.450227,5.1085677,6.5202503,6.681424,6.540399e-06,0.3,5.756277,80.65813,80.7039,80.920654,80.74701,0.17178056,0.48593748,7.275896787643433,13.355363710721333
18,180000,82.82498200041313,-85.73709,2.6276867e-20,-16.571136,1.1474872,-5.1701374,551.6918,44.24581,19.26647,102.412605,103.120674,103.0855,104.07648,8.566198,0.7,-114.11604,-613.189,0.004103182,-3.8005185,4.316701,4.705194,6.1793385,4.4903607,3.4741126e-06,0.3,5.3673325,80.3819,80.48844,80.68148,80.43502,0.11171944,0.40468746,8.06372594833374,14.068085805575054
19,190000,77.95407021696555,-84.557884,2.603728e-21,-7.670285,2.2131522,-13.379901,537.49005,34.356884,16.706783,102.16751,102.33961,102.412636,102.3644,5.1213894,0.7,-117.41748,-431.7862,0.0039561647,-4.131563,12.696462,13.407909,12.568468,12.716645,4.6411515e-06,0.3,5.6111283,79.02748,79.022995,79.59865,79.38045,0.1977108,0.40937498,7.82173490524292,14.78483004172643
20,200000,82.67656684652013,-85.06722,2.6020386e-22,-5.9507513,2.478994,3.0425107,525.9124,193.17809,16.59466,104.37069,104.74222,104.91954,104.4303,5.8270736,0.7,-117.86072,-627.4063,0.0008137313,-3.832821,-0.41253054,-1.2722118,0.8501406,-0.065983295,3.7550925e-07,0.3,5.83528,79.29855,79.26751,79.48387,79.441635,0.15002316,0.49843752,8.190321207046509,15.508166964848836
21,210000,74.80117036091666,-87.82832,2.689268e-23,-24.712769,1.3032372,7.2101192,692.4003,28.142553,18.369764,103.48306,103.34837,103.20331,103.2514,4.8248615,0.7,-118.149704,-537.37787,0.00097510894,-3.5261774,0.39368445,-2.3417766,-1.8463682,-1.7929484,3.6950226e-08,0.3,5.703821,82.15991,82.1766,81.82888,81.84749,0.09319404,0.49375,7.296509742736816,16.210326488812765
22,220000,82.43961825476728,-86.70253,2.7686065e-24,-5.5104413,3.3770378,-0.012529373,732.46124,391.51263,19.356241,102.84892,102.893776,102.04857,102.279366,16.694008,0.7,-116.08914,-491.29153,0.0004804526,-3.8397455,-1.2406826,-1.1847341,-1.5009408,-1.1981527,9.915791e-07,0.3,5.481779,81.27774,81.236176,80.97281,81.346664,0.22530627,0.43124998,8.063400030136108,16.92680431207021
23,230000,82.2506567696729,-85.57701,2.9374449e-25,-16.088802,2.8137317,-14.756146,992.7732,496.7586,16.383595,102.53492,102.716034,103.07592,103.34366,10.346003,0.7,-112.366,-503.20285,4.5676716e-05,-5.438117,16.437145,16.321661,14.0379305,15.235834,1.8624807e-05,0.3,5.6134167,80.03418,80.043396,80.18643,80.35113,0.19086401,0.359375,8.019270420074463,17.643523267904918
24,240000,73.28282999417142,-85.8159,3.1422216e-26,-0.84597015,0.76412016,-8.435566,738.0458,20.087387,17.039097,102.202515,102.359985,102.408455,102.38422,9.286981,0.7,-117.69234,-493.67014,0.0005629559,-1.9065163,1.0246227,2.4075186,1.3667439,6.3132324,1.0058284e-06,0.3,5.893214,79.97455,79.958405,80.0244,80.07028,0.13172713,0.4609375,7.087720632553101,18.343211630980175
25,250000,80.28842446562204,-86.80662,3.4703805e-27,3.2205706,2.3419757,-8.225143,829.2149,325.67896,20.164349,101.3999,101.443344,101.321846,101.97669,19.465593,0.7,-120.51495,-575.5298,0.0002844875,-2.8218765,5.056788,5.8831363,6.0218363,4.787928,6.30389e-09,0.3,5.8993673,81.02976,80.95956,80.971504,81.248245,0.34404826,0.44843748,7.727449893951416,19.056243646144868
26,260000,71.2865050980929,-85.71986,3.8762605e-28,-0.42850876,2.4714189,-14.052332,666.5846,72.88416,16.859112,102.223526,102.20672,103.07052,102.90184,6.359323,0.7,-115.27104,-638.65753,0.019555528,-6.6308618,8.394747,8.918662,7.555302,6.530753,7.1076903e-07,0.3,5.5929046,80.07364,80.07189,80.519104,80.52614,0.17504093,0.3703125,6.759154796600342,19.756438998381295
27,270000,81.81830389528534,-88.386795,4.3898636e-29,1.9943166,3.0322707,-15.098505,911.4754,315.8588,21.910833,103.28849,102.90599,102.61162,101.97338,7.1811743,0.7,-121.23132,-702.8578,0.00025895942,-7.0179787,11.551437,10.747928,9.044338,10.328125,6.519258e-10,0.3,6.0927467,82.27798,82.333336,82.18493,82.192856,0.21325701,0.51875,7.831391334533691,20.468756020069122
28,280000,76.80985391704182,-85.38949,4.8690605e-30,-28.635883,4.0328264,-5.881631,1044.9209,686.2456,18.784184,102.61951,101.5088,104.21795,104.07047,28.264748,0.7,-114.53877,-686.75073,0.00024569896,-4.106775,2.8958213,3.051837,3.4318748,2.8036191,2.3648145e-06,0.3,5.6425576,79.77092,79.82529,79.80711,79.964905,0.21017194,0.35625,7.4246063232421875,21.175456289450327
29,290000,82.46054461544118,-83.84103,5.6663986e-31,2.6728315,1.0200056,-22.318169,999.17175,22.143497,20.212172,103.42715,103.118355,103.29431,103.30956,7.3218393,0.7,-119.211525,-630.0615,0.00047739036,-3.7820358,6.0602093,6.07178,6.841035,6.115817,1.4144462e-07,0.3,5.8407755,78.11837,78.10629,77.98503,78.07016,0.1463384,0.49687502,7.916850566864014,21.892721478144328
30,300000,72.57718212280318,-86.375786,6.568096e-32,-53.77046,2.795748,-3.56532,748.9066,180.15578,16.399878,103.33966,103.691284,102.49729,102.387184,8.437311,0.7,-114.67916,-939.4453,0.008617513,-5.6839075,7.952078,7.571273,7.7447534,8.924889,3.4226106e-09,0.3,5.41284,81.08063,81.0666,80.58998,80.73828,0.11020866,0.4796875,7.104089021682739,22.594828017552693
31,310000,79.55566679392125,-88.32151,7.718378e-33,13.834084,2.1520014,-23.627033,848.39545,266.76483,18.567688,103.27998,103.146,103.083496,102.99759,9.568016,0.7,-117.98219,-1148.4412,0.00033155028,-4.5977015,11.485673,10.849936,9.837378,10.309126,1.1089259e-06,0.3,5.8653517,82.41773,82.373634,82.362564,82.46463,0.18205056,0.365625,8.151257276535034,23.315747185548148
32,320000,76.19626501892769,-87.43578,9.407277e-34,-25.012241,1.2996355,-21.613207,829.8795,91.64038,16.485466,102.376656,102.86428,102.70627,102.532555,9.831267,0.7,-116.06453,-693.8446,0.00049879146,-5.9240274,12.517758,15.888393,16.298008,16.493624,4.541944e-06,0.3,5.6609554,81.91533,81.88932,81.80857,81.71579,0.14735255,0.48593748,7.3994550704956055,24.024134210745494
33,330000,79.61123875482586,-85.08719,1.1944965e-34,-6.5069747,1.2438934,-16.521889,964.72217,26.355946,22.753748,102.087494,102.20894,101.575165,101.28799,3.555977,0.7,-115.2448,-795.65576,0.00014823914,-3.6725588,7.927772,10.2337265,8.691744,7.6410866,7.700874e-07,0.3,5.826702,79.25087,79.25874,79.024734,79.046616,0.14112446,0.5078125,7.853064060211182,24.735917874177296
34,340000,80.77341543146183,-87.49909,1.5085045e-35,-2.1198673,1.5875573,-7.3695946,1047.5533,49.705475,16.65036,101.8204,101.77922,101.88317,101.73728,14.8425665,0.7,-118.30808,-620.8816,1.0948526e-05,-4.6327834,3.99976,4.179863,6.900195,7.720247,1.9398867e-07,0.3,5.931737,81.69784,81.709305,81.99858,82.021225,0.20472394,0.3828125,7.839627981185913,25.45121785402298
35,350000,82.3120662193811,-84.44833,1.8644385e-36,-19.731277,3.3894665,-10.998633,1578.5121,188.17891,16.928518,102.903076,103.10755,102.613556,102.62999,8.314186,0.7,-114.43997,-741.22626,0.00020435927,-4.4925766,10.752652,9.593,9.168687,10.149697,2.7723146e-07,0.3,5.564003,78.82898,78.83823,78.503784,78.477875,0.18538994,0.4828125,7.954576253890991,26.170348922411602
36,360000,75.47531425855844,-83.85286,2.3101995e-37,-36.396744,2.0608373,-12.189957,730.9829,65.08562,18.269377,102.19642,102.09955,102.818756,102.79135,6.9239564,0.7,-112.01562,-680.4384,1.9657018e-05,-6.1329393,9.98593,9.640537,7.8084407,11.326304,3.6183512e-06,0.3,5.5145645,78.35976,78.38198,78.36442,78.406334,0.16974609,0.425,7.489593744277954,26.879413084189096
37,370000,79.61630969669142,-86.86453,3.0567936e-38,-39.269028,1.3809202,-24.538492,899.6339,51.49065,16.492476,101.007996,100.64248,100.93896,100.70306,14.823128,0.7,-111.85771,-778.605,0.00146564,-4.9098473,21.682623,21.003958,22.302744,22.348965,3.7222637e-07,0.3,5.4443607,81.514595,81.49649,81.56583,81.570244,0.1985575,0.459375,7.852236747741699,27.59635128180186
38,380000,76.557184405687,-85.428734,4.040318e-39,-5.5507555,2.4047055,3.8391106,1265.8333,188.05669,18.34965,101.38909,101.692406,102.37398,102.01793,15.084894,0.7,-115.493164,-775.7496,0.001312817,-3.681213,0.2903965,0.92507476,1.2126148,-2.2421584,5.280599e-08,0.3,5.5494018,79.91753,80.04007,80.50232,80.34076,0.22741665,0.34531248,7.392478704452515,28.301476713021597
39,390000,76.28546188473942,-84.95759,5.36802e-40,-25.300205,1.245063,-16.762854,939.8584,51.37271,17.913334,101.98716,101.977875,101.88745,101.90714,6.475839,0.7,-117.66408,-917.39014,0.0003274763,-4.9388323,17.926653,18.721525,17.438147,19.353882,2.9875619e-05,0.3,5.512787,79.52031,79.44399,79.39818,79.584305,0.14445591,0.325,7.439444065093994,29.001276818911233
40,400000,81.94886119463143,-87.93082,7.0901e-41,-17.648138,1.1430848,-4.1599693,976.40173,46.528824,17.888966,102.70544,102.719475,102.69214,102.68176,4.7456627,0.7,-118.50285,-1218.0609,0.00019819022,-6.8892365,7.2394924,5.749111,7.6685805,5.1045933,3.3960853e-06,0.3,6.0334034,81.97511,81.9201,81.917404,81.91576,0.12170853,0.453125,8.177649736404419,29.71894616683324
41,410000,82.29253828433586,-86.951935,9.803e-42,-10.11672,2.24897,-16.84821,1465.6176,292.52368,16.1599,101.30191,101.24763,100.99391,100.99018,13.619788,0.7,-112.378395,-1059.7212,0.00016939087,-2.9666753,12.933898,14.31857,14.115381,12.205119,6.7494284e-06,0.3,5.360715,81.62112,81.56676,81.45892,81.520065,0.18261835,0.42812496,8.129708051681519,30.440968112150827
42,420000,71.77434935359119,-84.9495,1.326e-42,-42.73464,1.5005069,-15.918386,1218.9664,126.09406,18.907274,100.54118,100.81592,100.8444,101.12549,7.140024,0.7,-111.6186,-1089.0463,0.00014974037,-6.6614876,11.649539,12.409601,11.502614,11.386749,2.2693537e-06,0.3,5.4835577,79.48696,79.51283,79.66742,79.59005,0.16534327,0.41875,7.047271728515625,31.143040653069814
43,430000,82.98609421397173,-85.435905,1.8e-43,-0.829689,1.3414595,-10.625042,1022.75073,54.27317,19.084759,101.93469,102.32034,102.37684,102.246544,28.472683,0.7,-111.289154,-866.79315,0.00043778552,-2.3605514,8.531632,8.068172,11.070448,9.960398,1.6298145e-10,0.3,6.0551753,79.44034,79.48506,79.71783,79.494644,0.32339963,0.4703125,8.515805959701538,31.86284716129303
44,440000,83.05605733357223,-87.59951,2.5e-44,6.8516874,1.2607398,-4.4817324,1752.3076,38.044582,22.057608,102.753235,101.44998,102.54703,101.93267,138.49893,0.7,-123.48618,-940.2458,0.0016666194,-8.756155,2.88332,4.0253773,2.7346249,3.2787027,3.4226105e-07,0.3,6.0511866,81.69196,81.59679,81.859344,81.54137,0.73614454,0.43124998,8.34535026550293,32.58537127574285
45,450000,77.71172896532266,-87.468834,4e-45,17.493258,0.99669576,-9.693535,1543.2429,23.539291,18.765759,101.383095,101.44583,101.45327,101.437614,7.686096,0.7,-116.94141,-1325.6176,0.0001468212,-4.444895,6.681904,7.724492,7.537464,7.802378,1.2170524e-06,0.3,6.2778177,81.2559,81.31494,81.34268,81.30496,0.19472983,0.49062502,7.782362937927246,33.29229402939479
46,460000,80.08492045414997,-88.66944,0.0,-24.718664,1.276597,-10.086529,1422.9481,62.419403,17.360758,101.6439,101.38716,101.36374,101.544586,6.2840915,0.7,-112.07389,-1408.0215,0.0006734832,-5.343384,3.3507404,3.5966325,1.056305,3.2619886,1.695659e-06,0.3,5.7640915,82.89896,82.929405,82.9301,83.056885,0.11489128,0.421875,8.654295682907104,34.01732005278269
47,470000,76.41829059598555,-85.55362,0.0,33.555878,0.90080285,0.27220082,1287.7828,42.947372,18.2037,102.72685,102.86203,102.29021,102.36643,2.2389355,0.7,-116.953766,-1077.7393,0.000100260426,-6.0344515,3.3692043,3.95807,3.8259604,3.6692371,6.164366e-07,0.3,5.810317,79.82268,79.75882,79.861496,79.92827,0.12545732,0.43906248,7.639799118041992,34.72159560918808
48,480000,81.82478414794352,-86.9914,0.0,18.93335,1.4240708,-11.693738,1539.4211,39.91972,17.620798,102.198326,102.6774,102.07011,102.198395,5.0132356,0.7,-115.698906,-1166.5881,0.00034066348,-5.842534,3.992842,5.3730307,6.7833805,6.2577057,5.476177e-08,0.3,5.821835,81.24633,81.28444,81.28479,81.374855,0.16576834,0.39218748,8.47168779373169,35.4433585246404
49,490000,82.53406432107975,-85.562515,0.0,-57.989758,2.1679382,-14.646545,1366.2167,202.8289,17.214151,103.391106,103.630775,104.332924,104.023605,10.26961,0.7,-116.28295,-1175.9037,0.001923058,-8.940209,14.675287,12.405735,14.282262,14.340749,1.5403319e-06,0.3,5.479,80.12666,80.23134,80.433205,80.312004,0.214852,0.421875,8.41333293914795,36.1636159936587
50,500000,75.44929796394881,-86.6571,0.0,3.6465898,2.5277746,-16.74143,1300.531,103.48572,19.869991,104.4957,105.31022,104.27464,104.79505,10.220843,0.7,-114.11584,-1184.9648,0.00015962456,-3.8638353,10.94875,11.079919,10.615991,12.400595,2.9511284e-07,0.3,5.991579,80.58738,80.68662,80.61704,80.5598,0.25898758,0.515625,7.763467073440552,36.87504502932231
51,510000,78.66322441441636,-86.72679,0.0,-42.39271,1.6579764,-20.879673,1326.8389,68.42203,25.223595,102.68195,102.69142,102.30631,102.5159,17.618551,0.7,-113.18557,-1259.5944,9.742798e-05,-7.854492,17.942827,14.136937,14.240673,12.592364,1.2915116e-07,0.3,5.7477093,81.07014,80.955124,81.143654,81.26936,0.2913301,0.42812496,8.469032526016235,37.59316229025523
52,520000,80.66093893147891,-85.51698,0.0,-13.137078,1.1336805,-25.625154,1557.5651,34.63756,17.022234,102.41439,102.337296,101.7442,101.99717,3.7199981,0.7,-115.681274,-1390.5258,0.0005850157,-3.9676337,15.8509245,16.364405,13.396126,14.31077,1.0913936e-08,0.3,5.925363,79.685684,79.59866,79.36205,79.494484,0.107118465,0.41249996,8.120702028274536,38.308287874857584
53,530000,74.44253537698008,-87.89418,0.0,-66.182205,0.95850074,-14.031375,1383.8643,27.593517,20.026226,101.468605,101.140495,101.50068,101.39876,5.9260025,0.7,-119.56534,-1376.3894,0.00010837038,-3.4069502,8.545642,8.18828,11.731007,10.965385,2.1391315e-06,0.3,5.634716,82.3407,82.25211,82.35062,82.35303,0.11782624,0.425,7.360413312911987,39.009387409687044
54,540000,81.94593785012903,-84.06557,0.0,-62.146088,1.5647982,-2.8700094,1573.546,37.36253,19.322956,100.93778,101.024605,100.91881,100.8226,9.441902,0.7,-116.901474,-1230.0393,0.00021906616,-2.8152785,3.2767718,2.0358944,-1.1140845,1.0067813,6.5045316e-07,0.3,5.6567507,78.37456,78.48245,78.52455,78.49827,0.16682011,0.40937498,7.850876808166504,39.723757819334665
55,550000,77.79205717656968,-85.815865,0.0,-35.180264,2.4020321,-14.32265,1312.9952,149.33844,18.379055,101.84649,101.8723,101.05913,101.807785,2.897216,0.7,-115.85943,-1674.756,0.0006608447,-4.0635977,6.369032,6.065304,7.714379,6.7388644,1.8290594e-07,0.3,5.8338704,80.049034,80.16232,79.87487,79.85408,0.13467708,0.453125,8.005156993865967,40.425462055206296
56,560000,82.69465111325728,-86.0858,0.0,39.341476,1.1990447,3.8306623,1592.6871,94.09796,17.179674,101.39701,101.34625,101.22893,101.1739,8.100289,0.7,-116.027306,-909.7409,0.0018823794,-5.5087585,-5.6870847,-4.5015354,-5.424096,-7.779539,6.171875e-07,0.3,5.854255,80.3653,80.40486,80.21747,80.15172,0.118272856,0.55625004,7.990395545959473,41.13023198048274
57,570000,82.05461036954547,-82.15592,0.0,-60.854908,0.997854,-10.067535,1628.6782,15.358622,14.6705,100.85572,100.47853,100.569176,100.76072,14.115481,0.7,-114.089516,-1277.0513,0.00087953,-6.9867334,6.2971005,6.241419,7.2515445,7.4941096,1.4709076e-08,0.3,5.2714047,76.92766,76.84678,77.11083,77.20556,0.22322889,0.37656248,8.198358058929443,41.83882630666097
58,580000,81.53271608052044,-87.92802,0.0,-8.953939,1.0993629,-6.140444,1487.9728,57.978863,17.114426,102.88636,102.673805,102.255714,102.648415,6.8389025,0.7,-115.26698,-1152.2506,0.0009545401,-3.4879723,6.263015,9.095368,5.6714334,5.9483647,1.776981e-06,0.3,5.8095007,82.08595,82.15524,81.85645,81.928154,0.13569558,0.4171875,8.054058074951172,42.56118580897649
59,590000,80.92782203060018,-89.04507,0.0,10.921057,1.265188,-16.128294,2373.3738,32.1642,18.780148,101.14407,101.31328,101.454865,101.715744,9.260054,0.7,-113.684525,-1195.1929,0.0004410984,-8.534927,14.2157955,14.498511,13.736351,14.357071,1.6350998e-06,0.3,5.942682,83.147644,83.16894,83.06195,83.24102,0.1625047,0.48281246,7.865746736526489,43.278621637821196
60,600000,79.72298333888992,-88.951385,0.0,20.034115,1.2090006,-11.027231,1776.4553,83.39667,16.83455,101.45051,101.36436,101.26447,101.2215,8.213436,0.7,-115.21099,-1544.2032,0.0004696236,-4.848335,8.244745,8.5010195,8.231852,8.074787,3.824942e-07,0.3,5.9624405,83.018364,83.08894,82.798965,82.79989,0.1585786,0.5203125,7.753706693649292,43.996485809485115
61,610000,74.29484948239376,-87.5862,0.0,16.561565,2.5463958,-2.4407523,1324.0983,240.45189,16.685375,101.62436,101.908936,101.75058,101.608284,38.022408,0.7,-115.82538,-1178.6868,0.0010477521,-2.1615572,1.3204634,0.4906329,0.10977663,0.46285957,5.280599e-08,0.3,6.1349792,81.49855,81.55838,81.25618,81.28238,0.4420879,0.4765625,7.295501947402954,44.70805492401123
62,620000,76.79825266530938,-87.14249,0.0,-10.778246,2.4466794,-10.605342,1446.5464,129.74702,20.19076,101.1061,101.02411,101.32783,101.28102,5.981757,0.7,-117.12744,-1134.2699,0.0018408967,-4.3823185,3.2737799,3.4378662,3.0974643,6.362971,1.9720755e-08,0.3,5.7700176,81.341,81.41394,81.36986,81.48476,0.14392728,0.4296875,7.485860586166382,45.41431188583374
63,630000,82.48314003542536,-86.27423,0.0,-30.79704,1.3727977,-22.007164,1687.898,39.005726,17.164955,102.07631,102.28109,101.8064,101.98592,4.7030096,0.7,-116.41863,-1101.7103,1.0273652e-05,-3.84867,12.144777,12.015047,13.532359,14.211068,8.050836e-06,0.3,5.372414,80.979675,81.030525,80.9623,81.18709,0.14625138,0.328125,7.96701455116272,46.13115739822388
64,640000,82.53105649679462,-87.31435,0.0,20.242462,0.95818746,3.9486842,2057.17,47.18964,20.248064,102.41172,102.05392,102.56688,102.58816,5.5343328,0.7,-116.523315,-1244.2089,0.00024135469,-2.2212505,-3.2099211,-2.4113398,0.9740673,-5.260006,2.7332396e-06,0.3,5.782186,81.72522,81.6221,81.613434,81.61505,0.095521495,0.3984375,8.046976566314697,46.85355702638626
65,650000,80.43317773039276,-83.88725,0.0,-13.763466,0.7772588,-7.230846,1877.4835,18.479897,17.195984,101.20276,101.221405,101.23082,101.357666,2.4419558,0.7,-113.21861,-1502.6741,0.0004722313,-3.0245476,4.4449,4.5892706,2.4938207,3.5197797,2.0186418e-08,0.3,5.7246523,78.13453,78.26271,78.244545,78.256485,0.103057705,0.4203125,7.850035190582275,47.576845145225526
66,660000,81.90229086712252,-88.45241,0.0,-46.01055,1.0311391,-18.027315,1679.5131,28.69418,18.393028,101.52928,101.78568,101.431625,101.239075,2.9563413,0.7,-117.996376,-1222.9142,0.0022083088,-6.587874,10.553984,11.64918,12.596704,12.649217,4.5264025e-07,0.3,5.7045135,82.90549,82.79647,82.670074,82.6676,0.12070383,0.5015625,8.034666061401367,48.29792154630025
67,670000,70.78800059799694,-87.87233,0.0,-14.337271,1.3311944,-14.204165,1505.7346,53.082794,16.94809,101.777275,102.05388,101.46353,101.26202,28.285828,0.7,-116.854,-1528.5574,0.0011427148,-2.452054,6.0232115,6.8894672,5.5749416,6.148959,1.3141363e-07,0.3,5.6833525,82.087814,82.188034,81.84791,82.00681,0.29390156,0.39999998,6.911339044570923,48.99787294069926
68,680000,80.47428156331674,-86.71419,0.0,-37.615326,1.6173608,-7.8455305,1924.5292,50.59962,19.901766,101.136566,100.27538,100.84801,101.479965,5.305691,0.7,-117.12299,-1104.5457,0.0026345267,-2.5067253,2.892558,1.0543854,2.9194026,1.5408759,7.568899e-06,0.3,5.6897287,81.07721,81.04144,80.9017,80.97472,0.17136559,0.43124998,7.740741729736328,49.7115420460701
69,690000,82.66916879075679,-84.982414,0.0,-3.5777254,1.4540284,-0.885532,2396.5972,142.38359,17.953941,100.633,100.68269,101.04782,101.12545,21.635403,0.7,-114.99391,-1353.3107,0.0005444182,-4.0766907,1.0988213,2.2479992,2.247239,2.6406202,2.1129383e-09,0.3,5.7811284,79.25612,79.3177,79.45056,79.34609,0.17934066,0.44843748,8.090431690216064,50.43441519339879
70,700000,83.03092900310487,-86.582115,0.0,-34.411167,1.168898,-8.905991,1899.6324,67.93475,19.300098,101.68315,102.26953,103.202515,102.86113,13.550717,0.7,-115.05974,-1499.4902,0.00018714747,-2.3177807,5.215478,4.6064506,1.2156867,6.654561,2.1129383e-09,0.3,6.0039034,80.67505,80.643326,80.57562,80.575714,0.21551234,0.4890625,8.130359172821045,51.15696803728739
71,710000,82.92212578962895,-83.811935,0.0,-27.826797,2.0471215,-20.428444,1467.8326,147.4273,16.760899,101.66505,101.47546,101.47897,101.514145,11.101563,0.7,-113.613014,-1656.4868,0.0009528386,-3.5413232,16.176441,15.5674095,15.063401,16.998547,9.305659e-08,0.3,5.609093,78.170525,78.11705,78.04271,78.15087,0.31814593,0.43281248,8.10049319267273,51.8776771903038
72,720000,82.7505320251158,-85.46575,0.0,25.003635,1.1865621,-17.517471,1954.0271,95.068985,17.311554,101.8616,102.12149,102.04706,101.9808,2.8367991,0.7,-116.441666,-1504.3528,0.00083339313,-5.7350063,9.618244,9.841846,9.648751,9.55744,4.249625e-07,0.3,5.891529,79.62947,79.68495,79.654396,79.65816,0.09304629,0.4875,8.040135622024536,52.59852942625682
73,730000,81.14168123017829,-82.42034,0.0,-55.590427,1.7674533,-5.314922,2369.0007,112.03882,18.61707,102.12824,102.005196,102.19745,102.37712,31.190428,0.7,-118.71782,-1834.0432,0.001920748,-4.3965487,-2.7253094,-1.7903706,1.0108753,0.3190694,2.0557054e-07,0.3,5.5694866,77.02542,77.05292,77.30037,77.178604,0.27162597,0.3953125,7.866874694824219,53.31823178529739
74,740000,83.26310206006227,-85.75528,0.0,-113.02976,3.1184168,-0.3030591,2169.98,181.20059,25.645226,101.24534,101.00052,100.54159,100.876144,21.965866,0.7,-117.06204,-1829.1276,0.0037236814,-5.0215783,0.033334136,1.0025921,1.7796352,2.3332171,1.9509736e-05,0.3,5.180251,80.74565,80.749756,80.7832,80.83405,0.2780031,0.39374998,8.02330231666565,54.03687793413798
75,750000,81.76473672750018,-85.90585,0.0,-67.1537,1.2096767,-15.278786,2567.3223,54.808716,18.984877,103.20969,103.236305,104.398674,103.9763,7.9175043,0.7,-114.117424,-1440.0388,0.0006157314,-3.235375,10.559735,10.999674,10.108204,10.7409315,6.551895e-06,0.3,5.7589035,80.11717,80.111145,80.064476,80.136375,0.18328601,0.39999998,8.101724863052368,54.755185004075365
76,760000,81.83603527984181,-87.33627,0.0,9.820383,1.3557106,-26.34343,1990.5781,71.22761,18.063248,101.08396,101.28517,101.64966,101.52786,6.0505614,0.7,-115.52286,-1807.2588,0.002692367,-4.7292604,19.360453,19.817135,20.447374,19.142511,2.7522156e-06,0.3,6.0578938,81.34964,81.50988,81.88226,81.82501,0.1926859,0.371875,7.90641450881958,55.46986168225606
77,770000,82.50994767594003,-86.40585,0.0,5.3320312,1.0685811,-20.147873,2334.8208,55.271088,18.451939,101.05445,101.53034,101.20265,100.84658,6.3696775,0.7,-117.05403,-1669.3457,0.00026190619,-6.282743,12.99071,13.481591,12.419983,14.085672,1.1175871e-09,0.3,5.8482866,80.63835,80.580215,80.78835,80.790634,0.11627345,0.3796875,7.94863486289978,56.1849436601003
78,780000,83.23026123267022,-86.205154,0.0,-32.26349,1.9363682,-21.297066,2322.7002,224.49069,20.884594,100.46927,99.84297,99.63189,99.60641,12.830254,0.7,-115.383125,-1701.8053,0.00023618259,-2.6782913,15.342399,14.117587,6.877565,13.309474,1.8558233e-06,0.3,5.7864795,80.5601,80.46846,80.45975,80.47954,0.1649592,0.503125,8.144068479537964,56.903484578927355
79,790000,77.33963518007897,-86.78286,0.0,-8.377689,1.6293067,-17.537264,2007.0573,88.28462,18.685417,101.29276,101.5787,102.152664,101.71524,22.391516,0.7,-115.44224,-1510.3472,0.0012444488,-2.939293,7.3422585,7.4214807,9.661539,8.332103,5.0772387e-06,0.3,6.0263333,80.876884,80.84184,81.09783,81.06358,0.23088776,0.37343752,7.5350000858306885,57.61304720640182
80,800000,81.0069687638015,-86.50129,0.0,-5.92144,0.8701555,-5.713434,2177.908,47.114796,18.030285,100.560394,100.40326,100.74922,100.53576,2.424825,0.7,-115.050896,-1599.8058,0.00027643546,-3.1371956,1.3480651,3.0641606,1.0326232,0.651683,2.806948e-07,0.3,6.2368107,80.35014,80.32855,80.49797,80.56798,0.10211524,0.36718747,8.289205074310303,58.33332444429398
81,810000,80.01168489972969,-88.26138,0.0,-45.737587,1.5262547,-13.200996,2308.6553,80.08374,19.346786,101.72883,101.78244,101.86855,101.82506,5.1424875,0.7,-115.302536,-1821.9148,5.6283665e-05,-1.810605,8.666211,8.574455,11.878841,10.49073,7.2671105e-07,0.3,6.035289,82.31365,82.36159,82.3493,82.22126,0.12522358,0.4671875,7.65552282333374,59.04520676533381
82,820000,82.69411069300787,-87.1842,0.0,-34.214874,0.8485359,-9.3845215,2280.7695,48.261833,18.198322,101.20036,101.22789,101.44136,101.29433,11.238908,0.7,-114.0726,-1626.7643,0.0004034579,-2.9990077,2.5863585,1.9415915,3.0375829,3.324335,5.251303e-06,0.3,5.9081917,81.281364,81.240654,81.267685,81.27197,0.19307326,0.4453125,8.148406028747559,59.76402755578359
83,830000,76.02570349741772,-84.23425,0.0,-56.214695,0.95316404,0.25765324,2065.0945,37.116226,15.421704,99.975784,100.16335,100.57611,100.29576,2.36029,0.7,-114.69502,-2025.6945,0.00012641784,-3.855155,4.0226316,5.1219883,4.149436,4.2498837,1.2325472e-07,0.3,5.746989,78.61614,78.597275,78.67426,78.60516,0.115994275,0.49062502,7.3917083740234375,60.47172205845515
84,840000,83.28151988123321,-85.207016,0.0,-38.89274,0.91997564,-9.983656,1751.0872,23.342573,17.696743,99.82095,100.69805,100.78709,100.99004,3.3205366,0.7,-112.1367,-2421.6204,0.00073255436,-4.2128544,3.9498696,3.413124,4.1130295,3.1220813,3.9934528e-07,0.3,5.842691,79.50052,79.47395,79.75474,79.82436,0.10565245,0.403125,8.129327058792114,61.188773012161256
85,850000,79.05400325646772,-84.47038,0.0,-51.614834,1.0254873,-15.383059,1969.6414,58.810867,17.315176,101.24308,101.10349,100.635506,101.06211,5.083448,0.7,-114.799934,-1514.0044,6.996683e-05,-3.44872,11.021374,11.596081,10.435097,10.639578,1.7813291e-07,0.3,5.747243,78.71434,78.73209,78.61668,78.766045,0.14925008,0.44375,7.787461757659912,61.900752834479015
86,860000,83.50164795735935,-83.654366,0.0,-67.09678,1.161665,-3.477477,1740.6974,97.94819,16.575968,100.98304,100.887665,100.882095,100.84291,6.247016,0.7,-113.76483,-1584.5632,4.4464367e-05,-6.0941334,2.3308449,3.404159,1.9772449,2.5002265,3.9917823e-06,0.3,5.5445466,78.07802,78.11697,78.12761,78.14189,0.17614704,0.39999998,8.146914005279541,62.613803549607596
87,870000,82.64811292622095,-84.5616,0.0,-30.751255,1.3068213,-8.082943,2233.8232,43.905186,17.714546,101.570015,101.813156,101.80329,101.69182,7.7674146,0.7,-113.25391,-1560.0763,0.00051399285,-7.343105,10.413057,9.182274,9.3356285,9.616559,1.4183752e-08,0.3,5.6840653,78.90771,78.936554,78.87596,78.8905,0.21811335,0.45937496,8.08091688156128,63.337306372324626
88,880000,83.57072273555141,-81.80375,0.0,-73.78584,1.4937282,-20.927557,3021.3496,73.24661,18.089687,101.33995,101.115845,101.5806,101.111084,6.3942266,0.7,-111.89401,-1621.6356,0.0005146166,-10.063948,16.26962,14.099919,17.217169,18.181152,1.8399078e-06,0.3,5.316062,76.56175,76.54465,76.47572,76.56597,0.16871458,0.4953125,8.12563157081604,64.05469092130662
89,890000,83.85370522647065,-85.59483,0.0,-38.325314,1.6081901,-13.816605,2007.659,39.6284,18.890226,100.70974,100.67715,100.602905,100.542114,6.527328,0.7,-115.04278,-1618.0554,0.0004623488,-4.852997,10.835585,12.642221,10.356492,11.33897,4.056911e-06,0.3,5.7782407,79.90288,79.88955,79.89998,79.87596,0.20408049,0.4265625,8.258980751037598,64.77544924020768
90,900000,79.21697140949553,-83.42082,0.0,-26.680334,1.1374624,-10.6028,2346.1807,32.845436,19.93805,101.288536,101.16255,100.41215,100.47806,2.976955,0.7,-116.80208,-2353.7666,0.0011031039,-5.458933,3.4716601,3.0674343,3.3082075,1.9755821,1.0139379e-05,0.3,6.0024195,77.31805,77.50343,77.11514,77.156425,0.13926683,0.5296875,7.630509614944458,65.48972971836726
91,910000,76.96063582484139,-87.48743,0.0,-34.988735,0.7102774,2.2221408,2599.745,21.394009,19.275002,102.0528,102.40767,102.22158,101.89162,15.577877,0.7,-117.66412,-1697.3313,0.00055876217,-4.885149,-4.481902,-3.2546482,-7.0808234,-7.8776054,2.6911905e-06,0.3,6.0239143,81.512764,81.45805,81.58938,81.41168,0.18537825,0.5203125,7.648985147476196,66.19922182162603
92,920000,82.928390164334,-85.73043,0.0,-75.163536,0.9224546,-10.563942,3663.0715,19.539724,24.356457,101.07353,101.133965,100.797455,101.33074,3.49117,0.7,-112.643684,-1685.3254,4.6553556e-05,-2.5704088,8.906524,9.154455,8.125981,7.36456,1.7543424e-08,0.3,5.6412354,80.22378,80.11437,79.95479,79.8172,0.1272982,0.5640625,8.207118511199951,66.91325641473135
93,930000,82.91427625832516,-88.70876,0.0,27.497732,1.4777474,-6.4354916,3014.655,106.356995,22.54887,101.15387,101.481,100.98415,100.79477,7.976122,0.7,-116.250336,-2032.1431,0.0027983545,-3.1959925,5.750513,4.4785013,3.6935897,3.00255,1.1089259e-06,0.3,6.591733,82.17857,82.097855,81.92031,81.98279,0.1636787,0.45624998,8.411848545074463,67.63588687578837
94,940000,82.64309773225878,-86.74289,0.0,-60.39263,0.91410434,-20.840385,2388.8,24.980566,20.011227,100.36813,100.84631,100.63032,100.272156,3.883738,0.7,-117.024315,-2006.6086,0.000977742,-4.1128325,17.857458,16.265205,16.470821,16.0189,1.9016444e-08,0.3,5.5828195,81.11357,81.19337,80.94805,81.00621,0.11370685,0.43906248,8.393558025360107,68.35665510892868
95,950000,79.21817083683646,-86.69665,0.0,8.353588,1.0614461,-18.550869,2399.6973,71.35168,16.195694,100.426,100.97381,100.08173,100.20773,3.630722,0.7,-113.82362,-1763.5568,0.0005504119,-7.2422857,8.567509,8.717829,11.489182,10.533971,6.572111e-07,0.3,5.6652036,81.10355,81.13496,80.99747,80.98328,0.121963106,0.46406248,8.359680652618408,69.07667790651321
96,955000,78.89491842679362,-86.72014,0.0,36.61595,1.0914283,-5.8207874,2848.0203,30.279444,23.109196,101.983315,101.68787,101.5647,102.073875,16.114367,0.7,-118.17772,-2901.6711,0.00029990711,-5.8516316,3.8941765,4.4476733,3.2660668,3.21492,2.5465852e-08,0.3,6.0852833,80.69646,80.72902,80.64166,80.69852,0.21349208,0.496875,8.05867886543274,69.50157917737961
97,960000,76.91585082720046,-85.29993,0.0,33.01096,2.087319,-11.652203,2723.0876,56.156418,18.085312,101.90569,102.1945,101.92282,104.07308,38.8514,0.7,-117.151924,-1971.3164,0.00072627823,-6.0543375,0.13813543,1.1162435,2.9544892,2.3428588,4.9051597e-08,0.3,5.9187326,79.37521,79.34297,79.869125,79.745224,0.37267718,0.44062498,7.4310290813446045,69.91233679056168
98,965000,81.66246453700482,-87.17209,0.0,-11.525225,1.391943,-13.2414,1832.2391,135.48312,19.252506,101.62699,101.91131,102.29964,102.10215,8.438975,0.7,-114.365974,-1620.1578,1.843e-05,-3.9619021,6.720462,5.3467197,4.7882495,5.2378116,1.2675952e-05,0.3,6.0407763,81.17514,81.20696,81.20736,81.2749,0.16751158,0.3984375,8.498374700546265,70.34609128634135
99,970000,82.80028453445246,-85.91199,0.0,-86.67052,0.69431424,-15.3373165,2455.7463,9.648378,17.468925,101.61781,101.54224,101.14745,100.90041,2.733514,0.7,-117.06615,-2118.958,0.0006075159,-6.8935385,5.6222363,7.150778,7.6340733,6.7634225,5.1349343e-06,0.3,5.872736,80.0918,80.08762,79.89813,79.848755,0.10499956,0.525,8.691808223724365,70.78278952439626
100,975000,81.32581496443441,-84.983765,0.0,-56.415035,1.9975178,-15.315935,2204.3918,41.928047,18.049463,100.358635,100.479126,100.486244,100.6152,5.0781918,0.7,-114.5683,-1971.6825,0.0012892748,-5.0471563,11.063131,15.958052,11.438175,13.228334,2.2006861e-06,0.3,5.594899,79.46185,79.49691,79.636345,79.68159,0.19407436,0.403125,8.305877208709717,71.21471219857534
101,980000,82.3544418014991,-85.95476,0.0,-45.170044,1.5638461,-20.748981,3329.9316,148.11685,20.116047,101.65465,101.65997,101.55502,101.58406,6.2646575,0.7,-118.94702,-2517.1362,0.00078416406,-6.4027767,9.330545,11.167998,11.281581,11.061764,3.9934528e-07,0.3,5.731143,80.290726,80.353424,80.14232,80.17769,0.107524216,0.521875,8.466431617736816,71.6479702393214
102,985000,82.92570492716311,-85.71591,0.0,-65.585724,1.2604083,-14.471296,2154.594,45.654522,17.113106,101.27464,100.91272,100.85678,101.089264,11.619896,0.7,-115.40567,-2179.3486,4.4830667e-05,-4.47881,13.530671,12.173463,11.42217,13.137875,1.4231581e-05,0.3,5.446249,80.38133,80.26245,80.2641,80.501274,0.20316724,0.39374998,8.435982942581177,72.0742664972941
103,990000,82.66703221499296,-84.93095,0.0,-91.88688,1.4616659,-4.283419,2492.1333,60.17069,18.127151,100.54743,100.51123,100.91119,100.60337,6.201072,0.7,-114.38925,-2497.9192,0.00091983576,-4.004415,0.7200438,2.5113,1.2235512,1.4492514,1.5360838e-05,0.3,5.852045,79.09507,79.22456,79.21182,79.141556,0.1504462,0.515625,8.504059314727783,72.50926538308461
104,995000,76.41233973726774,-86.69396,0.0,-2.2075987,2.2280583,-14.545588,2200.6567,193.23059,18.327309,101.426765,101.21634,101.486404,101.267044,11.082922,0.7,-113.38775,-1765.5154,0.001951409,-3.3781223,6.6152782,8.074156,7.3773003,7.1455774,1.0913936e-08,0.3,5.8212214,80.889595,80.97853,80.94219,81.06459,0.18097503,0.42343748,7.728904724121094,72.9289666056633
105,1000000,80.77955465866211,-88.989624,0.0,28.053577,1.1207159,-12.368888,2626.8953,41.473404,18.934324,102.06209,101.354034,101.781944,101.81488,9.45219,0.7,-118.17294,-2201.3179,0.0028765246,-5.338353,16.67883,17.257315,16.966576,17.039589,3.824942e-07,0.3,6.024994,83.09027,83.13442,83.25497,83.3287,0.12513797,0.39374998,8.28825306892395,73.35931498607
