Xixo99/comfo/baselines/comfo6_perterbation_actor/20230225_noise0.01/walker2d-medium-v2/COMFO6_s2_20230224_210832_walker2d-medium-v2_81.09.csv
,step,reward,actor_loss,alpha,alpha_loss,critic_loss,max_actor_loss,max_alpha_loss,max_critic_loss,max_mle_prob,max_q1,max_q2,max_target_q,max_v,max_value_loss,max_weight,min_actor_loss,min_alpha_loss,min_critic_loss,min_mle_prob,min_q1,min_q2,min_target_q,min_v,min_value_loss,min_weight,mle_prob,q1,q2,target_q,v,value_loss,weight,eval_time,time
0,0,2.860628818486789,,,,,,,,,,,,,,,,,,,,,,,,,,,,,,,,,
1,10000,68.10798664673129,-36.83159,0.0832195,-3.8790233,0.6534896,-8.805544,34.728554,28.808578,17.195631,47.217583,47.33658,46.649784,46.247726,1.2831728,0.7,-56.47065,-34.699875,0.0005857423,-5.3428593,6.0807357,6.102276,5.865919,5.397296,7.6065774e-08,0.3,4.856969,32.371014,32.342957,32.28096,31.810955,0.038048305,0.45937496,7.140223741531372,2.188470999399821
2,20000,79.96299727264642,-56.213455,0.00577791,-4.63426,2.1187599,-16.025394,47.710274,146.70267,16.510654,70.21343,69.87162,71.17346,70.96423,4.711494,0.7,-79.56472,-59.90567,0.001199092,-5.841628,8.100057,7.7080035,10.631218,9.96356,1.4941179e-07,0.3,5.1168594,51.188206,51.122307,51.681396,51.348946,0.10094884,0.37812498,8.988357543945312,2.9305010120073955
3,30000,59.867544874321844,-68.5659,0.00038052903,-8.431773,1.3664914,-11.635398,73.8613,42.451355,16.562944,86.30635,86.41129,86.51063,85.87854,4.3954782,0.7,-98.64506,-70.01199,7.740627e-05,-4.1363115,13.626744,13.510818,12.178917,12.724229,3.6714483e-09,0.3,4.9124317,63.688316,63.674934,63.84556,63.465443,0.14380062,0.45,6.602670431137085,3.6291364312171934
4,40000,79.95525026882736,-74.24308,2.5741314e-05,-8.697475,2.0985878,2.0655432,126.250565,89.374054,18.424843,97.34656,97.071945,95.0866,97.39845,14.366582,0.7,-110.57224,-119.79444,0.0044044037,-4.127396,-1.5377164,-0.8631129,1.5892117,1.1262884,1.7968704e-08,0.3,5.3597813,68.87765,68.87361,68.48129,68.50612,0.17960791,0.453125,8.920822381973267,4.369983279705048
5,50000,74.48449574948947,-81.11566,1.8512018e-06,-14.749018,1.8384225,-2.8714142,142.25397,97.41034,15.825471,99.57791,99.35785,100.316246,99.59334,4.1628523,0.7,-113.74887,-138.2243,0.0012245416,-5.092016,-2.4993482,-3.3919106,0.7577127,0.45519975,3.0656986e-06,0.3,5.0471597,76.08988,76.15183,76.13588,76.03859,0.16088623,0.4765625,8.148416757583618,5.097179782390595
6,60000,65.05734913399243,-84.15904,1.361851e-07,-2.6137092,1.529115,-6.876711,177.80093,50.475555,18.249025,101.47219,101.26481,101.63196,102.01868,5.5390773,0.7,-116.01098,-167.83899,0.0017887829,-5.620129,0.5219437,1.8637702,1.2980019,1.2618513,7.699058e-06,0.3,5.5832644,78.49904,78.513275,78.31912,78.432495,0.1218901,0.4140625,7.281557083129883,5.808197363217672
7,70000,75.35313840344328,-83.71834,1.0627617e-08,-3.658115,2.075668,8.496665,243.70592,75.6968,18.462893,104.529915,104.08554,104.88963,104.63563,4.048428,0.7,-118.30043,-182.40211,0.0014217771,-4.0276732,-4.7960615,-4.8158827,-1.7054532,-5.2908187,3.7757857e-06,0.3,5.473559,78.27673,78.244934,78.53104,78.53134,0.17973956,0.415625,8.213080167770386,6.539237630367279
8,80000,65.2692999728052,-86.455696,8.4557794e-10,-3.7263248,1.8939167,-23.6031,229.76021,56.177742,19.709103,105.210304,104.229576,104.47078,104.536606,4.4686627,0.7,-117.315704,-201.12419,0.00011057971,-8.744619,14.851973,12.516838,12.546394,14.080155,6.366463e-07,0.3,5.655611,80.83684,80.798874,80.96562,81.1609,0.18145335,0.3796875,6.929469347000122,7.244371338685354
9,90000,64.34682262970438,-87.53626,6.8803865e-11,-11.515898,1.9107819,-8.470829,261.42105,195.08997,20.624134,103.92096,103.363174,103.14943,103.411476,9.211986,0.7,-115.27054,-254.12863,0.0004835451,-7.29967,6.126143,5.5416484,4.6418133,4.5342093,6.885966e-09,0.3,5.382083,82.26683,82.22427,82.470764,82.462814,0.21609835,0.403125,6.5789806842803955,7.9438388029734295
10,100000,64.36461150850987,-87.07562,5.8646534e-12,4.107666,2.565522,-16.426455,436.15457,93.761444,19.235083,104.13534,102.587975,102.52544,102.72089,2.4813473,0.7,-118.85205,-267.54935,0.00026601047,-7.834774,14.302695,16.326273,12.284301,15.777882,4.2808097e-07,0.3,5.5811286,81.521576,81.54356,81.782,81.91591,0.11380599,0.39218748,7.195805788040161,8.65704261859258
11,110000,70.19135585501456,-87.1124,5.107109e-13,-21.841831,1.1496882,-16.35462,437.96774,61.119667,17.67506,102.822624,103.313995,102.8127,103.09809,3.6353703,0.7,-117.520874,-277.91803,0.0003175515,-3.8922777,19.213724,19.639862,20.851109,20.376568,3.3347578e-06,0.3,5.3350224,81.806076,81.78639,81.96055,81.91104,0.12567452,0.375,7.809850215911865,9.372767984867096
12,120000,76.70680761475013,-82.80533,4.5544823e-14,-21.892996,5.493797,-15.337373,279.09705,929.5938,14.781609,103.16564,103.669,104.242065,104.794716,8.454059,0.7,-115.18925,-343.5936,0.00068749796,-3.0321035,10.590121,12.481512,12.337216,12.37635,7.21977e-06,0.3,4.9566507,77.847,77.81993,78.11998,78.160164,0.16710207,0.4125,7.687624454498291,10.096261632442474
13,130000,84.4987692572949,-83.92262,4.0923783e-15,-0.8921156,3.7103698,-5.9719524,561.2007,314.1877,21.07995,103.01308,103.05148,102.959236,102.95375,10.5188465,0.7,-114.41964,-352.5453,0.0004738553,-6.6721106,-0.2690992,2.989512,2.4554105,0.7615787,7.3743723e-07,0.3,5.6665287,78.352585,78.2333,78.40132,78.19371,0.20758425,0.475,8.89729928970337,10.842790909608205
14,140000,71.83857764055267,-87.16231,3.8073906e-16,-8.219299,1.4174126,-2.748877,500.99472,44.077244,17.114592,104.874565,106.07391,104.70976,104.20243,3.095197,0.7,-115.53123,-307.499,0.0006598619,-5.9774365,7.7880244,7.7571073,7.1011972,7.4307423,1.6298145e-08,0.3,5.6512985,81.57384,81.4682,81.35295,81.271935,0.13180846,0.49062502,7.311070680618286,11.557702072461446
15,150000,79.02340600395348,-88.647934,3.6289495e-17,5.579444,3.5135634,-5.1847568,450.34406,376.466,23.895742,104.98127,105.284676,104.59734,104.28904,4.0474777,0.7,-117.65912,-379.33075,0.00092293986,-3.5921097,1.3786641,1.0622114,-1.4039837,-0.21607837,1.7326967e-06,0.3,6.064828,82.67163,82.64412,82.4008,82.44955,0.12974826,0.4484375,7.993962049484253,12.286053880055745
16,160000,73.62469091920954,-86.97567,3.4959746e-18,-16.165169,2.1801648,-5.8229594,444.78488,47.364914,16.144363,103.80499,103.712326,103.50921,103.68198,19.912241,0.7,-117.06618,-470.45667,0.0005776068,-4.8577147,2.9964209,2.7940345,4.6812496,2.2767458,2.9703369e-08,0.3,6.04636,80.99599,80.96483,80.739914,80.83067,0.22615418,0.459375,7.424894571304321,13.007462056477864
17,170000,76.5009601465518,-86.186264,3.384589e-19,1.0764475,1.5596664,-8.093227,454.92953,31.57151,18.058012,103.06833,103.211784,103.17256,103.10526,3.397173,0.7,-116.52527,-309.19135,0.0027968357,-4.6095886,1.8457024,1.8022575,4.521452,4.9918003,2.9059012e-07,0.3,5.448182,80.72554,80.731155,81.0145,81.01463,0.13278492,0.4109375,7.9362218379974365,13.732990062236786
18,180000,75.92594232455852,-84.27767,3.37797e-20,-36.232742,1.6112936,-13.487181,539.6351,56.60015,17.399485,102.32025,102.6088,102.53903,102.61695,6.9364533,0.7,-116.35278,-429.12274,0.0016780978,-7.2080812,7.7871604,5.715747,8.132589,6.8876085,2.724555e-06,0.3,5.1917005,79.029144,79.138794,79.36344,79.413086,0.21459723,0.37812498,7.71450662612915,14.459090105692546
19,190000,76.05851635969636,-85.79187,3.451735e-21,-27.447966,1.7238712,-7.379941,763.7009,59.789223,17.94202,103.20819,103.397995,103.28645,103.37943,3.806012,0.7,-115.21091,-505.9783,6.216405e-05,-4.8623095,3.131605,5.7759285,5.5766454,4.8559585,1.8346329e-07,0.3,5.3355346,80.47478,80.5313,80.521576,80.32457,0.16306376,0.38906246,7.940507173538208,15.190920134385427
20,200000,80.31670215561313,-86.43131,3.544903e-22,-32.528214,1.247232,1.9022453,579.05756,42.854843,15.7884865,102.49766,102.76048,102.876724,102.94411,11.011677,0.7,-114.04791,-565.8402,0.0032294816,-5.932786,2.2387974,2.5397768,0.8569263,1.2452645,1.5973811e-06,0.3,5.322213,81.18866,81.18839,81.15713,81.19107,0.2038711,0.41406247,8.411797523498535,15.925842849413554
21,210000,82.817060341412,-86.90718,3.6857345e-23,-10.511212,0.9880005,-5.580654,635.62006,24.27332,22.672863,102.62348,102.44662,103.28164,102.678955,2.355409,0.7,-117.19328,-553.6854,0.0004946842,-4.534524,-4.5887995,-5.4136486,-5.8685784,-6.2534,9.193172e-06,0.3,5.560279,81.43592,81.33057,81.50949,81.59236,0.09928405,0.3703125,7.845109224319458,16.649020779132844
22,220000,79.51902635744756,-87.402985,3.9977128e-24,-12.044571,1.2293582,4.394335,801.4162,48.76747,19.637817,103.24549,102.58998,103.12572,102.34483,14.122945,0.7,-118.14484,-534.5264,0.003456798,-8.163164,2.927418,0.1529749,1.9387066,1.3789797,2.3093891e-07,0.3,5.864691,81.6534,81.54021,81.840904,81.83573,0.16031788,0.43906248,7.897276163101196,17.37661333878835
23,230000,76.36430763773933,-83.93434,4.354348e-25,-18.653887,1.4159646,-0.00937891,635.47577,51.217888,17.746632,103.91097,103.95265,103.85322,103.79802,6.8134856,0.7,-120.211685,-615.1396,0.0011043414,-3.8454843,-1.0011995,-3.4453173,-3.50035,-6.387968,5.57804e-08,0.3,5.4154706,78.61105,78.576515,78.70422,78.483635,0.14535764,0.578125,7.7545249462127686,18.101188830534618
24,240000,84.10256650533368,-88.249435,4.837283e-26,-9.395023,1.1811926,-26.522167,637.18604,34.464287,17.53556,101.89678,102.21863,102.5653,102.48473,5.8367815,0.7,-118.272995,-646.04425,0.0025991073,-3.9377985,22.099426,22.190203,21.69437,22.022902,2.7939678e-10,0.3,5.6145763,82.690094,82.66885,82.63898,82.71942,0.10609543,0.4375,8.592904090881348,18.843598226706188
25,250000,81.09796094931613,-83.875336,5.4314853e-27,-43.545235,1.237231,-13.658902,596.0383,46.27984,16.619675,103.32798,103.04553,102.6794,102.4663,1.9680796,0.7,-114.84924,-711.5649,0.0005163898,-7.9522924,3.9593055,7.531957,6.2531996,7.5352874,5.476177e-08,0.3,5.270134,78.69783,78.69239,78.8277,78.72869,0.094326265,0.434375,8.632312059402466,19.590625325838726
26,260000,76.52356556806305,-84.56972,6.122385e-28,-11.482459,1.3299482,8.43732,811.70624,40.06495,20.112522,103.533005,103.70856,103.761116,103.98004,9.442455,0.7,-114.9772,-592.98206,0.00015603594,-5.610674,-1.7924798,0.13992453,1.7191664,-2.6928337,2.5749207e-06,0.3,5.578042,79.081406,79.08382,79.12845,79.12367,0.147549,0.421875,8.209939241409302,20.321578176816306
27,270000,76.94777174290807,-84.08937,6.973892e-29,-30.223503,1.2315274,-6.335969,746.304,34.041924,16.700378,103.76757,103.99864,103.58692,103.74557,4.0463467,0.7,-115.0594,-565.181,0.0011672745,-3.7726545,0.90262926,3.187352,0.89558244,4.299215,9.2375565e-09,0.3,5.4079447,78.6983,78.68065,78.504395,78.55092,0.098263115,0.4578125,7.964981555938721,21.051701176166535
28,280000,61.61069085190475,-87.88855,8.188367e-30,-31.421488,2.3201222,-16.319016,914.1451,252.99393,19.77585,102.27626,102.02515,102.66991,103.123825,8.609525,0.7,-112.75511,-719.689,0.00138734,-3.2899542,8.44357,8.185901,1.2300395,8.367245,1.05978685e-07,0.3,5.956484,82.04615,81.95389,82.052124,82.00711,0.14537242,0.49062502,6.409996271133423,21.75872910817464
29,290000,71.48368968401925,-87.06975,1.0044272e-30,3.1924648,2.3078737,-5.1972556,816.1758,231.34464,19.361416,102.91133,102.88,102.98849,102.830345,29.306517,0.7,-118.29637,-623.84064,0.0007073875,-4.523745,6.814293,6.5614057,5.647198,5.708185,6.5718194e-07,0.3,5.940612,81.17174,81.12605,81.05925,81.22585,0.31284514,0.42343748,7.260446786880493,22.471618604660033
30,300000,77.12495227723306,-87.06511,1.1992145e-31,-17.537148,1.8921762,-2.9624805,690.4693,82.06421,17.515171,103.0064,103.22963,102.90895,102.46322,5.012685,0.7,-115.2169,-810.3765,8.2014885e-05,-8.19278,2.8042097,2.2315288,-1.2184849,-0.06629425,1.5759724e-07,0.3,5.5699067,81.57033,81.585976,81.39584,81.37456,0.1427771,0.49062496,8.057405948638916,23.203415203094483
31,310000,81.39275255981305,-89.45932,1.4613981e-32,-18.728127,0.82015765,-27.830677,971.9447,20.999228,20.4169,103.031784,102.95697,102.55437,102.43146,3.3867621,0.7,-118.29142,-598.28723,0.0004954937,-5.282209,16.759485,15.211339,16.715134,14.763393,3.0367112e-06,0.3,5.8040075,83.771194,83.71687,83.76576,83.75021,0.12647213,0.41249996,8.565191984176636,23.944403568903606
32,320000,79.93488419425199,-87.802925,1.7692692e-33,-33.07705,0.9762466,-4.5596395,981.3407,13.835367,17.784458,102.46113,102.51583,103.22952,102.66122,6.0299478,0.7,-118.32219,-670.44025,0.00023971574,-4.0019407,0.5929386,-1.369433,1.4757026,1.3780779,2.7543864e-08,0.3,5.68583,82.26793,82.11931,82.43178,82.19919,0.1424228,0.50312495,8.624099731445312,24.682588942845662
33,330000,81.24346586936537,-85.76775,2.2296051e-34,-5.339548,2.1363022,4.607658,899.70526,197.44693,18.090317,102.10908,102.629814,102.67996,102.254524,9.11441,0.7,-113.073296,-1051.7755,3.5086956e-05,-4.1672373,-4.4107475,0.23632681,-0.48957717,1.6102626,3.6151324e-08,0.3,5.513076,80.22011,80.22909,80.034225,80.28711,0.14628464,0.41562498,8.800638198852539,25.422946472962696
34,340000,77.33969380475631,-84.06673,2.8567698e-35,-35.087353,2.6027315,-20.958992,897.967,328.29346,16.123692,101.36566,101.641106,102.025764,101.6475,8.823073,0.7,-114.37224,-947.8108,0.0031486568,-3.2013154,20.157373,20.092821,21.09787,21.578074,2.8544937e-05,0.3,5.6606455,78.47994,78.498405,78.60553,78.466774,0.16349818,0.4390625,8.611632823944092,26.159195200602213
35,350000,82.72126690690116,-87.08862,3.6727978e-36,-29.574608,1.384872,-17.536703,910.8798,32.112186,16.561762,104.68426,104.46347,103.723015,103.7427,2.946786,0.7,-115.01619,-1057.3322,0.00097013835,-3.2327633,12.8867855,10.004029,9.787796,8.064484,4.0664036e-05,0.3,5.907633,81.21924,81.26227,80.89643,81.144196,0.12752216,0.403125,9.088006973266602,26.9013312180837
36,360000,83.2459169218846,-87.90256,4.9087853e-37,-14.660242,2.0579238,-11.103933,894.43427,104.52936,17.164602,100.70949,100.83415,101.8727,101.21692,12.942869,0.7,-112.47041,-1064.3984,0.00027159695,-7.966658,3.1530092,2.5964236,1.579109,2.13973,3.8615267e-06,0.3,5.4678535,82.517296,82.56093,82.48433,82.51277,0.23770064,0.52031255,8.926369667053223,27.63759805758794
37,370000,76.95147786661799,-87.27075,6.407855e-38,-44.20958,1.6027007,-14.219059,1156.9713,109.74089,18.119083,101.04028,101.008644,101.10582,101.0108,3.9122138,0.7,-117.70706,-886.16223,0.0026951055,-5.6467533,14.801573,12.972175,15.396032,14.981589,4.541944e-08,0.3,5.6418347,81.70058,81.61978,81.79552,81.86986,0.13311101,0.41249996,8.391009330749512,28.37060960928599
38,380000,71.51134083173999,-86.50961,8.77659e-39,-13.641538,3.7249448,-5.7548532,1214.2261,236.17427,18.675444,101.89893,101.647736,101.553604,101.96865,10.035763,0.7,-116.08115,-980.4945,0.0017350877,-3.981461,5.627265,6.432468,0.9949943,5.382086,7.3551378e-06,0.3,5.7911196,80.78778,80.771996,80.9547,81.08894,0.20565565,0.35156247,7.70839786529541,29.093038499355316
39,390000,79.40544834940681,-87.67686,1.24411e-39,-18.186466,0.95796156,-15.547455,914.64813,39.260582,17.247057,101.574844,101.456055,101.44974,101.15139,4.9920855,0.7,-116.4914,-1094.0345,0.000761935,-6.247383,13.1271515,10.934606,9.5192,11.785252,1.3217215e-07,0.3,5.695455,82.18883,82.029854,82.0921,82.02974,0.10179903,0.46249998,8.508931159973145,29.821943640708923
40,400000,78.88931760017047,-87.990555,1.7351e-40,-6.1954126,0.99868333,-4.707116,1240.7708,30.621792,19.823414,101.60041,101.36199,101.08534,101.41803,6.280813,0.7,-118.35821,-1212.9984,0.00023860543,-3.3763952,0.80066496,0.040648878,0.37541723,0.13780797,2.7543864e-08,0.3,6.0824556,82.03381,81.94758,82.13634,82.05036,0.13505271,0.4109375,8.27885389328003,30.549905069669087
41,410000,80.96690514294988,-87.16002,2.3873e-41,-18.147667,1.2964749,-7.676941,956.63,39.10488,18.240694,101.11711,101.47411,100.65465,100.691696,19.91129,0.7,-116.938866,-891.88226,0.002433367,-2.1000996,7.85517,6.864998,5.6177783,0.6344868,1.174165e-07,0.3,5.756361,81.51575,81.45982,81.17771,81.210014,0.28780857,0.4421875,9.065758228302002,31.289838723341624
42,420000,82.25137721697465,-84.71496,3.28e-42,-27.200966,2.446816,-4.9078975,1153.3678,72.295815,19.822956,101.3794,101.68609,101.70999,101.70955,15.830806,0.7,-117.34102,-1084.318,0.0025555575,-6.9478927,2.8056865,3.530307,8.699663,4.5251374,3.3003744e-07,0.3,5.772052,78.980705,79.063324,79.109344,79.137314,0.2677284,0.41875,8.619930982589722,32.02113622426987
43,430000,79.18641882700685,-85.135925,4.64e-43,-36.830788,1.1717639,-4.3640018,981.5304,64.62905,15.654411,102.21587,102.02257,101.74524,101.81918,7.6485634,0.7,-116.953316,-1479.4564,6.346534e-06,-3.8591423,7.365322,6.336558,6.270741,6.518853,7.04579e-07,0.3,5.5350337,79.68977,79.63028,79.68797,79.61498,0.09233843,0.5140625,8.161886930465698,32.751935704549155
44,440000,78.46516563681196,-81.86623,6.6e-44,-32.946053,2.7442198,-7.052409,1472.5342,346.0121,19.288355,100.77415,100.77923,100.40269,100.54197,7.690645,0.7,-115.862564,-1413.4103,0.00015351415,-6.7352133,-3.1915092,-1.5365467,-0.23941547,1.411058,3.2820643e-07,0.3,5.3370905,76.55943,76.54749,76.52384,76.54779,0.26602355,0.48749998,8.338236093521118,33.485834876696266
45,450000,82.26485794431684,-86.253815,1e-44,-28.318624,2.0540042,-23.572105,1083.6411,237.09009,16.576536,101.70115,101.84445,101.524605,101.77444,4.7824492,0.7,-114.30493,-785.0436,0.0023528787,-5.01738,18.476595,17.804895,18.254711,18.006065,3.6629617e-06,0.3,5.7073016,80.63225,80.62756,80.84838,80.64833,0.11584544,0.49531248,8.418218612670898,34.215283592542015
46,460000,80.36094688725306,-86.56044,1e-45,7.241581,1.2577,-17.118542,1378.6256,42.268833,18.28819,101.311745,101.90561,100.760445,101.4059,6.7189326,0.7,-117.2301,-983.00323,0.001001256,-4.0477953,13.355178,13.119361,12.743376,12.879631,2.3093891e-07,0.3,5.9841547,80.7027,80.710175,80.46478,80.49545,0.15381561,0.4734375,7.99411153793335,34.94408144156138
47,470000,83.48594348581157,-87.540596,0.0,-35.900696,1.2778103,3.2087882,1345.056,43.953682,19.110794,102.12175,102.606514,102.42045,102.62502,15.909231,0.7,-116.56029,-1105.7603,0.0011144103,-3.887617,-1.6276205,0.77152896,-1.3726108,0.6126151,4.4921762e-07,0.3,6.003636,81.6075,81.696556,81.69304,81.78685,0.1757918,0.39687496,8.448188781738281,35.681260446707405
48,480000,83.24558937872627,-85.65423,0.0,-55.853767,1.1398653,-0.7248142,1627.0106,83.47335,19.608318,102.299805,102.09247,102.47689,102.51952,6.937559,0.7,-115.604774,-996.39624,8.190889e-05,-3.9001348,0.17400849,1.3210094,0.6040652,1.5890398,1.1804514e-08,0.3,5.811545,80.01004,79.91496,80.02957,80.0035,0.13946989,0.4296875,8.376795768737793,36.41337684392929
49,490000,81.62804695376774,-85.10559,0.0,-25.886309,2.1735616,4.4671764,1359.7662,193.76218,17.114834,102.44426,102.193054,102.1089,102.31435,6.3086066,0.7,-112.473404,-1180.5447,0.00050384755,-5.111521,1.7172023,1.0286821,1.4602525,1.5415665,3.1355304e-07,0.3,5.6075497,79.656044,79.57108,79.4766,79.70984,0.17246172,0.4671875,8.247846841812134,37.14533506631851
50,500000,83.06275117307736,-87.167206,0.0,59.23317,1.4995074,-2.9306254,1586.3815,69.49538,18.232504,101.63435,101.61859,101.751785,101.22391,5.9416795,0.7,-116.53675,-899.8887,0.00057069235,-5.248619,4.3992896,4.9618354,3.5018523,4.0297456,9.848754e-06,0.3,6.328166,80.674774,80.76639,80.78952,80.79934,0.17922938,0.403125,8.372066736221313,37.88331693808238
51,510000,83.02221349542872,-88.65729,0.0,-45.544388,1.1374056,-8.946452,1227.9995,36.099663,18.10648,101.74447,102.212166,101.45702,101.63971,4.3988514,0.7,-113.23689,-1184.105,0.00031423572,-6.2034864,10.560272,10.910562,11.315725,11.003056,1.9992586e-07,0.3,5.668465,82.97119,83.05376,83.20905,83.15712,0.13483982,0.44375,8.341161012649536,38.616808354854584
52,520000,78.13803061919342,-85.70073,0.0,-11.338306,0.854485,-7.6960044,1379.6775,15.7953415,18.553602,101.42169,101.61469,102.003716,101.27512,4.995008,0.7,-115.557144,-1142.4119,9.9785175e-05,-6.42837,3.6926208,3.7136424,4.4745746,5.198813,1.2325472e-07,0.3,5.7819057,79.93819,79.976234,79.91922,79.91411,0.13661297,0.4640625,8.029246807098389,39.34231326977412
53,530000,81.62992202549711,-87.591286,0.0,-15.113958,1.3331349,-23.412056,2059.5676,47.31516,26.11198,101.095566,101.17206,101.223114,101.264565,3.6419258,0.7,-119.74315,-1004.8194,0.00039994402,-4.553082,22.994778,22.884611,22.490276,22.438244,1.5716069e-10,0.3,5.9014015,81.708755,81.725494,81.707245,81.605606,0.13161848,0.4984375,8.599493741989136,40.078762431939445
54,540000,82.20437059183334,-86.100136,0.0,-69.05434,1.8506081,-23.47889,1434.0918,158.70462,15.894856,101.35107,101.33142,101.36665,101.18155,2.6699474,0.7,-110.18018,-1104.1089,0.0012772288,-6.726883,15.684053,15.5758915,16.84138,15.914248,1.4144462e-09,0.3,5.4315877,80.59813,80.649574,80.41018,80.5218,0.11219448,0.38124996,8.513826847076416,40.81336539586385
55,550000,76.33425208793558,-85.90935,0.0,0.8189163,1.7122221,-23.384174,1890.9131,105.27927,19.138737,102.09632,101.80525,102.86257,102.8816,17.313791,0.7,-119.40149,-1156.5632,0.0010651913,-3.8974915,21.869274,21.577026,22.237608,22.185686,7.4258423e-07,0.3,6.0930347,79.78378,79.83121,79.64352,79.699196,0.2149287,0.4140625,8.02384901046753,41.54093077580134
56,560000,83.58708190356725,-87.905685,0.0,-21.465994,1.576011,-27.660328,1457.0546,114.53798,18.970089,101.480865,101.610886,101.7142,101.01667,1.9714841,0.7,-115.78325,-1400.2659,5.2571762e-05,-3.8405294,21.925837,21.660574,21.415806,21.896465,2.8290016e-08,0.3,5.992677,81.98149,82.07401,82.10655,81.91377,0.08024816,0.478125,8.400915384292603,42.275468258063
57,570000,80.63199478708994,-85.21897,0.0,-43.960907,1.8853903,-4.789174,1395.4221,158.81238,17.093409,100.97356,101.39141,100.885826,101.000694,3.907108,0.7,-113.67659,-1105.5459,0.0009782487,-5.867174,4.106427,3.8098612,4.98248,4.975556,6.171875e-07,0.3,5.454855,79.8966,79.8074,79.55599,79.60924,0.13946664,0.49531248,7.95069694519043,43.002769923210145
58,580000,82.70786847287144,-88.16322,0.0,-49.30207,1.9423046,-12.928419,1423.9042,118.007164,16.735104,101.89532,101.73087,102.03283,101.80235,4.8659806,0.7,-112.84163,-1137.9603,0.00012595963,-4.0783806,14.566276,12.160493,15.356654,14.792919,1.0171672e-06,0.3,5.77711,82.51223,82.43794,82.65573,82.676285,0.10872856,0.4375,8.117772102355957,43.73489706118902
59,590000,80.92066737541253,-85.18995,0.0,10.108818,3.6150892,-12.407158,2011.854,505.92444,20.499062,101.53613,102.180725,102.22656,102.41592,10.8451185,0.7,-114.48768,-1770.8431,0.0011654563,-2.69091,9.697415,10.12169,9.194275,12.542194,3.5458652e-06,0.3,6.049426,79.3005,79.114456,78.95425,79.085,0.23411995,0.47968748,7.867414236068726,44.459022200107576
60,600000,83.98755918132143,-84.303024,0.0,-17.40578,1.7813691,-11.648629,1486.1661,105.04018,17.741035,101.16936,101.09231,101.071465,100.909225,10.73998,0.7,-118.088554,-1439.6527,0.0015189594,-3.363675,9.405786,9.7682495,9.980179,10.829411,2.9438525e-07,0.3,5.726074,78.61589,78.48824,78.283936,78.26686,0.22521462,0.43124998,8.25491213798523,45.19119166135788
61,610000,83.61398316116335,-85.69562,0.0,-11.83924,2.3541012,-8.571289,1325.3738,266.57672,17.86719,101.16949,101.433464,100.88098,100.71599,5.0341344,0.7,-116.296555,-1608.849,0.0028301105,-5.9048004,1.4116565,2.1233811,-0.583817,-1.1553328,1.2102391e-05,0.3,6.0274057,79.695114,79.867485,79.97635,79.82631,0.15093729,0.4265625,8.01883864402771,45.904789769649504
62,620000,84.47346856136909,-86.37607,0.0,-24.047806,1.1788915,-10.748752,1775.7911,24.317131,21.942942,101.42704,101.44694,101.59187,101.5719,5.922606,0.7,-116.38457,-1346.2382,0.00022412708,-5.096157,13.117597,11.92604,13.703445,14.063647,1.6031962e-06,0.3,5.6295047,80.712524,80.82111,80.69066,80.70703,0.13542858,0.44687498,8.112843751907349,46.62230064074198
63,630000,82.39744189282048,-86.29468,0.0,-35.064293,1.6913818,-11.249893,2306.1948,105.606125,18.563297,100.45997,100.34369,100.796135,100.32783,4.1014233,0.7,-117.38429,-1267.3557,0.00041835126,-3.9574573,5.493067,6.4419646,6.735909,7.083403,5.347829e-07,0.3,5.705367,80.75026,80.684235,80.66083,80.71343,0.13289693,0.47031248,8.391106605529785,47.33834992647171
64,640000,82.716525617078,-87.13611,0.0,-75.19231,1.9444239,-9.842453,1265.9269,72.74136,17.681917,101.02505,101.18406,101.347244,101.19876,7.581554,0.7,-115.30581,-1325.2161,0.0005333044,-6.310521,6.432249,6.726708,5.1364846,5.17297,4.5545605e-07,0.3,5.58432,81.53812,81.5466,81.34637,81.458786,0.20780726,0.3953125,8.367264986038208,48.07437491416931
65,650000,83.73354768371117,-86.34964,0.0,-42.935608,0.85263044,-2.0347748,1401.7756,25.319874,19.875496,101.48937,101.34372,100.96003,101.509155,4.8347154,0.7,-113.9191,-1197.0846,0.0008605758,-4.062086,3.3379762,5.305325,7.2954373,7.099169,4.0745363e-07,0.3,5.495599,80.80254,80.86643,80.81734,80.8405,0.15190542,0.4046875,8.262118816375732,48.81235310633977
66,660000,78.52481094982801,-84.13406,0.0,-85.428505,2.025324,-14.347614,1498.0387,52.9884,16.723364,102.97812,103.619316,102.7181,102.520454,7.2637115,0.7,-113.68752,-1367.4105,0.0011098089,-3.9292293,14.922746,13.582391,14.938876,16.14991,5.0731646e-06,0.3,5.5883927,78.58944,78.69799,78.56026,78.61861,0.1717385,0.3515625,7.8910462856292725,49.53891317049662
67,670000,82.93542199534158,-86.384094,0.0,42.785637,1.4177645,-14.90577,3083.0293,72.96153,19.941486,101.0925,100.87275,100.99384,101.05736,9.778529,0.7,-114.766235,-1260.282,0.0008324394,-5.367196,12.081143,13.560187,11.870036,13.318783,3.6151325e-06,0.3,5.902005,80.6611,80.58634,80.62914,80.72543,0.18488859,0.44687498,8.685359239578247,50.284485546747845
68,680000,83.48372714929423,-84.64048,0.0,-43.97073,1.5698655,-1.4076037,1566.0173,89.48349,16.737944,101.499,101.40082,101.38663,101.46598,4.685531,0.7,-115.62848,-1469.0015,0.00038869632,-1.9741514,3.23754,3.5191662,2.799841,2.0536873,9.6920125e-08,0.3,5.617393,79.07994,79.10041,79.05606,79.10246,0.14403227,0.44062495,8.453467845916748,51.024615335464475
69,690000,79.50706424843676,-85.011246,0.0,5.4941406,0.9985613,1.7741857,1725.0211,42.853996,19.176052,101.55509,101.55658,101.95967,101.82115,8.465444,0.7,-116.66258,-1425.8381,0.00035248516,-7.9165535,0.62250865,-0.22049809,-0.8074812,-0.50364435,6.114351e-09,0.3,5.934967,79.141495,79.15041,79.21813,79.06189,0.13972281,0.40781248,8.077060461044312,51.759494165579476
70,700000,79.98196233367104,-83.97677,0.0,2.0367527,1.3188785,-1.9044847,1814.5491,44.640682,17.443726,100.056046,99.88901,100.203125,100.123604,5.864335,0.7,-113.99,-1388.836,0.00062626466,-2.8997738,-2.8297572,0.0052096844,-1.3143911,-0.923982,9.2375565e-09,0.3,5.936388,78.05519,78.12418,77.947716,78.04733,0.11969183,0.44062498,8.246699571609497,52.49542276461919
71,710000,83.48521487256903,-86.82506,0.0,3.4775124,3.931343,-17.719824,1758.5206,433.2085,18.280107,100.170685,100.12007,99.90009,99.917854,7.0425887,0.7,-114.134445,-1620.4573,0.00047391054,-4.7607245,13.05724,17.139406,18.975046,21.226957,1.2730016e-08,0.3,6.0833225,80.73448,80.82142,80.691574,80.65528,0.17633767,0.51093745,8.391819715499878,53.23206383387248
72,720000,83.63703308643217,-87.99654,0.0,1.4002647,2.0261626,-20.687305,2646.552,242.82,25.055721,101.0638,100.98215,101.80267,101.27585,5.0373325,0.7,-121.89237,-1293.5785,0.0005282578,-4.425909,14.373369,15.403488,14.319668,15.36442,3.1393022e-06,0.3,5.929207,82.16752,82.16037,82.33223,82.13971,0.12693352,0.47031248,8.358826398849487,53.96972393989563
73,730000,83.33900573392154,-84.266594,0.0,-44.821697,3.0604124,-12.391298,1990.6104,376.1731,19.833063,99.62094,99.3538,99.88699,99.91722,12.697043,0.7,-115.21307,-1408.237,0.0061661145,-6.9989114,8.807822,9.861992,4.7962227,4.312203,4.4703486e-07,0.3,5.65261,78.70524,78.60467,78.92175,78.85457,0.2512799,0.4328125,8.763360023498535,54.714348522822064
74,740000,81.728041379446,-88.402916,0.0,-20.76318,1.2152292,-10.049773,2095.5183,28.674574,19.199587,101.99895,102.1,101.960526,102.10789,3.9604952,0.7,-112.8813,-1608.7965,0.00023033947,-3.7409725,3.0150757,1.9667083,4.10044,3.6696591,6.1656287e-06,0.3,5.5976634,82.83536,82.94801,82.92276,82.89755,0.12624317,0.44843748,8.251731872558594,55.447434488932295
75,750000,82.40660420757516,-87.69737,0.0,33.379093,2.4599495,-18.08261,2204.937,190.19836,18.033257,102.003075,101.7051,101.91002,101.574585,7.0641627,0.7,-113.7256,-1510.4437,0.0007312775,-4.5067625,11.063256,10.8072605,12.704435,12.181205,1.2777745e-07,0.3,5.858782,81.788605,81.86781,81.75773,81.82408,0.14183965,0.4421875,8.686217069625854,56.185935497283936
76,760000,80.86431888369405,-82.721695,0.0,-58.863575,0.79418194,-6.222595,1662.8513,15.177404,20.113514,101.06977,100.83172,100.8795,100.929504,6.777538,0.7,-115.24782,-1495.495,0.0005363246,-8.208776,2.4519126,0.15953946,2.8289857,1.9557252,2.6560157e-08,0.3,5.337946,77.43643,77.414154,77.33956,77.3795,0.1271363,0.48593748,8.138168334960938,56.91616187493006
77,770000,84.03654908987731,-86.66727,0.0,23.920841,0.9949256,-2.0568204,1760.0016,49.02441,17.597424,100.81315,100.59917,100.46665,100.31062,3.98365,0.7,-113.1022,-1431.6141,0.00010526093,-5.102108,0.08736396,-0.9787079,1.6395773,0.7136693,9.045878e-07,0.3,6.0397234,80.68076,80.65958,80.889915,80.82524,0.09856278,0.4140625,8.771363973617554,57.659152789910635
78,780000,76.93602661484874,-85.227196,0.0,-25.130287,1.3190747,-5.922714,2028.0076,74.62381,17.933903,101.45667,101.7042,100.90922,101.43475,4.7737145,0.7,-113.22003,-1583.1619,5.9711863e-05,-4.5157824,3.514338,4.657233,5.3141556,5.2735405,1.5196566e-06,0.3,5.7971783,79.53819,79.57135,79.58855,79.53152,0.12022142,0.453125,7.932948589324951,58.386844178040825
79,790000,83.57975513580683,-86.94854,0.0,-17.422035,1.5201707,-13.332215,2434.7214,35.220314,20.066399,101.959335,101.30741,101.76928,102.05074,9.296802,0.7,-115.020775,-1551.1536,0.0026605627,-4.3087535,13.330508,13.500416,14.325726,14.827843,7.699058e-06,0.3,5.452653,81.57684,81.47924,81.78249,81.894684,0.17736897,0.35312498,8.363914012908936,59.124331092834474
80,800000,81.75808442561342,-85.70732,0.0,-59.93213,1.088759,-14.993651,1731.0739,36.54714,18.875072,101.64397,101.15582,101.459366,101.29887,4.636587,0.7,-116.05922,-1828.5582,0.00095508713,-3.3954027,11.07612,12.977265,13.82134,15.405919,1.40874645e-05,0.3,5.577923,80.11662,80.14902,80.18768,80.16579,0.14734468,0.44375,8.897600412368774,59.870984788735704
81,810000,79.94391846158385,-85.78185,0.0,22.299034,1.1414934,-13.239449,2374.5571,41.793053,20.645323,102.14478,104.80795,102.96789,103.36158,5.100855,0.7,-115.163574,-1313.2877,0.00040280545,-2.9553041,10.664464,11.293828,11.310968,11.669506,4.277285e-06,0.3,5.982459,79.90279,79.9516,79.93989,79.826324,0.12775923,0.565625,8.285598993301392,60.605938323338826
82,820000,80.99857545284269,-85.33676,0.0,-61.494465,0.87649137,-16.403645,1983.7167,30.698872,17.146843,99.89719,99.972786,100.13706,99.97319,9.947342,0.7,-114.90689,-1532.9019,0.00037725607,-4.894957,6.8371496,7.4959326,6.5483747,5.875702,8.6838264e-07,0.3,5.558551,79.76512,79.873604,79.87119,79.86845,0.123547256,0.434375,8.318126201629639,61.33794854879379
83,830000,83.8171419589018,-85.13675,0.0,-43.436935,1.3698587,-18.030815,2441.159,50.682304,17.788315,102.667786,102.487,102.8708,103.14483,7.540091,0.7,-115.3555,-1697.8519,0.00034190214,-3.2308106,14.838558,15.033227,14.394429,14.326613,1.6345695e-07,0.3,5.4695168,79.66527,79.76704,79.79953,79.76657,0.11720316,0.46875,8.667457580566406,62.081839962800345
84,840000,83.54295574594035,-86.1789,0.0,-47.566017,1.9022824,-7.0499706,2346.7603,166.77322,17.877007,99.929886,99.99308,100.13419,100.02869,8.610714,0.7,-112.66286,-1703.3035,0.0009541573,-4.563202,8.336233,9.946755,9.627402,7.957509,7.1960386e-07,0.3,5.73992,80.51486,80.50798,80.65001,80.632034,0.15419294,0.4375,8.438048601150513,62.81993569135666
85,850000,79.18066982612974,-85.02051,0.0,-56.05654,0.95063746,-9.2292385,2244.3508,29.38074,17.199532,103.2717,102.901344,102.455605,102.29062,13.992396,0.7,-113.015976,-1727.4994,0.00087066536,-6.597125,3.4034212,0.067582846,-1.715355,-1.819953,2.7939678e-10,0.3,5.5895224,79.54822,79.559814,79.42564,79.32327,0.21577787,0.4765625,8.151507139205933,63.551309088865914
86,860000,82.4204606459369,-88.41446,0.0,-16.440117,0.9255011,-22.830997,2376.5474,13.879438,19.74165,100.49859,100.47416,101.38771,100.57675,4.7525473,0.7,-113.090836,-1752.6575,0.006324932,-4.11766,23.066309,22.80444,23.279089,22.931578,2.521556e-08,0.3,5.8480167,82.63151,82.63816,82.970055,82.86955,0.12841743,0.446875,8.48860764503479,64.29561559756597
87,870000,78.14386269485286,-87.58026,0.0,60.19464,1.6695473,-10.432623,2514.2883,28.828165,19.0252,102.92076,102.88674,102.43749,102.36195,7.0131874,0.7,-115.51907,-1895.2992,0.0006591558,-3.1408043,5.459381,4.95202,4.009246,5.108593,1.695659e-06,0.3,6.2083783,81.34563,81.538284,81.62582,81.57047,0.19248328,0.5046874,8.263779640197754,65.03540551265081
88,880000,83.28680828879675,-83.759834,0.0,-70.44649,1.5528572,-12.281914,1968.1415,57.624943,16.858154,102.69294,102.501976,102.45856,102.61022,7.4672146,0.7,-115.4274,-1799.0509,0.0013271535,-3.341433,2.575735,1.3955218,3.5910177,2.1961226,2.2100721e-09,0.3,5.62914,78.17621,78.14996,78.321106,78.39456,0.22851327,0.38124996,8.907455682754517,65.77313080231349
89,890000,83.28887122155847,-85.59128,0.0,-15.297791,0.9080392,-13.377869,2416.086,43.5646,17.89792,101.79897,101.547226,101.98673,101.422874,4.3006706,0.7,-113.60096,-1357.413,0.00018987252,-4.329837,10.480127,10.539682,10.150216,10.342818,3.0135269e-07,0.3,5.800374,79.85057,79.78451,79.94139,79.83443,0.09014478,0.49843752,9.103004693984985,66.51479643185934
90,900000,79.83692175577822,-84.997574,0.0,-22.54311,1.2302591,-9.458847,2380.7976,36.779625,23.255291,99.44631,99.65738,99.7975,99.70899,7.147116,0.7,-120.4046,-2175.804,0.0005032416,-4.289876,5.81956,5.3389053,6.5259037,6.133556,1.9016444e-08,0.3,6.3125,78.84627,78.72813,78.66482,78.742355,0.19431025,0.4875,8.395127773284912,67.24905248483022
91,910000,84.36702113129888,-87.19748,0.0,-46.476357,1.9860893,-10.754469,2275.8706,238.60495,17.196718,100.665726,100.3199,101.07344,100.404305,1.5757797,0.7,-111.86267,-1791.4017,0.000977261,-2.2031744,2.5691028,3.0901341,6.139995,5.2399397,8.451753e-09,0.3,5.817808,81.55311,81.45787,81.445274,81.52817,0.08919737,0.3984375,9.039575815200806,67.98830635547638
92,920000,82.2245502689397,-84.06025,0.0,27.204023,2.2662601,-4.324221,4371.562,138.41292,17.665066,100.321526,100.27403,100.51683,100.572815,24.910128,0.7,-112.158455,-1953.5692,0.0029775607,-3.5918765,3.731925,2.9363036,2.971168,2.9535112,1.6093254e-07,0.3,5.7077684,78.42087,78.36423,78.547226,78.513504,0.24174038,0.45468748,8.872328758239746,68.73020165761312
93,930000,79.86232672424624,-84.081894,0.0,-3.729312,0.80275977,-1.7900696,2190.7024,21.083794,17.343693,100.88181,100.83899,100.9888,101.63415,3.842532,0.7,-117.08119,-1717.0851,3.887812e-05,-4.7252774,-1.3484344,-2.6872926,-1.2749263,-2.6372557,3.1944364e-06,0.3,5.448235,78.74442,78.73954,78.83745,78.76425,0.12185793,0.4828125,8.472867727279663,69.46487820943197
94,940000,84.3483822092469,-87.63919,0.0,20.523357,0.8741751,-0.6287582,2216.1252,15.927595,21.170618,101.88872,101.1914,101.3929,101.168015,8.68338,0.7,-118.02642,-2001.7848,0.0007031319,-4.014005,0.3348943,0.30412173,0.8340289,0.7909206,2.8360346e-06,0.3,6.096942,81.55299,81.5099,81.52266,81.48204,0.15450722,0.3796875,8.848761558532715,70.20395044088363
95,950000,84.23241503599385,-86.8154,0.0,38.076508,1.4977227,-3.3938162,2061.0242,75.60556,17.345022,100.97753,101.23569,100.803345,100.54881,8.608176,0.7,-114.047165,-1624.777,0.0011085551,-3.4315233,-3.2595932,-2.2519174,2.1296299,0.7891352,8.556526e-08,0.3,5.9321184,80.853645,80.93724,80.63053,80.7471,0.13111076,0.45,9.010605335235596,70.94633059899012
96,955000,80.71896509328754,-83.49815,0.0,-59.44483,1.4615531,-16.13805,2160.9866,50.207146,18.168905,101.77669,101.79524,101.85427,101.71748,5.9756775,0.7,-116.92498,-1954.0603,0.0010363373,-4.320737,11.578946,11.327709,12.144984,11.909325,1.6461534e-06,0.3,5.573043,77.87819,78.027725,78.181564,78.03914,0.21453261,0.453125,8.873231410980225,71.39170703490575
97,960000,79.43231791916975,-85.36582,0.0,-32.507584,0.90774035,-12.9866905,2494.3147,32.967827,17.78749,101.005936,100.95894,100.70279,100.70236,6.5098705,0.7,-113.32492,-1730.168,0.0006212935,-4.693408,6.1775837,6.541428,7.694696,9.6781845,3.025598e-08,0.3,5.5080075,80.005775,79.98858,79.79598,79.85913,0.1304856,0.5203125,8.486516952514648,71.8282037059466
98,965000,83.71544965468924,-86.929214,0.0,-48.80082,0.7667439,-14.03157,2011.3586,32.439217,16.119652,100.25518,99.83159,99.81932,100.00037,4.3943825,0.7,-113.476585,-1994.6791,0.0011518172,-4.329216,4.472723,3.9115062,4.9734874,4.1649666,1.0142278e-06,0.3,5.445932,81.59104,81.479774,81.52254,81.47278,0.1011992,0.40937498,8.870253086090088,72.27588706413904
99,970000,84.19779163580307,-87.552765,0.0,-4.9325256,1.1754993,-21.193825,2583.5857,41.336594,19.223684,101.44424,101.5332,102.09761,101.79217,4.787338,0.7,-115.90843,-1951.0331,0.00025262922,-2.439494,17.976274,16.125832,16.45818,15.506888,2.9511284e-07,0.3,6.1344247,81.39362,81.4541,81.62512,81.5249,0.16055065,0.484375,8.576856136322021,72.71289486090342
100,975000,80.60754900617934,-87.73515,0.0,-9.794577,0.7562739,-6.955262,2254.4265,33.03022,21.238205,102.63134,102.60864,102.739944,102.768684,3.423023,0.7,-117.55415,-1711.4277,0.0010124003,-4.9473104,4.7079544,5.1410375,3.7302718,4.4278936,5.5300626e-07,0.3,5.874191,82.03341,81.90791,82.00789,81.97514,0.09381129,0.39375,6.59744930267334,73.12254499197006
101,980000,75.06956367050964,-83.84377,0.0,-75.96687,1.1301883,-16.022913,1999.9285,118.45395,16.67351,99.634224,99.57406,99.70946,100.01303,6.048384,0.7,-115.006874,-2026.9199,0.00032274408,-4.1739006,12.409245,10.537301,11.261137,10.989508,4.9301887e-09,0.3,5.4645214,78.37516,78.33482,78.37625,78.48291,0.12246068,0.40625,7.574016094207764,73.54645462433497
102,985000,83.31375024846564,-84.05791,0.0,-4.5131273,6.4982405,-6.5544286,2691.3289,1183.4929,26.543129,101.29308,101.52417,102.27965,101.97132,17.426903,0.7,-114.92335,-2026.2749,0.0019344324,-3.5498376,2.2104678,3.1867728,3.316063,3.6096869,2.0888354e-05,0.3,5.8943167,78.24921,78.30554,78.40071,78.334915,0.20941609,0.44375,8.463300943374634,73.98440664211908
103,990000,76.9834702410986,-86.466484,0.0,25.797615,1.1590538,-5.0161877,2637.0388,33.601055,19.357845,100.42224,101.05067,100.975464,100.77312,2.8735185,0.7,-117.263916,-2161.358,0.0018821985,-5.136376,3.7090025,3.370813,4.7352605,4.015683,1.6458042e-06,0.3,5.55668,80.83641,80.886246,81.0803,81.040985,0.13194537,0.42343748,8.021214008331299,74.41694364945094
104,995000,83.45616894589968,-88.55287,0.0,8.186258,1.5626287,-14.577236,2845.6584,176.11942,19.339489,101.19232,101.27032,101.2432,101.274,3.3696153,0.7,-117.02542,-2421.3071,0.001755764,-4.27079,0.77444124,1.3823004,1.031553,-0.8734014,7.3162374e-07,0.3,5.8534,82.70064,82.66587,82.85054,82.827995,0.094019465,0.375,7.883913040161133,74.8420798699061
105,1000000,83.40057863142474,-83.28641,0.0,-96.54234,2.650834,-5.9688654,4317.582,300.08005,22.808681,100.32543,100.364395,100.18928,100.69017,23.21019,0.7,-111.88742,-1979.2338,0.0003045926,-6.6049657,3.9770598,3.5880995,5.8212833,5.9720993,2.7939677e-06,0.3,5.5185905,77.780655,77.807205,77.69384,77.64627,0.2802059,0.42343748,8.760398864746094,75.28639702399572
