Xixo99/comfo/baselines/comfo7_perterbation_both_actor_and_critic/20230223_/hopper-medium-v2/COMFO7_s0_20230223_174840_hopper-medium-v2_51.81.csv
,step,reward,actor_loss,alpha,alpha_loss,avg_conservative_loss,avg_smooth_loss,conservative_weight,critic_loss,max_actor_loss,max_alpha_loss,max_critic_loss,max_mle_prob,max_q1,max_q2,max_target_q,max_v,max_value_loss,max_weight,min_actor_loss,min_alpha_loss,min_critic_loss,min_mle_prob,min_q1,min_q2,min_target_q,min_v,min_value_loss,min_weight,mle_prob,q1,q2,target_q,v,value_loss,weight,eval_time,time
0,0,4.630627578947562,,,,,,,,,,,,,,,,,,,,,,,,,,,,,,,,,,,,
1,10000,58.541316732890635,-40.876564,0.067086354,-4.367605,0.00030130177,1.1740079,1.0,0.51271534,2.0422535,14.322057,25.572956,7.5230255,58.18696,57.824883,58.234512,57.23078,2.2278602,0.7,-57.610165,-18.573092,2.2511289e-05,-3.8092194,-1.3246049,-0.5811711,1.0880709,-1.5890852,3.873356e-07,0.3,1.4017518,39.628433,39.627567,39.489563,38.89088,0.04614783,0.45624998,4.608233690261841,2.7793726483980814
2,20000,48.39980478988532,-63.960175,0.003764921,-6.172556,0.00095798617,1.8855091,1.0,2.1022134,-3.9764738,29.083288,40.526493,8.095612,80.67392,80.77158,80.558044,80.227776,29.146357,0.7,-83.575424,-36.39207,0.0024383955,-6.356476,4.1562066,3.9517114,4.199391,1.8256079,2.212025e-06,0.3,1.4677315,62.547676,62.156006,62.7109,62.230923,0.27503508,0.4640625,3.748732328414917,3.7261163115501406
3,30000,55.0178228516464,-77.35823,0.00020025027,-11.476698,0.0010930406,2.1536472,1.0,3.8906653,-2.9660127,82.40449,158.47043,14.623074,98.067696,96.93096,97.11979,96.472305,9.86581,0.7,-111.533875,-69.57558,0.00043087295,-5.328314,3.673178,4.3704724,2.3791246,4.0635166,2.0186418e-08,0.3,1.4675275,75.44188,75.5108,74.885284,75.1109,0.2908346,0.45156246,4.213035583496094,4.68482944170634
4,40000,58.982653731401435,-86.291885,1.0785918e-05,-8.720856,0.00071197934,2.5073183,1.0,2.7475,-7.8052254,62.904522,70.34677,8.917243,104.07322,104.59091,103.96573,103.36493,4.4933352,0.7,-107.61911,-94.1306,0.00032532273,-6.489279,4.066825,4.5801554,5.5830097,3.2696333,2.3665314e-06,0.3,1.9255912,84.3535,84.07149,84.45254,84.1687,0.15166056,0.4546875,4.283742904663086,5.645012013117472
5,50000,49.65738215367072,-87.37895,5.7466957e-07,-16.815979,-0.003672123,2.7736936,1.0,1.7843443,0.73188925,136.28123,48.924294,8.053546,104.71613,105.27074,105.43463,105.262314,5.339199,0.7,-111.553314,-121.30019,0.0014440112,-8.084367,0.7495764,2.2702372,1.2787368,0.8084602,1.11758716e-07,0.3,1.4855955,85.71242,86.01945,85.94931,86.01962,0.17092967,0.4296875,3.680187702178955,6.59295175075531
6,60000,57.04538125314815,-89.94943,3.0320567e-08,-14.962009,-0.0038361393,2.6660972,1.0,1.6934965,8.366713,110.653984,50.812435,9.209332,106.062164,105.64949,105.63874,105.73136,8.32993,0.7,-112.24656,-114.58297,0.003670258,-6.315364,-2.5484262,-2.0930095,1.3453615,-1.5314045,2.4950832e-06,0.3,1.8903022,87.98794,87.79461,87.68013,87.914154,0.22136578,0.4296875,4.189802885055542,7.548293046156565
7,70000,53.72427264448248,-91.94367,1.6043159e-09,-19.80923,-0.0034041123,2.4432886,1.0,1.5535748,1.8016636,205.59088,59.984474,15.458924,105.26989,105.9921,106.415794,106.07381,1.8657479,0.7,-117.41453,-146.52487,0.0054389955,-5.1973314,-0.7914417,1.0806088,1.3407874,1.0022937,1.7968704e-08,0.3,1.9243567,89.93342,90.562225,90.39708,90.34575,0.12924121,0.4734375,4.027841091156006,8.498234498500825
8,80000,53.199575257936175,-88.718445,8.534897e-11,-22.536644,-0.0011935213,2.1020782,1.0,1.3325549,1.0419064,317.67386,28.391348,8.884955,105.82015,106.154335,105.959114,105.72765,2.467752,0.7,-112.65556,-187.0412,7.365394e-05,-4.2693605,0.4186658,-0.18475395,1.5117595,0.36453745,2.7543865e-06,0.3,1.7943661,86.82564,86.75818,86.41798,86.58655,0.114720054,0.49531248,4.0256757736206055,9.453836107254029
9,90000,54.787914132721916,-92.23964,4.5431645e-12,-15.995194,-0.0039932923,2.1066961,1.0,1.2489551,3.1059551,224.61858,48.532547,15.009748,106.25126,106.05301,106.020454,106.52593,3.266162,0.7,-117.716034,-189.56082,0.0003305027,-8.382531,0.2057961,-0.47164237,1.3902541,-0.25963607,1.3522805e-07,0.3,1.9881872,90.05904,90.04164,89.902176,89.98862,0.12424768,0.475,4.028204679489136,10.410504074891408
10,100000,53.48529316294296,-90.544785,2.4244528e-13,-24.877857,-0.0021291876,1.969195,1.0,1.2805707,-1.6898751,412.98575,23.563679,7.798657,104.6419,105.26657,105.381714,105.16247,3.4540584,0.7,-111.45055,-208.93658,0.0020790624,-5.01883,4.41209,2.9948819,3.672145,3.7943363,9.2375565e-09,0.3,1.8754929,88.36238,88.600746,88.28433,88.45427,0.120977655,0.4328125,3.9989118576049805,11.36229689915975
11,110000,49.11633546245567,-91.83339,1.29448445e-14,-20.262396,0.0048373775,2.011631,1.0,1.131048,-3.5453026,200.25954,30.30451,11.899011,106.18504,105.88672,105.97301,105.94309,1.8308486,0.7,-115.35084,-226.41827,0.0009224392,-4.6690993,3.7280657,2.6662538,1.213171,3.5171812,2.1129382e-07,0.3,2.1028466,89.61884,89.6315,89.70888,89.801765,0.10892614,0.375,3.7235376834869385,12.313264191150665
12,120000,48.97358745394197,-91.5485,6.94161e-16,-30.952705,-0.0002833253,2.07389,1.0,1.0110132,-2.270837,360.63498,44.839905,12.033527,106.12626,106.31462,106.23484,106.039116,2.6332836,0.7,-112.80055,-300.4736,0.0005004165,-5.596497,2.6262748,2.3299258,2.4846501,2.1518357,8.556526e-08,0.3,2.1357765,89.52331,89.47984,89.41969,89.26608,0.14754456,0.55156255,3.759077310562134,13.262111584345499
13,130000,54.424211949023984,-91.278885,3.718694e-17,-11.751165,-0.0049177124,2.055229,1.0,1.4790485,-1.6925169,592.3506,114.71396,9.177897,105.9005,105.6819,105.49994,105.367195,11.541108,0.7,-111.46663,-290.942,0.0014725605,-5.36691,2.798393,2.0960941,1.1817875,1.3930054,1.0825635e-06,0.3,2.1700068,89.22622,88.909195,88.90039,88.77017,0.19833419,0.55625,4.0903613567352295,14.21653018395106
14,140000,51.179998662299155,-89.031906,2.0122076e-18,-36.27033,-0.005074023,2.0138242,1.0,1.042223,-1.1967782,312.45734,74.71248,8.1089945,105.12153,105.10335,105.84976,105.42839,1.7006837,0.7,-111.424706,-283.56198,0.00085975905,-4.4893928,2.1212308,2.5397692,2.4930701,2.422828,9.927597e-06,0.3,1.651691,87.11978,87.32999,87.43714,87.50199,0.11906703,0.34999996,3.767362594604492,15.161476254463196
15,150000,54.51188152527781,-90.87993,1.089283e-19,-28.682575,0.0021227833,2.0570264,1.0,1.0157313,-0.8157239,423.9596,17.172466,10.75618,105.690956,105.72695,106.026634,105.16428,1.8800744,0.7,-114.25773,-298.43668,0.00015907461,-3.8212862,2.446708,2.3980865,1.3398602,1.4637355,6.4977215e-08,0.3,2.0414004,88.67525,88.618515,88.56166,88.63183,0.09406638,0.49374998,4.041199445724487,16.116972180207572
16,160000,41.7986697828897,-91.613075,5.8668532e-21,-39.893875,-0.0042803613,1.7918667,1.0,0.89232945,1.123553,604.13257,37.240555,9.957263,106.060974,105.52978,106.40492,105.69506,5.3250356,0.7,-112.14582,-360.27866,0.0004046716,-6.641525,-0.66510874,-0.3698179,1.3996071,1.485424,1.2527987e-05,0.3,2.0553434,89.35481,89.47591,89.45557,89.615135,0.14208971,0.37656248,3.1107871532440186,17.055607990423837
17,170000,58.363919227495785,-88.735016,3.1922586e-22,-47.78827,0.0011218021,1.885437,1.0,1.3296765,1.7817438,714.1461,57.783607,8.816475,106.81063,106.09991,105.915565,106.452446,4.852474,0.7,-114.221176,-597.9121,0.002920365,-6.828537,1.1846149,1.5505826,1.3588526,1.0478563,3.3003744e-07,0.3,1.5492008,87.01759,87.05769,87.000854,87.09658,0.13826126,0.403125,4.290548324584961,18.012268948554993
18,180000,58.21263173771164,-89.38712,1.7354875e-23,-51.53676,0.0016782854,1.7497059,1.0,1.0920203,-1.762171,332.39935,49.233177,9.376949,106.70118,106.779526,107.16665,106.47407,7.262117,0.7,-113.8345,-374.1579,0.00063174986,-4.5997987,3.0363228,2.3132586,2.6339931,2.7401192,1.9252185e-07,0.3,1.8522208,87.8277,87.33211,87.549965,87.43128,0.164055,0.46875,4.1851966381073,18.964036194483437
19,190000,54.218405549029,-89.49719,9.342091e-25,-49.259983,0.001197361,1.9952993,1.0,1.6114024,-2.4697795,404.81558,115.88251,8.511819,105.78232,105.54039,105.90704,106.23662,19.338636,0.7,-112.60641,-464.48154,0.001609145,-3.8765507,5.229856,3.8182256,3.5413523,4.5481935,2.9068442e-06,0.3,1.7665257,88.05377,87.406296,87.79086,87.742645,0.15924385,0.47968748,3.985469102859497,19.91625587940216
20,200000,54.834955626423984,-86.89978,5.1029172e-26,-47.441605,0.007690926,2.363259,1.0,1.4237833,-2.1355515,644.31244,33.207375,9.27423,106.008,106.06128,106.23986,106.496735,1.6728045,0.7,-114.44,-396.41965,0.00064369536,-4.6559606,5.309601,3.481052,1.4934645,5.071654,5.6238424e-08,0.3,1.6674953,85.02875,84.887985,85.16972,85.123184,0.10373626,0.421875,3.974900960922241,20.86821105480194
21,210000,47.246002086336055,-89.761604,2.799742e-27,-55.566357,0.0011586752,2.0599084,1.0,0.77317405,-1.2364259,652.5811,13.189899,12.867034,105.50867,105.30157,105.49144,105.44896,6.9372787,0.7,-110.38743,-385.43304,0.0015126534,-4.883301,2.9897852,2.8932981,2.517109,2.9863868,9.822933e-06,0.3,1.6656888,88.130005,87.74082,88.01004,88.14231,0.12203546,0.41562498,3.7260749340057373,21.815603188673656
22,220000,56.41713686566878,-87.455055,1.5345995e-28,-37.476307,-0.002586467,1.9320463,1.0,0.86114216,2.9184015,3241.319,12.738055,9.653152,105.51825,105.49251,105.27871,104.92278,3.048714,0.7,-112.64778,-582.3046,0.00422285,-4.784565,1.2195952,2.738583,2.0031483,2.2000117,6.640039e-07,0.3,1.8411222,85.413635,85.65194,85.55075,85.398186,0.1058066,0.51875,4.06473708152771,22.76755119562149
23,230000,58.85498414117111,-89.709465,8.472823e-30,-37.358654,0.0029111763,2.1238573,1.0,0.86052155,-2.6899703,1783.3944,13.403389,9.080573,105.16402,104.65639,105.34472,104.570244,3.0587866,0.7,-112.54443,-503.83344,0.0019494784,-6.866419,5.5014715,5.2867785,4.94107,4.9558997,6.640039e-07,0.3,1.9338914,87.72122,87.42848,87.573715,87.40199,0.099873066,0.4875,4.529900550842285,23.729498966534933
24,240000,57.48047761262579,-89.03862,4.721972e-31,-12.582668,-0.0057076733,2.6261194,1.0,1.549928,-1.2539704,3069.356,69.14578,8.33287,105.15132,104.52281,104.67328,104.825096,6.798485,0.7,-110.74378,-442.05954,0.0044952794,-4.6586413,3.9176283,2.9623816,3.5577126,3.7823524,4.400569e-06,0.3,1.9506146,87.33533,86.52712,86.812195,87.114334,0.15788823,0.3828125,4.341718912124634,24.686105557282765
25,250000,50.60329332365623,-88.88533,2.581993e-32,-63.778408,0.0049416474,1.9885457,1.0,1.3792317,-4.230609,903.56415,28.221796,9.296886,105.30628,104.51228,105.56106,105.29506,4.7453895,0.7,-111.59341,-500.24033,0.0052181715,-6.874366,6.1065354,5.0436187,6.2792506,5.928233,3.182504e-07,0.3,1.8641706,87.02524,86.880646,87.37669,87.20574,0.10659437,0.403125,3.8442251682281494,25.634119856357575
26,260000,44.027041601763585,-89.90874,1.4545952e-33,-51.178566,0.0013493805,1.9427601,1.0,0.990783,-1.2759733,1999.3687,33.152878,8.540165,106.247116,105.51335,105.69103,105.58654,7.977241,0.7,-112.97116,-622.4082,0.0005904639,-4.228272,2.1826375,2.1646183,1.7312691,1.6199286,1.4248245e-06,0.3,2.0229158,87.94191,87.8774,87.794914,87.75545,0.121916726,0.4453125,3.547466278076172,26.57892499367396
27,270000,55.37023141614924,-89.90042,8.041526e-35,-37.98385,-0.0049725785,2.018872,1.0,1.3708467,-1.3084853,3226.6416,13.215472,8.308072,104.22858,105.43858,105.2141,105.02262,3.9683497,0.7,-110.98001,-706.52264,0.0065882746,-3.6326919,0.7432373,1.5165222,1.1776441,1.1514701,1.8887222e-07,0.3,2.0223074,88.12045,87.87871,88.18326,88.253105,0.11521597,0.378125,4.15442967414856,27.534000074863435
28,280000,53.820931377081536,-89.66321,4.5261397e-36,-53.41987,-0.0029355239,1.9427313,1.0,0.9273317,-0.5469259,3006.233,33.017574,9.406122,105.61745,105.29807,105.06983,105.174034,10.811196,0.7,-112.5537,-491.85828,0.00051238603,-5.547085,2.0791988,2.637981,2.2442446,2.1987708,8.886115e-06,0.3,1.8097913,87.878296,87.82056,87.81567,87.74748,0.14809102,0.48437497,4.157103538513184,28.487839869658153
29,290000,54.800231019058764,-87.92114,2.5175513e-37,-71.02101,0.0019746583,1.7651634,1.0,1.0193179,0.060057044,2855.4602,27.36851,9.814072,104.80371,105.22535,104.97004,104.82086,10.263585,0.7,-110.39953,-519.6704,0.00062201085,-4.820919,2.4080968,2.002984,1.20814,1.3808421,7.1874815e-08,0.3,1.4594162,86.01088,86.09296,86.080505,86.023155,0.18036085,0.45,4.223216772079468,29.441490133603413
30,300000,56.547042878116535,-90.14731,1.4091555e-38,-63.592262,-0.0043517235,2.2604837,1.0,0.80441606,-3.1957326,1427.7354,12.469519,13.103304,105.49084,105.61589,105.251045,105.406876,1.6466888,0.7,-114.7303,-696.3729,0.0017541898,-5.296041,4.5271626,3.7713485,3.943503,3.8478508,1.6031962e-06,0.3,2.126958,87.9695,87.62222,87.63461,87.66907,0.10433845,0.46875,4.127288818359375,30.396098971366882
31,310000,52.17766031252772,-89.47832,7.91385e-40,-78.76036,-0.0031675645,1.7782627,1.0,0.9254408,-0.53223276,1327.1722,26.404003,10.005352,104.19533,104.7474,105.2001,104.81285,2.2275977,0.7,-112.77289,-617.8045,0.0010870215,-3.9525824,2.3765974,4.3884773,2.9572127,2.1770453,4.4070183e-07,0.3,1.9929321,87.351814,87.2825,87.30968,87.48981,0.10442808,0.3640625,4.030237674713135,31.352873051166533
32,320000,57.276855368280145,-88.41937,4.4856e-41,-78.63054,-0.00045604055,2.2782457,1.0,1.2651211,0.42205,1941.7882,33.098736,8.334255,105.18621,104.82426,105.3746,104.51813,4.9292097,0.7,-110.70802,-746.45056,0.0041198945,-4.0053883,1.6469682,3.195053,1.4430783,2.8305836,9.8225435e-08,0.3,1.948307,86.11403,86.42372,86.42178,86.27818,0.11611733,0.4796875,4.577669382095337,32.31251794099808
33,330000,57.37091894894137,-89.162384,2.525e-42,-56.199997,-0.00062681065,2.2457116,1.0,1.1218588,-2.5052485,2578.2869,23.213087,9.271099,105.12636,105.09601,105.04166,105.10894,14.139934,0.7,-113.49928,-732.7528,0.0004136574,-4.2605286,4.815456,4.2524834,4.968642,4.68892,6.261095e-06,0.3,1.784659,87.28195,87.2167,87.25497,87.14047,0.24835257,0.421875,4.133598566055298,33.26351701021194
34,340000,53.45546413270682,-90.96481,1.43e-43,-45.437668,-0.0013204947,1.8829342,1.0,1.1275051,-1.6980989,3276.7554,34.36077,8.972639,104.82369,104.68071,105.31684,104.606064,2.0938652,0.7,-110.86935,-793.3284,0.0007902112,-6.5903125,3.3034763,1.8655927,1.1489029,2.344234,2.3264147e-06,0.3,2.0800905,88.970245,88.63278,88.75586,88.881035,0.07844989,0.4359375,3.9051456451416016,34.21512331962585
35,350000,56.573836451188164,-89.172554,8e-45,-67.244064,-0.009464501,2.0640929,1.0,1.1721452,-1.9360521,1770.7418,57.864326,11.704316,104.488235,104.71685,104.62534,104.45739,1.3996749,0.7,-114.09406,-714.9563,0.0009361904,-11.871017,2.8663769,4.9743586,3.8979747,4.1153355,5.280599e-08,0.3,1.6764811,87.00171,87.28731,86.90133,87.11581,0.0899504,0.3984375,4.214837312698364,35.17220255931218
36,360000,51.882932380462364,-90.65828,0.0,-13.695528,0.0029642829,2.157295,1.0,1.1472974,-1.7055333,2243.761,32.886654,8.293966,106.00669,104.58765,105.364136,104.272285,13.989597,0.7,-110.75423,-822.9038,0.0019937698,-4.776695,4.528885,1.199446,3.837825,3.433463,4.8119114e-07,0.3,2.2002716,88.32118,88.195274,88.4663,88.21883,0.20506461,0.5546875,3.8993661403656006,36.12353686889013
37,370000,57.62084230188196,-88.01038,0.0,-89.36101,0.0013975867,1.8141903,1.0,1.029721,0.38163352,2135.942,27.485432,8.850292,105.10624,104.39485,104.72622,104.19293,1.7137022,0.7,-111.74557,-955.2136,0.0007486139,-4.962533,1.6203637,1.9071919,1.2646177,1.6611387,2.1122396e-07,0.3,1.8901446,86.18678,86.112885,86.14287,86.01545,0.060897533,0.53125,4.239649057388306,37.0803629954656
38,380000,60.77580406369009,-88.61671,0.0,-73.89586,-0.0019531548,2.1574523,1.0,0.9290906,-4.463477,1958.4056,27.311476,8.48582,104.7308,104.45009,104.62883,104.64325,2.395188,0.7,-112.20068,-836.6736,0.005941487,-5.116664,5.5165668,6.7738605,5.829195,5.8135247,6.3704215e-07,0.3,1.7546989,86.59071,86.66547,86.49394,86.60145,0.092190824,0.41562498,4.415823459625244,38.04332719643911
39,390000,59.64000683221028,-89.56786,0.0,-31.271645,0.0038432614,2.125406,1.0,0.84146696,-2.8684063,3961.3914,9.920125,8.396177,104.644905,104.17813,104.459045,104.406204,1.0692687,0.7,-109.26697,-983.59247,0.00072923966,-3.8040066,3.9379222,3.0106893,3.484954,3.6916368,1.7214916e-07,0.3,2.0688229,87.202,87.16643,86.974686,87.036835,0.06290613,0.5078125,4.3925940990448,39.00560448964437
40,400000,46.891715942125465,-85.670044,0.0,-111.48622,0.0049011875,1.8903576,1.0,0.83808506,2.5950434,2689.6719,16.102486,12.043861,104.26785,103.873795,104.812996,104.57082,4.6432695,0.7,-114.329834,-1007.36237,0.004653806,-5.6543403,0.018745422,-1.8161191,1.2411596,0.36800867,3.4599423e-05,0.3,1.72483,83.88983,83.50949,83.65538,83.77887,0.13196637,0.37499997,3.4695913791656494,39.948951029777525
41,410000,56.075730609066895,-90.00398,0.0,-94.116974,-0.00058944785,1.7875826,1.0,0.72533137,-0.86787605,1419.458,12.40082,9.585684,105.11986,105.02902,105.18112,104.753395,1.9527253,0.7,-113.58013,-860.36206,0.0052504297,-4.028424,2.8255584,2.1864533,1.8635216,1.401263,1.0430813e-06,0.3,2.083702,88.15145,87.779274,88.09337,87.91347,0.101868525,0.5484375,4.076551198959351,40.90418502092361
42,420000,51.07445903970264,-91.65076,0.0,-62.694347,0.00024720802,1.988036,1.0,0.8595358,-1.1827562,1268.4727,19.83907,9.79564,105.49278,104.57797,105.7131,105.30728,8.6996765,0.7,-111.4672,-1096.4286,0.0012981573,-5.0654626,2.639647,3.0205739,3.6567268,3.3409574,2.926495e-06,0.3,2.2151036,89.54355,89.14751,89.41838,89.34952,0.14990208,0.43124998,3.6893153190612793,41.85431805451711
43,430000,48.55760666374758,-86.82205,0.0,-76.26681,-0.007662702,1.9190073,1.0,2.2527554,2.3995929,1386.7898,293.17706,9.611242,104.64365,103.83611,104.62861,104.34024,2.099674,0.7,-111.50894,-808.0517,0.000775627,-6.388849,-1.0013319,2.5046744,1.3885684,0.917186,7.051229e-06,0.3,1.803158,85.24992,84.84758,84.93192,85.14104,0.08357489,0.3796875,3.638625383377075,42.80260893503825
44,440000,57.80323663266893,-88.06786,0.0,-98.16616,0.000116798285,1.7427586,1.0,0.91416407,1.2928782,3443.8315,12.644567,7.60058,105.01472,104.39531,104.657364,104.43783,3.7413385,0.7,-110.654144,-871.4423,0.0011289609,-5.8574915,0.15338093,2.7965531,1.6811461,1.6586268,6.078626e-08,0.3,1.6487603,86.074455,86.07768,86.02147,86.1147,0.10967728,0.4359375,4.067508697509766,43.755966273943585
45,450000,48.260599409076455,-90.884186,0.0,-40.037754,0.0057266373,1.9947159,1.0,1.0540378,-0.369385,2597.2268,31.158298,9.599809,103.46216,103.74677,104.158745,103.76432,3.5707676,0.7,-110.30536,-814.0987,0.00036442478,-8.030056,0.9690268,1.4119437,1.53479,0.13290101,4.0944606e-06,0.3,2.215713,88.18944,88.66379,88.38097,88.37574,0.10559203,0.5,3.4923274517059326,44.70238968928655
46,460000,51.29200934249717,-87.97373,0.0,-103.23218,-0.0060177906,2.0135026,1.0,0.6213424,0.53260136,3963.275,10.236411,11.429302,104.561966,104.37315,104.459915,104.338844,4.499034,0.7,-111.35045,-1175.6912,0.0009590076,-3.6029496,2.475761,3.3898065,1.3480579,3.3851838,7.759547e-07,0.3,1.91169,85.70498,85.93921,85.756454,85.66057,0.10261269,0.5,3.7857422828674316,45.652805896600086
47,470000,49.46645525791721,-88.763954,0.0,-70.88954,-0.0056613325,2.0494475,1.0,1.0264943,-5.898093,5434.7324,27.634787,8.684969,104.49042,104.56939,103.607574,103.27046,3.627038,0.7,-112.42273,-1012.46924,0.0009358425,-5.435112,8.002609,7.5941896,8.382977,8.10133,1.5759724e-07,0.3,2.074808,86.78897,86.59886,86.42929,86.20143,0.1410296,0.5625,3.6496617794036865,46.60044300556183
48,480000,50.955387854802304,-90.32153,0.0,-57.349934,-0.0059557357,1.716452,1.0,0.8968596,-1.3231349,2268.8057,16.204336,9.010372,104.860725,103.82097,104.67012,104.733315,1.5692694,0.7,-110.72204,-1120.7446,0.0019678476,-5.1584535,2.3950677,2.640858,3.5003266,3.4533613,6.171875e-07,0.3,2.024652,88.21182,87.91868,88.15954,88.2305,0.08081469,0.38437498,3.708937168121338,47.54473516146342
49,490000,50.496170218714,-88.14121,0.0,-67.01289,0.0009144664,1.9059123,1.0,0.96887994,0.6496596,4997.0527,33.53881,11.224339,104.67208,104.9939,104.48624,104.78555,5.2441177,0.7,-113.529625,-1497.0752,0.0002131809,-3.943523,0.88174874,1.0534655,1.401634,1.061564,6.885966e-09,0.3,1.9567118,86.227615,85.80342,85.90936,85.99567,0.09655323,0.428125,3.7131295204162598,48.49018859068553
50,500000,47.48276602312626,-88.043106,0.0,-51.958767,-0.0012042731,1.7880772,1.0,0.7189121,-1.3849287,3657.7073,12.1433935,8.991348,104.83309,104.03764,104.89325,104.3323,3.798942,0.7,-111.14485,-968.84735,0.0034096618,-2.8084974,3.896545,4.1380105,4.6264358,4.4482875,2.7543864e-08,0.3,2.084775,85.83171,85.55724,85.56112,85.58887,0.116726086,0.471875,4.009368896484375,49.4378316561381
51,510000,56.64543874889452,-89.63553,0.0,-93.56106,0.0047711697,1.9931086,1.0,0.9060736,1.4401205,2987.314,13.094771,17.037245,104.7796,104.457405,104.79243,104.902725,4.1294217,0.7,-114.19599,-906.7915,0.0011628461,-4.641926,2.1666894,1.6248233,1.115974,2.1673682,4.0745363e-09,0.3,2.061629,87.49736,87.13321,87.26807,87.198975,0.12299177,0.41875,4.31529974937439,50.39390769402186
52,520000,54.797759666373814,-87.02161,0.0,-123.45924,-0.0039044153,2.0890014,1.0,0.83569306,-3.1573727,802.7238,17.962492,8.067377,103.81702,104.35699,104.20851,104.81007,3.922377,0.7,-111.82073,-1262.1787,0.0030915807,-3.1081038,2.6821852,2.8448255,1.2924149,1.2112002,2.4314505e-07,0.3,1.9302216,84.8831,84.944,84.99278,85.04953,0.12103251,0.39375,3.9917988777160645,51.339577587445575
53,530000,51.41188937347433,-89.908554,0.0,-55.0792,0.002100606,2.1576645,1.0,0.9296113,0.8142445,2684.607,13.16559,8.2741165,104.22306,105.022026,104.95259,104.93512,2.9823954,0.7,-111.10481,-1079.264,0.0027713953,-3.5556335,0.77328134,2.3659742,1.3074337,1.7147093,7.1874815e-08,0.3,2.1376462,87.48443,87.85707,87.76553,87.7711,0.122275874,0.3875,3.874906301498413,52.287641342480974
54,540000,47.16850182413746,-88.158554,0.0,-71.382935,0.00033203885,2.077984,1.0,1.1219516,-6.3575163,4292.108,20.988634,9.92153,104.782364,104.29632,104.73585,104.818214,8.369106,0.7,-111.963104,-1322.9066,0.0026217618,-5.1335764,7.968296,7.168591,8.06102,8.07565,1.466833e-09,0.3,2.1053777,86.323654,85.727516,86.166855,86.23285,0.14382271,0.39843747,3.563112497329712,53.22926380634308
55,550000,53.36929002179108,-88.38728,0.0,-80.70656,-0.004716098,1.8541644,1.0,0.76543623,1.8449134,4048.8652,12.731036,8.824816,104.01064,104.30417,104.33478,104.3137,2.1376982,0.7,-112.688866,-1046.9753,0.0023914,-4.424327,1.9001123,0.6344086,1.3760685,1.6779492,7.152558e-08,0.3,2.135623,85.97536,86.10789,85.99415,85.90396,0.08589936,0.515625,4.158207416534424,54.18216723601024
56,560000,51.53521573458485,-89.370964,0.0,-63.333645,-0.00028493183,1.9477595,1.0,1.6528854,-0.88749003,4482.803,113.761154,9.634938,103.3188,103.402115,103.16202,103.62688,3.5551143,0.7,-111.168724,-1025.6993,0.00071175117,-4.9923325,4.4925313,3.5478737,4.379758,3.9606366,3.9731794e-06,0.3,1.9806551,87.2666,87.244774,87.23015,87.08417,0.08343519,0.5328125,3.7915151119232178,55.131653229395546
57,570000,53.601692817922306,-86.38086,0.0,-96.78871,0.0013329836,2.248309,1.0,0.8686771,0.84502745,3450.4185,18.57722,8.51936,104.09236,104.091965,103.96568,103.9348,2.7937164,0.7,-111.0758,-998.0813,0.0005467894,-11.99131,1.4777892,0.41586637,1.2842677,1.4255145,4.991307e-08,0.3,1.8455683,84.320404,84.45377,84.28315,84.30668,0.08752582,0.47031248,3.897040843963623,56.085366654396054
58,580000,52.32918482730417,-90.417,0.0,-94.68351,-0.0022108757,2.20065,1.0,0.8892914,-10.045887,4771.863,9.469339,10.866848,104.29694,103.359985,103.68549,103.33638,1.915936,0.7,-111.2012,-1327.1115,0.0036248066,-6.145393,7.386842,8.230553,8.268159,8.038107,1.135486e-06,0.3,2.1359112,88.605644,88.17549,88.41085,88.23301,0.07449943,0.49374998,3.807201862335205,57.0351211865743
59,590000,56.905085111959586,-90.340515,0.0,-61.94506,-0.002493446,1.9622126,1.0,1.3504612,0.1898017,3052.0603,85.903046,9.07215,103.830765,103.21142,104.6287,103.43446,3.8152077,0.7,-112.528694,-1287.4994,0.00043749582,-4.634726,3.8414881,4.7268963,4.310463,4.5614376,2.229761e-07,0.3,2.2349396,87.9205,87.86854,87.82131,87.83382,0.1109257,0.44687498,4.154075860977173,57.98839348951976
60,600000,49.22680649964878,-86.50864,0.0,-108.67677,0.001959594,1.6402752,1.0,1.1300899,1.1322998,4119.804,31.687725,9.537923,103.759796,103.718765,103.77476,103.360214,3.4694507,0.7,-111.76959,-1185.2377,0.0023656124,-6.116922,1.2235894,0.45332158,1.2814927,1.2486014,1.678127e-06,0.3,1.7158247,84.617615,84.88204,84.8903,84.932236,0.07163541,0.4359375,3.6041901111602783,58.9344146490097
61,610000,55.39204139478119,-89.02944,0.0,-80.99976,-0.0021959816,2.036656,1.0,0.8591386,-3.3362184,2957.5044,49.02559,13.569607,104.12037,103.796036,103.9302,103.82708,3.44583,0.7,-110.94119,-1287.5012,0.006139504,-5.0018773,5.4939737,6.096,6.1461687,6.2445626,1.7813291e-07,0.3,2.0855777,86.76452,86.59561,86.490326,86.64706,0.09302457,0.46249998,3.994746208190918,59.888731058438616
62,620000,60.62380008823058,-87.997,0.0,-127.11424,-0.0037956529,1.8658161,1.0,0.9407529,0.5610924,1464.9349,13.873617,9.886474,102.8643,103.305016,103.42756,103.02684,2.4736176,0.7,-110.351524,-1439.745,0.0003928666,-5.7661533,0.21518135,0.6648409,1.359088,0.52215284,5.224877e-06,0.3,1.8142159,86.01594,86.154785,86.03827,86.181206,0.06347059,0.365625,4.385717868804932,60.84946308930715
63,630000,51.67439239748447,-88.94685,0.0,-143.75218,0.00077182654,1.7250098,1.0,1.0221815,2.4905832,4327.141,26.644947,9.758379,104.06458,103.34447,104.02218,104.17382,17.78581,0.7,-111.86415,-1410.1884,0.00024860643,-5.700859,2.1938138,0.6366331,0.8913644,1.4938302,3.1393022e-06,0.3,2.182739,86.74166,86.68387,86.7509,86.60756,0.15189305,0.5078125,3.7221548557281494,61.795924774805705
64,640000,56.49309812892487,-87.893585,0.0,-113.10797,-3.08916e-05,1.8074707,1.0,1.1326988,-5.5116477,6079.987,74.037186,10.092236,103.5597,103.83073,104.131584,103.789734,2.7826219,0.7,-110.21642,-1369.258,0.0008460429,-8.5440645,5.6419616,7.289125,6.810655,6.750827,7.3162374e-07,0.3,1.6913652,85.71742,86.079124,85.788124,85.90323,0.09519234,0.44062498,4.397687196731567,62.75528652270635
65,650000,51.09835471837686,-87.075836,0.0,-91.31956,0.0027770677,1.8754462,1.0,1.001199,-3.1469905,5002.551,9.566839,9.295222,103.33769,103.47078,103.37843,102.970215,1.8012028,0.7,-108.90306,-1486.6598,0.0023667659,-4.7851095,5.0934234,4.9925995,5.816663,5.4270515,2.4789477e-07,0.3,1.9509377,85.21507,84.84651,85.10531,85.01379,0.08455566,0.46874997,3.6885862350463867,63.70199560324351
66,660000,53.81386030734186,-89.93654,0.0,-180.17715,0.0015023962,1.9491266,1.0,1.0160675,0.046563566,2920.6223,40.530872,9.701274,103.46189,103.928635,103.89696,103.85993,6.9724555,0.7,-110.02008,-1405.0029,7.143157e-05,-4.7730513,2.09892,0.0006791949,1.3198193,1.0986619,8.434727e-08,0.3,2.2922888,87.60495,87.65617,87.72266,87.65376,0.12936912,0.44375,3.944852590560913,64.65251471996308
67,670000,55.69954638396939,-87.563614,0.0,-158.09656,-0.0018671565,1.7477669,1.0,1.0640969,-3.0389068,2896.1274,38.771088,10.801609,103.54013,104.5496,104.08641,103.607025,2.441812,0.7,-113.47602,-1490.7982,0.0008580841,-4.1699862,3.6840901,4.9900146,4.1036105,4.496311,2.1122396e-07,0.3,1.8708308,85.32732,85.63107,85.33484,85.342804,0.07320457,0.471875,4.136221885681152,65.6030487537384
68,680000,52.16355810148027,-87.112335,0.0,-153.23312,-0.00083478395,1.9073061,1.0,0.6905544,-2.895547,5496.788,14.902961,9.115946,103.99679,103.697,104.04593,104.26377,2.474173,0.7,-111.5154,-1893.4225,0.00085320236,-5.383354,5.5070353,4.340986,5.499926,5.4897556,2.5060028e-06,0.3,2.1865306,84.895706,84.80833,84.941475,84.8224,0.09585435,0.4953125,3.882593870162964,66.55437785784403
69,690000,51.98151152884076,-87.991,0.0,-114.51516,-0.0007646721,1.9845608,1.0,0.6640167,-0.82519484,2244.2744,16.662025,9.296468,104.96422,103.885056,104.12608,104.17347,0.8923701,0.7,-109.438255,-1511.3131,0.0058714664,-5.843427,1.8722132,3.3250346,2.4673152,2.770122,9.2375565e-09,0.3,1.9732668,85.86883,86.24901,85.978745,86.0085,0.05767372,0.4546875,3.8682563304901123,67.50448968013127
70,700000,55.98869473448691,-89.140686,0.0,-109.66852,0.002022336,1.976256,1.0,0.7292505,-0.38023925,6887.4604,8.336873,8.592886,103.85947,103.633224,104.05312,103.599396,1.2849922,0.7,-110.747856,-1476.8336,0.0012878631,-4.317638,2.7962546,3.7149465,3.3251386,3.6046154,8.6217185e-08,0.3,1.945986,87.21086,87.275604,87.1351,87.16235,0.06095455,0.43906248,4.180338382720947,68.4593637784322
71,710000,51.70685872030002,-90.319756,0.0,-80.3163,0.0004912123,1.8004694,1.0,0.88702446,-4.541906,3773.492,21.748829,9.415569,103.1127,104.15551,104.258415,103.832504,1.3940427,0.7,-109.13083,-1360.1328,0.0011610133,-4.6243887,4.583208,5.17304,4.6445346,5.004688,1.1265977e-06,0.3,2.2565684,87.658264,88.0339,87.8346,87.81552,0.05625502,0.4609375,3.917736768722534,69.41009805202484
72,720000,50.45022571603609,-89.74124,0.0,-190.0952,0.0035278907,1.9170582,1.0,1.0072968,-1.9932264,1248.1312,40.36637,8.620401,104.44148,104.339966,103.85491,103.710335,9.645624,0.7,-111.201866,-1543.4757,0.0008223341,-6.9808807,2.9280214,3.6342225,3.3155766,3.192674,4.4703486e-07,0.3,1.8727205,87.88547,87.91621,87.779236,87.89113,0.10603408,0.434375,3.691971778869629,70.35569722652436
73,730000,48.921160003691725,-89.59639,0.0,-199.0588,-0.0013219164,1.7539599,1.0,1.5461543,-6.3412876,1190.2805,18.421827,9.137893,104.177864,103.46011,103.466324,103.72301,2.2904918,0.7,-108.539185,-2073.277,0.031099968,-6.036996,8.7734785,7.748644,8.911978,8.607062,1.2262899e-06,0.3,2.2274265,88.136986,87.116745,87.82037,87.697586,0.08028285,0.428125,3.614301919937134,71.30678417682648
74,740000,57.051179775103044,-88.934906,0.0,-146.84375,-0.0021512404,1.9816084,1.0,0.7241104,-3.7276735,2110.0334,12.4107685,10.585411,103.09736,103.957306,103.49756,103.281296,5.099383,0.7,-109.93454,-1922.397,8.621358e-05,-6.36971,5.465848,5.1493835,5.4339023,4.749195,3.168988e-06,0.3,2.0893943,86.849976,86.78255,86.84987,86.84419,0.1098364,0.4328125,4.2154364585876465,72.28965629339218
75,750000,51.45686856576555,-89.18815,0.0,-169.64563,0.005619118,1.8879681,1.0,0.81697726,-3.225286,1298.9407,16.726679,9.887718,102.686356,104.14693,103.48112,104.0332,2.6415703,0.7,-108.97118,-1420.4541,0.0016212552,-4.596178,3.1571083,2.8443365,3.1901813,3.2021902,1.0653574e-06,0.3,2.0252485,87.25633,87.07669,87.066505,87.08766,0.08638737,0.496875,3.829225778579712,73.26516041755676
76,760000,57.592071196048266,-89.47638,0.0,-182.4925,0.0014819611,1.8164867,1.0,0.71310997,-3.197689,2817.6797,22.617733,9.911195,103.782,104.34007,104.60262,104.27778,2.8449328,0.7,-111.558754,-1365.6012,0.00032463123,-5.140525,5.238282,6.033723,5.63521,5.6467247,2.0368026e-07,0.3,2.1401997,87.226974,87.37593,87.359184,87.267334,0.095424026,0.4125,4.323078393936157,74.25080500046413
77,770000,54.948696713794085,-88.887024,0.0,-152.1222,0.0022271536,1.6805031,1.0,0.9264783,-5.0060925,2227.4436,26.473808,9.100389,105.168846,103.77271,104.17859,103.71278,2.9802685,0.7,-110.317276,-1990.367,0.0003166201,-4.8561416,8.725147,7.829855,8.422946,8.273929,2.3905886e-06,0.3,2.0629492,86.86197,86.66292,86.78102,86.77681,0.09932171,0.44374996,4.142586708068848,75.22924514611562
78,780000,53.211714694127096,-86.52631,0.0,-168.22168,-0.0011554167,2.1193497,1.0,1.4188516,0.23416603,2746.0105,103.125465,8.991943,103.736465,103.45776,104.028,103.78618,9.167471,0.7,-110.89477,-1503.1626,0.007200267,-4.1708264,2.3122797,1.0073022,1.213605,1.4545717,9.2375565e-09,0.3,1.8136816,84.90081,84.32432,84.82027,84.72865,0.122133724,0.44687498,3.9554178714752197,76.20349409182866
79,790000,55.96804350662885,-89.588135,0.0,-183.8111,0.0008236848,1.6101388,1.0,0.85343105,-2.950726,1487.9229,37.853985,9.947332,104.50652,104.719666,104.388756,103.53179,1.9020478,0.7,-112.9695,-1919.2976,0.0011898745,-4.0904083,6.395035,5.9315877,5.9228563,6.2899327,6.712508e-08,0.3,2.1016228,87.385666,87.73987,87.434616,87.319,0.076677725,0.54999995,4.1597137451171875,77.18427112499873
80,800000,50.877316092667755,-88.948906,0.0,-99.12181,0.001607132,1.6104908,1.0,0.62280416,-1.6669091,2259.4841,8.207234,9.111965,103.65081,103.889565,103.51831,103.611984,3.4554346,0.7,-111.13406,-1499.6013,0.00224517,-4.114827,2.4313734,3.573138,3.2015548,3.1087995,6.4977215e-08,0.3,2.1355405,86.53558,86.95415,86.60344,86.54941,0.09780436,0.5359375,3.7935097217559814,78.15806876818338
81,810000,52.49378752978544,-87.483955,0.0,-226.48196,-0.0041064764,2.3176858,1.0,1.1912731,-2.8790271,3533.2727,72.36899,9.406041,103.52945,104.38811,104.46037,104.15798,5.610116,0.7,-110.21055,-1615.1884,0.0018240535,-4.7868314,4.673762,4.974994,4.972561,4.0242987,3.3003744e-09,0.3,2.0187593,85.25383,85.44983,85.2572,85.418365,0.12521546,0.40781248,3.9403531551361084,79.1362765232722
82,820000,55.708677785210426,-86.62118,0.0,-124.22842,-0.00157898,1.7113549,1.0,0.6709689,0.14026737,3576.2424,32.752934,9.788305,103.97331,103.84966,104.326614,103.79362,19.741732,0.7,-112.275444,-2064.6472,0.00021785276,-3.7044199,2.357236,2.0136318,2.050362,3.0722804,4.0745363e-07,0.3,2.160852,84.48634,84.39157,84.48905,84.49313,0.15230529,0.41875,4.202930450439453,80.11604348421096
83,830000,58.516701849916956,-88.115005,0.0,-212.92896,-0.0033630996,1.5621607,1.0,0.7064781,-4.0761237,1807.9236,20.488047,11.378458,103.674225,103.28014,103.46829,103.33244,1.7673528,0.7,-111.551704,-1464.5205,0.0025367963,-8.932014,4.5662074,5.4472294,4.7621264,3.709039,2.263114e-08,0.3,1.8832314,86.35155,86.187,86.29611,86.20187,0.0798697,0.5171875,4.689071893692017,81.10472673177719
84,840000,46.60378621563833,-87.85503,0.0,-109.08186,0.003431333,1.8307457,1.0,0.93109024,0.013185501,6595.3647,23.827997,9.983009,104.1363,103.859085,103.666824,104.00947,2.8039234,0.7,-113.81376,-2310.1604,9.740167e-05,-4.489456,1.8932587,0.6314297,1.3996071,1.1524293,8.5667125e-07,0.3,1.9054806,85.6646,85.506,85.4811,85.53793,0.11234137,0.4734375,3.600396156311035,82.07552192608516
85,850000,52.86860415723225,-87.63962,0.0,-145.33334,-0.003418544,1.8659286,1.0,1.0125304,-4.8050127,5070.392,20.744156,9.739261,103.74716,103.85014,104.52106,103.66504,3.0993445,0.7,-110.43349,-1770.2539,0.0034993887,-3.7072783,4.2743483,6.675891,6.5704494,6.3056045,6.992312e-07,0.3,2.0078087,85.230156,85.79158,85.66765,85.538895,0.09458769,0.503125,3.950843334197998,83.05111773808797
86,860000,47.4444683637349,-86.3069,0.0,-230.02565,0.00026651882,1.9212484,1.0,0.59541655,-2.2727323,4816.0903,7.3082547,8.874041,103.821556,104.25601,104.384636,104.16015,8.483184,0.7,-109.59256,-1834.9727,0.00063891016,-6.0271845,4.549067,4.400958,2.6142237,2.7111144,3.277499e-07,0.3,1.7247562,84.52754,84.56799,84.507645,84.56036,0.10314895,0.43593746,4.058231592178345,84.02692640622458
87,870000,51.87097954478105,-88.76843,0.0,-132.32901,0.0005623113,1.7721331,1.0,0.71413165,-3.8249698,2714.3394,16.030405,11.650443,104.983345,104.18066,104.37655,103.86773,3.3670537,0.7,-111.77048,-1595.0653,0.0006302484,-4.9601364,4.292421,6.0788155,5.2550416,5.2961335,1.18813475e-07,0.3,1.9934398,86.39134,86.45856,86.2075,86.38742,0.11646207,0.465625,4.067112445831299,85.00272340377172
88,880000,54.330667503329536,-89.78446,0.0,-187.92719,-0.007619509,1.8800662,1.0,0.8059174,-1.540988,2579.0413,23.424685,10.332578,102.73688,103.233986,104.23651,102.66956,3.576226,0.7,-109.22711,-1906.8888,0.00059328065,-4.411081,2.3173351,2.7940514,3.2165632,3.0025408,5.720824e-07,0.3,2.0955472,87.4037,87.258835,87.26091,87.1725,0.11559319,0.52656245,4.238416433334351,85.98255206346512
89,890000,53.74685731076351,-88.16885,0.0,-134.13455,-0.0043596504,1.7680819,1.0,0.51494277,-7.5008087,4185.464,28.381725,8.861751,103.46664,104.14635,104.114845,103.688995,5.858482,0.7,-111.45212,-2290.7544,0.00012537942,-4.4592633,8.22171,8.992562,8.317374,8.525894,2.1515298e-07,0.3,2.017362,86.002975,86.175415,86.02201,85.97055,0.11740669,0.46249998,4.218378782272339,86.96195806264878
90,900000,50.93268897752604,-87.94968,0.0,-169.7954,-0.0024179858,1.5232947,1.0,0.45157397,-2.9204373,5538.396,9.091211,8.017354,104.3827,104.01008,104.240654,104.315056,2.0326233,0.7,-110.72859,-2556.6086,1.1316733e-05,-3.648534,5.309905,4.6769624,5.2357473,4.981041,6.3038897e-07,0.3,2.1060247,85.76986,85.594925,85.63924,85.66923,0.062907554,0.465625,4.017052173614502,87.93723249435425
91,910000,54.37401017259745,-88.00751,0.0,-209.25891,-0.00076796825,1.8787746,1.0,0.9254856,-3.6958346,1885.312,36.080708,9.869243,103.94816,104.14523,104.18111,104.01864,4.041162,0.7,-110.380684,-2624.7505,0.0008228929,-3.4776006,5.235561,4.888872,4.8439093,5.0245347,1.4383521e-06,0.3,2.212236,85.72892,85.73636,85.72291,85.6933,0.085292995,0.4515625,4.147763252258301,88.92168807983398
92,920000,53.35337390061983,-91.332306,0.0,-165.78304,-0.0038630955,1.9580834,1.0,0.95544624,-4.5759687,1816.7899,13.091341,9.078978,104.04272,103.45366,103.843,103.70738,10.693327,0.7,-110.54374,-1788.792,0.0010068282,-4.3506083,4.588239,4.1481037,3.2672198,4.00026,3.5361156e-06,0.3,1.9976982,89.382256,89.06309,88.906334,89.14631,0.13789107,0.44687498,3.929887056350708,89.89813020626704
93,930000,51.71422414721967,-88.93887,0.0,-167.81552,-0.0025321909,1.644685,1.0,1.015162,-1.4543612,1695.4435,20.782793,8.032999,104.74552,103.88766,104.35436,104.0449,6.4558825,0.7,-111.87669,-1830.277,0.014104092,-6.5432167,2.9739413,2.5652976,3.109747,2.5045857,2.514571e-07,0.3,2.1843452,87.20831,86.49492,86.98874,86.792076,0.099118374,0.4765625,3.9673166275024414,90.87212328910827
94,940000,55.65300371836578,-86.02223,0.0,-203.09103,0.00038562456,2.0363533,1.0,1.293629,-0.39306927,2466.0715,30.537567,8.380464,104.884834,104.0739,104.39148,103.84579,2.0636563,0.7,-112.36433,-2048.4675,0.0044871047,-2.6259222,3.3366575,2.7920256,2.5601654,2.3063264,4.0745363e-09,0.3,2.1609848,84.512955,83.74342,83.94534,84.01667,0.07129286,0.43593746,4.135557174682617,91.84909876585007
95,950000,51.95904619713077,-87.92018,0.0,-109.97555,0.0030840393,1.8620566,1.0,0.9202523,-5.3073883,5159.1245,26.935764,8.729629,103.47511,103.31971,103.41319,102.725845,3.891214,0.7,-109.23559,-2815.886,0.00012656959,-3.773739,4.2382298,4.872965,3.9272757,3.8711228,7.880682e-07,0.3,1.8860476,85.70793,85.73703,85.55359,85.61427,0.12169823,0.496875,3.935816526412964,92.82499649524689
96,955000,49.81384406719206,-89.63556,0.0,-156.99423,-0.0013769439,1.661189,1.0,1.044107,-0.55924773,4121.984,12.551437,9.298116,104.52131,103.693375,104.28912,103.93149,1.1761006,0.7,-109.4383,-2056.9578,0.0024248853,-5.3519025,1.1225909,1.202847,1.2600905,0.8589403,1.913187e-06,0.3,2.106691,87.38915,87.37067,87.546906,87.35527,0.06628461,0.4984375,3.674283981323242,93.3415459314982
97,960000,50.07208330193822,-87.81065,0.0,-231.92444,0.0020135671,1.5325083,1.0,0.46843028,-5.4281654,1940.7593,7.0649443,8.545642,104.248436,104.2756,104.4929,104.093,9.019236,0.7,-112.09445,-2341.2385,0.00056679273,-4.675308,6.0625434,7.208788,7.242283,6.8435307,7.377821e-08,0.3,2.1153216,85.58725,85.655785,85.72463,85.60451,0.08790979,0.4953125,3.7799131870269775,93.85622939268748
98,965000,58.0688804871106,-90.0529,0.0,-185.42264,9.1271104e-05,1.5982617,1.0,0.7362418,-4.870076,1611.6106,47.59441,9.033933,104.071754,103.79233,103.70943,103.72374,3.5570252,0.7,-111.01753,-1960.19,2.9227755e-05,-5.834502,5.2588654,5.827208,1.4733639,5.9112654,2.7723146e-07,0.3,2.2501671,87.6806,87.82083,87.68503,87.91385,0.10031821,0.35625,4.247033596038818,94.38352932532628
99,970000,54.21204874995229,-89.318405,0.0,-258.5978,0.0022457228,1.3985518,1.0,0.7428112,0.0053488016,7414.3916,11.812149,9.230885,104.113205,103.97041,103.89227,103.708015,1.9597065,0.7,-110.12666,-2731.8542,0.0022635653,-4.993228,3.99287,1.8685606,2.4552803,2.598929,2.9923801e-06,0.3,1.9292307,87.15472,87.22805,87.02878,87.16961,0.075507835,0.43125,4.081904888153076,94.90715026458105
100,975000,49.8366019356756,-85.82306,0.0,-268.93326,-0.0046512294,1.7111229,1.0,0.91970164,-1.6695173,2615.6035,33.28967,7.9242425,104.08041,103.97105,103.880486,103.57698,1.3762804,0.7,-110.137825,-1956.4788,0.007002564,-5.294263,2.7621458,2.6771784,2.1795766,2.4349308,2.0746957e-07,0.3,1.9070575,83.944626,83.716446,83.66368,83.84582,0.08273649,0.40625,3.681070327758789,95.42413047949474
101,980000,51.427659044207005,-88.47864,0.0,-154.4418,-0.0009355098,1.6790539,1.0,0.7360629,-0.38751805,1702.9237,31.423712,9.189466,104.16401,103.72206,103.79569,103.48904,1.9387734,0.7,-109.60534,-1985.147,0.00041043136,-7.680526,2.4525955,1.9955977,1.508423,1.7658617,5.4712887e-06,0.3,1.9412713,86.49776,86.66681,86.58854,86.465904,0.07437,0.559375,3.832221031188965,95.9442060828209
102,985000,51.07050234995766,-88.080315,0.0,-173.4383,-0.002983445,1.53832,1.0,0.8596511,-0.9078486,2696.6433,13.468667,10.20287,105.053734,103.188034,104.01927,104.02684,16.06363,0.7,-110.33701,-1593.2198,0.0023403834,-5.532863,3.0077457,2.969415,2.7058072,2.5521805,5.1660464e-07,0.3,2.0039616,86.00668,86.32469,85.98558,86.080505,0.11344514,0.434375,3.7685627937316895,96.46212014754613
103,990000,50.5350425555102,-87.43596,0.0,-215.53925,0.0046115606,1.8010552,1.0,0.69959074,-1.7552226,2399.183,17.67274,9.860831,103.3515,103.73043,103.738464,103.73597,5.1404195,0.7,-113.03418,-2394.0457,0.01169695,-6.078001,3.5150528,3.710814,3.787642,4.100383,1.1575309e-05,0.3,1.8903944,85.288025,85.63545,85.32529,85.27226,0.10012325,0.5359375,3.7812976837158203,96.98315608501434
104,995000,50.02161649944037,-89.25383,0.0,-210.76462,-0.00060875306,1.9357996,1.0,0.97450966,-3.2331843,6060.775,28.344969,8.475682,103.02574,103.17967,103.15737,103.0085,3.486518,0.7,-108.96605,-2008.2448,0.00016115909,-7.784068,4.874219,3.9281876,3.9866123,4.0597873,2.1122396e-07,0.3,1.9379942,87.43895,87.082245,87.154724,87.22764,0.103450865,0.4359375,3.794583320617676,97.50100274880727
105,1000000,53.09029962579863,-88.59285,0.0,-171.8299,-0.0024461881,1.7636852,1.0,1.0109749,-1.3248227,2871.7378,71.3831,11.794519,103.54374,103.59467,103.69232,103.66471,8.158522,0.7,-109.99553,-2540.403,0.0016428218,-5.492649,1.7194253,3.720796,2.9750993,3.6242871,2.9093208e-05,0.3,2.314733,86.05994,86.131485,85.980484,86.16357,0.14805543,0.35625,3.9768879413604736,98.02403088410695
