Xixo99/comfo/baselines/comfo7_perterbation_both_actor_and_critic/20230223_/hopper-medium-v2/COMFO7_s2_20230223_210826_hopper-medium-v2_53.39.csv
,step,reward,actor_loss,alpha,alpha_loss,avg_conservative_loss,avg_smooth_loss,conservative_weight,critic_loss,max_actor_loss,max_alpha_loss,max_critic_loss,max_mle_prob,max_q1,max_q2,max_target_q,max_v,max_value_loss,max_weight,min_actor_loss,min_alpha_loss,min_critic_loss,min_mle_prob,min_q1,min_q2,min_target_q,min_v,min_value_loss,min_weight,mle_prob,q1,q2,target_q,v,value_loss,weight,eval_time,time
0,0,5.108023847283278,,,,,,,,,,,,,,,,,,,,,,,,,,,,,,,,,,,,
1,10000,54.890328171103874,-40.403793,0.06714304,-4.241887,-0.0016268464,1.197387,1.0,1.1439581,1.0463738,26.129768,93.02505,13.6781225,58.17034,57.55542,57.62987,56.70356,8.28796,0.7,-63.305122,-25.46562,0.0003284429,-2.677963,0.40699384,0.40593323,0.7393776,-0.05528307,1.4433682e-06,0.3,1.5127516,38.973843,38.912136,39.083633,38.30857,0.10466492,0.509375,4.566242456436157,2.8238325834274294
2,20000,55.5982839311978,-64.23714,0.0037711575,-6.0318336,2.8310158e-05,1.6594695,1.0,0.7926626,-2.5190294,76.70785,24.872852,8.394516,83.17463,83.143,82.68759,82.456,8.367813,0.7,-86.941765,-50.580383,0.0008902523,-3.6096346,1.3013177,3.0805552,1.3499346,2.4591224,2.806948e-07,0.3,1.5929835,62.483246,62.648575,62.7743,62.470512,0.18663111,0.41249996,4.328447103500366,3.8128766377766925
3,30000,55.81029754051037,-77.886154,0.00020163003,-10.031147,0.00121965,2.075363,1.0,1.1104617,-4.491317,56.145706,11.55325,9.046988,95.93827,95.77837,96.51544,96.71576,8.111609,0.7,-101.23276,-66.338684,0.0002687259,-4.3433065,4.4781694,3.2235641,5.8726473,5.709361,1.2586843e-05,0.3,1.7171814,75.59044,75.858795,75.871826,75.87024,0.29006982,0.4046875,4.189394950866699,4.7987813472747805
4,40000,60.49761729699297,-82.222694,1.0776417e-05,-12.533077,-0.004315202,2.3867438,1.0,1.712081,0.9234457,72.39198,38.679535,8.198885,100.94351,101.41503,101.22166,100.935715,19.18232,0.7,-108.22304,-76.6358,0.004266127,-6.4342413,-0.30301324,1.6139374,-0.72732294,-2.1600688,1.7462298e-07,0.3,1.5717958,80.21316,80.353546,79.99005,79.8709,0.28139764,0.496875,4.70534873008728,5.791213468710581
5,50000,50.10350050256642,-88.50865,5.7220103e-07,-6.899711,0.0014020881,2.022062,1.0,6.324541,0.27328515,103.493744,973.04156,9.972387,105.076126,105.302986,104.835396,104.46712,4.5941787,0.7,-110.187355,-101.61506,0.00024711812,-5.953568,3.1113183,2.5108306,1.2725085,2.9114988,4.4709773e-06,0.3,1.7380857,86.5426,86.56331,86.28928,86.32442,0.11411836,0.5,3.747061014175415,6.763588166236877
6,60000,55.73422219580693,-86.179405,3.02897e-08,-16.87065,-0.0025361117,2.6390846,1.0,2.3316088,12.008787,115.85111,147.21585,8.557409,104.795074,104.62555,105.72554,104.68659,23.968609,0.7,-111.585075,-140.13126,0.002660919,-6.7649426,0.16266549,-4.148072,-2.183066,-5.068222,1.10175456e-07,0.3,1.5229967,84.734764,84.34641,84.806564,84.698105,0.27222207,0.390625,4.638381481170654,7.750814374287923
7,70000,47.918386921703195,-89.43426,1.6017688e-09,-18.470005,0.0007688271,2.2642763,1.0,0.79123247,-1.9483528,108.55007,14.54088,8.549505,104.45488,105.64834,104.88407,104.91002,5.3106236,0.7,-110.80449,-150.37968,0.00058284146,-5.7202,4.4539523,4.4134827,4.3806305,3.956585,3.1730815e-05,0.3,1.8465652,87.3185,87.60751,87.39761,87.24472,0.15027422,0.5203124,3.8408703804016113,8.722668739159902
8,80000,53.03784875661586,-88.713295,8.502628e-11,-21.439396,0.0011988155,2.1157043,1.0,1.1834779,-2.735473,201.2405,27.233587,8.776701,104.45348,104.38774,104.63479,104.77517,7.1232977,0.7,-111.979324,-176.05998,0.0023090388,-3.3132792,3.761656,3.7400265,2.7821286,3.0462985,1.3398648e-06,0.3,1.8532753,86.49783,86.76681,86.27372,86.49129,0.12502861,0.4734375,4.181994199752808,9.703701448440551
9,90000,52.681985302339015,-89.46828,4.513109e-12,-21.622797,0.0036289268,2.0423417,1.0,1.5973517,-0.8802438,172.16547,18.79754,8.971893,104.89439,104.669174,105.294876,104.72244,4.8382354,0.7,-110.72546,-191.51884,0.02474796,-4.8520813,0.3056559,-0.7218412,0.57159877,1.258333,6.647705e-06,0.3,2.0108829,87.831024,87.107544,87.90547,87.961105,0.18559662,0.34531248,4.181053638458252,10.683365043004354
10,100000,61.67011214420495,-90.896645,2.3891108e-13,-23.089937,7.9547244e-05,2.1803415,1.0,1.178204,-5.719129,214.05829,52.43296,10.655596,104.0547,103.780556,104.04109,103.46965,6.272313,0.7,-111.373344,-212.08781,0.004050581,-4.5171447,7.590831,6.897749,7.3749413,5.758725,2.4657463e-06,0.3,1.7922161,89.23984,88.87788,89.14432,88.88826,0.12921396,0.4984375,4.950774908065796,11.67366727590561
11,110000,54.679381072156104,-89.34996,1.2699022e-14,-31.615013,0.001839023,1.8341875,1.0,1.095656,2.9209347,187.92734,27.173622,7.9853086,105.23844,105.36118,105.3234,105.16444,9.953235,0.7,-110.256,-250.39543,0.0019986634,-6.250565,0.5045049,-0.7445374,0.37524486,0.9319993,1.5299768e-06,0.3,1.7755802,87.361115,87.64603,87.650635,87.638824,0.1469685,0.4203125,4.386415243148804,12.65244209766388
12,120000,50.93837847217074,-88.48327,6.751153e-16,-27.973997,0.0063359397,2.0343835,1.0,5.5182486,0.21189809,422.48257,1154.1602,8.546632,105.50525,105.340034,105.57672,105.336914,1.4398896,0.7,-111.795425,-243.29446,0.00024972722,-5.537808,-0.02686581,0.6116909,1.2708954,2.2086086,5.110883e-06,0.3,1.8663794,86.19425,86.54823,86.35954,86.33889,0.10318251,0.5015625,3.884021282196045,13.624441341559093
13,130000,49.02148689031204,-89.922356,3.6076933e-17,-25.152487,-0.0030613074,2.1019351,1.0,1.1908253,-1.3386388,816.79596,46.41794,8.329933,105.634094,106.78036,106.63918,105.4646,4.9530897,0.7,-111.765236,-296.56848,5.3611584e-05,-4.783843,1.7240896,2.5909777,1.3746475,1.9451761,7.1191926e-06,0.3,1.870197,87.86766,87.99123,88.0166,87.7363,0.15980187,0.540625,3.6589059829711914,14.594351784388225
14,140000,49.90705788067446,-90.13602,1.9152486e-18,-41.03232,-0.003965154,1.9718583,1.0,0.9142184,-4.3642545,366.7075,15.215455,9.502039,106.06128,105.00592,105.69992,105.111435,2.4928262,0.7,-111.90837,-275.86423,0.00429886,-4.5423956,6.9784374,6.990324,6.565894,6.087288,1.5662518e-07,0.3,1.9021168,88.45735,88.1134,88.41032,88.27283,0.12028621,0.44687498,3.829029083251953,15.56320518652598
15,150000,50.36794183912563,-89.33501,1.02340375e-19,-40.898464,-8.508768e-05,2.1331146,1.0,1.0876076,1.9024228,495.659,49.01342,9.194975,106.06768,106.04883,105.84933,105.96721,3.7362118,0.7,-114.84949,-361.58984,0.0005959948,-5.402448,0.9058701,1.743477,1.5540059,2.063168,5.8743172e-08,0.3,1.7783368,87.43666,87.54756,87.414795,87.56404,0.11126384,0.3953125,3.831112861633301,16.537555948893228
16,160000,51.772441656224885,-91.15804,5.5086872e-21,-39.611702,-0.004427604,2.0055478,1.0,1.6594505,2.6112702,1162.4435,117.589775,8.845518,105.907745,105.17739,106.43403,105.47625,4.9844356,0.7,-112.04794,-431.01816,0.00036523264,-4.1184344,-0.94953287,-0.8410051,1.3109394,-1.7352288,7.5605467e-06,0.3,1.8588047,89.38954,89.04705,89.32195,89.28763,0.092030436,0.39687496,4.183929681777954,17.517901253700256
17,170000,54.33226492357477,-91.56763,2.9466184e-22,-37.999886,0.0025836583,2.1447015,1.0,0.91980094,-2.370401,273.8783,16.466375,9.684095,105.49357,104.69897,105.81969,105.92928,11.86336,0.7,-112.437996,-365.729,0.0037737766,-5.5333967,4.3485327,3.9649975,5.33879,4.6596885,6.437302e-07,0.3,2.0083036,89.71275,89.298584,89.71181,89.76115,0.16232872,0.4375,4.103452920913696,18.49761659304301
18,180000,54.96342228814224,-92.432205,1.5975257e-23,-25.796719,-0.006014706,2.226772,1.0,1.2221552,1.4295858,748.51495,64.87076,9.692816,105.759735,105.15171,105.3799,105.07057,2.6525018,0.7,-112.88429,-323.58295,0.00033886457,-5.152055,1.6606873,1.7391618,1.3335665,1.2625409,2.9511285e-09,0.3,1.8979735,90.15933,90.17743,90.03227,90.10172,0.11034653,0.42812502,4.077008008956909,19.47421712875366
19,190000,56.22279103577893,-90.59877,8.658201e-25,-64.9364,-0.00089562556,1.7045873,1.0,0.86135626,-4.042053,719.2153,9.302267,8.577074,104.324135,105.784966,105.04616,104.54351,6.357327,0.7,-112.675385,-452.54065,0.001005026,-4.573847,3.416506,4.668489,3.328188,3.4918208,6.366463e-07,0.3,1.8874116,88.48733,88.963486,88.693054,88.74333,0.091563225,0.44843748,4.189359664916992,20.458197971185047
20,200000,57.05463539637461,-90.314316,4.6747755e-26,-57.957077,0.0027135937,2.1392565,1.0,0.8275468,0.8342768,363.52222,8.075082,10.421622,104.70193,104.543274,106.02239,105.13084,2.491586,0.7,-110.53606,-366.58237,0.0015444646,-5.402137,1.3975002,2.4648566,1.2426366,1.7332494,2.1513727e-06,0.3,1.9877603,88.265015,88.424545,88.55536,88.44527,0.08425801,0.4171875,4.219599723815918,21.441105580329896
21,210000,51.20961023204582,-88.18109,2.5437155e-27,-58.72513,-0.0007888008,1.8202778,1.0,1.3319544,-1.267803,750.2751,29.865503,8.287959,105.71315,105.94688,104.840454,105.06041,2.8874938,0.7,-111.07411,-590.4927,2.8549228e-05,-4.770548,2.416617,3.5138352,2.7519383,3.2403684,2.4457404e-06,0.3,1.7381682,85.95411,86.37274,85.806656,86.033356,0.14379144,0.44843748,3.8682844638824463,22.41267910798391
22,220000,56.35495010935452,-89.687805,1.3811903e-28,-62.537045,-0.0006619796,2.0293632,1.0,0.75889504,-0.19545197,930.55493,9.508562,8.895015,105.453545,106.16577,105.934006,105.872,9.3485,0.7,-113.88818,-390.27667,0.0005196885,-4.7416115,2.290692,3.3004174,3.4812446,2.782973,4.0233136e-08,0.3,1.7674719,87.66466,87.99581,87.90602,87.70223,0.17876333,0.52656245,4.193188428878784,23.39496456782023
23,230000,59.37415901409522,-88.218056,7.472848e-30,-51.543827,-0.00023971572,2.1670988,1.0,0.97064745,-1.6365631,1856.9655,19.248226,8.3322115,104.3628,104.72564,104.33272,104.28621,4.0325437,0.7,-109.09309,-435.89426,0.0039780373,-7.00821,1.5857332,1.6743273,1.2621051,1.7554564,1.3217215e-07,0.3,1.6699629,86.49756,86.38048,86.31963,86.29875,0.10069306,0.50625,4.47485876083374,24.385539396603903
24,240000,52.984180734883346,-89.91597,4.0537656e-31,-64.39539,-0.0028495172,1.8122448,1.0,1.051525,-3.7330122,782.05585,10.552253,8.3714485,105.029465,105.111244,105.86025,105.3252,2.6361399,0.7,-112.71842,-680.87573,0.0045677186,-4.2232566,4.292118,5.898762,5.4884024,5.3643503,3.8152325e-06,0.3,1.9167904,87.7814,88.36185,88.18866,88.10193,0.088540666,0.3953125,3.889796733856201,25.36772008339564
25,250000,54.88562276375741,-88.53964,2.2134213e-32,-60.284462,-0.0026248526,1.8730061,1.0,0.757501,-3.3256638,476.26102,17.071495,11.643514,103.97822,104.00762,104.09485,103.617714,2.0810363,0.7,-111.25557,-663.9056,0.0013085655,-4.796175,3.8232813,4.2302866,3.5038981,3.4122453,2.4858339e-06,0.3,1.8929335,86.42151,86.72606,86.3693,86.306435,0.08981392,0.57656246,4.081587314605713,26.35034381945928
26,260000,57.10566863029276,-91.65762,1.2053039e-33,-13.9284,0.0030620357,2.5012028,1.0,1.122707,-1.4618102,1253.1675,33.514397,9.56,104.680824,104.84154,104.49687,104.50622,2.354114,0.7,-110.61553,-552.0623,0.0005478212,-4.823957,2.6626253,3.775384,2.90163,3.3532748,3.3653516e-06,0.3,2.061471,89.132324,89.42963,89.24507,89.348755,0.13567084,0.425,4.358971834182739,27.33462663888931
27,270000,53.37993820501893,-89.2903,6.632061e-35,-69.11871,-0.0042037084,1.6876068,1.0,1.2298745,-1.7285101,1588.9515,23.405565,9.530383,104.757095,105.56395,104.65738,104.8203,3.9571445,0.7,-112.56937,-673.59705,0.0029133216,-10.688874,4.0248966,2.243978,1.3813924,1.9173411,1.7214916e-07,0.3,1.9301462,87.15678,87.1348,86.90103,86.81381,0.11225858,0.56562495,4.005340576171875,28.314606018861134
28,280000,56.21864077053842,-90.07022,3.62879e-36,-38.165672,0.00441139,1.9148508,1.0,1.0769697,-0.10556322,1990.8096,32.777317,8.958768,104.3548,104.971825,104.60842,105.17328,2.2682,0.7,-111.304855,-682.65704,0.0023284557,-4.6795692,1.5302576,1.6321747,1.4159327,1.0604808,3.228779e-08,0.3,1.9270114,87.96126,87.68245,88.020874,88.10417,0.095409855,0.371875,4.378694295883179,29.302857192357383
29,290000,53.21530640324353,-87.79785,1.9892387e-37,-83.18448,0.0012518946,2.1254184,1.0,0.9565648,-0.6659498,1147.727,20.53411,8.886045,104.36273,104.28044,104.358406,104.21479,2.0404663,0.7,-111.54477,-722.977,0.0019441745,-7.080054,5.6031284,2.8330345,3.53621,3.698572,1.6458042e-06,0.3,1.8046957,85.996376,85.82908,86.03198,86.007,0.087384894,0.41562498,4.251712799072266,30.28093611796697
30,300000,56.23950611386571,-89.809944,1.1038838e-38,-65.31533,0.0024143462,1.6986561,1.0,0.9163087,-1.3477423,1702.8969,37.411163,7.983962,105.31511,104.80796,105.402794,105.26336,1.4226584,0.7,-110.96074,-763.6015,0.00084154337,-5.768641,2.5629225,2.2616148,1.2804582,2.3803298,8.952153e-06,0.3,1.8180249,87.93024,87.717224,87.73675,87.906296,0.080635674,0.34374997,4.573785305023193,31.26818508307139
31,310000,45.46800181370422,-83.56909,6.07502e-40,-85.656784,0.005601916,2.0495467,1.0,1.1054795,1.0682408,2245.3225,20.268166,8.481039,104.99803,105.3056,105.35102,105.402916,5.1170425,0.7,-112.44011,-670.9708,0.001983327,-4.583184,0.71820533,1.4421263,1.3571624,1.5226555,5.9655287e-07,0.3,1.7505443,81.63936,82.112274,82.078,81.96911,0.12378877,0.4078125,3.683344602584839,32.23845001856486
32,320000,53.07145026762608,-88.08272,3.3515e-41,-69.11599,0.0015755777,2.3228834,1.0,0.9542396,-2.6564076,1078.0815,14.267719,9.408961,104.954796,105.68921,105.40181,105.07258,4.3420587,0.7,-111.80374,-839.52423,0.0003214667,-5.76037,4.4378295,5.359136,4.627092,4.3491917,1.3201497e-06,0.3,2.0089366,85.64096,86.18331,85.74033,85.57367,0.15126574,0.5671875,4.200864315032959,33.22144763469696
33,330000,52.70299760533508,-86.97853,1.843e-42,-59.455208,-0.00077252503,1.875584,1.0,0.97447586,-0.7741662,1956.1962,24.881718,9.788561,104.71364,104.595215,105.081726,104.7869,2.737877,0.7,-112.87907,-609.0375,0.00043229247,-5.726983,2.148467,2.475989,1.2375045,2.3796382,3.3795834e-06,0.3,1.7877569,84.93145,85.18318,85.16379,85.24806,0.085046455,0.3671875,4.497783660888672,34.2061138232549
34,340000,53.90215013409744,-85.932396,1.01e-43,-68.29173,-0.0013860911,2.3752599,1.0,1.179428,-3.0629342,1294.5496,40.85051,9.1835785,103.57302,103.87333,103.789474,103.96771,2.0680768,0.7,-110.54456,-594.32495,0.0003998066,-6.644318,3.035611,3.4834821,3.1346204,3.4978137,3.182504e-07,0.3,1.8818085,83.59343,83.87912,83.47917,83.60204,0.105606735,0.4890625,4.279143571853638,35.19114417632421
35,350000,50.70582479184438,-89.37212,6e-45,-78.081726,-0.0011145078,1.8691968,1.0,1.2443273,-6.2499256,1755.9862,17.641321,8.706401,106.437485,105.454285,105.84693,105.14576,1.8012884,0.7,-113.45532,-770.58563,0.03553784,-4.306225,9.90086,9.616612,8.457706,8.58974,1.1227792e-06,0.3,1.7924578,87.76868,87.08925,87.018906,87.16289,0.07211147,0.4859375,4.07310676574707,36.165631572405495
36,360000,51.67578254741554,-88.5273,0.0,-73.52429,0.0027427338,2.158526,1.0,1.2013732,0.5442613,1025.8992,19.178705,9.552413,105.2305,104.25499,105.080025,105.21073,5.5622735,0.7,-112.19375,-753.2628,0.0020154654,-3.2687492,0.83038956,-0.2341879,1.2671149,0.58117723,2.1773502e-07,0.3,2.014903,86.745056,86.00882,86.38167,86.70948,0.14217958,0.3390625,3.835393190383911,37.143422881762184
37,370000,53.253705200892256,-90.39257,0.0,-68.147934,0.0072902413,1.8978881,1.0,1.199455,2.39144,2844.5461,24.12395,10.996468,104.61953,104.357834,104.35509,104.583885,6.637086,0.7,-112.6393,-771.5503,0.0060351873,-4.508246,0.34269935,1.6607323,1.4040684,0.949713,7.4824203e-07,0.3,1.9488773,87.93951,88.417725,87.97679,88.16165,0.121406324,0.4203125,3.99619722366333,38.12274820804596
38,380000,49.315577587881585,-90.0342,0.0,-84.80337,-0.0023738628,1.6255226,1.0,0.638125,-0.66398406,4115.871,10.188557,9.802416,104.82887,104.95621,104.84777,104.98953,1.5734943,0.7,-114.45632,-734.8408,6.344286e-06,-6.371648,3.7170787,4.2896113,3.372141,3.2877328,1.9362355e-05,0.3,1.9551076,87.97801,87.988655,87.92909,87.96713,0.06767577,0.39218748,3.693195104598999,39.09834496180216
39,390000,57.23132831952975,-89.670944,0.0,-83.04753,-0.0037398026,1.9555839,1.0,1.315191,-1.1620512,823.88293,40.553192,9.390421,104.2174,105.39405,104.34138,104.136475,2.2088394,0.7,-111.286644,-844.3474,0.0028342288,-5.32413,2.8359816,2.43212,1.1814028,1.8548806,6.30389e-09,0.3,2.0543919,87.797165,87.42026,87.37038,87.35342,0.107352875,0.525,4.286010503768921,40.08236720959346
40,400000,44.46397760050126,-88.793365,0.0,-73.11817,-0.0039568283,1.7613686,1.0,1.150241,-4.2729735,2150.9363,51.01995,9.420984,104.11769,104.344055,104.240234,104.189476,2.7547255,0.7,-111.31263,-787.95026,0.0019615863,-4.060458,3.894123,2.929185,2.9483674,2.7769759,2.0539737e-07,0.3,1.9122808,86.54909,86.71773,86.909164,86.80258,0.09049384,0.403125,3.4281861782073975,41.05027008454005
41,410000,53.2181655946956,-89.593994,0.0,-86.39745,-0.0008990254,1.8318866,1.0,1.0089898,-0.07994914,1262.9917,23.486801,9.028714,103.99767,105.48358,104.3349,104.17374,2.264233,0.7,-112.2712,-945.9605,0.00042437634,-4.1615725,2.0271451,4.0688486,3.1242828,3.1773553,2.6850032e-07,0.3,1.9445256,87.402626,87.73193,87.50777,87.32864,0.09750719,0.5609375,3.926852226257324,42.02714633146922
42,420000,55.88863186877418,-89.5925,0.0,-84.16861,0.001842266,1.9962298,1.0,0.93653923,-3.5439456,1837.585,38.130535,11.006257,103.250854,103.330696,103.219925,103.25806,8.528093,0.7,-110.02224,-855.2723,0.0002660897,-5.2776136,3.1426384,2.930006,1.3411812,3.7390158,9.562355e-08,0.3,1.960915,87.65359,87.364,87.48135,87.592224,0.10950531,0.4796875,4.190874099731445,43.00976983308792
43,430000,49.43235893100365,-90.54991,0.0,-126.42954,-0.0050872057,1.9908618,1.0,0.81174517,0.5633908,1493.21,14.1693735,8.361159,102.85165,103.41568,104.232025,103.38934,7.3222055,0.7,-109.057335,-1218.8174,0.0006161128,-4.9490876,0.7187602,2.102643,1.3075508,1.5882657,2.0664186e-06,0.3,1.9978716,88.3839,88.8186,88.66902,88.59567,0.119297065,0.4765625,3.7380337715148926,43.987946824232736
44,440000,53.47451144918662,-89.27637,0.0,-89.35253,0.001455231,1.7289355,1.0,0.7953826,-1.0370401,1863.6791,13.917323,13.107725,104.46777,105.41442,104.77028,104.97214,1.5710611,0.7,-113.304146,-909.03265,0.0022707523,-4.3734417,3.1708295,5.230488,5.251866,4.652618,4.991307e-08,0.3,2.1327214,86.923195,87.53366,87.15047,87.20873,0.06471054,0.4140625,3.990926504135132,44.96924633979798
45,450000,54.949959451959465,-88.91332,0.0,-100.0977,0.0007202804,2.0295973,1.0,1.0824581,0.09821463,1300.709,31.39497,8.4137335,103.6465,104.576744,104.133896,104.06471,1.7516774,0.7,-108.66406,-945.9185,0.011262695,-8.77017,1.5217385,2.1330996,2.3988032,2.5072806,1.9016444e-08,0.3,1.8879862,86.70833,87.32904,86.99895,86.98423,0.0809143,0.509375,4.4486212730407715,45.95682408014933
46,460000,54.00814172763313,-87.99512,0.0,-90.56167,-0.0046008895,1.685064,1.0,0.96495444,-1.4603739,2997.459,19.501425,9.957098,104.31684,104.55618,104.24757,104.298584,5.026078,0.7,-113.07144,-1275.1621,0.0014149668,-4.0138307,2.9598203,3.5881374,3.5829415,3.787291,1.1444092e-06,0.3,2.0059066,85.76538,86.31398,85.74198,85.73209,0.08956753,0.52187496,4.063154458999634,46.93965159257253
47,470000,59.233531889013335,-87.145874,0.0,-66.304596,-0.0017716885,2.1814723,1.0,1.009655,-0.61060643,2449.428,17.97695,12.168912,103.24509,104.012856,104.13974,103.81427,1.3084363,0.7,-112.00446,-899.4806,0.0030031304,-5.6938686,1.4249439,2.9560158,1.3813394,2.4705029,1.1662341e-05,0.3,1.9668722,84.63679,85.28555,84.94246,85.00989,0.061179377,0.47500002,4.412890434265137,47.92879798412323
48,480000,56.617055179951514,-89.59098,0.0,-69.88112,-0.0009455792,1.9299437,1.0,0.85534334,0.11454558,2495.9397,40.099316,10.965402,104.79347,103.854164,104.95355,104.68597,5.218472,0.7,-112.525375,-802.73,0.0016563023,-4.538781,1.3595989,0.7174425,1.3966287,1.0132446,3.3653516e-06,0.3,2.0775876,87.35007,87.28653,87.299286,87.330765,0.14225513,0.4265625,4.2524542808532715,48.91043781836827
49,490000,62.404463411319846,-89.23166,0.0,-112.19861,-0.0030841266,1.8031654,1.0,0.7522483,0.048144817,2245.0845,15.221362,9.003823,104.0467,104.16137,104.67062,104.21259,1.7829676,0.7,-111.76566,-1205.6691,0.0017480052,-5.1291637,2.0309455,1.2817159,1.3657321,0.9763827,4.3655746e-08,0.3,2.0157855,87.25006,87.341255,87.44539,87.44335,0.06652082,0.3828125,4.68149471282959,49.89861421585083
50,500000,59.077765297376416,-88.2811,0.0,-73.69739,-0.003252053,1.9583321,1.0,0.8507162,-4.6914625,1148.8939,41.414238,8.847205,104.44953,104.18993,104.671974,104.79931,3.2558334,0.7,-109.929756,-1290.3271,0.0017457586,-5.183135,5.1749825,5.840606,5.412245,5.23741,7.647497e-07,0.3,2.0490608,85.982895,85.98305,86.005264,86.06166,0.120418504,0.459375,4.369298934936523,50.88488556146622
51,510000,57.26102196232809,-90.8624,0.0,-49.544556,0.0007690329,1.7621243,1.0,1.1737657,0.5064052,2072.7983,31.424337,9.7600765,103.22923,104.34813,104.09148,103.90677,7.419832,0.7,-111.18528,-1267.5464,0.004842313,-5.8378744,0.15790445,1.0290022,1.3484833,0.6007328,2.263114e-08,0.3,2.3740118,88.23778,88.82561,88.7432,88.727936,0.110067636,0.37343746,4.320180654525757,51.87377599477768
52,520000,48.44169964843676,-89.24071,0.0,-119.91506,0.003538029,1.617443,1.0,0.8215568,-8.854424,1316.5072,24.918137,9.615154,103.66079,102.91875,104.23372,103.9421,2.0960486,0.7,-110.53223,-984.3391,5.328213e-05,-5.337036,11.361197,10.088242,10.970476,10.681503,4.3568607e-06,0.3,1.8302695,87.169876,87.21449,87.3102,87.176476,0.0860189,0.5328125,3.844698905944824,52.85049831867218
53,530000,47.80258467929916,-88.61819,0.0,-104.83697,-0.002536969,1.9314404,1.0,0.80429196,-4.1408935,2959.5598,17.175337,9.57127,104.101006,105.19986,105.11835,105.08401,2.0382223,0.7,-111.80714,-1407.8829,0.00058917445,-6.016126,4.059222,4.660732,1.4449786,4.243101,3.3500373e-06,0.3,2.18267,86.02139,86.500275,86.20717,86.255775,0.07891828,0.465625,3.656352996826172,53.82280708948771
54,540000,53.99785934684137,-89.636,0.0,-147.5797,0.0048941756,2.06548,1.0,1.1680245,-8.367934,1105.513,39.85399,8.463201,103.84655,102.47013,103.77942,102.57496,6.5201316,0.7,-110.22775,-1412.2687,0.0019631598,-6.7688317,8.448984,8.921587,8.233507,7.9281797,3.4424477e-06,0.3,1.8229036,87.65773,87.6991,87.608635,87.39874,0.18732193,0.5640625,4.621870279312134,54.81236730416616
55,550000,58.836134752019376,-87.16284,0.0,-101.50254,-0.00081842096,2.2198303,1.0,1.2251811,-0.3208834,2904.4934,17.648264,8.644618,105.31938,104.594124,104.6025,104.84624,5.3590918,0.7,-108.88024,-1063.902,0.006294361,-7.4046097,1.8099763,3.1127114,1.5657506,1.9750142,4.3655746e-08,0.3,1.98106,85.137695,84.87276,84.67422,84.84677,0.11646426,0.4359375,4.617543935775757,55.79994663397471
56,560000,52.18369576665584,-89.48912,0.0,-147.70447,0.0032090095,1.7902278,1.0,0.8501879,2.6352842,1309.0138,17.052715,8.931978,104.007904,104.40453,104.47796,104.16704,9.985375,0.7,-109.08426,-1111.6062,0.0014227121,-4.233403,-2.2121525,1.2124889,0.3790009,0.39007837,6.412785e-06,0.3,1.7734337,87.27644,87.68285,87.49977,87.60472,0.101317294,0.4203125,4.047292947769165,56.776811345418295
57,570000,52.55815549724486,-90.026184,0.0,-88.75037,-0.0011000494,1.6609286,1.0,0.8417422,-2.4148266,3006.6318,12.970623,9.118045,106.15976,104.88458,105.116905,105.13496,5.3181534,0.7,-113.4667,-1191.3723,0.0006390477,-4.7726383,2.0065958,1.6938745,1.5143545,2.1966949,1.2730015e-06,0.3,2.0742157,88.03253,87.67177,87.679474,87.65185,0.110157765,0.5265625,4.012014150619507,57.75484888553619
58,580000,55.36157195589109,-86.30526,0.0,-81.68673,-0.0047699744,2.0187457,1.0,0.84765124,-1.1346726,3107.9539,18.142336,8.310822,104.332535,103.84188,103.80521,104.15177,2.9970639,0.7,-109.868065,-1130.5605,0.0019332841,-5.189542,2.1500938,1.9786096,2.126306,2.4699302,4.9874075e-07,0.3,1.9105829,84.37117,83.890366,84.10035,84.04478,0.088894986,0.459375,4.387435436248779,58.74095252752304
59,590000,50.07535556428212,-89.06552,0.0,-110.71407,0.0013193751,2.0762153,1.0,1.3663048,-1.2748152,2631.7017,44.098183,9.612316,104.42358,104.72353,104.02897,104.33151,10.341286,0.7,-111.769135,-1388.2231,0.0024416288,-4.428151,1.823209,2.0948243,1.290866,1.5489848,4.8497167e-08,0.3,1.9347925,86.94777,86.98881,86.884674,87.07012,0.21869297,0.43281245,4.036733150482178,59.7188907623291
60,600000,53.09304425571384,-87.33952,0.0,-198.30276,-0.0048911297,1.6357476,1.0,0.7474642,-0.65256524,1191.0892,23.819592,8.840904,104.62335,104.369225,104.62059,104.03006,8.961844,0.7,-111.48015,-1264.4448,1.8832798e-05,-5.322615,3.4242406,1.9891036,2.9176073,3.2976053,2.5990886e-07,0.3,1.9168934,85.375854,85.139496,85.19331,85.31331,0.11391165,0.421875,3.9449515342712402,60.69687425692876
61,610000,57.30929451904613,-86.93145,0.0,-108.81149,-0.0028292662,2.0179703,1.0,0.83600414,-4.366906,2928.3193,16.082726,8.865061,104.93298,105.17211,105.0113,104.96255,3.4017746,0.7,-112.60654,-1156.8544,0.0006139644,-4.4975376,5.8880844,5.5402765,5.1250763,5.773911,1.5528332e-05,0.3,1.7448239,84.899475,84.82683,84.89195,84.9662,0.10986329,0.359375,4.322821855545044,61.67896565198898
62,620000,47.920120599531366,-88.379616,0.0,-114.7076,0.0030680993,1.8537819,1.0,0.89464843,-5.0381346,2491.4297,17.824442,9.348475,104.91293,105.2392,105.32543,104.714905,1.5854149,0.7,-112.56907,-1518.5796,0.0011009926,-4.149987,6.3386765,5.1646543,5.6762266,5.7222195,4.304282e-07,0.3,1.9387732,86.58469,86.07068,86.304596,86.37168,0.08239694,0.40625,3.6652801036834717,62.649448402722676
63,630000,51.457993354610785,-88.94656,0.0,-105.86426,0.0053473464,1.9804071,1.0,1.4781914,-4.623095,1028.2974,104.34134,8.833534,104.727875,103.84075,104.33143,104.305916,9.59174,0.7,-111.11162,-1316.4565,0.001392592,-4.486891,6.2489676,6.9647846,6.6403723,6.6079125,1.2325472e-07,0.3,2.1683888,86.987305,86.63133,86.81649,86.8452,0.15448281,0.39374998,3.8805758953094482,63.6277106444041
64,640000,52.29943139706914,-86.98553,0.0,-121.78868,0.0028617547,1.8231958,1.0,1.1559634,0.17254686,3270.2012,24.191858,8.707801,103.67252,104.46355,104.40357,104.5508,7.599487,0.7,-111.09067,-1307.4019,0.0042807576,-3.0601056,1.7972159,2.3400433,2.4137192,2.382771,1.2235995e-05,0.3,2.1312783,84.5588,85.36574,84.977325,84.92677,0.11150644,0.4421875,3.9350714683532715,64.60815175374348
65,650000,55.64524126377351,-87.98152,0.0,-44.397934,-0.0008384578,2.3446355,1.0,1.2718555,-2.2047205,3545.9036,35.7345,9.550272,104.14517,105.89255,105.25293,105.32858,5.7347074,0.7,-111.50465,-1698.5928,0.0044331374,-5.540829,3.161333,3.4982412,3.2473202,3.1150532,3.0950353e-06,0.3,2.181699,85.37848,86.003075,85.86367,85.86476,0.13833848,0.3640625,4.1956799030303955,65.59537342389424
66,660000,47.71721525518841,-86.83695,0.0,-199.93451,-0.003043031,1.8466244,1.0,1.9590327,0.8098701,1697.8193,151.44589,8.892766,104.53746,105.482544,105.01098,104.7889,7.875278,0.7,-110.846016,-1585.9426,0.0015467093,-6.173782,1.0647366,0.79301655,1.2145594,1.4292231,4.4703485e-09,0.3,1.6819338,84.82227,85.48935,85.173836,85.134964,0.12793976,0.4078125,3.7012312412261963,66.57227326234182
67,670000,52.89684161832609,-87.02938,0.0,-168.0323,0.0004114583,2.0715926,1.0,0.8515239,0.55650735,1191.9445,14.659354,11.353119,103.86093,104.223015,104.35581,104.12913,5.90846,0.7,-111.31948,-1413.8696,0.00016300968,-4.5775514,1.9950824,1.142024,1.2698516,1.3717096,2.6418712e-07,0.3,2.07276,85.01599,84.78111,84.90494,84.989685,0.119902454,0.41718748,3.910113573074341,67.54675820271174
68,680000,51.90061817304128,-86.89188,0.0,-137.61867,0.0023940713,1.9618176,1.0,1.258128,-2.51245,2802.7847,56.30062,8.029003,103.38631,104.285904,104.97163,103.98729,4.1754913,0.7,-108.89686,-1951.0178,0.0014647488,-8.894704,2.4936345,2.672554,3.2439775,3.0311263,6.9307866e-08,0.3,1.9479812,84.57956,84.98703,84.99481,85.06558,0.10952631,0.3640625,4.160256624221802,68.53029274543127
69,690000,51.70445770600226,-90.73938,0.0,-122.728226,-0.0014444251,1.9641014,1.0,1.05457,-1.7217357,2396.7668,13.620859,9.229772,104.54126,103.62196,104.87013,104.23912,12.053919,0.7,-110.64303,-1338.5187,0.0012921053,-10.170893,3.017533,2.1246712,2.978115,3.0781856,5.5941523e-06,0.3,1.9003035,88.94033,88.42401,88.83688,88.90056,0.17644987,0.34687498,3.882875919342041,69.50515303214391
70,700000,53.19045717033249,-88.54637,0.0,-247.65778,0.00039022564,1.338295,1.0,0.65362406,1.2915959,1283.6198,28.47117,8.761234,104.48271,104.24963,104.39494,104.39608,2.7634304,0.7,-112.165,-1519.1243,0.00047039439,-4.8465233,2.7495315,1.2795353,1.2758756,2.3421042,1.2777745e-07,0.3,1.7098112,87.13529,86.689186,87.00985,87.011894,0.08100745,0.41875,4.027979850769043,70.48348368406296
71,710000,50.2601476423535,-87.027115,0.0,-197.95624,-0.0010298555,1.6000423,1.0,0.88191783,-0.22042274,4216.689,19.336292,9.689635,103.823654,104.105316,104.6189,104.129456,3.089847,0.7,-113.31905,-1611.5927,0.003947878,-5.9471335,1.8929629,1.760297,1.4265388,0.9000484,6.4977215e-08,0.3,1.8392231,85.27244,85.044785,85.35722,85.29489,0.07217461,0.46718746,3.8144283294677734,71.45167274872462
72,720000,54.49135523799649,-90.70155,0.0,-172.0239,-0.00062253623,1.4565582,1.0,0.8620722,1.7244332,1428.994,36.534992,9.288853,104.631355,104.59299,105.13337,104.59901,8.888285,0.7,-112.20432,-1437.5117,0.0013541053,-5.104439,0.6294386,-0.19849569,1.3788651,0.3897699,4.0745362e-11,0.3,2.2229366,88.43842,88.67052,88.39804,88.44403,0.12710553,0.42031246,4.083895206451416,72.42555409669876
73,730000,51.223749390651776,-88.022995,0.0,-105.95863,-0.003308604,1.6255959,1.0,0.7945805,-1.0918403,3229.383,21.069866,7.838283,104.06855,103.91138,103.721306,103.79842,1.559816,0.7,-109.642,-1606.8179,0.002997287,-3.8734846,2.1140924,1.8354266,1.1471777,2.0448816,1.1533674e-06,0.3,2.2414823,85.927734,85.5623,85.66348,85.53939,0.051497735,0.5234375,3.85304594039917,73.39679130713145
74,740000,51.75515569808755,-91.57001,0.0,-131.90074,-0.00023193657,1.8562196,1.0,1.0841602,0.78924394,1583.2053,18.598143,9.277478,104.3671,104.76576,104.57398,104.560875,7.7857757,0.7,-110.656456,-1375.5555,0.003021422,-3.713257,-0.3032723,2.587403,1.329355,0.49625129,9.97464e-07,0.3,2.228488,89.16554,89.382675,89.15694,89.342354,0.13420218,0.425,3.8396637439727783,74.37007534106573
75,750000,55.2176444956341,-85.94601,0.0,-214.6282,-0.0042567984,1.3604984,1.0,0.81536895,0.039482117,1439.2501,26.175955,8.71362,104.393875,103.641106,104.02808,104.0849,1.225573,0.7,-110.69564,-1456.7734,0.0021831293,-6.90469,3.614668,0.6863402,1.2111393,2.186057,4.6111384e-07,0.3,1.740771,84.43597,83.90442,84.17136,84.20675,0.053896956,0.453125,4.361673593521118,75.32766786416371
76,760000,49.32876010722149,-87.62837,0.0,-152.56688,-0.0001888305,1.8392872,1.0,0.8935246,0.92334706,3346.2153,69.52132,8.461391,104.328896,104.39386,104.371826,104.30883,6.2134614,0.7,-112.47569,-1924.9402,4.757964e-05,-4.6692,0.24660641,1.3898182,1.3595943,1.0722522,1.149997e-06,0.3,2.071955,85.39228,85.38938,85.25999,85.32487,0.095859595,0.4421875,3.843374013900757,76.27490302324296
77,770000,52.775805931709876,-89.42638,0.0,-190.28174,-0.0028744193,1.7304846,1.0,0.807841,-1.8835232,1514.0841,12.483097,9.53932,104.65228,104.34911,104.82523,104.9389,2.8598847,0.7,-112.5237,-1600.4568,0.0038348257,-6.736737,2.8930922,2.4997408,2.7470038,3.038226,1.28234215e-05,0.3,1.9643357,87.43138,87.60891,87.30817,87.46882,0.07679635,0.4203125,4.136087656021118,77.25787400404612
78,780000,54.2991714516579,-84.620026,0.0,-178.08188,-0.0032304649,2.0292394,1.0,1.238122,-4.3560767,2625.5693,25.993755,8.923638,103.4092,103.72365,104.31375,103.41708,3.0627847,0.7,-111.27683,-1679.2273,0.004621585,-4.5594826,5.4628096,7.402968,6.7545934,6.703999,6.519258e-10,0.3,1.7334263,82.63395,82.90027,82.90489,82.919235,0.13111298,0.4359375,4.509459018707275,78.24855918486914
79,790000,49.014058076344405,-86.792755,0.0,-211.23111,-0.0063691884,1.6751368,1.0,0.9854796,-0.20053583,1437.6512,29.120392,8.722465,104.280624,104.30124,104.46169,104.16095,2.4073195,0.7,-110.8288,-1636.0688,0.005326234,-4.597686,1.8511868,0.7158994,1.3198193,0.5847705,7.9962365e-06,0.3,2.3089473,84.75572,84.38234,84.51801,84.46496,0.076895535,0.521875,3.8154807090759277,79.22555256684622
80,800000,49.05386631219627,-88.48302,0.0,-186.6198,-0.0025217847,2.14443,1.0,1.0703297,-2.0883152,5265.6807,15.963912,8.9375305,103.21725,104.65338,103.48292,103.52481,3.7320812,0.7,-110.04449,-1613.336,0.0014097837,-7.4439735,3.4249253,3.5162115,2.780155,2.776,4.69666e-07,0.3,2.0087557,86.02692,86.68324,86.26488,86.208725,0.12992048,0.5328125,4.18682861328125,80.21194284359613
81,810000,53.787286673045806,-90.19761,0.0,-184.30173,-0.0031955794,2.224159,1.0,1.2609065,-1.5528846,1706.3615,66.53755,9.916384,104.47194,104.22612,104.51733,104.28465,2.8174443,0.7,-114.150894,-1509.2642,0.0047332793,-4.6465197,3.217986,3.284982,2.8156688,2.692757,2.9923801e-06,0.3,2.212872,88.05969,88.09914,88.14783,88.077835,0.08824447,0.48593748,4.321391582489014,81.19974674383799
82,820000,51.42778839752776,-86.96361,0.0,-105.551605,0.0040596533,1.8186926,1.0,1.0111119,-1.59532,4674.6396,65.3347,9.006295,104.36964,105.479416,104.35927,104.34867,1.8888959,0.7,-112.56903,-1531.5206,0.0003792302,-4.3827224,4.3472795,3.4963446,2.8708563,3.9026003,3.1553208e-07,0.3,2.1532335,84.50139,84.69754,84.364105,84.48378,0.07043216,0.48125,4.155083894729614,82.18055910666784
83,830000,48.79290607229995,-87.6868,0.0,-170.18225,0.00045535827,1.9331928,1.0,0.9430781,-3.1459622,3692.5803,64.29136,10.995188,104.074684,103.92068,104.08317,103.74295,26.975164,0.7,-113.63054,-1925.2426,0.001427732,-3.3218827,4.553459,5.750621,4.9377637,5.0655093,6.885966e-09,0.3,1.980648,85.56925,86.03583,85.77809,85.69392,0.1832221,0.509375,3.952716112136841,83.16261734565099
84,840000,53.07746189802596,-86.9173,0.0,-133.21991,0.0055697076,2.1432538,1.0,0.95713776,-2.269169,2737.1099,21.007816,9.9199705,103.80258,103.983925,104.44409,104.12676,5.107322,0.7,-110.1009,-2080.0845,0.0017768344,-6.066968,2.3189292,2.2870343,2.5973053,2.8050475,6.915245e-07,0.3,1.9463117,84.447266,84.77577,84.728806,84.62415,0.11120655,0.47812498,4.360468149185181,84.1503852367401
85,850000,50.73539039141362,-86.23366,0.0,-232.4609,0.0019465853,1.8708012,1.0,1.4413733,0.27322435,2027.1093,128.00758,9.011024,103.111626,103.76682,103.681694,103.518875,1.7934495,0.7,-110.3928,-1731.0413,0.0022934934,-4.682687,5.857478,2.3620124,1.5814292,3.6701994,3.088906e-07,0.3,2.0174437,84.05902,84.48137,84.35017,84.26069,0.08160486,0.49843746,4.147935628890991,85.13389405409495
86,860000,49.058044087094906,-88.68948,0.0,-245.58353,-0.004118232,1.6618744,1.0,0.76762784,-2.8983958,1683.6227,39.910355,9.861207,103.92056,104.87853,104.789604,104.492294,3.6451485,0.7,-113.21481,-1946.5424,0.0025483642,-6.1100645,2.8757038,2.8460042,3.2785478,3.3208594,9.29035e-07,0.3,1.8275712,86.72975,87.08703,86.847305,86.847664,0.12401716,0.4546875,3.8967623710632324,86.11199250618617
87,870000,53.99053987925162,-86.18605,0.0,-194.07687,0.0036483982,1.9865156,1.0,0.8144895,2.4938598,2408.191,17.011759,11.217642,104.84227,104.52052,105.10226,104.71427,6.283337,0.7,-115.76186,-1900.1451,0.0006366636,-4.6674156,1.896052,1.7215856,1.1675935,2.1667397,6.640039e-07,0.3,1.9500164,84.347496,84.01615,84.20279,84.11713,0.11207428,0.50156254,4.4425883293151855,87.09925678968429
88,880000,50.246868679381606,-88.10341,0.0,-224.81834,-0.004099864,1.5748719,1.0,1.0846255,2.328569,1414.0608,99.20896,10.196354,104.50022,104.53163,104.8121,104.301735,2.3530974,0.7,-114.21829,-1499.2689,0.0001234762,-5.02652,2.6904058,-0.7527472,1.3696032,1.4278965,1.2730016e-08,0.3,1.9347358,86.28194,86.07626,86.43634,86.38409,0.09012175,0.39374998,4.023855686187744,88.07927963336309
89,890000,52.25496733023682,-88.46419,0.0,-179.30774,-0.0034811862,1.8412784,1.0,0.94305223,-1.0642424,2531.3594,47.251503,9.192174,103.662125,103.09838,103.26144,103.12541,2.1104403,0.7,-110.41477,-2155.0557,0.004305963,-5.0977244,3.5853784,3.3555932,3.5316906,3.120925,5.57804e-08,0.3,1.8213798,86.47808,86.54895,86.46913,86.34863,0.09799126,0.5390625,4.138250350952148,89.06506235996882
90,900000,51.08804387334182,-87.48712,0.0,-179.22888,0.006526106,1.936819,1.0,0.8827367,-2.5561814,3379.997,14.257811,9.197639,104.139046,104.28625,104.55206,104.533394,2.4103096,0.7,-111.13839,-2136.0168,8.130475e-05,-3.516521,4.6779776,4.659364,4.5920296,4.40759,1.6298145e-10,0.3,2.2078302,85.22359,85.19808,85.283226,85.35271,0.10857615,0.378125,4.044595241546631,90.0514993151029
91,910000,53.870516316372566,-86.35513,0.0,-219.27087,0.003948821,2.0253108,1.0,1.0994966,0.6509094,6607.8643,26.408554,9.222022,104.148865,103.38219,104.39942,104.233536,2.3079414,0.7,-112.62212,-1660.166,0.0009711506,-5.2076125,1.6790662,-0.04639387,1.328828,0.37459815,6.780436e-07,0.3,1.9299045,84.561554,84.160774,84.48979,84.4283,0.08549972,0.44687498,4.3249969482421875,91.04369362592698
92,920000,50.04231636094884,-87.8298,0.0,-256.7947,-0.0025876674,2.0453892,1.0,0.7247461,-2.2248373,1509.2537,19.948395,8.207793,104.20537,103.907684,104.15663,104.18088,24.19402,0.7,-109.84759,-2578.1208,0.001447228,-5.4373584,3.969017,2.9963222,3.481904,3.74815,1.561147e-06,0.3,1.8334702,85.67705,85.771576,85.71091,85.675995,0.28444254,0.4640625,3.9644625186920166,92.02718102931976
93,930000,53.55087839500047,-88.69971,0.0,-167.14885,0.0016314088,1.8066949,1.0,0.94554126,-4.362769,5981.35,76.16614,9.157162,103.3984,102.96184,103.264015,103.204025,4.188561,0.7,-109.36794,-1890.714,0.0011251483,-4.740714,4.681404,4.824865,4.764115,4.6456165,1.4709076e-06,0.3,2.2539415,86.586945,86.25545,86.42845,86.4107,0.08441712,0.4890625,3.939784049987793,93.00568721691768
94,940000,51.2648050542046,-88.310196,0.0,-250.29381,-0.0001451347,1.5944791,1.0,0.8195338,-2.9045339,1798.0674,15.228683,8.753337,103.61559,104.10055,104.17833,104.12237,3.9807296,0.7,-111.501205,-2411.5847,0.0023683154,-5.190069,3.5375316,2.0946069,2.6153846,2.509047,6.833099e-07,0.3,1.9548876,86.47723,86.302246,86.32854,86.48135,0.11823572,0.4078125,4.160909652709961,93.98387010097504
95,950000,52.24931897753249,-90.3011,0.0,-194.1327,-0.00895648,1.8868191,1.0,0.81778514,-0.7343159,1721.6536,19.288597,10.66235,104.46344,104.90739,104.82985,104.6005,12.623421,0.7,-114.898575,-2412.4753,0.0013162015,-3.4367795,2.192399,1.9381137,2.0483837,2.5363936,6.9307866e-08,0.3,2.150947,87.93759,88.2009,87.97336,87.92644,0.14409518,0.4796875,3.914158344268799,94.95418241421382
96,955000,53.46868681522009,-90.740654,0.0,-185.46762,-0.0018397907,1.5897926,1.0,0.48184854,-3.6281722,3132.724,14.338815,8.774115,104.31971,104.52535,104.548996,104.437355,1.8990291,0.7,-110.4699,-2090.252,0.0006938193,-4.844104,6.3581786,6.1352115,6.6070614,6.1032662,5.1487414e-06,0.3,2.0457985,88.51913,88.60541,88.42081,88.62252,0.07323998,0.371875,4.242537498474121,95.47608228127162
97,960000,56.79861523283671,-90.1996,0.0,-177.89633,0.0039142566,1.6248038,1.0,0.50800717,1.1884881,4004.9136,12.174533,8.462861,104.38939,104.74077,104.68459,104.49393,8.08411,0.7,-112.12484,-2229.6414,0.00010634877,-5.035845,1.166171,1.7632915,1.3047974,0.8244736,6.437302e-07,0.3,2.19316,87.92358,88.111755,88.033646,87.93603,0.08225712,0.49843752,4.238001108169556,96.00264652570088
98,965000,50.495158447551304,-88.2002,0.0,-245.56732,0.00083268754,1.9280825,1.0,0.9507421,1.694061,2072.5725,20.444225,8.588064,104.44747,104.84887,104.45254,104.25766,5.9842715,0.7,-112.29545,-2047.2449,0.00038768596,-3.608283,0.765296,-0.98758507,1.4644489,-0.7522466,1.2321398e-07,0.3,2.268965,85.796844,86.024734,85.934616,85.88623,0.10708616,0.45,4.025669813156128,96.52200873295466
99,970000,48.62527534947594,-88.003365,0.0,-239.84311,-0.0001743924,2.2774932,1.0,0.82507175,-2.5855265,2158.1462,19.56897,8.9287615,104.09012,104.035706,104.62272,104.50086,18.74086,0.7,-110.88425,-1592.5963,0.0022309385,-6.346324,2.9293494,3.1236453,1.4140081,3.7229123,6.470873e-07,0.3,1.8446743,85.9376,86.10222,86.13012,86.13768,0.20266397,0.421875,3.6293728351593018,97.0384516676267
100,975000,56.81296762439479,-89.96151,0.0,-187.80629,0.003364518,1.465784,1.0,0.4853121,0.21096122,4136.6772,11.545265,9.450517,104.37124,104.83745,104.41307,104.08518,3.2308192,0.7,-113.63748,-1736.9647,0.0012465678,-5.0605392,2.8402796,0.6177193,1.4516914,1.6303021,2.3079804e-06,0.3,2.0640125,87.723145,87.86358,87.64762,87.67013,0.068658456,0.49843746,4.274467945098877,97.56126968463262
101,980000,57.57958106348173,-89.22857,0.0,-242.13846,1.2535602e-06,1.6908464,1.0,0.8979386,0.28547812,1560.8708,20.77531,7.778656,104.38498,103.90669,104.6234,104.042114,3.0552886,0.7,-111.14135,-1862.3291,0.0028104924,-5.574767,1.9796199,2.4954536,1.4200736,2.777468,1.4144462e-07,0.3,1.9164801,87.403564,87.0853,87.48426,87.40088,0.08377585,0.47031248,4.3875892162323,98.08997335036595
102,985000,54.261876722073254,-88.44541,0.0,-207.51555,0.0025856933,2.0442584,1.0,0.829647,-0.99648476,1606.9861,13.657288,7.5566425,104.48466,103.941124,104.21756,104.27053,5.3764215,0.7,-111.28192,-2325.9114,0.00051413715,-4.909649,1.5488003,2.4363756,2.1762414,2.1598737,2.212025e-06,0.3,2.1412814,86.313675,86.222084,86.438736,86.507675,0.0909473,0.4140625,4.021150350570679,98.61038040320078
103,990000,50.918108397170855,-89.87955,0.0,-187.60614,0.0024161045,1.9317287,1.0,0.8954448,-3.9168215,4040.4912,17.74593,10.547931,104.27966,104.94315,104.48281,104.05185,3.3251674,0.7,-111.5817,-2121.5625,0.00090293784,-4.8051176,7.881051,8.221308,8.557402,8.5557375,3.4115046e-06,0.3,1.9348276,88.033066,87.733536,88.002716,87.89309,0.09139645,0.43906248,3.79640531539917,99.13003429174424
104,995000,53.96855617962881,-92.606346,0.0,-219.13742,-0.00037241765,1.4756385,1.0,1.0696152,-12.716704,2105.6814,49.81344,9.343159,103.63534,104.04757,104.60736,104.310875,7.8969455,0.7,-109.40306,-3710.7346,0.0015822051,-6.4340587,13.90226,13.71909,14.326538,14.113501,1.5403319e-06,0.3,2.0848703,90.54008,90.5216,90.732544,90.70022,0.10314684,0.3875,4.076880216598511,99.65030755201975
105,1000000,50.98994406409739,-88.74861,0.0,-245.28146,-0.001890198,1.8339533,1.0,0.7153225,-2.553484,2864.3792,14.07136,8.696875,104.15319,105.03155,104.577286,104.37982,11.268221,0.7,-112.65698,-2000.1908,0.00013802346,-5.3883963,3.933978,3.9331841,4.412472,4.4166207,1.9720756e-06,0.3,1.845407,86.56419,86.772064,86.70729,86.851456,0.16602404,0.37031248,3.6977880001068115,100.1660577694575
