Xixo99/comfo/baselines/comfo6_perterbation_actor/20230225_noise0.01/walker2d-medium-replay-v2/COMFO6_s1_20230225_030018_walker2d-medium-replay-v2_78.54.csv
,step,reward,actor_loss,alpha,alpha_loss,critic_loss,max_actor_loss,max_alpha_loss,max_critic_loss,max_mle_prob,max_q1,max_q2,max_target_q,max_v,max_value_loss,max_weight,min_actor_loss,min_alpha_loss,min_critic_loss,min_mle_prob,min_q1,min_q2,min_target_q,min_v,min_value_loss,min_weight,mle_prob,q1,q2,target_q,v,value_loss,weight,eval_time,time
0,0,1.7063452215674901,,,,,,,,,,,,,,,,,,,,,,,,,,,,,,,,,
1,10000,11.360961848788572,-24.27258,0.058703296,-14.774138,2.7249088,0.51293516,13.465438,177.99496,25.851347,46.333366,46.253574,48.660294,45.671455,2.604567,0.7,-48.916603,-35.10226,8.937031e-05,-8.079878,-1.6985519,-1.1112084,-1.4410071,-1.7910502,1.2102392e-07,0.3,1.0030105,23.813808,23.881592,23.806839,23.670238,0.09840195,0.4078125,1.8350765705108643,1.8106139341990153
2,20000,8.030763592968597,-38.60791,0.0035470934,-14.771938,3.1625385,5.6560526,84.61235,58.934376,28.769163,72.0999,71.16808,70.48657,70.41431,3.4548948,0.7,-72.99011,-75.464325,0.0021515551,-9.324223,-3.4451766,-5.706313,-5.128745,-3.3412693,9.426888e-06,0.3,1.2083639,37.9623,37.984577,38.080853,37.848328,0.22536512,0.40624997,1.598822832107544,2.419204882780711
3,30000,0.8706197557037911,-48.890533,0.00019208979,-15.599125,4.139941,7.969288,156.36464,139.40741,18.060366,85.35329,85.42727,84.81007,85.374916,13.901353,0.7,-87.04436,-125.66334,0.0029716555,-14.5271015,-7.0131617,-7.9873247,-9.228976,-8.322048,6.519258e-06,0.3,0.08187928,48.16204,48.108906,47.983887,47.841816,0.42368418,0.41875,0.7265067100524902,3.0158315896987915
4,40000,19.878993575804298,-49.909607,1.0066331e-05,-28.224361,4.4896603,7.45782,207.18849,90.40544,20.775345,94.259026,94.76865,95.15336,93.97869,6.7575626,0.7,-95.3252,-154.88403,0.0057321163,-14.33858,-6.894302,-7.3474054,-10.9369755,-10.584613,2.2310105e-06,0.3,0.122698605,49.125385,49.116627,49.53118,49.31933,0.41499636,0.45624998,3.653597593307495,3.6464846690495807
5,50000,11.116310597750054,-53.955048,5.357179e-07,-28.594048,5.646563,3.0360682,233.36696,366.94498,22.456244,97.66446,97.63599,98.0765,97.98151,26.574495,0.7,-99.12539,-180.60464,0.0012999298,-12.793026,-1.5206108,-1.5767901,-1.1159031,-1.0918167,3.0510828e-06,0.3,0.27959839,52.92342,53.024536,53.195225,52.873768,0.6178379,0.49374998,1.9151268005371094,4.248817455768585
6,60000,9.723653481289663,-56.80306,2.871581e-08,-37.89618,5.7219706,3.5821965,222.8625,180.97357,24.95696,106.25695,105.77848,106.106445,105.97116,11.059999,0.7,-106.47887,-215.3133,0.0029786322,-16.184832,-4.574926,-3.838259,-0.020334601,-5.8811593,3.22744e-05,0.3,-0.47842774,56.074272,55.958668,56.227985,56.325546,0.63015604,0.4609375,1.6144533157348633,4.846296751499176
7,70000,25.18125543058704,-56.84513,1.5418054e-09,-29.432783,4.917124,7.0522885,739.6007,120.5031,17.147335,105.057465,104.17694,104.29492,104.00489,11.591325,0.7,-106.30971,-269.4448,0.0020527877,-11.742947,-10.271542,-10.262019,-9.100913,-8.940133,2.0937733e-07,0.3,0.393497,55.80269,55.827545,56.19834,56.07401,0.51965404,0.4515625,3.2790400981903076,5.474989263216655
8,80000,29.523987371029282,-56.862606,8.3261266e-11,-44.4255,4.840331,4.950632,607.9441,145.75641,12.498636,103.43254,104.033226,104.162735,104.00115,22.613989,0.7,-105.59129,-287.60712,0.00038265475,-11.971434,-3.3337016,-5.112315,-4.2312717,-5.558108,2.3391797e-06,0.3,-0.3022063,55.71611,55.78633,55.966854,55.96334,0.63308096,0.42343748,3.606153726577759,6.119388477007548
9,90000,47.2811746494285,-55.37853,4.568137e-12,-44.83242,5.0925837,4.453433,646.66547,103.196945,14.471943,103.567856,103.165886,103.980774,103.95369,16.207392,0.7,-106.42315,-329.19382,0.00070548226,-16.59525,-5.914374,-3.5285902,-6.88155,-2.5426202,1.0430813e-08,0.3,-0.4548302,54.316765,54.275536,54.34926,54.392982,0.5336251,0.4578125,5.149168968200684,6.784352254867554
10,100000,35.88105299312755,-55.77182,2.4801678e-13,-49.727104,4.7411733,21.953382,639.3094,74.85076,15.000236,106.64925,106.72984,107.08506,107.07601,21.741827,0.7,-107.79692,-350.6934,0.00056465116,-13.193289,-25.423887,-22.807768,-23.633959,-23.715403,4.69666e-07,0.3,-0.0946713,54.95272,55.051144,55.528526,55.299416,0.70290583,0.46406248,4.073064804077148,7.436649088064829
11,110000,38.62123159662547,-57.126225,1.3510923e-14,-36.11212,6.0327544,3.0718355,915.61505,179.08235,22.531685,104.84098,104.649895,104.34818,104.64793,16.516258,0.7,-107.89303,-443.153,0.008426855,-14.662537,-4.654507,-5.4212046,-5.980681,-5.20985,8.302912e-07,0.3,-0.11755404,55.860157,55.79495,55.11298,55.478497,0.63836217,0.42812496,3.950634002685547,8.08694440126419
12,120000,26.590272361169028,-57.874817,7.325121e-16,-49.271027,7.9613104,10.962048,1046.9911,401.37216,16.648048,103.92324,104.034355,104.32039,104.318634,32.812584,0.7,-104.14168,-491.91367,0.0084838085,-15.817945,-14.852413,-14.652074,-15.296083,-16.891417,2.926495e-06,0.3,0.35975912,56.355526,56.35945,56.367355,56.440636,0.7149062,0.4578125,3.047851800918579,8.715580153465272
13,130000,48.406713407354445,-56.73086,4.0103126e-17,-45.58194,6.0744505,3.9958835,803.03754,320.3545,16.374512,104.727295,105.897865,104.11447,104.117615,13.279728,0.7,-106.81776,-555.5401,0.0031983424,-11.1147585,-8.9128895,-10.118136,-11.029755,-8.897152,6.864936e-06,0.3,0.8363451,55.615368,55.69299,55.45269,55.5997,0.72320914,0.48749998,4.993330001831055,9.3808092157046
14,140000,43.943849552075925,-56.5256,2.1571456e-18,-51.260418,4.8683476,14.272704,930.7373,244.1605,17.101309,102.32531,102.32832,102.49035,102.06275,16.472006,0.7,-102.833534,-554.9895,0.0008941541,-20.674757,-14.48271,-13.798278,-14.858808,-14.44852,2.8374672e-05,0.3,0.532439,55.23132,55.40276,55.439972,55.320457,0.5443261,0.48593748,5.0542004108428955,10.050037944316864
15,150000,47.73060451728116,-56.57453,1.1737814e-19,-62.480698,4.9912853,14.146998,1436.8497,57.517914,16.342224,99.88756,99.34253,101.1357,100.73763,18.967447,0.7,-101.18876,-484.81488,0.0065480783,-14.459316,-13.723483,-15.173578,-13.583165,-13.096234,5.3613517e-06,0.3,0.43889248,55.447746,55.464096,56.00594,55.90061,0.6683802,0.4390625,5.0387372970581055,10.713468313217163
16,160000,39.66214177175744,-57.90249,6.4781296e-21,-89.11522,4.309041,3.7845597,1504.4731,72.06236,32.056835,103.5482,103.900764,103.134056,102.932045,21.370132,0.7,-107.45058,-494.26056,0.0038577027,-12.561487,-6.376649,-5.882953,-0.1322809,-10.91801,1.18852775e-07,0.3,0.5732079,56.793095,56.83209,56.45936,56.39118,0.6474627,0.45156252,4.460123777389526,11.370755942662557
17,170000,39.827950414501764,-58.33325,3.5794179e-22,-71.91124,5.183014,6.8257413,1937.539,99.63925,16.274511,104.03736,104.24373,104.19194,103.994446,34.10629,0.7,-105.65649,-641.65826,0.004971247,-14.218888,-12.362933,-11.167122,-10.893525,-9.887738,2.1631755e-05,0.3,0.36739403,57.105064,57.103848,57.361183,57.280254,0.72561187,0.4453125,3.9901199340820312,12.019376182556153
18,180000,38.477552716739595,-58.472275,1.9922146e-23,-75.621216,5.8680453,9.365632,1323.2933,222.01703,16.429756,105.74455,105.23847,105.72899,106.0639,43.588276,0.7,-109.38921,-729.3329,0.0027089368,-20.01818,-15.009228,-11.856635,-11.954772,-10.011317,3.6629617e-06,0.3,0.011960499,57.049976,57.126453,56.8294,57.191658,0.81180584,0.465625,3.858107566833496,12.672730867067973
19,190000,50.293941185597404,-57.511154,1.1146056e-24,-64.264336,4.165509,6.617202,1580.3838,99.13187,24.57368,107.95595,106.73963,105.31755,106.170616,17.233301,0.7,-109.00779,-757.69824,0.0016246838,-14.000974,-6.2749968,-6.4077067,-6.548034,-6.04667,2.1416781e-07,0.3,-0.0046039224,56.195732,56.305717,55.993553,56.07873,0.72969973,0.47343752,4.806735038757324,13.34323191245397
20,200000,33.41818752656814,-56.261353,6.258644e-26,-89.65973,7.3840938,16.01544,1113.5148,161.29298,16.041471,103.59583,104.09111,102.32229,102.43176,97.50867,0.7,-104.89366,-833.78406,4.7573485e-05,-16.73458,-12.106403,-10.24412,-11.526158,-14.500533,4.218407e-06,0.3,-0.18503734,55.031406,54.962128,54.3059,54.806114,1.1152245,0.43124998,3.5338118076324463,13.987960223356882
21,210000,38.19510345513047,-56.825447,3.4970655e-27,-76.46226,5.1188765,7.3516645,1663.7504,145.49246,17.277914,103.092865,102.8081,102.323944,102.36459,36.130207,0.7,-104.574646,-794.03766,0.011155428,-16.611036,-5.8538036,-6.0036397,-8.139217,-7.059257,2.377684e-06,0.3,0.2574172,55.552216,55.726562,55.231705,55.290176,1.0048878,0.48593748,3.755537509918213,14.640471601486206
22,220000,44.1120723141896,-54.007305,1.9611286e-28,-95.62878,6.866812,5.253211,2311.983,183.56772,22.725492,103.51262,104.03485,102.49448,102.498344,15.691455,0.7,-103.93169,-797.85864,0.0019099498,-18.897324,-6.578234,-3.995407,-2.9960465,-5.3482265,2.5465852e-08,0.3,0.13397779,52.772697,52.908546,52.90399,53.000504,0.7658183,0.4828125,4.262529611587524,15.305137813091278
23,230000,32.01211830883815,-58.35234,1.1087802e-29,-47.59426,5.326218,0.3227309,3379.029,70.909164,19.48442,110.28633,110.97918,111.7446,109.46409,36.780643,0.7,-110.744,-815.1311,0.0005445619,-16.218384,-1.4271647,-1.9614342,-3.2035775,-2.545347,9.305659e-06,0.3,0.3109684,56.80999,56.727215,56.508377,56.55605,0.93339217,0.465625,3.326162338256836,15.95015039841334
24,240000,45.87712048757576,-57.065933,6.225079e-31,-55.117386,3.917817,6.2875834,1859.797,137.31894,17.175995,104.5697,103.78961,103.817276,105.8008,62.88586,0.7,-105.54515,-993.4106,0.00960298,-21.694565,-7.8462234,-7.583076,-9.4502125,-7.5566115,8.8402885e-09,0.3,0.53361684,55.6314,55.57821,55.213303,55.46013,1.0944492,0.4359375,4.465161561965942,16.61447519461314
25,250000,54.04690029510098,-56.103516,3.5033855e-32,-61.775223,5.819281,4.1976476,1922.5905,209.36221,29.383087,102.791046,103.015755,103.26046,102.32342,25.072884,0.7,-104.97547,-932.0793,0.0010029722,-27.788433,-6.867718,-6.10865,-7.7985168,-6.6460094,2.3379944e-05,0.3,0.88419837,54.826126,54.91899,55.276512,55.054546,0.6823808,0.43906248,5.029642105102539,17.28615327278773
26,260000,55.23262722402764,-54.2334,1.9737472e-33,-148.68546,4.744375,12.693217,1989.8292,228.66583,18.537704,100.16755,101.930954,99.91996,100.42862,14.852448,0.7,-101.74395,-933.83466,0.0007422678,-15.999051,-12.334568,-9.285833,-6.935871,-13.069882,6.164366e-07,0.3,0.2352393,53.108795,53.286392,53.432915,53.290436,0.61592835,0.45468748,5.165990114212036,17.956826651096343
27,270000,49.3608864541723,-56.367657,1.1196028e-34,-84.177025,4.101966,12.413032,3009.1936,76.01341,19.741669,103.88732,104.10735,101.24121,104.29853,112.89135,0.7,-108.64429,-1125.5447,0.001954744,-22.149363,-8.553758,-11.106477,-8.208263,-10.729969,5.82186e-06,0.3,0.4539853,54.906784,55.045982,54.849686,55.187996,1.2160015,0.4265625,4.695199966430664,18.624087472756703
28,280000,53.41410868733127,-57.099724,6.357753e-36,-140.35428,7.079474,4.941546,1219.322,573.16113,29.249489,99.53885,99.68978,100.00208,100.55494,11.656698,0.7,-103.13359,-1006.7722,0.00035387848,-13.09414,-6.613162,-6.39044,-7.4148893,-8.256756,4.7218055e-08,0.3,0.7592766,55.815792,55.87123,55.727203,56.044983,0.62045455,0.4359375,4.983820676803589,19.296114146709442
29,290000,51.44379469066402,-56.469063,3.5880303e-37,-140.60046,5.1113057,11.350141,1891.2717,146.14009,17.477617,103.97852,104.73943,104.433205,104.467735,116.2005,0.7,-105.01462,-1036.9856,7.973221e-05,-23.309973,-9.086499,-9.655218,-9.2973585,-9.23886,2.5262532e-06,0.3,0.11471011,54.988937,54.945667,55.19732,55.346573,1.0782261,0.471875,4.965311765670776,19.968147440751395
30,300000,38.85698870936907,-58.02034,2.0175984e-38,-127.12905,4.6670494,8.214405,2084.5833,158.58546,18.20278,98.947754,98.56959,99.693,99.923515,19.355341,0.7,-101.13743,-1191.803,0.0058882786,-17.584871,-4.832471,-10.215688,-5.261874,-5.3950644,3.7903374e-06,0.3,0.49921623,56.812824,56.710648,56.94628,56.978996,0.66148436,0.40937498,3.8687050342559814,20.627836004892984
31,310000,54.84766756163254,-57.179943,1.13187e-39,-68.80645,4.5177345,11.405938,2205.4216,86.10428,21.479069,102.765526,102.65983,101.79206,101.54355,19.837599,0.7,-104.4934,-1031.2891,0.0038981661,-10.1479,-10.503203,-9.717353,-10.581957,-11.023933,1.13723045e-05,0.3,1.1503718,56.197742,56.207054,56.124565,55.877586,0.74053264,0.51250005,5.058649778366089,21.300332140922546
32,320000,50.17507529905798,-60.344193,6.4628e-41,-113.89616,5.1777544,6.2228136,3249.8877,163.79993,18.290504,101.96493,101.79713,101.22216,101.65948,100.11766,0.7,-104.00287,-1016.10925,0.004896827,-18.181454,-7.254056,-8.231842,-6.342573,-7.4340067,1.4717266e-05,0.3,0.7553893,58.920227,58.94227,58.53988,58.73593,0.9765418,0.4515625,4.721050500869751,21.967177669207256
33,330000,39.78456600466112,-55.481796,3.657e-42,-110.902374,4.7944946,11.446823,2351.108,113.92985,15.748789,106.083694,107.31616,110.33739,109.080345,19.108704,0.7,-108.65168,-1096.7899,0.0001561741,-16.64773,-13.205986,-12.568252,-11.1199255,-11.837731,9.459258e-06,0.3,0.81940436,54.078644,54.021606,54.237915,54.084908,0.80416703,0.48749998,3.858908176422119,22.62539548476537
34,340000,48.59992357090802,-56.007618,2.06e-43,-121.80409,4.0794067,8.448083,2601.9436,53.60913,21.538012,101.17701,101.1777,100.606926,100.71876,8.922301,0.7,-101.609566,-1276.8054,0.006109448,-15.383581,-11.730051,-12.107729,-11.405802,-11.930619,3.677269e-07,0.3,0.43908942,54.419518,54.52281,54.236015,54.222885,0.555233,0.4265625,4.601743221282959,23.29445728858312
35,350000,68.90683802072246,-56.086212,1.1e-44,-142.9847,7.8669095,7.8174963,3058.8079,285.14594,24.12551,100.133194,101.341805,101.300316,99.717,21.495224,0.7,-103.20298,-1154.2776,0.0023241239,-17.38133,-7.9118,-9.994811,-9.219208,-10.3871765,2.3441713e-05,0.3,0.311579,54.975235,55.034904,55.015274,54.765503,0.7719196,0.471875,6.289003849029541,23.989140033721924
36,360000,48.31978132716481,-58.986343,0.0,-129.41922,5.3613987,9.575036,2207.1194,71.435486,15.1442995,97.99486,98.36779,100.28329,99.61146,13.020604,0.7,-100.819626,-929.50995,0.0005666171,-12.913769,-6.358617,-9.3401985,-8.754679,-6.2517,4.515266e-06,0.3,0.5847739,57.89076,57.968807,58.495018,58.383633,0.74138796,0.4046875,4.594970226287842,24.657340188821156
37,370000,50.923369716059106,-57.226852,0.0,-177.96489,4.078907,6.220273,3495.9802,41.488174,15.104519,100.439575,100.593575,101.42415,101.48231,9.167991,0.7,-101.845276,-1260.3372,0.0010786337,-16.872063,-8.571986,-10.772336,-9.011214,-8.884704,8.214306e-06,0.3,0.36127037,56.305397,56.290527,56.563145,56.516556,0.50247407,0.44374996,4.843214273452759,25.326750648021697
38,380000,62.57953100221827,-56.570602,0.0,-46.96675,4.632324,7.5121417,4279.0654,72.54525,19.82317,102.894066,103.9539,103.894516,103.720146,10.767204,0.7,-104.788086,-1589.8452,0.0010697034,-16.597076,-6.119782,-5.0867176,-6.311144,-9.187036,6.9307866e-06,0.3,0.55224305,55.208473,55.217422,55.35209,55.26384,0.73897946,0.44843748,5.754188537597656,26.012078110376994
39,390000,35.59330986392889,-54.75051,0.0,-83.09356,4.2547626,8.221544,6805.6235,127.70657,23.774113,102.085464,102.073616,102.43856,102.13117,16.653437,0.7,-104.436935,-1339.9293,0.0016265784,-13.586183,-8.747513,-8.732336,-8.684214,-7.600839,3.956538e-06,0.3,1.0871029,53.25157,53.30468,52.821007,53.015488,0.6221104,0.440625,3.5041239261627197,26.663502875963847
40,400000,66.44526372814732,-58.800133,0.0,-110.535,5.178067,-4.0871825,3002.7407,220.46735,20.181158,101.84715,100.88532,104.952385,101.316895,100.517845,0.7,-102.73996,-1341.5238,0.009938738,-20.731718,4.042082,3.2838602,0.4492044,3.466509,1.4231581e-05,0.3,0.79968274,57.420803,57.44037,57.833527,57.65416,1.0849795,0.51875,6.068476438522339,27.353241221110025
41,410000,73.30710897530736,-56.582138,0.0,-80.15366,5.341238,11.962525,7153.6367,129.07852,18.922682,97.95049,98.39286,98.231026,98.05163,19.755774,0.7,-100.74132,-1225.1942,0.0069351634,-17.245235,-13.6353855,-14.170263,-15.556052,-13.77036,2.3455752e-06,0.3,0.6618611,54.834923,55.00076,54.78112,55.1776,0.7295257,0.43281248,6.700977802276611,28.052946825822193
42,420000,55.673049351267565,-54.537033,0.0,-98.121284,5.92178,7.112168,5269.9053,138.66217,20.569456,102.57773,102.089874,103.1505,99.90898,34.881527,0.7,-102.73617,-1346.0452,0.0059392867,-18.265533,-2.654984,-5.614796,-5.5008383,-7.4126863,5.388574e-07,0.3,0.6857301,53.391815,53.519184,53.445404,53.246483,0.76781726,0.4875,5.183518886566162,28.7330282330513
43,430000,45.877899168578004,-58.415768,0.0,-96.39953,5.121932,8.656635,8708.028,114.01185,16.525658,100.71226,101.71737,100.11746,101.24845,16.630133,0.7,-102.364815,-1813.3347,0.0006829005,-30.32517,-5.9451933,-6.593865,-8.849359,-8.935593,1.9363827e-06,0.3,0.7730924,56.920532,56.915703,57.266624,57.353508,0.9337577,0.44843748,4.4023003578186035,29.393867576122283
44,440000,74.49892208816826,-55.956078,0.0,-96.47912,3.706391,2.0948896,4207.7754,76.24203,19.130234,99.42921,99.52071,100.430916,99.936226,8.286851,0.7,-101.31486,-2176.989,0.0067934906,-18.62342,-4.3087306,-3.977653,-2.0251584,-6.5841084,3.228779e-08,0.3,0.7799116,54.80059,54.726265,54.82964,54.780437,0.62195957,0.425,6.678697109222412,30.099277317523956
45,450000,51.11922706603119,-56.200188,0.0,-100.75078,4.4861317,3.090704,3553.1565,88.65885,19.282898,98.59068,98.40389,100.29873,99.91284,18.498026,0.7,-101.56031,-1396.7554,0.002383282,-21.223808,-2.648558,-2.716103,-3.178328,-3.0833402,2.9284713e-05,0.3,0.75692093,54.632034,54.62982,54.88639,54.81837,0.8097251,0.45468748,4.927309513092041,30.773358857631685
46,460000,60.096654776984046,-55.17295,0.0,-209.07254,4.7322273,0.7482192,6085.633,113.95111,20.840124,99.63939,99.3796,99.807686,100.27329,10.378394,0.7,-100.44546,-1988.8704,0.0016554492,-17.10824,-2.6225204,-2.6053236,-1.8957765,0.35662425,3.228779e-08,0.3,0.7826644,53.820976,53.87191,54.01116,54.034004,0.7041359,0.4421875,5.633438348770142,31.45511130889257
47,470000,65.5628295279816,-53.856823,0.0,-224.70209,4.1730065,6.600686,3970.2446,78.93879,33.896606,103.515945,102.49927,102.953445,102.797195,293.689,0.7,-104.79023,-1806.0319,4.8458693e-05,-12.028156,-6.410445,-6.165286,-6.994944,-6.4762287,1.4349509e-05,0.3,0.10532755,52.31133,52.386936,52.177177,51.961742,1.9384232,0.48125,5.964678525924683,32.145931633313495
48,480000,78.10119532041348,-56.48265,0.0,-209.27759,4.4666595,8.809411,5346.1245,105.770874,18.35174,104.11727,105.75224,103.38662,106.192276,44.811077,0.7,-107.63433,-2016.5884,0.006247945,-20.086071,-11.101058,-11.616225,-9.742258,-9.890852,1.430206e-07,0.3,0.58502084,54.88092,55.18063,55.337364,55.413597,0.8256331,0.4203125,7.035704612731934,32.854834111531574
49,490000,64.96871192121974,-58.03035,0.0,-127.99764,5.275304,-5.709022,5274.8887,98.281006,20.248486,100.838486,99.864395,100.14324,100.24343,36.54209,0.7,-101.86365,-1759.5564,0.0133462865,-30.481743,2.038433,1.5071188,-0.4784143,-0.013359666,3.841025e-06,0.3,0.69425094,56.54663,56.543285,56.14937,56.333122,1.0459902,0.44375,5.9748375415802,33.54500203529994
50,500000,50.14312908678551,-55.682873,0.0,-280.46744,4.0406666,8.537311,2387.4578,61.191525,16.25031,100.56971,101.38346,100.19973,100.98492,21.147787,0.7,-104.06395,-1719.0388,0.002945792,-15.798164,-7.6228967,-5.821784,-8.185083,-6.3049583,7.4689046e-06,0.3,0.74422777,54.59616,54.74738,54.49913,54.767418,0.7433846,0.40625,4.683833122253418,34.21756708224614
51,510000,76.79951838629397,-54.609486,0.0,-174.61746,3.9209635,9.085161,4707.462,63.356453,21.639317,103.61863,103.57924,104.05041,103.488945,8.524604,0.7,-105.67089,-2664.5354,0.001947619,-15.720144,-12.927234,-9.424545,-10.467342,-9.95756,2.8209313e-05,0.3,0.7674984,53.19438,53.233902,53.266037,53.31903,0.5480147,0.43124998,6.743692636489868,34.92076114018758
52,520000,64.65678745980064,-58.505657,0.0,-188.11566,3.0333028,9.196688,4101.4097,50.705086,17.773788,101.83383,100.69857,100.85336,100.295845,194.02821,0.7,-103.70518,-2067.4333,0.0012980686,-34.67755,-11.089286,-11.130943,-10.700362,-12.977294,6.7341784e-06,0.3,1.150413,57.060524,57.191193,57.26749,57.169197,1.7941829,0.53437495,6.384876489639282,35.61234620809555
53,530000,74.31257277566617,-57.968803,0.0,-209.9474,3.5821195,8.2423115,4405.158,89.09488,19.943947,98.30792,97.43563,98.745,96.05255,39.655003,0.7,-100.545265,-2036.199,0.0025343027,-13.224832,-7.912959,-8.814925,-7.995058,-7.947753,8.015304e-08,0.3,0.72780776,56.61664,56.53245,56.34415,56.436493,0.75329965,0.43749997,6.986656904220581,36.31732991536458
54,540000,62.340084388992686,-58.455185,0.0,-217.5877,5.6084356,7.5771894,4261.087,86.07389,17.988369,99.383835,99.77195,99.00498,98.903206,22.135754,0.7,-102.90877,-2088.0327,0.004403688,-18.760284,-5.690181,-7.365986,-7.2881017,-6.135019,1.7462299e-11,0.3,0.8242665,56.630432,56.683235,56.63414,56.50013,0.9292667,0.44687498,5.968743562698364,37.00316075881322
55,550000,84.3218301905678,-55.638405,0.0,-180.2335,4.290521,8.922263,9838.402,76.04728,17.017443,108.96177,108.06689,106.427734,108.552635,10.250483,0.7,-110.73593,-1832.8353,0.0049240477,-12.984708,-11.29754,-9.425291,-9.434156,-7.792964,3.309542e-06,0.3,0.5672114,54.41029,54.415627,54.668915,54.695236,0.65178674,0.4796875,8.142490148544312,37.726313678423566
56,560000,74.46358438429516,-56.287827,0.0,-205.11647,4.159659,2.970833,3704.7336,57.863014,15.774135,98.07168,97.60219,96.95837,99.66411,15.1336565,0.7,-100.32076,-1810.2725,0.002091049,-19.366245,-3.5107026,-5.616894,-6.367317,-5.504291,5.0466045e-09,0.3,0.16593498,55.059708,54.88277,54.62625,54.713223,0.8113606,0.44687498,7.165827751159668,38.43185241222382
57,570000,65.68237167113688,-55.42231,0.0,-255.44717,4.7336397,5.4616947,3355.0613,99.29033,21.560963,97.09391,96.877304,95.639244,96.01942,87.9578,0.7,-99.51021,-1942.5565,0.019689906,-13.507309,-5.728651,-7.1761518,-5.9127417,-6.4921503,1.3422439e-06,0.3,0.7476138,54.009895,53.978275,53.572365,53.5178,0.95485955,0.50781244,6.232122182846069,39.123686059316
58,580000,51.678611549495635,-56.886787,0.0,-165.56308,4.2708244,7.2807083,6856.993,55.731773,16.879675,100.44163,99.62551,100.413956,100.937675,10.617141,0.7,-100.480354,-2522.1716,0.0033801454,-15.309002,-8.26435,-8.891868,-7.609862,-7.622986,2.2380382e-06,0.3,0.47621083,55.47589,55.5079,55.811295,55.785942,0.710063,0.40781248,5.1752095222473145,39.79583350817362
59,590000,67.71594846864254,-57.978954,0.0,-165.93716,5.201184,9.3895035,6546.588,92.73302,22.401663,102.54346,101.578735,102.613266,102.52707,6.7857795,0.7,-104.74833,-2068.7654,0.0003324938,-13.987425,-7.734398,-7.8789015,-8.339051,-7.728792,1.177541e-08,0.3,0.9519635,56.432022,56.474754,56.29338,56.53913,0.6494539,0.44062498,6.392027139663696,40.48963375488917
60,600000,70.31494593643228,-55.42543,0.0,-249.76529,3.666731,8.707701,6253.4478,68.80401,15.615683,96.34584,96.86945,96.27794,96.71448,8.797642,0.7,-99.537605,-1945.5491,0.0003632144,-23.435266,-11.056393,-8.540274,-7.3269606,-10.167081,1.0059699e-05,0.3,0.12447468,54.152863,54.155853,54.16675,54.305286,0.6207292,0.440625,6.929499387741089,41.195037082831064
61,610000,68.32268886979402,-55.911095,0.0,-180.75461,4.615158,9.441307,5605.529,223.94252,24.519224,97.47046,97.9895,96.50334,96.46068,21.897003,0.7,-99.095276,-2108.6272,0.008571012,-16.56221,-9.160257,-7.1828628,-7.7412477,-9.286969,2.620436e-07,0.3,0.4338591,54.49832,54.63377,54.739437,54.47605,0.75809443,0.48125,6.477483749389648,41.88289683659871
62,620000,67.66968639999573,-57.017452,0.0,-180.30652,4.6325264,8.495644,4858.5845,103.66232,19.327065,98.370834,97.557106,98.742805,98.58757,105.24102,0.7,-101.71471,-2407.1606,0.0016615179,-18.011946,-8.127675,-8.061147,-6.950249,-4.6569824,6.468734e-07,0.3,0.5050014,55.72817,55.581673,55.989136,56.049408,1.1338196,0.4375,6.059463739395142,42.571878317991896
63,630000,71.23795485922138,-57.925186,0.0,-298.10254,3.5917475,16.631187,13706.627,95.59889,15.648435,97.74685,97.26983,97.89335,96.563545,8.990159,0.7,-99.58621,-2724.6287,0.0029418247,-15.935638,-13.488113,-15.581911,-11.428924,-11.655389,1.7937317e-06,0.3,0.544289,56.91076,56.807518,56.643833,56.748398,0.6170656,0.48125002,6.396193504333496,43.269017680486044
64,640000,76.36079746445556,-56.329964,0.0,-245.53052,5.5093346,9.654114,4627.1104,222.90073,26.864714,102.396736,102.86245,102.301025,102.76463,99.038994,0.7,-104.477715,-2193.2056,0.0010680199,-25.469978,-9.663123,-9.305004,-9.627989,-10.926917,2.1554296e-08,0.3,0.7700335,54.856407,54.922466,54.650276,55.1224,1.2920821,0.43281248,6.944899559020996,43.97469468911489
65,650000,68.86603211104008,-54.414177,0.0,-244.58229,4.44056,9.0951,6170.157,180.4597,15.375382,102.82264,101.686745,102.75932,101.982025,8.766028,0.7,-104.1509,-2319.8418,0.003272646,-15.824425,-10.586272,-10.403168,-9.317999,-8.289404,1.2730016e-08,0.3,0.2703499,53.228203,53.35784,53.73806,53.594948,0.5709171,0.43124998,6.139897584915161,44.66787512699763
66,660000,71.40043634039408,-56.054882,0.0,-387.40588,4.1939797,6.1310625,3081.253,153.30789,16.485622,100.08728,100.376564,99.52022,99.32987,25.293764,0.7,-103.88608,-2721.3394,0.0044309013,-16.200562,-5.274591,-8.58105,-9.039352,-3.3160424,3.521098e-05,0.3,0.37691516,54.917732,54.74253,54.42509,54.45717,0.7180426,0.509375,6.454543352127075,45.36924593051275
67,670000,80.22857473373661,-56.224598,0.0,-348.01086,5.6291313,7.982999,3796.2842,106.07355,23.001747,99.75033,99.74903,98.76932,99.544395,16.077684,0.7,-103.69487,-3110.8376,1.6605045e-05,-16.582047,-6.468012,-8.090149,-6.3894277,-7.4568357,1.4685793e-08,0.3,0.22738853,55.07684,54.78263,54.6258,54.792686,0.82894707,0.47968748,7.188913822174072,46.07777030070623
68,680000,60.74137910293573,-57.86915,0.0,-386.42908,3.4355721,13.177515,4399.0107,49.47104,20.997902,102.38942,100.697624,102.0323,100.38181,10.351565,0.7,-100.91453,-2458.5684,0.001244142,-12.84315,-9.281277,-7.731326,-4.9940004,-6.5980587,9.725802e-07,0.3,0.7895155,56.863525,56.666107,56.603107,56.668156,0.6060317,0.4515625,5.591390371322632,46.761291933059695
69,690000,61.1718922132131,-55.80783,0.0,-252.47531,3.2155344,5.609496,6214.626,52.44758,18.933598,97.567345,97.25586,96.61993,96.11385,37.96227,0.7,-98.41451,-2305.9185,0.01011703,-23.779055,-7.23848,-6.888984,-6.884513,-9.172201,5.5153623e-06,0.3,0.48867136,54.393517,54.51629,54.315067,54.271877,0.88083225,0.5234375,5.620943307876587,47.44979072014491
70,700000,70.9751699545622,-54.372444,0.0,-381.31366,3.368583,8.550023,4244.6616,33.84294,22.781767,99.017944,97.96818,98.62691,98.37998,6.942914,0.7,-100.155426,-2948.7085,0.0019173874,-18.518202,-7.0628185,-7.7971153,-7.096734,-9.46486,2.263114e-08,0.3,-0.19491246,53.35987,53.279797,53.370384,53.27868,0.55883044,0.46406248,6.454611301422119,48.145837191740675
71,710000,85.09994232932806,-56.39667,0.0,-209.79958,4.3366733,6.611192,9655.876,160.79202,19.144945,98.662254,97.48563,100.482155,97.43941,32.178402,0.7,-99.082634,-2661.4314,0.00083443645,-15.313071,-7.0176263,-8.146543,-9.8169775,-8.801095,2.6418712e-07,0.3,1.1504588,55.10665,54.824383,55.26923,55.112984,0.905861,0.45,7.479501724243164,48.85912419160207
72,720000,90.78181711668849,-55.263588,0.0,-212.02655,4.981605,14.254942,11973.318,101.35593,16.442507,95.684235,96.13504,97.17243,96.827255,11.700629,0.7,-98.169525,-2595.8967,0.0029137095,-18.987213,-11.993324,-10.781958,-12.16415,-11.741182,1.910578e-05,0.3,0.4950614,54.17253,53.973686,54.32228,53.99395,0.7595864,0.4375,8.076104879379272,49.58923925558726
73,730000,72.04755643377707,-56.86403,0.0,-231.98643,4.1479197,2.5888262,10261.604,98.432655,17.316084,101.56798,100.36436,101.26425,100.53345,29.696201,0.7,-101.65494,-3087.1074,0.0084634805,-15.833044,-6.107566,-6.282004,-5.165507,-3.6506987,7.5338176e-06,0.3,0.59318054,55.37005,55.403248,55.84377,55.81819,0.84293044,0.41562498,6.4457690715789795,50.283545855681105
74,740000,74.68354389162602,-56.396286,0.0,-463.69476,3.5215516,14.470156,14480.014,68.47406,14.696192,102.877785,102.373955,101.09735,101.3961,15.724094,0.7,-104.05554,-2585.2014,0.0031052215,-12.524422,-9.305374,-8.311284,-7.9036074,-7.5728745,0.000110892586,0.3,0.1887066,55.312546,55.304905,55.01495,55.034863,0.7274729,0.46406248,6.695375442504883,50.987470507621765
75,750000,63.281321735700814,-54.810577,0.0,-399.28143,3.4910896,7.624666,7030.668,52.608765,19.822742,102.83908,103.035706,101.93434,102.805115,112.01,0.7,-107.447495,-2753.8772,0.011862478,-18.674706,-11.499326,-10.03075,-10.567733,-11.184035,4.2509228e-06,0.3,0.17848812,53.440315,53.439,53.2013,52.984573,1.0329472,0.48749998,5.696722030639648,51.67433431148529
76,760000,50.96619779458097,-53.902718,0.0,-199.96306,4.7376533,8.987319,6312.325,111.99929,15.692493,98.94366,98.94798,98.90832,99.16961,12.002285,0.7,-101.136444,-2861.0896,0.027029818,-15.747356,-9.784643,-9.619577,-9.595029,-8.977579,8.0718854e-07,0.3,0.4159124,52.315163,52.37053,51.642246,52.277542,0.7306187,0.409375,4.731311321258545,52.34481604099274
77,770000,86.06619916150234,-53.236717,0.0,-352.4054,4.9542327,6.2991056,10917.052,100.83636,18.114874,96.339516,95.457596,100.09054,95.61673,13.425461,0.7,-96.67483,-2811.6536,0.007092135,-16.498627,-8.793809,-9.65843,-9.252541,-6.657674,2.2380382e-06,0.3,-0.123215444,51.882572,51.879303,51.523483,51.760612,0.6886361,0.440625,7.635941505432129,53.06122936010361
78,780000,74.49456705682678,-56.354324,0.0,-200.0028,3.4341402,8.59358,11989.667,51.78312,20.378948,99.74775,100.48712,99.957306,98.40962,17.761297,0.7,-101.09537,-2170.6316,0.00051765295,-20.289274,-9.861261,-8.051576,-10.452511,-8.337989,1.3739381e-06,0.3,1.126843,55.24339,55.324997,54.974922,54.815735,0.70782673,0.53593755,6.805007219314575,53.76869075298309
79,790000,66.56288562640418,-55.616066,0.0,-369.63367,5.293881,10.055489,14062.414,277.1453,13.599896,97.498886,97.648796,97.34612,96.2914,25.834707,0.7,-98.09518,-2784.4214,3.5400153e-06,-16.059113,-10.002431,-9.292217,-8.962299,-9.299117,4.9491162e-05,0.3,0.30408594,54.50673,54.6546,54.57085,54.41646,0.79283345,0.5171875,5.954658031463623,54.454303507010145
80,800000,76.6162595382606,-55.685097,0.0,-275.7705,4.197322,8.583427,5410.399,65.51279,18.791752,99.539375,99.76059,99.66335,99.65189,15.520136,0.7,-100.31296,-2529.037,0.0007384573,-16.11884,-9.2464485,-10.809635,-12.537607,-9.832311,1.6377842e-05,0.3,1.0411296,54.586975,54.400597,54.630127,54.63777,0.7248695,0.43124998,6.96116304397583,55.16119935909907
81,810000,89.9518979922434,-56.52331,0.0,-432.7806,4.277278,8.129047,4767.3745,141.28247,25.300644,99.55445,98.259285,98.47922,97.92017,24.594093,0.7,-100.708916,-2783.968,0.0004987727,-16.334146,-8.898548,-4.121927,-6.9722304,-6.920845,3.4891245e-06,0.3,0.596873,55.234856,55.154335,54.859295,54.955383,0.9036367,0.484375,7.8564066886901855,55.88307009935379
82,820000,65.10168062671163,-52.906586,0.0,-307.54288,5.014026,12.146732,9075.835,131.18306,21.54703,100.68812,100.20578,99.48646,99.85905,13.144923,0.7,-102.75522,-3319.7742,0.0047401628,-15.112656,-10.830092,-10.915732,-9.473449,-11.022577,4.0065675e-06,0.3,0.089621514,51.788162,51.70666,51.53287,51.487648,0.5900373,0.4359375,5.959068775177002,56.57399460872014
83,830000,70.10289641794536,-54.298756,0.0,-217.02034,5.690133,9.476179,11523.441,265.23306,20.964966,96.24512,96.74486,96.65438,95.64976,105.93765,0.7,-96.812645,-3043.3386,1.7466507e-05,-17.081404,-9.79191,-7.925801,-7.0814896,-6.419535,2.0965629e-06,0.3,0.21880445,52.618393,52.651817,52.068733,52.249077,1.5150111,0.5203125,6.251533031463623,57.26609235604604
84,840000,70.08731607751571,-51.98162,0.0,-284.32935,3.9419076,8.523438,5581.3433,46.520226,16.368288,99.25284,98.315544,98.47475,98.28311,68.65377,0.7,-100.56987,-2641.7954,0.003899013,-14.766136,-11.994468,-9.835899,-9.295053,-8.831614,1.08431095e-05,0.3,0.14510512,50.92599,50.849857,51.29222,51.154976,1.0768678,0.459375,6.364757776260376,57.960471244653064
85,850000,74.65910376259616,-54.11136,0.0,-293.03506,3.6671517,7.506055,16183.298,66.75005,16.667871,102.4081,103.27603,101.66014,101.63845,49.347458,0.7,-104.80883,-3088.3765,0.013183995,-17.030148,-10.35711,-10.087669,-11.163268,-11.280906,4.0065675e-06,0.3,0.042261556,52.57745,52.514202,52.053093,52.1592,0.8135431,0.5171875,6.661919355392456,58.658053028583524
86,860000,82.72777673363089,-55.578796,0.0,-341.97363,2.8441844,9.070784,8352.166,32.95113,16.688354,100.23895,100.01714,101.06831,101.43157,16.268534,0.7,-102.60319,-3811.6318,0.002581967,-20.004852,-8.336158,-6.0725174,-6.6200714,-7.1127934,4.1521227e-05,0.3,0.006586816,54.650482,54.61124,54.6845,54.48349,0.69983935,0.45624998,7.382750749588013,59.364711499214174
87,870000,80.16258312722572,-56.269016,0.0,-271.26294,4.770001,8.067685,6629.417,128.62576,15.677593,98.32202,98.33389,98.95507,101.66056,8.702772,0.7,-101.95723,-2794.103,1.6782462e-05,-14.683193,-4.1572404,-6.020253,-5.9173203,-5.2226024,1.1662341e-05,0.3,0.32156205,54.89334,54.957367,54.920235,55.137604,0.636899,0.45624998,7.082066059112549,60.07587012052536
88,880000,75.1755236028661,-57.975407,0.0,-157.68439,3.3484278,8.779175,5756.9614,44.1828,26.532688,104.68909,104.750916,103.48521,104.07183,26.140831,0.7,-107.283676,-2866.8584,0.0030969458,-18.322935,-10.652245,-10.534963,-11.293413,-10.10752,7.792097e-06,0.3,0.7944808,56.053616,56.08173,55.964363,56.235207,0.9444959,0.4140625,6.753730773925781,60.78450168371201
89,890000,82.07781624683864,-58.403904,0.0,-415.81128,4.043113,8.6690445,6610.9673,56.216656,32.577274,105.84959,105.74447,104.75382,106.8564,8.813792,0.7,-107.96192,-3156.8333,0.0010332249,-16.360329,-9.262124,-10.685808,-10.798744,-11.318789,1.1637283e-06,0.3,1.0028954,57.159935,57.32543,57.23178,57.1475,0.6040741,0.47812498,7.371291875839233,61.49609129031499
90,900000,79.24290614171589,-56.108498,0.0,-309.09982,4.3324423,8.808828,8884.23,164.4061,16.772385,102.87295,102.2001,102.65961,102.75855,8.800736,0.7,-104.024506,-3208.1536,0.0048276493,-11.4924965,-9.519354,-8.88721,-8.750537,-8.458485,1.4283462e-06,0.3,0.5763772,54.514935,54.505875,54.315872,54.394215,0.63888544,0.4828125,7.057473182678223,62.20692768494288
91,910000,69.90473344033555,-58.257683,0.0,-616.26154,3.190125,11.505728,6937.987,80.39083,14.213394,95.55284,95.647575,96.20339,95.48199,29.64593,0.7,-98.539566,-4062.8662,0.00017981254,-14.615702,-10.160813,-10.654395,-8.203008,-10.92545,3.1944364e-08,0.3,0.32130533,57.1267,57.133,57.416744,57.091248,0.73716486,0.515625,6.43535304069519,62.90657773415248
92,920000,77.88150568665425,-56.9796,0.0,-419.7074,3.6996956,7.377964,6763.881,75.25991,17.925901,97.73245,98.511055,100.16938,97.87994,25.580791,0.7,-99.03941,-3320.3955,0.0071704118,-16.006573,-6.3294334,-8.576182,-8.975087,-7.333549,8.250936e-08,0.3,0.9295435,55.67862,55.75818,55.84053,55.709404,0.6071557,0.44843748,7.006994962692261,63.610437548160554
93,930000,79.08326541022784,-58.309677,0.0,-154.35812,3.328485,5.9179034,6567.512,38.616837,21.265932,97.85687,96.545074,96.26437,96.419174,31.1501,0.7,-99.48418,-3575.086,0.00053968927,-15.48938,-8.653075,-8.731781,-7.4452324,-9.130468,2.6289998e-05,0.3,0.79514813,56.76039,56.789074,56.82794,56.63011,0.8747942,0.5109375,6.944957971572876,64.3160522143046
94,940000,87.79052328689198,-56.370285,0.0,-190.07869,2.7144184,6.6044507,10786.231,34.57366,20.109287,99.49546,100.1331,99.53714,100.09912,24.927334,0.7,-100.58233,-3213.751,0.0025431232,-14.687534,-5.8204827,-5.574436,-5.885577,-4.2172766,4.3869224e-07,0.3,0.9253899,55.17182,55.232372,55.265038,55.47503,0.64957285,0.41249996,7.901138544082642,65.04400616884232
95,950000,84.37660387271748,-55.18463,0.0,-418.48325,4.2156024,8.911518,8219.119,59.580456,17.997805,97.66973,97.60159,97.31697,96.89148,149.36375,0.7,-97.649086,-3058.0461,0.004569771,-12.859845,-5.6915255,-6.8325834,-6.96987,-8.094085,1.0086224e-07,0.3,0.6841168,54.035862,54.04788,53.876537,53.959198,1.1918488,0.484375,7.615960121154785,65.75797723134359
96,955000,73.91334076100614,-57.094246,0.0,-510.7739,3.1071863,9.629853,9672.665,63.807373,23.052963,99.383545,98.732895,100.58663,98.596535,16.746237,0.7,-98.50398,-4193.231,0.0014933683,-18.590515,-9.224262,-7.8550406,-9.051429,-9.240871,1.1457015e-05,0.3,0.619318,55.64911,55.69744,55.75712,55.758793,0.68398803,0.46875,6.731303453445435,66.1679432272911
97,960000,81.98671080491124,-57.818153,0.0,-522.9097,3.9386444,5.3535166,5683.069,75.38051,17.7098,101.184006,101.684944,100.76656,101.760605,12.228684,0.7,-102.41635,-3442.015,0.0019787138,-16.584934,-4.5974813,-3.344945,-7.9814963,-8.062423,8.7448716e-05,0.3,1.1233032,56.35902,56.38061,56.898224,56.57836,0.6634333,0.45781252,7.305807590484619,66.58378475109735
98,965000,80.0036008851193,-54.561905,0.0,-379.07642,3.9185715,4.0190697,7788.9155,170.29688,14.096219,96.92258,96.66788,97.12176,97.022995,49.66641,0.7,-98.55758,-3678.583,0.004239325,-22.117619,-4.5470824,-2.6802316,-2.5194046,-4.016802,3.5359917e-05,0.3,0.5296823,53.339287,53.300354,53.385315,53.195084,1.142493,0.4734375,7.078946352005005,66.9989491422971
99,970000,80.47929934406247,-59.924686,0.0,-502.59286,4.219339,7.65016,6573.7114,115.59375,24.252132,99.68955,98.25519,96.383125,97.1817,131.95877,0.7,-104.80834,-4695.3467,0.0018647115,-18.806229,-5.9184413,-5.9668293,-4.54621,-4.639386,5.2727455e-06,0.3,0.7734214,58.784405,58.63179,58.46874,58.471657,1.1762528,0.465625,7.217887878417969,67.40897042353949
100,975000,80.9410162436219,-58.99114,0.0,-271.40955,5.4770265,8.172302,10066.398,713.1594,17.503227,100.897095,101.11112,101.745224,100.763145,33.858665,0.7,-101.929695,-3198.927,4.8811606e-05,-19.124311,-4.4470906,-4.149154,-4.0474324,-3.086931,5.760416e-06,0.3,0.8774146,57.32759,57.295364,57.073494,57.132286,0.67301,0.4265625,7.208953380584717,67.82708659172059
101,980000,76.34874671216897,-56.09024,0.0,-434.28357,3.1730683,6.475644,12587.443,56.2495,16.114998,105.07637,104.63559,104.09204,103.628075,24.262606,0.7,-107.61783,-4174.0596,0.0004242548,-17.823624,-8.401021,-7.7947617,-9.123159,-8.628513,3.6461716e-07,0.3,0.48511928,54.937576,54.878056,54.81416,54.776005,0.813016,0.43593746,6.88569974899292,68.23893034060796
102,985000,68.58267999428915,-56.230106,0.0,-255.38715,3.7734218,10.972642,15952.651,42.24936,23.412378,102.11072,98.41039,100.63454,100.61252,11.713087,0.7,-103.23384,-3053.9136,0.0052506924,-18.283396,-6.311276,-8.0359955,-8.95434,-8.006061,3.182504e-09,0.3,0.87687725,55.02128,55.10456,55.025814,54.678295,0.6113685,0.4578125,6.075896978378296,68.63455026944479
103,990000,83.52349391209263,-55.8522,0.0,-284.27917,2.8400276,12.626022,11122.065,70.90567,18.30389,97.32134,98.54913,97.8585,97.6497,8.725266,0.7,-99.57393,-3838.799,0.007430913,-17.992237,-9.413677,-9.693106,-9.564175,-10.524107,8.8402885e-09,0.3,0.8301323,54.476143,54.5858,54.603855,54.610847,0.6110176,0.48125,7.909527063369751,69.06346626679102
104,995000,74.56572989932668,-57.311672,0.0,-328.2757,3.5468044,-4.7565546,8260.932,102.06532,22.895687,97.96253,96.50806,97.439514,98.07277,29.58345,0.7,-97.76556,-3144.018,0.0006810069,-17.696056,-2.458478,0.9939549,1.7924763,2.5222747,7.700874e-07,0.3,0.49639618,55.940384,55.968662,55.8304,55.85263,0.82087463,0.4734375,6.873818635940552,69.47127361297608
105,1000000,85.05510316412277,-54.99603,0.0,-450.53217,2.8857794,6.748277,5319.25,36.14007,19.851154,97.785416,97.680466,98.31014,97.205185,11.2887,0.7,-99.47168,-3697.0344,0.003927868,-13.313244,-6.415447,-7.578679,-5.60882,-6.659774,1.1578595e-06,0.3,0.83353734,53.6911,53.592545,53.73848,53.587776,0.72458893,0.4546875,7.549423456192017,69.89185171524683
