Xixo99/comfo/baselines/comfo6_perterbation_actor/20230225_noise0.01/walker2d-medium-replay-v2/COMFO6_s0_20230224_140840_walker2d-medium-replay-v2_73.69.csv
,step,reward,actor_loss,alpha,alpha_loss,critic_loss,max_actor_loss,max_alpha_loss,max_critic_loss,max_mle_prob,max_q1,max_q2,max_target_q,max_v,max_value_loss,max_weight,min_actor_loss,min_alpha_loss,min_critic_loss,min_mle_prob,min_q1,min_q2,min_target_q,min_v,min_value_loss,min_weight,mle_prob,q1,q2,target_q,v,value_loss,weight,eval_time,time
0,0,1.733566579364558,,,,,,,,,,,,,,,,,,,,,,,,,,,,,,,,,
1,10000,9.853263573663405,-23.045506,0.05876787,-14.994082,2.616415,8.312813,21.757359,107.03877,14.77317,45.384308,44.670647,45.473427,44.868996,2.0284858,0.7,-45.713478,-41.02929,0.00043799798,-6.7151775,-7.785382,-7.6304545,-7.120762,-7.413944,1.5161349e-07,0.3,1.5709323,22.57756,22.582315,22.77098,22.240513,0.10783505,0.47031248,2.4508233070373535,1.8656010746955871
2,20000,3.3899478491224295,-37.4171,0.0035574206,-18.165741,4.3474874,1.8848404,86.65704,198.50534,18.616154,70.782074,70.7325,69.45729,72.3813,5.689258,0.7,-71.81766,-72.219734,0.00086735195,-10.067385,-1.4190238,-2.9411871,-1.426841,-3.2618515,1.0288459e-05,0.3,1.1275455,36.897125,36.79631,36.704308,36.6687,0.21039179,0.46875,0.9765286445617676,2.4724346001942954
3,30000,4.9563216807699035,-45.12994,0.00019515125,-20.758566,5.060387,0.87124354,150.87901,228.12146,20.060394,86.358574,85.945335,85.37287,85.81002,4.922353,0.7,-87.95452,-102.708565,0.00072465057,-10.760973,-1.3643247,-0.47553843,-1.349763,-2.4718847,6.006721e-06,0.3,0.42362273,44.298035,44.408005,44.24797,44.23875,0.27350336,0.44687498,1.524486780166626,3.0866684635480244
4,40000,11.908218994428132,-51.796566,1.0433244e-05,-29.393353,4.0337887,7.016108,229.9125,69.33893,17.48985,94.86794,94.69401,94.72414,95.818344,57.582157,0.7,-96.93532,-143.36853,0.0011094504,-18.710777,-6.9369545,-6.5862684,-7.635149,-8.166374,8.820655e-07,0.3,0.040559992,50.824665,50.996254,51.145683,51.02826,0.6891811,0.4359375,2.014648675918579,3.7077465494473776
5,50000,5.435465699900529,-51.749546,5.556243e-07,-26.31699,6.82475,2.4020169,398.86722,331.351,31.421669,101.75112,102.22547,101.36727,101.9528,28.956326,0.7,-104.20589,-169.40987,0.0005490437,-21.024511,-4.544785,-6.2037687,-2.0907314,-5.750879,1.249412e-05,0.3,0.100593925,50.6501,50.66768,50.72639,50.89068,0.58634603,0.40625,1.3094041347503662,4.325040904680888
6,60000,5.55345603190814,-55.380527,2.9765268e-08,-26.149944,5.0370736,0.3796054,499.80035,116.3748,17.598452,103.77668,103.72533,104.79424,103.959366,17.195812,0.7,-105.962326,-296.00775,0.00014618674,-11.349978,1.1292514,0.028293163,1.0774434,-0.7769933,4.4703486e-07,0.3,0.18876784,54.267677,54.279816,54.216232,54.31349,0.6320971,0.453125,1.2638120651245117,4.933762192726135
7,70000,23.571042010971986,-56.481396,1.5962792e-09,-38.639587,17.172518,11.911491,373.2927,3014.1409,19.302322,104.56535,104.63937,105.13421,104.5216,12.940283,0.7,-106.04122,-249.32985,0.0018225389,-20.152489,-15.11101,-16.190784,-16.342398,-16.342056,1.5380483e-05,0.3,0.056759812,55.415405,55.609535,55.684383,55.75004,0.5207262,0.453125,2.706200361251831,5.569742584228516
8,80000,36.33610540064056,-57.217766,8.4031046e-11,-27.751282,5.0495167,0.27500713,717.7986,306.1609,20.255825,103.682205,103.776505,104.42828,101.23342,8.672454,0.7,-107.7294,-285.20456,0.0014194252,-16.083668,-0.16364542,-1.4610496,0.7744257,-1.3762145,3.2137789e-06,0.3,0.3686414,56.083008,56.0069,56.201096,56.0744,0.47294214,0.44687498,4.0073082447052,6.225392619768779
9,90000,36.2032496715763,-59.499176,4.4676394e-12,-33.790325,6.3795915,9.229261,539.8723,390.67624,20.687344,100.60735,100.342255,100.76656,99.94221,33.654152,0.7,-102.52479,-372.8776,0.0013389746,-17.398003,-8.203052,-10.103769,-10.600859,-9.646876,2.724555e-06,0.3,0.6531478,58.270683,58.17486,57.60138,58.004204,0.5921631,0.43906248,3.8632938861846924,6.872025148073832
10,100000,48.6970440923721,-58.56683,2.390086e-13,-40.282536,6.8518105,8.087433,1085.6227,119.615715,15.045904,105.38167,105.46561,104.85059,105.36795,10.430156,0.7,-106.77931,-362.0101,0.0041952105,-11.892781,-8.896268,-12.191304,-11.546688,-10.089191,0.00010515999,0.3,0.28549814,57.52442,57.61194,57.81459,57.609,0.52516156,0.45000002,4.41715407371521,7.538079559803009
11,110000,54.430665324359055,-56.95275,1.2789422e-14,-54.896362,4.5496583,4.3689203,784.86194,83.455956,28.16199,106.23663,106.18361,106.1979,107.51178,20.65379,0.7,-107.21665,-383.61142,0.0017045564,-15.891859,-6.7584386,-7.480187,-7.0718737,-7.3691554,2.6077032e-07,0.3,0.4579717,55.84326,55.90358,55.896774,55.792637,0.6777474,0.4453125,5.163406848907471,8.214477364222208
12,120000,41.08551578166392,-59.06938,6.9617114e-16,-53.680588,6.7001944,6.5699964,634.7545,172.57407,14.916745,106.52007,105.21365,105.90784,105.031166,28.73369,0.7,-107.72503,-497.06793,0.00017855188,-17.640726,-9.58788,-8.759068,-10.016845,-9.424836,4.4146438e-07,0.3,0.8109118,57.7249,57.814644,57.146294,57.097603,0.7699673,0.5078125,4.137088775634766,8.872555875778199
13,130000,73.71505333207102,-58.168266,3.7608786e-17,-77.85278,5.3401465,2.9555058,755.24786,163.57735,21.263275,103.97843,102.137535,102.71353,102.81408,57.289402,0.7,-105.80013,-488.2464,0.013724101,-18.525457,-2.6464205,-4.613702,-6.534134,-4.956426,6.4977216e-06,0.3,0.44077876,56.845802,56.87053,56.249405,56.239334,1.0968144,0.5296875,6.412752628326416,9.571862812836965
14,140000,77.05543295572774,-57.149017,2.0496497e-18,-37.6658,4.4615054,5.771908,1417.7078,209.11852,21.929539,99.68904,100.20605,100.619896,99.93584,15.979262,0.7,-103.34298,-522.0675,0.0018299248,-19.521778,-8.667623,-7.585144,-3.6210065,-5.796029,1.9186584e-06,0.3,0.372368,55.607758,55.570526,55.891132,55.953556,0.70893764,0.43125,6.70927882194519,10.270703021685282
15,150000,66.58258190224053,-56.58095,1.1084984e-19,-69.55568,7.5062404,12.532353,1641.6781,247.39005,14.48354,102.60528,102.89767,100.60931,100.861855,36.118702,0.7,-105.05017,-536.1339,0.002898417,-17.871796,-8.490195,-7.518147,-5.9694734,-7.2871237,6.265007e-07,0.3,-0.44418803,55.380684,55.426548,54.88912,54.855988,0.6755024,0.4921875,6.042765855789185,10.959563787778219
16,160000,87.25711013747248,-55.09218,6.019836e-21,-53.810173,6.9387984,6.6769586,1688.8085,191.89124,21.466198,106.571,105.2835,107.0769,106.4025,139.7674,0.7,-106.01711,-547.6025,0.003925003,-15.647651,-10.283746,-9.047755,-10.582961,-9.4149685,8.074567e-06,0.3,0.6817193,53.810524,53.913666,54.072,53.605503,1.5435634,0.49218747,7.77963662147522,11.681489829222361
17,170000,80.36400030275327,-57.29069,3.3157157e-22,-92.32482,5.348676,4.4396477,1292.6367,104.0934,23.259338,106.97729,107.62842,104.35007,105.610954,31.511557,0.7,-111.36027,-726.4651,0.0027912662,-18.277359,-4.0400033,-4.7690487,-10.584932,-2.8310246,1.8887222e-07,0.3,1.1062126,56.23181,56.28408,55.86033,55.6596,0.7807292,0.5078125,7.109536409378052,12.384178972244262
18,180000,71.08628001044761,-57.92219,1.8194138e-23,-107.75189,5.277377,6.2421713,1835.4791,310.0103,21.790165,101.216446,101.4709,101.33076,101.389084,12.867141,0.7,-104.73977,-767.47504,0.003931853,-14.60095,-10.192598,-7.8479915,-7.522575,-8.601308,6.476435e-06,0.3,-0.0060733855,56.69068,56.55052,56.806114,56.44175,0.6270888,0.5078125,6.5583531856536865,13.079762931664785
19,190000,57.06921067990678,-57.079517,1.0020306e-24,-87.1415,4.1221695,15.82041,3093.6387,163.57819,18.054386,102.983864,102.206085,101.45788,103.00519,31.810423,0.7,-104.88398,-644.0499,0.0035768687,-14.155665,-14.040259,-13.51419,-11.751471,-10.683288,5.2220885e-06,0.3,0.39844364,56.128357,56.225906,56.155025,56.04539,0.67449874,0.4453125,5.391178846359253,13.753220995267233
20,200000,81.25996826961206,-57.35627,5.503422e-26,-126.362335,3.7546268,2.126986,1782.8467,63.15482,20.545746,102.20358,101.4023,101.46948,101.46698,10.270732,0.7,-101.8186,-643.5495,0.004316082,-11.54237,-4.7583084,-5.0008183,-4.059889,-3.654532,4.7947283e-06,0.3,0.6360313,56.459602,56.279514,56.124805,56.0994,0.48449937,0.4125,7.280110597610474,14.463981401920318
21,210000,83.62145074247739,-59.179386,3.0748916e-27,-100.28261,4.5308995,10.70707,2187.8538,99.92723,31.952263,106.568794,107.00459,105.788025,107.31382,8.600981,0.7,-108.946884,-738.1861,0.0015764771,-15.814509,-13.654274,-13.6199665,-13.435097,-13.30398,4.364745e-05,0.3,0.6344532,57.98401,57.931847,57.816235,58.272774,0.66583973,0.3640625,7.494311094284058,15.174880933761596
22,220000,72.55587695099614,-57.6307,1.691063e-28,-93.24585,4.8678913,11.682419,1457.2169,97.7441,24.92287,102.65896,103.64312,102.63331,101.1682,31.524693,0.7,-103.50389,-882.6378,0.0039966917,-16.08058,-8.441787,-7.913063,-10.576361,-14.542894,2.7543864e-08,0.3,0.29284832,56.466263,56.63772,56.625137,56.494804,0.89541584,0.428125,6.542901992797852,15.871463044484456
23,230000,87.26068454085318,-59.68822,9.359689e-30,-93.75923,3.7333155,1.9612265,1722.3315,67.323135,15.333056,104.81727,106.1632,104.510925,104.57701,18.155928,0.7,-107.80359,-756.6566,0.0017694656,-16.522474,-4.7351847,-1.3843712,-1.3824245,-4.0384064,2.6560156e-06,0.3,0.8731979,58.629845,58.712807,58.632835,58.276405,0.74943453,0.5671875,7.817418575286865,16.590996019045512
24,240000,82.67421576123071,-57.180298,5.177572e-31,-79.976715,4.8561606,9.997059,3134.3284,122.51314,19.31963,105.16833,106.4849,105.17617,106.00992,37.867947,0.7,-108.57383,-858.1226,0.00030525797,-13.977137,-8.247269,-6.868883,-14.315797,-8.68984,6.780436e-07,0.3,0.7792279,55.740532,55.74386,55.595745,55.73191,0.75343394,0.434375,7.504698038101196,17.300479201475778
25,250000,80.19676126993504,-57.153343,2.8732003e-32,-39.875854,5.5966625,4.344305,3375.2773,141.29176,27.103832,101.51288,101.41381,100.89333,100.04547,11.935681,0.7,-102.64347,-822.5505,0.00397004,-16.533913,-4.067484,-6.9986143,-8.595458,-6.7304645,3.081368e-08,0.3,1.0867858,55.975548,55.83574,55.86212,55.792152,0.6149956,0.453125,7.219895601272583,18.005941263834636
26,260000,82.15009909353277,-55.33448,1.5845477e-33,-144.19753,7.0271225,3.5351381,2097.2969,738.1967,15.852685,100.74866,102.40753,101.246925,100.40011,28.764687,0.7,-103.128586,-910.65967,0.0009937887,-19.97033,-7.2820277,-2.2189007,-1.9949644,-6.0004025,4.3918076e-06,0.3,-0.3024461,54.035614,54.093193,53.95875,54.128426,0.8960049,0.428125,7.438146352767944,18.718417088190716
27,270000,57.027786316784514,-57.016693,8.770115e-35,-57.62424,4.3464055,12.683788,2339.0698,171.54552,20.624329,102.76759,101.51473,102.63631,102.528,22.536972,0.7,-104.577675,-1165.4734,0.0024204245,-15.228907,-12.989347,-12.675978,-15.723546,-13.611812,9.561656e-07,0.3,1.3352005,55.73291,55.719967,55.642677,55.570152,0.72869474,0.45,5.291871070861816,19.395620755354564
28,280000,57.22602742790509,-57.943768,4.8165806e-36,-128.5228,4.14385,7.492028,1897.8215,82.44034,15.610322,101.528915,101.57805,103.96406,100.964775,10.613318,0.7,-103.027275,-909.66003,0.00046966982,-11.507788,-6.4426,-4.646117,-5.3159356,-5.2631984,5.9764716e-07,0.3,0.49949676,57.04966,56.965984,57.06084,57.161243,0.478368,0.41875,5.28362512588501,20.07113826274872
29,290000,69.79887703877992,-55.81414,2.6519327e-37,-124.664314,5.1246014,16.547525,1771.883,226.05568,18.570469,99.18275,98.15336,100.00085,98.24546,26.619143,0.7,-101.872765,-1222.9426,0.003718281,-15.159034,-14.309858,-13.269152,-15.769968,-12.849312,2.359866e-07,0.3,0.64633256,54.79509,54.5381,55.034973,54.928474,0.80528253,0.45,6.37891411781311,20.76885644197464
30,300000,53.83210234962071,-58.588295,1.4818499e-38,-106.42556,4.2216187,6.461778,3090.2563,67.62605,19.249378,101.96856,101.05726,101.29747,101.17494,49.439674,0.7,-105.38768,-1239.4043,0.004068152,-14.249344,-9.217609,-8.787743,-8.368913,-9.437556,5.330476e-08,0.3,1.2146993,57.42704,57.407436,57.498997,57.46727,0.71960086,0.4109375,5.056128978729248,21.440706662336986
31,310000,77.52747538440377,-58.736736,8.32102e-40,-137.69193,4.966917,4.882666,4821.186,137.90726,17.977661,100.98164,101.7696,102.89004,102.056404,28.037937,0.7,-105.91694,-1372.15,0.0004247942,-17.15328,-8.603058,-9.599186,-11.299778,-8.701166,9.1574043e-07,0.3,0.6030641,57.51996,57.435707,57.45913,57.0772,0.68832636,0.503125,7.194161415100098,22.1480263988177
32,320000,68.60520982440126,-58.647236,4.6348e-41,-123.88654,5.855942,5.074774,3112.5195,189.63153,26.105911,102.37627,102.654205,101.98722,101.42954,16.08023,0.7,-104.247,-1184.2959,0.003955634,-21.588,-4.024781,-5.8912606,-4.8515224,-4.3953166,9.277763e-07,0.3,1.1953549,57.358208,57.49614,57.67187,57.630775,0.7328081,0.471875,6.285748481750488,22.84223229487737
33,330000,80.19414851951228,-57.88601,2.618e-42,-39.093605,6.6626244,3.8433697,2502.9702,186.30624,19.637486,100.498566,100.40538,100.32159,101.86772,17.867046,0.7,-102.08375,-1132.6344,0.0063798036,-19.727486,-6.0904026,-4.6666327,-6.1154947,-2.3120933,4.710164e-06,0.3,1.3376416,56.12918,56.24737,56.630722,56.370193,0.7018651,0.471875,7.307579755783081,23.550233300526937
34,340000,86.03231444977936,-56.81958,1.47e-43,-87.39918,4.1004286,11.249931,2043.7054,37.153152,20.272346,104.07318,103.52916,104.90178,104.257515,27.976995,0.7,-105.70351,-1393.5012,0.0014196421,-14.931099,-9.948499,-8.8949375,-10.943295,-11.375001,5.1060456e-06,0.3,1.294877,55.51953,55.429787,55.609085,55.4878,0.8691416,0.465625,7.700501441955566,24.266378855705263
35,350000,67.71996328757348,-55.430534,8e-45,-139.46146,4.093338,6.1520057,6380.219,77.14151,20.989943,98.37746,98.38209,97.9698,98.79995,22.995535,0.7,-99.50458,-1283.2726,0.0030673295,-13.1603985,-6.2889147,-6.8454466,-7.926049,-7.3965983,3.9631424e-05,0.3,1.0197194,54.109825,54.214127,53.71685,54.13366,0.5966975,0.4140625,6.21461820602417,24.95951701402664
36,360000,80.33681921618647,-54.12993,0.0,-134.59091,3.2853794,8.255594,2964.3381,57.69197,18.248968,104.43462,103.247025,103.07979,103.25738,83.05907,0.7,-103.52062,-1386.4188,0.0028580907,-19.473772,-9.592595,-9.422784,-8.7979,-9.306977,2.0364926e-06,0.3,0.2023261,52.992966,52.923225,52.813015,52.90708,0.8763764,0.459375,7.3683764934539795,25.672910241285958
37,370000,61.380341805506966,-57.17743,0.0,-65.98897,6.325281,6.9238167,5601.3896,261.69113,18.302137,99.7971,100.03003,99.74054,99.58367,15.887698,0.7,-102.68647,-1281.5143,0.0032110466,-19.498722,-5.686547,-6.0867743,-4.64335,-7.2905655,1.466833e-07,0.3,1.0017143,55.801823,56.045418,55.717957,55.640774,0.8490951,0.49374998,5.747059345245361,26.358966326713563
38,380000,72.36766802220889,-57.116364,0.0,-191.3364,4.4702415,8.577023,5216.307,141.89595,17.845222,102.14658,102.80751,101.674904,101.69763,51.212536,0.7,-102.78832,-1323.6488,0.0005875368,-17.354311,-6.2046356,-5.222435,-8.136786,-9.1018505,3.8164944e-06,0.3,0.3609603,55.773544,55.95706,55.816376,55.84751,0.98481905,0.4359375,6.4672887325286865,27.052950457731882
39,390000,58.93396441190841,-55.30098,0.0,-217.79843,3.7216592,7.3135633,3882.4539,71.329605,15.533028,106.85043,105.904884,105.668526,106.629105,38.86811,0.7,-108.97118,-1485.8936,0.0027290953,-15.479761,-8.616452,-8.484674,-10.738118,-8.881583,3.1150746e-06,0.3,0.55648905,54.179276,54.17632,54.263596,53.915024,0.7074676,0.4328125,5.370294809341431,27.734815593560537
40,400000,57.43544817918301,-57.55481,0.0,-143.73308,3.437272,8.539515,5858.298,54.80529,12.995733,103.15523,104.24697,104.3291,102.424736,10.684535,0.7,-103.0542,-1338.0311,0.00085159746,-11.374738,-8.807599,-11.32062,-11.947841,-15.193905,2.512476e-05,0.3,0.7216557,56.380764,56.196957,55.99716,55.893906,0.68006426,0.5015625,5.474674701690674,28.416650533676147
41,410000,75.0212124133984,-55.850136,0.0,-196.32986,5.7383947,4.0918727,2540.9172,278.2934,25.249807,98.17229,98.37929,99.00617,97.88508,13.314516,0.7,-99.3789,-1491.6432,0.0023331263,-13.915897,-6.216749,-6.1790295,-6.3406305,-6.463908,6.2654904e-06,0.3,0.5870207,54.648476,54.736603,54.86066,54.805187,0.68014044,0.4859375,6.967287302017212,29.11806490421295
42,420000,58.88653240056472,-55.936623,0.0,-130.54843,4.9213524,4.8519163,5253.692,95.9023,18.365442,105.51543,105.46803,107.221756,105.0411,40.12523,0.7,-105.56809,-1506.0582,0.002179618,-14.441019,-7.3577547,-5.848653,-8.495831,-7.6927733,1.4084392e-06,0.3,0.6054854,54.34967,54.302876,54.59093,54.592625,0.7997017,0.4109375,5.4538726806640625,29.794100840886433
43,430000,75.46449984893248,-58.19702,0.0,-227.04129,4.481479,3.3111753,2171.6182,132.05904,14.662648,100.61297,100.96911,101.08876,99.84326,29.765083,0.7,-101.38483,-1258.3854,0.0060770498,-22.58966,-0.4327563,-2.9382641,-1.6995958,-4.04927,1.23507525e-05,0.3,0.17780873,56.908936,57.007454,57.014008,56.953823,0.70948577,0.47187498,6.8367509841918945,30.498231661319732
44,440000,74.75827952814042,-57.510082,0.0,-138.1536,4.959857,7.6827993,2606.0994,106.841125,18.70044,100.32089,99.65862,99.33676,99.93195,7.882955,0.7,-103.0335,-1929.7489,0.010831522,-15.762907,-10.35976,-9.729722,-9.26848,-10.250499,1.3570752e-06,0.3,0.19854876,56.235188,56.272697,56.00135,56.031364,0.6319957,0.47500002,7.518935203552246,31.212564893563588
45,450000,67.41263859112843,-58.357155,0.0,-229.74016,3.6278872,5.6775174,3704.4473,83.8519,13.710006,100.595024,100.205574,101.333786,101.908745,11.001079,0.7,-101.65059,-1463.1193,0.0035688872,-15.64476,-5.8744597,-7.688415,-7.649429,-5.0333223,4.3918076e-06,0.3,0.60879076,57.198708,57.21999,57.597908,57.62272,0.51983815,0.4203125,6.287405252456665,31.903221507867176
46,460000,63.895386398407496,-57.416946,0.0,-172.65106,6.382482,9.44465,2974.1582,273.80988,30.359232,99.66282,99.80462,99.09387,99.38083,15.846547,0.7,-103.24453,-1922.9637,0.0031798484,-15.709441,-8.564321,-7.4526453,-9.08395,-9.166109,1.3645214e-06,0.3,0.23175474,55.945168,55.913143,55.511223,55.910152,0.89723796,0.4734375,6.330303907394409,32.596147131919864
47,470000,48.600722242312536,-55.72639,0.0,-123.25432,4.1566772,8.448586,5908.654,70.636154,21.86925,100.50989,100.53081,101.943,102.02537,19.243267,0.7,-103.97223,-1430.7615,0.00037032412,-15.412321,-8.196032,-7.2563252,-11.077558,-9.369108,5.8185396e-05,0.3,0.6182575,54.39463,54.338722,54.79126,54.716595,0.63950425,0.425,4.543803453445435,33.25354813337326
48,480000,54.78055960444015,-55.32727,0.0,-224.96127,4.057724,12.644161,5465.083,58.71896,15.023983,100.26499,100.293465,99.870094,99.8908,11.814444,0.7,-102.73303,-1581.9597,6.241584e-05,-14.284276,-15.623418,-14.207647,-12.598354,-15.282764,6.2133e-06,0.3,0.5428307,54.26541,54.302464,54.41272,54.370426,0.62613,0.44375,5.555174827575684,33.91922894318898
49,490000,64.73333363314387,-57.25585,0.0,-73.58908,4.252621,4.152207,6621.2505,80.009674,26.981766,102.65377,102.72033,101.780785,101.81708,20.3487,0.7,-104.6848,-1873.3384,0.0010308466,-16.091118,-10.53898,-7.7409716,-9.898977,-7.4912195,1.6298145e-10,0.3,1.4777123,55.920525,55.711395,55.889923,55.93528,0.68025506,0.45468748,6.034114360809326,34.59084475040436
50,500000,44.91299006398046,-55.738438,0.0,-294.10522,3.6586018,11.320574,2544.842,64.542656,14.689918,106.62683,106.77793,105.81807,107.39171,7.6916547,0.7,-108.70832,-1735.2051,0.0015963227,-18.240082,-8.482377,-9.920202,-9.7154665,-7.983555,2.7900642e-05,0.3,0.23984449,54.61959,54.742172,54.859627,54.914017,0.6154556,0.39687496,4.335004806518555,35.236969312032066
51,510000,56.7476865235367,-56.896305,0.0,-255.85384,3.771255,-1.1764003,2971.0913,31.771965,16.999844,100.00288,100.72812,99.73096,100.012535,20.512157,0.7,-102.56741,-1720.8878,1.1923519e-05,-14.1314745,0.5192954,-1.0030264,0.20772286,-2.0909004,5.5546875e-06,0.3,0.8763748,55.812023,56.007233,55.563904,55.717793,0.5960932,0.4625,5.5383620262146,35.91151134967804
52,520000,55.41361673161893,-56.012444,0.0,-285.8381,6.2443333,8.481445,2579.65,530.06287,14.672981,98.800285,100.07076,99.90216,99.77354,19.619118,0.7,-102.56075,-2287.9604,0.0007494702,-14.816668,-10.66086,-8.770901,-10.234077,-10.700262,1.6350998e-06,0.3,0.52393126,54.802017,54.791817,55.022255,55.201836,0.79145074,0.39374998,5.483354806900024,36.58744469881058
53,530000,47.45709228848637,-54.719894,0.0,-233.7115,3.9829397,10.489463,4499.111,89.53168,14.676331,101.41131,101.19796,101.270515,100.23667,20.596748,0.7,-101.960396,-2061.5315,0.00015024634,-15.113104,-8.312152,-8.240438,-8.848425,-7.922379,1.2915116e-07,0.3,0.08357116,53.632675,53.63893,53.169373,53.08454,0.59749687,0.4765625,4.903216361999512,37.257042642434435
54,540000,56.79904315055309,-53.091675,0.0,-226.63922,4.161952,9.771203,7608.7695,37.845932,17.332672,99.89195,100.29139,101.7329,98.99138,30.248417,0.7,-101.70875,-2433.3318,0.009971759,-18.231506,-7.7518845,-8.428018,-8.3194065,-7.717506,5.769951e-07,0.3,0.23884633,52.11003,51.9274,51.712215,51.682068,0.8438764,0.45468748,5.255444049835205,37.93189969062805
55,550000,66.2277135013392,-58.28257,0.0,-220.7346,4.714776,5.44366,5774.35,66.50551,19.056358,100.10812,98.41375,99.90723,99.70061,9.511716,0.7,-100.38459,-2256.092,0.009667965,-15.842369,-7.450795,-7.6360803,-8.2783575,-8.496803,5.8836304e-06,0.3,0.5148023,57.05361,56.867386,56.532623,56.520515,0.7160084,0.47500002,5.96961522102356,38.62402827342351
56,560000,59.73294316014249,-56.979294,0.0,-86.337326,5.021152,2.1890702,4612.2466,81.94,22.985748,100.36543,102.18463,100.847015,100.19024,12.358975,0.7,-103.4144,-2259.8508,0.004074305,-16.102573,-6.406106,-5.0014286,-7.8970966,-4.1250277,5.992512e-06,0.3,1.0180054,55.742424,55.832325,55.783314,55.65831,0.6347965,0.4296875,5.460564136505127,39.306209933757785
57,570000,68.8931910211922,-55.472473,0.0,-161.7785,5.52487,4.2026753,4219.511,156.925,18.187057,98.715195,98.07099,98.68264,98.36491,29.914736,0.7,-99.898056,-2051.0283,0.00608265,-13.743309,-5.368553,-2.9268055,-4.196966,-3.440624,6.3569166e-07,0.3,0.502166,54.123173,54.1599,54.778316,54.463257,0.7277937,0.43593752,6.178608179092407,39.99820427497228
58,580000,73.80276996648976,-55.01866,0.0,-225.43507,4.362216,3.3687112,2921.9094,66.86799,22.250862,98.20341,98.30124,99.14066,98.83056,77.79009,0.7,-98.59186,-1902.1903,0.003284562,-23.067263,-6.8068,-6.402829,-4.40711,-1.95945,4.9051596e-06,0.3,0.83607554,53.683617,53.679718,54.362183,54.257565,1.0964842,0.4421875,6.537333726882935,40.70181719859441
59,590000,71.79931176057025,-57.083393,0.0,-167.9955,4.1294713,10.30035,7503.9395,85.935074,18.978113,101.28347,101.383995,100.71863,101.38921,7.106816,0.7,-104.850746,-2563.2695,0.0011934206,-16.775333,-12.296112,-7.936893,-10.593154,-9.162249,2.970337e-06,0.3,1.0195091,55.762836,55.86386,55.652397,55.482906,0.59484994,0.52187496,6.414386987686157,41.40214850505193
60,600000,62.51402918775485,-57.69397,0.0,-95.754265,3.3444686,10.144091,5266.144,75.16614,26.294523,102.55734,102.785034,102.64044,102.140854,20.418203,0.7,-103.20176,-1911.2109,0.003933043,-19.380066,-8.473871,-9.115253,-7.9192157,-10.868878,1.344608e-05,0.3,1.1761291,55.88478,56.030563,55.795784,56.041058,0.7449702,0.43124998,5.617950439453125,42.08463469743729
61,610000,65.199490044543,-56.220764,0.0,-161.75853,3.4716926,10.236415,7360.754,39.360085,19.379562,100.22146,99.6181,100.13566,100.30084,20.03001,0.7,-103.49054,-2309.4888,0.0063016,-14.505793,-13.173582,-12.93713,-17.49,-11.291425,1.748078e-05,0.3,0.4260317,54.702095,54.777607,54.86454,54.676216,0.696056,0.45468748,5.920664072036743,42.77585807243983
62,620000,76.93432511280763,-58.783123,0.0,-248.6269,4.738331,7.4617424,4477.6035,61.592472,14.7994585,96.81831,97.52244,96.1471,96.53642,20.216387,0.7,-99.49359,-2008.9491,0.004041736,-15.458629,-7.031278,-5.838429,-5.696264,-5.9889903,9.5623545e-06,0.3,0.5340952,57.328053,57.60665,56.86553,56.922985,0.72438395,0.4921875,6.881976366043091,43.48141417503357
63,630000,69.3126273931175,-53.986332,0.0,-258.86716,4.9419227,7.4099207,4641.548,71.784035,17.546394,98.729706,98.1086,97.71763,97.70496,48.03054,0.7,-99.302025,-2689.67,0.0046577193,-24.29871,-8.537611,-8.291467,-9.866319,-8.811291,1.0825635e-06,0.3,0.30082384,52.936317,52.80972,52.312347,52.152714,1.0257128,0.5390625,6.241501331329346,44.17352924346924
64,640000,82.43909694696913,-56.53019,0.0,-220.51456,3.5424404,5.922718,5451.6016,76.97233,17.268179,101.2836,102.06339,101.63953,102.84245,24.356161,0.7,-103.7097,-2391.9585,0.0026866046,-15.113829,-6.424628,-6.4997087,-6.0371823,-6.642535,1.1684443e-05,0.3,0.59696364,55.222927,55.205154,55.23216,55.198128,0.543602,0.43281248,7.265693187713623,44.88549383878708
65,650000,82.33546266906131,-55.524303,0.0,-214.4698,4.115876,7.547618,6835.187,35.99052,20.742212,97.19607,97.255646,98.08549,98.23294,26.073515,0.7,-100.02841,-2810.2485,0.0045344904,-16.55818,-4.6934013,-4.9512415,-5.755682,-5.14524,1.3014477e-06,0.3,0.7622942,54.26747,54.03719,54.356712,54.82183,0.89731264,0.36874998,7.4370362758636475,45.60073306163152
66,660000,47.92970077670534,-54.93051,0.0,-309.7379,3.8579571,10.655971,5462.748,77.08482,13.009209,98.82622,97.819,97.96174,98.35391,29.914656,0.7,-100.03855,-2122.6074,0.009387201,-14.255907,-9.666825,-8.875316,-7.715756,-8.167675,2.5977714e-08,0.3,0.33437827,53.430878,53.471313,53.204304,53.219437,0.6914964,0.46249998,4.488333463668823,46.26707520484924
67,670000,69.90521098019865,-55.595085,0.0,-296.547,4.3143287,1.9535775,6321.846,53.89397,18.420443,100.20007,100.571075,100.1489,99.313545,38.902138,0.7,-102.59337,-2918.5166,0.0012343337,-18.100107,-9.19845,-7.3000655,-9.539463,-7.3886027,4.631438e-06,0.3,0.046693593,54.22326,54.18983,54.431534,54.42559,0.7715488,0.484375,6.297840356826782,46.96153898239136
68,680000,62.30027443350037,-54.7193,0.0,-251.3785,3.4881568,9.06133,5147.932,36.98216,18.051544,100.722176,98.96492,100.152855,99.95624,43.193012,0.7,-101.56778,-2051.3657,0.00034283142,-22.901247,-9.282039,-9.425691,-8.054824,-8.298031,4.6824975e-06,0.3,0.39229393,53.267277,53.04351,53.220158,53.431534,0.7560197,0.434375,5.659860372543335,47.64573245445887
69,690000,78.1625198316128,-56.189514,0.0,-202.65457,2.9432454,5.342184,5817.709,35.497837,38.235996,99.4781,99.7419,99.954956,99.747375,12.987195,0.7,-101.41536,-2716.5964,0.00318651,-19.386456,-3.343917,-4.4014053,-4.2594733,-3.9539645,2.2919266e-09,0.3,0.43837172,54.7239,54.8312,54.740017,54.81745,0.51867807,0.421875,6.7605626583099365,48.34607806603114
70,700000,56.64958274856505,-61.000683,0.0,-193.3855,4.191409,8.188629,9910.22,62.89312,17.670237,98.76142,99.431755,99.04858,99.14803,59.933273,0.7,-100.746925,-2043.7579,0.0030566826,-18.384865,-8.988113,-9.987358,-11.2601795,-9.662302,2.3534521e-05,0.3,0.39596346,59.19088,59.005287,59.28811,59.306767,1.2790807,0.4359375,5.251368522644043,49.0259506225586
71,710000,82.74844222015126,-56.30081,0.0,-176.49641,5.4260964,9.164749,8855.723,426.2262,25.725582,98.283,98.45252,99.01689,98.86967,27.809042,0.7,-101.72382,-2255.3093,0.0016849265,-13.756472,-6.0257883,-6.8574276,-7.3809648,-5.207773,3.1053223e-05,0.3,0.89351785,54.994663,55.04338,55.049892,54.981274,0.9225167,0.46875,7.41534423828125,49.74288936456045
72,720000,53.47137863959357,-55.225677,0.0,-294.31842,4.4499307,12.55734,6301.8335,87.455826,22.793518,99.84844,100.52652,101.59712,101.01067,8.295146,0.7,-101.40058,-3133.9587,0.004609365,-14.965763,-11.132429,-11.844741,-11.128603,-11.356317,2.728484e-07,0.3,0.49201632,53.89584,53.912533,54.41285,54.29088,0.57760143,0.46249998,4.987803936004639,50.417128495375316
73,730000,65.89219826295528,-56.753315,0.0,-397.5067,4.4395075,11.791702,3550.9272,183.59488,26.528917,104.556915,104.14434,104.44297,101.720894,34.700573,0.7,-104.89158,-3317.0571,0.003940386,-16.266743,-7.675356,-7.1058183,-9.535373,-8.0128565,1.6708145e-06,0.3,0.7687581,55.809402,55.715298,55.37329,55.280533,0.7316344,0.496875,5.923749208450317,51.10660522381465
74,740000,71.448443822047,-56.949173,0.0,-379.20453,3.8411777,11.698956,4221.238,106.48276,17.248432,100.25254,100.16988,100.98284,101.18933,34.440548,0.7,-102.71381,-2885.6077,0.0012402022,-16.164299,-10.089799,-10.975069,-9.99206,-7.8770967,1.5662518e-07,0.3,0.33287972,55.514175,55.456985,55.804653,55.79218,0.7039414,0.44687498,6.442885160446167,51.80316645701726
75,750000,64.8280757560589,-54.73445,0.0,-391.6991,4.5013914,8.973161,4420.3413,91.22055,18.21061,98.386284,97.57716,97.61962,97.90196,72.849396,0.7,-99.8217,-2804.9944,0.0007229702,-25.917713,-5.510282,-6.895503,-6.8165402,-8.6577835,1.1187699e-05,0.3,0.57808006,53.64615,53.45494,53.47274,53.157486,1.3278863,0.5125,5.856366157531738,52.4925505956014
76,760000,69.8568478066457,-55.973293,0.0,-208.22746,5.2440586,10.404908,8944.28,136.88983,16.90418,101.90685,100.74809,100.16879,101.15428,54.592564,0.7,-103.43704,-2700.1924,0.0006577353,-13.941712,-8.236052,-10.651021,-7.9900107,-7.2903633,4.9874075e-07,0.3,1.0728633,55.125988,54.938152,54.760475,54.962994,0.86473286,0.4484375,6.352902889251709,53.18728975057602
77,770000,75.24247896018518,-56.019165,0.0,-185.1758,4.3721485,4.90549,7741.9683,97.97417,25.10428,106.22052,106.57722,105.71599,106.15981,31.889004,0.7,-108.60631,-3086.7217,0.0009389239,-20.62491,-4.883075,-5.63393,-6.1858444,-5.5870442,4.0686687e-06,0.3,0.5918261,54.74391,54.70784,55.129738,54.908253,0.7900989,0.42499998,6.7496418952941895,53.890000629425046
78,780000,56.17090151023451,-57.89068,0.0,-272.83923,7.2418184,3.5324075,6006.913,235.48528,18.721495,102.73107,102.63541,101.85402,102.82725,158.13367,0.7,-103.8106,-2474.3245,0.0049334546,-14.275575,-4.665445,-4.8388653,-5.531638,-5.092734,8.5077335e-07,0.3,1.0465127,56.496956,56.56322,56.113747,56.12892,1.4605718,0.4890625,5.132495164871216,54.55715801318487
79,790000,82.24588846142224,-54.472366,0.0,-287.74976,5.2379932,10.817163,9781.922,200.76808,21.546177,97.51923,95.94148,97.67678,98.17153,123.4181,0.7,-100.20234,-2760.927,0.0067343377,-20.35294,-10.638399,-10.870147,-10.612289,-11.11957,1.0836231e-05,0.3,0.016917259,53.014137,52.623455,53.1427,53.30735,1.5504191,0.4375,7.332363128662109,55.25996230045954
80,800000,59.128409340949396,-53.191444,0.0,-345.31604,5.650874,11.336788,5954.1597,202.75027,25.44134,97.419106,98.21085,98.13261,98.11182,27.012436,0.7,-99.042114,-2759.481,0.0048143077,-17.296574,-7.740562,-6.580324,-6.5850296,-8.292187,1.3956498e-05,0.3,0.55845153,52.39336,52.05834,52.20388,52.27984,0.86998415,0.4296875,5.536993026733398,55.944062463442485
81,810000,53.45114897500447,-58.473732,0.0,-397.03787,3.610257,7.5814047,11597.172,73.284645,19.529486,99.683945,97.55473,98.59344,98.401,6.480721,0.7,-100.160385,-3103.2205,0.0023729852,-17.071898,-10.205997,-10.199743,-9.14854,-8.84681,8.362066e-06,0.3,0.8618661,57.34575,57.246746,57.635513,57.520294,0.42837796,0.4375,4.918335199356079,56.61432332992554
82,820000,59.13281036109462,-57.672993,0.0,-394.58417,3.496261,6.183845,8989.97,68.15169,16.783443,100.70316,100.52698,101.624466,102.04533,24.765406,0.7,-102.903824,-2884.2158,0.0057427147,-23.604555,-7.1524916,-6.8338423,-7.139491,-6.1038027,5.9352433e-06,0.3,0.8531996,56.3649,56.388317,56.38582,56.773422,0.7548982,0.3953125,5.475991487503052,57.2936763604482
83,830000,78.2633284354676,-56.149216,0.0,-124.437454,4.187869,6.146265,14120.33,83.32946,18.583158,101.46296,101.90656,102.23048,101.00258,10.969464,0.7,-102.26265,-3710.4011,0.008340033,-15.216432,-7.073514,-5.9984007,-7.122733,-8.557869,2.5749207e-06,0.3,0.7642593,54.511086,54.55117,54.564117,54.554905,0.6129323,0.44375,6.943075180053711,58.002780958016714
84,840000,69.24560463272486,-55.71061,0.0,-284.2563,4.918243,10.065569,11898.951,93.64791,25.98304,100.318695,100.96673,100.90945,100.79108,30.203363,0.7,-102.972725,-3508.176,0.0021383048,-20.083353,-7.6516075,-6.054834,-7.327804,-6.7343397,8.6852816e-07,0.3,0.731785,54.225136,54.204014,53.95849,54.50663,0.85638404,0.41875,6.130632638931274,58.689618202050525
85,850000,68.48353241616111,-55.17525,0.0,-491.34097,4.8933697,11.348545,4096.474,84.45842,21.613918,99.618,100.01778,100.14934,101.21248,11.799497,0.7,-103.27252,-2711.3096,0.0012466812,-14.885428,-9.8130455,-10.416955,-6.946245,-8.916914,5.4580855e-06,0.3,0.30633628,54.300205,54.440704,54.27004,54.28292,0.7272042,0.4265625,6.061269283294678,59.38091125090917
86,860000,53.94510891480974,-57.27706,0.0,-400.45953,3.136632,7.4953184,12614.858,92.059494,20.122343,100.67144,99.99677,99.77973,100.26206,6.753211,0.7,-103.28833,-3176.139,0.0032455854,-14.951289,-10.634513,-12.636023,-12.735033,-13.062201,3.1393022e-06,0.3,0.51309085,56.21466,56.19512,55.87722,55.851837,0.5403073,0.4875,5.069758892059326,60.05502961476644
87,870000,78.84174666784223,-58.30603,0.0,-484.4154,4.4104037,6.9128633,5942.243,216.3175,19.036827,101.55929,103.171234,101.83094,101.94336,40.12992,0.7,-103.79371,-3396.9292,0.0019481715,-13.348406,-2.145215,-2.6987157,-4.4476466,-4.6676674,4.785858e-05,0.3,0.70068777,57.27045,57.085808,56.99937,57.207787,0.85067815,0.4234375,6.99946403503418,60.76333153645198
88,880000,63.966678600147986,-57.187096,0.0,-459.32272,4.1130977,5.9504633,7061.1074,83.81737,12.979683,99.26195,99.22917,99.08276,98.68322,9.573762,0.7,-100.963936,-3186.5593,0.0014476124,-18.401472,-6.7931414,-4.002863,-9.083355,-5.0578475,4.600016e-06,0.3,0.0892089,56.019726,55.960487,55.445778,55.47953,0.60537255,0.5015625,5.792689800262451,61.45083484649658
89,890000,70.58621083785613,-55.052376,0.0,-170.17725,3.8533125,8.990522,8167.562,42.575855,21.43879,102.14623,101.990005,102.77537,103.17598,15.750338,0.7,-102.20639,-3011.078,0.00813618,-19.39262,-8.117764,-7.8248434,-8.23421,-6.906179,7.332489e-06,0.3,0.28234285,53.713356,53.788734,53.961735,53.754704,0.6758959,0.4515625,6.559966087341309,62.15150482257207
90,900000,67.67873280388332,-54.95228,0.0,-253.67436,4.69205,8.463281,14574.074,59.01488,16.202564,99.82132,99.78397,99.688034,99.38515,14.74218,0.7,-100.28312,-3479.325,6.178592e-05,-16.744905,-4.1810017,-3.0779457,-4.085644,-4.6888204,1.1259847e-05,0.3,0.5579,53.723934,53.75386,54.085476,53.89039,0.76368773,0.47812498,6.100293397903442,62.83659574190776
91,910000,76.71129181677136,-55.093124,0.0,-303.98322,3.9092803,10.055292,17897.33,53.036736,16.408337,99.160736,99.631386,101.62929,99.328064,11.230825,0.7,-101.84418,-3944.1533,0.0058810757,-16.680492,-10.721163,-10.454247,-9.094746,-11.549716,1.2572022e-05,0.3,0.7381417,53.65532,53.75939,53.806725,53.799538,0.6984062,0.4484375,7.016192197799683,63.54321192105611
92,920000,68.79837978613216,-56.305992,0.0,-343.6961,3.8451214,12.972605,8074.655,63.02055,21.186508,103.25566,103.15541,102.667404,102.354095,11.074527,0.7,-105.14936,-3768.0767,0.0012198552,-13.80081,-7.5122056,-5.9078054,-8.130158,-6.1405163,2.4457404e-06,0.3,1.0460614,54.84279,54.848118,55.122124,55.14085,0.64394414,0.43281248,6.327468156814575,64.23566195567449
93,930000,67.6047766659461,-55.25743,0.0,-352.56335,4.255001,4.0744114,6722.451,44.04778,18.840755,101.59131,101.484505,101.55048,103.07461,16.780735,0.7,-103.6805,-3262.6677,0.0033339965,-13.904211,-5.4908113,-6.3542295,-6.204035,-5.89395,1.4761853e-06,0.3,0.5112707,53.84177,53.86259,54.01995,53.962173,0.71015376,0.44375,6.3941123485565186,64.92815561294556
94,940000,80.74406379004643,-54.362576,0.0,-455.6978,5.3817196,10.013263,4810.868,131.26704,17.715668,97.872795,96.98244,98.05018,97.33969,10.0933695,0.7,-100.72888,-2926.6318,0.010236162,-16.875061,-5.151389,-4.711617,-8.195241,-6.265077,2.1748525e-05,0.3,0.20384327,52.98833,53.220642,53.07721,53.13595,0.6825515,0.43124998,7.449272155761719,65.63900681734086
95,950000,67.73331554553121,-53.9006,0.0,-429.24994,5.586343,14.676668,7907.113,130.10358,16.354557,98.26253,97.771194,99.740616,98.91852,21.500822,0.7,-100.044685,-3823.752,0.014021749,-17.042091,-15.949691,-15.564097,-16.000992,-14.735423,5.482696e-07,0.3,0.4668373,52.669975,52.849304,53.57927,53.1436,0.7410203,0.4265625,6.452915668487549,66.33599530061086
96,955000,62.140091346690376,-54.169373,0.0,-512.671,3.591,7.892307,6179.6704,43.9278,12.489583,101.84693,102.047874,101.929855,102.00803,46.53678,0.7,-102.872185,-3058.7742,0.02080488,-14.688834,-6.011956,-5.434653,-7.1046205,-7.3692284,1.3201498e-08,0.3,0.42375013,53.27328,53.204605,52.89067,53.02074,0.7480911,0.4796875,5.993967533111572,66.72842751344045
97,960000,77.5683573264075,-55.762306,0.0,-408.67752,4.6379004,6.7239027,7560.1523,92.30472,17.360048,98.4023,99.80422,99.27892,98.81261,13.802974,0.7,-99.91212,-3506.052,0.001247663,-18.213806,-8.220527,-7.427088,-7.2625904,-6.8762846,2.0080945e-06,0.3,0.5608862,54.464462,54.49532,55.0037,54.836708,0.68119735,0.4125,7.25390100479126,67.1424002011617
98,965000,72.93298309086289,-54.5297,0.0,-286.60474,4.315711,3.4528723,14063.943,68.475914,19.056046,98.402626,98.38391,98.5485,98.74721,21.350994,0.7,-99.503136,-3160.2227,0.0021759463,-21.978931,-5.1225224,-5.725401,-4.59947,-3.861932,1.168415e-05,0.3,0.31756902,53.008907,52.95907,53.0493,53.041233,0.82816476,0.46249998,6.911370277404785,67.5527748743693
99,970000,68.3399272718295,-55.245766,0.0,-347.87073,5.062519,9.607887,8829.675,73.03963,29.162766,101.85205,102.17329,103.68954,102.88632,12.484645,0.7,-103.76,-3752.666,0.0031085524,-15.73064,-2.8789115,-3.8292851,-3.4127455,-4.0569763,0.00012495366,0.3,0.8155254,53.8316,53.597267,54.319557,53.912807,0.6403297,0.4484375,6.481945991516113,67.95220204989116
100,975000,85.32514193858057,-54.239166,0.0,-504.04346,3.917943,16.036415,6937.107,86.0466,16.63544,99.48338,99.91725,99.58933,99.12287,16.357168,0.7,-101.85988,-3242.366,0.00810357,-22.836308,-6.7944984,-6.701957,-5.864742,-4.799732,2.0576006e-05,0.3,0.48863673,52.98558,53.12018,53.326775,53.175285,0.59787834,0.4765625,7.4014952182769775,68.3697561820348
101,980000,67.07971434539142,-55.71866,0.0,-499.81592,3.8406892,3.58956,8660.519,56.72136,16.382084,102.713104,103.47876,102.99287,103.58183,12.804673,0.7,-103.49184,-4176.4897,0.009780604,-15.97555,-5.0316553,-3.642232,-5.53101,-5.4572687,2.062734e-06,0.3,0.6564938,54.49575,54.433178,54.293694,54.383038,0.594231,0.47031248,6.080201148986816,68.76340814034144
102,985000,75.48982775580792,-52.831196,0.0,-428.2791,3.7502735,4.1598983,11098.749,79.0583,22.492817,97.52012,96.65857,98.117714,97.639885,24.542185,0.7,-97.82632,-2781.3308,0.0011956445,-18.71168,-5.5825896,-5.8826365,-6.0943027,-7.1348476,2.07845e-06,0.3,0.24421561,51.73654,51.55517,52.01542,51.81328,0.74128985,0.47187498,6.693788528442383,69.17249986330668
103,990000,71.76499924314136,-58.162987,0.0,-545.56946,3.5301127,11.512703,4435.0464,41.062073,22.671638,100.46508,99.47261,98.88554,99.3324,10.761391,0.7,-102.30747,-3717.1882,0.00031870813,-17.749268,-5.398148,-5.593203,-5.87917,-2.6038837,1.6094917e-05,0.3,0.32943916,57.16915,57.159023,56.960003,57.084892,0.6368605,0.44062498,6.313735723495483,69.57115669647852
104,995000,76.8307422070661,-53.668945,0.0,-406.4638,4.777284,5.7418513,8688.0,158.71219,14.464436,96.408646,96.92077,96.69425,96.71778,27.854603,0.7,-98.49748,-3808.9705,0.0034226468,-12.515157,-8.631034,-7.821603,-9.216557,-7.1312566,3.677269e-07,0.3,0.7146991,52.43724,52.200375,52.138718,52.006847,0.8915605,0.48593748,6.806153059005737,69.97886903683344
105,1000000,79.4076288545017,-56.620266,0.0,-236.09235,4.158259,6.778971,9642.234,74.61575,28.111353,95.69057,96.111534,95.66163,96.07686,18.02279,0.7,-99.46609,-3519.3132,0.0006466506,-14.635235,-4.8859673,-4.1702785,-6.2324276,-5.958093,1.6350998e-06,0.3,1.1904616,55.474663,55.35261,55.57278,55.55607,0.66399443,0.42343748,7.0909247398376465,70.39266972541809
