Xixo99/comfo/baselines/comfo6_perterbation_actor/20230225_noise0.01/walker2d-medium-replay-v2/COMFO6_s2_20230225_041022_walker2d-medium-replay-v2_85.11.csv
,step,reward,actor_loss,alpha,alpha_loss,critic_loss,max_actor_loss,max_alpha_loss,max_critic_loss,max_mle_prob,max_q1,max_q2,max_target_q,max_v,max_value_loss,max_weight,min_actor_loss,min_alpha_loss,min_critic_loss,min_mle_prob,min_q1,min_q2,min_target_q,min_v,min_value_loss,min_weight,mle_prob,q1,q2,target_q,v,value_loss,weight,eval_time,time
0,0,3.3335102181153293,,,,,,,,,,,,,,,,,,,,,,,,,,,,,,,,,
1,10000,13.182051364768792,-24.100313,0.058798026,-14.483977,3.238544,4.4811945,28.892263,108.66554,21.350195,45.079895,44.966557,45.501118,44.94066,1.9047734,0.7,-46.951904,-37.669994,0.00031616984,-7.941786,-6.3164463,-4.324808,-2.1728203,-6.1976438,3.929017e-09,0.3,1.2303072,23.73426,23.659111,23.8353,23.54387,0.08872804,0.4328125,2.852447271347046,1.965894893805186
2,20000,4.0441212519127925,-37.492416,0.003573284,-14.423075,3.8153346,9.890356,126.58263,133.56516,23.483078,75.64968,75.391304,77.40854,75.75546,4.1411786,0.7,-77.1027,-74.88209,0.0010391729,-10.126152,-8.308774,-9.224651,-10.189404,-7.6227837,1.2029778e-07,0.3,1.5864968,36.649536,36.634594,36.856956,36.71264,0.2027032,0.43281248,1.2026522159576416,2.571475704511007
3,30000,10.27628432316464,-45.435658,0.00019340558,-20.295568,6.074498,7.0339284,161.31706,253.6973,19.206741,86.90271,87.74863,86.65597,86.595505,8.668045,0.7,-90.82705,-97.3909,0.0005191157,-11.9063835,-6.597528,-8.371925,-4.4529815,-9.084089,7.04579e-07,0.3,0.32285744,44.553886,44.606915,44.181854,44.06007,0.40800196,0.4328125,1.8685665130615234,3.184390397866567
4,40000,15.660419366553446,-50.11949,1.0367949e-05,-27.623951,4.9666367,0.9107448,127.0873,205.4495,13.995939,96.512794,96.11257,95.783264,96.87884,4.581799,0.7,-97.56627,-156.29346,0.0075353873,-13.953911,-3.0467174,-3.1313124,-5.5588555,-3.449241,9.277763e-07,0.3,0.15553942,49.28548,49.370163,48.582077,48.838875,0.39917272,0.45468748,4.629868507385254,3.842822015285492
5,50000,26.810446934004673,-55.61242,5.6041057e-07,-30.320803,7.170188,0.5398922,317.46896,640.5922,28.561043,96.82918,97.1072,96.93531,97.11521,6.4516664,0.7,-100.9823,-188.30466,0.002962171,-13.204859,-1.014967,-0.20334771,-0.01384069,0.5923386,8.362066e-06,0.3,0.64150673,54.652092,54.690742,54.49615,54.493256,0.37112954,0.4578125,3.429359197616577,4.48508821328481
6,60000,29.827876455276915,-54.733414,2.9808675e-08,-22.608685,8.251722,8.80128,304.8013,473.88034,19.344845,97.4622,98.04367,98.41319,98.09449,8.6582155,0.7,-99.69587,-225.57823,0.008039536,-17.02698,-8.403798,-5.610981,-8.094272,-7.5192113,1.0288459e-05,0.3,0.28001198,53.592495,53.728935,54.22119,54.2284,0.39050096,0.434375,4.108599424362183,5.136965755621592
7,70000,13.796370297559843,-55.823532,1.5681716e-09,-30.708412,4.790825,6.465874,657.29486,145.52863,23.15135,96.7973,97.280495,95.50111,95.87555,20.561886,0.7,-98.7901,-233.3012,0.0014015669,-19.495497,-6.9770665,-6.2770443,-8.338157,-5.5134277,1.7214916e-05,0.3,0.6195295,54.68486,54.82456,54.897354,54.73245,0.6612154,0.5359375,2.2977712154388428,5.759548036257426
8,80000,61.584638770779634,-59.327663,8.379785e-11,-50.696293,4.5281525,2.121409,655.7075,102.72136,16.711233,102.89725,102.220245,102.80794,101.84247,22.069633,0.7,-104.63132,-338.11932,0.0011956003,-12.913845,-3.3534367,-2.91339,-3.0403352,-0.16957143,3.3113847e-05,0.3,0.22914326,58.473602,58.49254,57.91094,58.2023,0.71206605,0.4109375,6.3368239402771,6.455219654242198
9,90000,50.41534372625094,-56.51709,4.5518294e-12,-21.539076,9.677843,7.642764,892.01953,536.5232,16.51928,105.52668,107.33149,107.05343,105.40608,16.813053,0.7,-109.4613,-367.60562,0.0024515307,-13.829292,-7.675264,-7.5358305,-9.203073,-6.9170494,9.97464e-07,0.3,0.5358321,55.23678,55.320053,55.166115,55.383865,0.5540484,0.45625,5.2501208782196045,7.133023901780446
10,100000,71.20962674906637,-56.012737,2.4267616e-13,-48.617844,8.174635,8.300331,731.1162,236.28859,16.094994,106.11799,106.19242,106.585625,106.66314,11.274744,0.7,-107.34352,-360.5575,0.0037596864,-17.23051,-9.218544,-6.3714914,-11.96347,-7.4956026,1.9862007e-05,0.3,-0.14931732,54.78592,54.83615,55.561813,55.635506,0.5732119,0.4375,7.262588262557983,7.8419999519983925
11,110000,46.067437990682976,-58.162575,1.2986539e-14,-43.311455,4.324234,-1.2295572,1197.7263,93.23833,19.87722,107.6796,107.57213,106.45364,107.01064,20.049055,0.7,-110.7514,-367.93463,3.9297738e-05,-18.328793,0.7361685,-0.49026573,1.6145371,0.8926672,1.23360705e-05,0.3,0.60686797,57.229805,57.04415,57.128067,57.131733,0.65748155,0.425,4.4962217807769775,8.509207697709401
12,120000,24.957996812691654,-60.348373,6.9784096e-16,-65.713745,3.359284,6.6201243,517.60736,91.83238,14.4951515,110.895584,112.021385,110.962746,111.033455,27.34287,0.7,-112.58043,-392.25513,0.0033517496,-10.768305,-7.528693,-9.431117,-8.138042,-11.609998,2.1636488e-06,0.3,1.0724118,59.3487,59.348476,59.237423,59.313873,0.52963954,0.41562498,2.8683764934539795,9.139648906389873
13,130000,72.18418067925406,-52.982136,3.757666e-17,-86.377014,4.543638,12.312492,1113.507,69.13547,22.693623,104.51808,104.73927,104.47275,105.32431,50.27948,0.7,-105.19225,-527.8018,0.0032181682,-13.670281,-15.256816,-14.817385,-13.87509,-14.305915,8.451753e-09,0.3,-0.38458818,52.14723,51.97683,52.386677,52.505875,1.0542957,0.3796875,6.847082138061523,9.834054160118104
14,140000,55.79181763128987,-59.21542,2.0561652e-18,-30.64809,4.161049,11.044391,1337.5359,101.27018,16.754814,106.82217,107.3315,106.10177,105.67372,17.933556,0.7,-110.72796,-485.78638,0.010078564,-13.800075,-11.994584,-12.13187,-12.266021,-10.98652,2.3497269e-07,0.3,1.0411656,57.722187,57.7455,57.486137,57.675266,0.91453826,0.49374998,5.4565300941467285,10.515769024689993
15,150000,68.12101626384592,-57.238014,1.1307927e-19,-39.820015,6.1684966,10.998971,1652.4894,152.08221,24.190065,101.47678,100.52752,101.33407,101.283516,25.465368,0.7,-102.29321,-633.90936,0.0005360664,-15.126974,-11.6549425,-10.538633,-12.970945,-12.459227,4.0233135e-06,0.3,1.1281028,55.903404,55.8397,56.049435,56.08361,0.94443107,0.434375,6.56609320640564,11.212935825188955
16,160000,78.49086101854948,-56.621372,6.205976e-21,-65.50854,5.03236,4.0501537,1215.5916,128.89603,19.05693,104.74846,104.36993,104.295876,104.04503,16.114048,0.7,-105.11858,-692.8231,0.004834259,-13.517672,-6.7577443,-5.728792,-10.066252,-5.863177,1.3801432e-05,0.3,0.6221815,55.544018,55.358105,55.381214,55.281013,0.72797036,0.44374996,7.4167304039001465,11.924389970302581
17,170000,39.29176643515288,-55.053238,3.4559365e-22,-76.09665,5.2879314,13.093552,977.21844,151.09674,21.633509,105.51926,105.308945,104.96997,103.85854,68.4944,0.7,-107.157265,-660.47034,0.0032531016,-18.119768,-11.662738,-13.095135,-12.985324,-13.946586,5.9454283e-06,0.3,0.027951889,54.06039,54.01829,54.3535,53.960236,1.0905988,0.48593748,4.094865322113037,12.585102574030559
18,180000,48.207290996697004,-55.892006,1.9148492e-23,-76.6336,6.844721,3.3744361,1693.2356,171.51926,14.532988,103.15666,103.02352,103.18097,103.454056,41.49791,0.7,-103.85653,-726.5586,0.004443149,-16.210232,-6.7124963,-5.038447,-3.0474775,-5.601346,1.6741495e-05,0.3,0.2766401,54.79757,54.73291,55.03508,55.188652,0.6732763,0.41875,5.106964349746704,13.259325357278188
19,190000,63.488659522990865,-54.260845,1.0567498e-24,-79.47976,5.376484,15.983078,1232.8685,85.92279,27.072012,102.911865,102.26959,102.79498,102.61466,37.627457,0.7,-105.05391,-855.2649,0.0050143,-19.65707,-14.9287195,-14.855621,-15.712931,-13.127123,3.1124404e-05,0.3,0.5795483,53.15565,53.00654,52.91542,52.990868,0.7882251,0.4359375,6.246217489242554,13.953880933920543
20,200000,60.03040631082064,-55.275192,5.960274e-26,-89.64725,5.769021,4.6030684,1978.4404,115.94343,16.647648,106.23755,106.31956,105.10879,105.3716,11.725811,0.7,-109.79915,-810.45447,0.0032909478,-14.905682,-7.451907,-5.8129134,-7.013513,-6.123444,9.369506e-08,0.3,0.36852878,54.133877,54.04328,53.618,53.924004,0.5232314,0.40468746,6.119915962219238,14.645892095565795
21,210000,62.65680281156796,-56.619873,3.3315557e-27,-88.28108,4.7754893,10.40372,1830.6852,136.51212,22.09327,104.033936,103.708145,103.27782,102.64328,8.307874,0.7,-104.29717,-748.38086,0.0063675665,-22.937868,-11.018263,-6.989607,-7.166589,-7.3525,1.05978685e-07,0.3,0.8922077,55.54004,55.454388,55.471813,55.383682,0.52719283,0.44687498,6.154060363769531,15.335777668158213
22,220000,57.24608239545132,-60.767387,1.896062e-28,-67.84495,4.2015676,14.516022,3987.9272,163.44673,15.395859,105.658195,103.78271,103.778244,105.871864,13.041309,0.7,-108.852394,-863.04175,0.008435404,-13.473893,-14.13691,-13.4070215,-10.158778,-13.574451,2.9511284e-07,0.3,0.89883655,59.469593,59.51857,59.216064,59.24597,0.5656761,0.46406248,5.815819978713989,16.024983656406402
23,230000,48.26507056331735,-56.564144,1.0596858e-29,-86.71785,6.276388,10.003057,1356.978,181.79855,17.626726,105.16792,104.49198,106.67521,105.76455,26.50276,0.7,-106.78173,-962.06573,0.0074117426,-13.446014,-8.243994,-11.114117,-10.936316,-10.670691,9.5365285e-06,0.3,0.9299461,55.256863,55.324543,56.06677,56.05771,0.72012246,0.4125,5.049999237060547,16.70347652435303
24,240000,50.9824873050504,-55.772873,5.954259e-31,-91.75575,6.245159,10.288229,3335.4526,86.77059,16.206512,106.34707,105.25908,107.58342,108.52966,17.819614,0.7,-108.03185,-866.0501,0.04818075,-12.287315,-10.114427,-8.754744,-12.020482,-12.600152,9.855312e-06,0.3,0.44498497,54.51253,54.305107,54.53344,54.735447,0.8034177,0.41718748,5.34180474281311,17.38397684494654
25,250000,44.5209850134206,-58.244514,3.3276353e-32,-105.86638,5.9351325,-2.697469,2116.2014,81.833855,33.093304,102.52877,101.9781,100.95636,101.96635,10.52271,0.7,-105.71094,-907.418,0.0014585769,-14.979702,0.6677048,-0.37665325,0.72430795,1.6898773,1.4595081e-05,0.3,0.9446939,57.179554,57.177223,56.633266,56.74149,0.65629584,0.4953125,4.633971929550171,18.053661501407625
26,260000,64.64388425581193,-59.893543,1.8703752e-33,-55.4008,5.6713004,13.848128,5202.3706,193.38428,23.247358,104.23277,104.07433,103.44218,104.36025,22.672802,0.7,-106.39686,-924.4729,0.020301852,-25.662691,-14.641874,-12.870824,-15.03876,-15.011848,0.00010404752,0.3,1.0289885,58.59583,58.67035,58.3801,58.44216,0.55273336,0.459375,6.2122602462768555,18.750110026200613
27,270000,66.43504952670371,-54.89142,1.0798706e-34,-123.81366,5.292774,9.235989,1553.5568,114.36273,17.391571,97.154274,97.62981,98.266525,99.30183,7.010421,0.7,-98.46246,-912.75214,0.015107658,-13.58502,-7.685676,-7.8081393,-11.101291,-10.229134,8.298783e-07,0.3,0.13606916,53.774147,53.77864,54.212574,54.531464,0.603942,0.428125,6.552739381790161,19.449164843559267
28,280000,64.95472327185273,-56.421112,6.0148085e-36,-79.45747,9.665394,14.46212,2761.5596,1409.6531,23.763195,103.08738,103.43741,105.05037,103.99118,36.005474,0.7,-105.878426,-1002.32074,0.0015006484,-11.654047,-12.28143,-14.141656,-11.229883,-12.472472,1.3920256e-05,0.3,0.7755012,55.197357,55.14354,55.109394,54.910145,0.7092351,0.4875,6.29450249671936,20.13893884817759
29,290000,49.57102863249205,-59.557945,3.440717e-37,-114.31448,4.434713,4.9122195,1506.1958,81.26099,21.585423,101.99873,104.22513,103.94536,104.68359,8.609839,0.7,-107.74106,-1013.49,0.008006556,-15.171097,-3.5169601,-6.1802897,-8.283499,-5.0998535,0.00018139363,0.3,0.29498369,58.3836,58.299515,58.048096,58.146805,0.6108347,0.39218748,5.1616270542144775,20.81402781009674
30,300000,79.22533392744229,-56.608902,1.9502342e-38,-65.04397,4.3560586,8.212296,3023.1663,75.74704,21.99094,98.169785,98.601715,98.85222,98.97529,8.380522,0.7,-100.312325,-1154.5612,0.00064775656,-23.8564,-9.073865,-9.215788,-10.415058,-12.699635,2.377684e-06,0.3,0.90864813,55.17894,55.403206,55.34089,55.356438,0.6299499,0.45468748,7.385375261306763,21.519899117946625
31,310000,85.29152763882902,-56.70607,1.094612e-39,-133.27168,3.1682997,9.360893,2147.004,51.04031,14.549861,100.601204,99.85655,103.012054,99.26995,12.747662,0.7,-101.93033,-1128.9005,0.0004890944,-13.137286,-8.193201,-8.165171,-9.281167,-6.471812,1.5652738e-06,0.3,0.9511454,55.369316,55.45307,55.500786,55.491737,0.659905,0.46249998,7.399801731109619,22.235432557264964
32,320000,52.33117902811627,-57.8429,6.2173e-41,-165.91576,6.355544,6.484196,2801.8418,435.431,16.105854,99.124916,99.54181,98.50167,98.80215,17.850481,0.7,-99.425835,-1096.1277,0.010837693,-17.24021,-4.717553,-7.5862556,-7.950811,-3.660198,1.695109e-07,0.3,0.13935858,56.72596,56.733498,56.36915,56.4546,0.79263854,0.43906248,5.070466756820679,22.91252378622691
33,330000,82.39727533553418,-57.891815,3.509e-42,-142.9995,3.2149196,11.92613,5691.743,78.68246,16.492447,101.41312,101.00557,101.495895,101.28889,22.243694,0.7,-104.03267,-1204.9137,0.0039526476,-15.602546,-11.364322,-10.605808,-10.223612,-11.542571,5.623359e-06,0.3,0.6853405,56.825836,57.033966,57.095352,56.97741,0.49871865,0.45625,7.9313881397247314,23.634250740210216
34,340000,76.30656101096359,-55.241283,2e-43,-128.8825,5.463565,14.055316,6402.5103,311.68643,15.352016,103.56115,103.67162,103.428246,103.25049,18.138212,0.7,-106.82216,-1372.6377,0.0027673268,-19.594841,-9.940764,-10.521205,-8.047337,-8.558085,1.446053e-07,0.3,0.5196424,54.138622,54.12603,54.193985,53.97024,0.7208376,0.46249998,7.2450761795043945,24.344916152954102
35,350000,85.34436925649074,-57.774776,1.1e-44,-93.08437,4.7341204,1.645743,4125.1284,112.13573,16.961113,103.27833,102.34827,101.840546,102.10174,15.676739,0.7,-104.94417,-1125.0461,0.0030538081,-13.697295,-2.0167642,-1.20263,-0.22926041,-1.2438672,1.0913936e-06,0.3,0.83823293,56.437916,56.576965,56.944996,56.77745,0.6535256,0.41875,8.093991041183472,25.073756261666617
36,360000,83.64706336745883,-56.00584,0.0,-124.429535,4.4945097,8.732027,3167.1782,95.83598,14.052979,102.96235,102.997856,104.72615,103.04525,97.110954,0.7,-105.28448,-1378.682,0.0017114113,-30.630905,-6.307715,-10.863938,-9.359095,-7.596441,4.5828057e-07,0.3,-0.09801035,54.73752,54.6081,55.042774,54.836464,1.0130898,0.45,8.05826997756958,25.797089413801828
37,370000,81.33088811655205,-54.462757,0.0,-223.87878,3.9247274,9.362521,2068.6353,39.759346,24.144062,99.63693,100.13124,100.53708,99.9489,13.054314,0.7,-101.74725,-1381.8094,0.002005918,-21.461267,-16.663826,-15.461265,-14.366548,-12.837225,2.1821281e-06,0.3,0.42952055,53.343426,53.430527,53.416378,53.414658,0.73186284,0.49062496,7.779829502105713,26.51413383881251
38,380000,85.2443728999555,-54.82118,0.0,-168.00854,7.6749277,7.0480113,3533.8691,507.961,21.57794,106.117035,104.634,104.76616,103.82598,22.739262,0.7,-107.77433,-1421.4501,0.01530598,-16.588013,-7.4728413,-11.539664,-9.125922,-10.766565,2.0937733e-07,0.3,0.069183394,53.680733,53.733685,52.80307,53.0306,0.75707114,0.525,8.880831003189087,27.248004102706908
39,390000,85.37075671130198,-53.503826,0.0,-150.43771,4.922922,12.40739,2790.2107,265.50397,22.098389,98.29384,97.0054,99.36954,97.51886,40.587585,0.7,-101.27601,-1646.1267,0.0021847428,-16.919464,-13.22464,-14.724259,-13.219241,-14.79892,1.8525752e-05,0.3,0.015007757,52.09169,52.18818,52.248734,52.143677,0.89591265,0.46249998,8.320752382278442,27.969705073038735
40,400000,75.72183078537711,-55.609932,0.0,-210.7629,4.8939505,11.273822,2793.4456,99.26429,23.03056,100.011925,100.461044,100.24135,100.16432,5.099831,0.7,-103.9991,-1319.4677,0.011120761,-14.091812,-9.0379505,-9.969442,-8.462113,-9.732629,9.077601e-07,0.3,0.6608391,54.49201,54.734325,55.132416,54.794647,0.48122782,0.49062502,7.510909557342529,28.674888336658476
41,410000,87.18191289194121,-55.112534,0.0,-211.2925,4.373972,9.630819,3265.276,163.42578,17.854939,99.321526,99.390854,100.39258,100.12427,15.663073,0.7,-100.31858,-1327.0676,0.017874518,-16.584282,-8.536355,-9.633414,-6.951712,-8.042316,1.7088878e-05,0.3,0.57520306,53.98835,54.031227,54.6243,54.460323,0.6134841,0.42343748,8.64112639427185,29.4052076737086
42,420000,74.54701305799834,-60.238426,0.0,-170.48907,5.4212017,5.328386,4052.7825,270.1665,17.086748,104.652824,104.89483,104.109535,104.35045,14.10043,0.7,-107.75109,-1373.7577,0.0029767049,-17.137356,-5.031362,-5.1288233,-2.4373817,-3.5349765,3.940932e-06,0.3,0.8497293,59.05577,58.970222,59.21736,59.051346,0.72072303,0.4375,7.295048475265503,30.10663920243581
43,430000,79.18486425732141,-54.13186,0.0,-241.39415,4.485088,10.484683,3150.0645,129.00238,15.894682,101.74056,100.65117,100.388466,99.94974,33.520164,0.7,-103.62764,-1410.4205,0.003917341,-20.968388,-6.340404,-5.1760936,-8.619745,-6.77213,3.3500373e-06,0.3,0.38408145,53.03111,52.90707,53.003136,52.949306,0.84805304,0.45,7.726980447769165,30.820056255658468
44,440000,54.13724027307183,-57.55334,0.0,-103.25009,4.1125937,8.441777,15707.078,85.73689,26.477139,101.62798,100.43261,101.37457,100.84902,21.430727,0.7,-104.562515,-1565.0768,0.0056759343,-16.779507,-4.2908907,-5.4249225,-3.6038568,-5.6983013,8.660478e-05,0.3,0.69480944,56.12169,56.112705,55.69663,55.884766,0.83948535,0.475,5.560256719589233,31.49675319194794
45,450000,85.16499852310336,-55.74536,0.0,-134.08185,4.534565,11.117962,4653.9336,110.51924,17.644753,101.13687,100.86895,102.52792,102.55303,42.684013,0.7,-101.53966,-1491.4597,0.0045529376,-18.702648,-11.523099,-10.034856,-12.221517,-8.863181,1.8887222e-07,0.3,0.08434689,54.28704,54.346752,54.396854,54.818066,1.1059859,0.42812496,8.306451320648193,32.21921350955963
46,460000,63.91662627217255,-55.91307,0.0,-168.22815,4.1876125,8.701221,4248.0166,91.401215,25.090754,98.061,98.029945,97.804504,97.73184,19.828245,0.7,-101.610016,-1570.9117,0.0019320014,-18.135475,-10.08818,-9.348585,-9.359644,-9.497621,4.3655747e-12,0.3,0.6743407,54.409855,54.563416,54.63235,54.582703,0.77641714,0.484375,6.50431227684021,32.90879880189895
47,470000,71.11077662170786,-56.91001,0.0,-97.991425,4.4204454,10.853962,9075.2705,102.07512,13.645641,103.705414,103.62289,103.58248,104.12555,6.069787,0.7,-102.98422,-1999.839,0.00017016006,-24.197155,-8.808403,-6.8819685,-9.010469,-7.9233675,1.925855e-05,0.3,0.10044852,55.386658,55.384995,55.73086,55.788567,0.60086954,0.42343748,6.916064262390137,33.608704042434695
48,480000,81.60904943690196,-53.918194,0.0,-137.13437,4.4547896,7.19308,7556.7715,72.973465,17.162804,100.66143,102.10151,101.066124,101.766304,15.3562975,0.7,-102.4055,-1681.1053,0.004957558,-14.673972,-9.997427,-8.573877,-10.600847,-9.799375,4.3830546e-06,0.3,0.61754537,52.673325,52.826904,52.5319,52.7642,0.7658135,0.46249998,7.5291852951049805,34.32429694334666
49,490000,87.9454801366369,-56.85275,0.0,-67.1242,3.543323,9.969147,8475.132,53.9345,19.295715,98.86684,97.51729,97.888855,97.56812,8.276993,0.7,-100.05784,-1856.5255,0.0033800378,-12.43204,-10.625825,-9.203271,-11.824819,-10.738493,3.465527e-05,0.3,0.99485886,55.55742,55.425964,55.275692,55.353905,0.5852637,0.4484375,8.106501817703247,35.04211786588033
50,500000,81.79191862670999,-59.097298,0.0,-144.39148,4.290702,12.396719,2780.5134,90.359985,15.193123,103.20405,102.00023,101.47716,101.6323,13.313369,0.7,-104.07631,-1757.6583,0.006199007,-14.973272,-10.357159,-11.184287,-9.392692,-10.469602,5.019869e-06,0.3,0.5838727,57.880936,57.778397,57.86841,57.985516,0.71091235,0.4515625,7.631230354309082,35.75529903570811
51,510000,90.5968330601239,-54.239674,0.0,-80.09611,4.883461,8.003153,9520.659,124.492096,18.612783,103.939415,103.84401,104.606575,102.194855,19.717825,0.7,-104.725845,-1882.7328,0.0021562225,-14.888793,-7.83394,-9.15318,-8.816618,-6.8268757,1.0299683e-05,0.3,0.36585146,52.820545,52.79844,52.80078,52.836823,0.8738789,0.453125,8.336445569992065,36.48644789854686
52,520000,79.47859680884731,-58.45509,0.0,-112.52814,4.158017,8.09033,4517.028,51.79081,18.785254,102.97293,103.2683,103.49947,104.116486,17.852493,0.7,-105.08269,-1713.8673,0.0016346903,-16.986822,-7.3744855,-6.557521,-10.988888,-6.1203327,8.644929e-05,0.3,1.200453,57.016365,57.263996,57.26293,57.28058,0.65882754,0.4203125,7.739023447036743,37.200363671779634
53,530000,85.90610891148735,-57.354282,0.0,-242.82864,6.3262453,16.68778,4047.9207,277.87225,15.056134,101.17169,101.38743,102.347565,103.336555,28.82949,0.7,-103.12036,-2390.1897,0.0023202882,-15.598953,-13.383357,-13.373387,-12.246875,-12.449385,2.0080945e-06,0.3,0.79019517,55.924465,56.084602,56.78701,56.492233,1.028622,0.40781248,6.8868327140808105,37.90461384852727
54,540000,89.03017326967311,-56.656578,0.0,-191.485,7.3491154,8.3014,8238.047,474.6958,19.23785,102.57218,102.75995,103.17833,101.02609,11.748036,0.7,-103.65694,-2430.7104,0.005510784,-13.034983,-7.390903,-8.342726,-7.2064204,-8.543201,1.6511696e-06,0.3,0.63184196,55.64324,55.51757,54.904854,55.049545,0.71521646,0.5359375,8.188095092773438,38.630129063129424
55,550000,43.63090693351591,-56.966793,0.0,-287.6148,4.536811,8.537026,4325.327,114.52446,15.059307,97.763435,98.11605,99.427124,98.514824,14.397496,0.7,-99.636765,-1965.85,0.02934403,-11.935749,-6.9138284,-6.709771,-7.7518735,-7.4722548,5.167723e-06,0.3,0.85018873,56.00868,56.026154,56.365196,56.529457,0.5992564,0.4421875,4.391138076782227,39.29214007854462
56,560000,70.84288775555693,-55.84278,0.0,-180.73758,4.4994907,6.7761936,4569.262,114.53558,18.838627,102.76669,103.739975,106.72725,100.896645,38.83625,0.7,-104.8225,-1951.8322,0.009267675,-19.71905,-4.3490705,-5.6009107,-5.611171,-5.735658,6.3074e-06,0.3,0.4036796,54.36503,54.587994,54.23135,54.19425,0.91085535,0.46875,6.454190254211426,39.97123745282491
57,570000,77.44944390827675,-53.533195,0.0,-171.06615,4.2313457,9.250138,5393.4043,110.59821,17.007576,97.387375,97.911,98.11661,98.751434,65.523285,0.7,-99.91307,-2216.4187,0.0015568056,-22.85862,-9.866849,-9.981351,-12.429207,-6.6973567,2.7969247e-06,0.3,0.50466144,52.402367,52.328953,52.389988,52.363342,1.0806618,0.4140625,7.295129776000977,40.663398702939354
58,580000,67.45494388060604,-54.056942,0.0,-353.33215,3.7120018,8.744754,4998.7583,85.195244,28.579863,101.92527,101.314026,101.87149,101.63736,15.440974,0.7,-102.423195,-2240.327,0.004373101,-15.271397,-10.382374,-8.357771,-8.917975,-8.837963,3.176871e-05,0.3,0.36508033,52.862835,52.87555,52.57512,52.356567,0.70781267,0.4625,6.276037216186523,41.343550165494285
59,590000,91.54384010132169,-56.132244,0.0,-263.52716,3.66041,9.894723,6145.308,48.972183,15.443539,100.44919,100.73647,101.16282,100.20792,6.979755,0.7,-101.862366,-2127.532,0.007848897,-23.473549,-9.718687,-10.337376,-10.08438,-11.257532,9.643554e-09,0.3,0.47460985,55.256504,55.09839,55.167313,55.036488,0.51219535,0.440625,8.153032779693604,42.07199018398921
60,600000,72.23631989779531,-57.091385,0.0,-137.0542,4.3919125,4.8115096,6078.6973,56.162365,19.3662,101.212494,100.08687,98.82177,100.858116,36.374382,0.7,-101.61978,-2217.0117,0.0017379859,-16.161654,-6.0330954,-4.167021,-2.7301362,-8.131968,2.5874936e-06,0.3,0.649968,55.277496,55.351795,55.013515,55.273083,0.9518145,0.440625,6.706111192703247,42.77469700574875
61,610000,83.63578533140144,-58.091076,0.0,-219.75854,4.102499,6.0149574,7379.7334,131.32787,19.974178,100.35323,98.07378,98.115875,98.07145,18.69375,0.7,-100.91945,-2501.789,0.0037850433,-13.275127,-6.3059773,-4.2578936,-4.8623443,-6.8339596,4.0745363e-09,0.3,0.85049427,56.843906,56.766735,56.398857,56.297737,0.7562182,0.47187498,7.885567665100098,43.49397968848546
62,620000,82.79301463051893,-55.23427,0.0,-312.58386,4.07833,12.134164,5645.4536,202.67882,13.001982,99.47278,100.57319,98.540596,99.59195,29.840282,0.7,-100.6992,-2290.3137,5.0887305e-05,-21.514742,-10.232745,-12.900059,-12.886003,-12.262976,1.4238915e-05,0.3,0.12203504,54.291553,54.15982,54.09037,54.161385,0.79042625,0.4140625,7.6016504764556885,44.209949763615924
63,630000,78.58938537837325,-54.176277,0.0,-184.45668,5.5112133,11.5136,15027.549,174.18619,21.22671,101.87962,101.981316,102.77467,102.02725,38.606174,0.7,-105.99408,-2178.5894,0.014602148,-15.362362,-12.948322,-8.53601,-9.341987,-9.354115,4.2224275e-07,0.3,0.073707566,52.885277,52.762363,52.823124,52.89926,0.89642215,0.453125,7.125867128372192,44.91973626216252
64,640000,56.085896683530855,-56.536827,0.0,-224.76393,2.763256,9.898375,9976.42,39.932938,17.470936,102.810646,102.41838,103.07158,102.27382,7.1722083,0.7,-103.40826,-2116.9712,0.0024786089,-11.152109,-7.237872,-6.9539423,-7.518165,-9.997636,3.833731e-07,0.3,0.8533441,55.45743,55.45381,55.528976,55.500587,0.57763696,0.48593748,5.366384506225586,45.595171483357746
65,650000,84.30270176197094,-55.90957,0.0,-83.846,4.3768945,4.2222652,13477.977,86.39564,16.613428,98.662025,99.0476,98.97608,98.88822,9.057379,0.7,-102.337135,-2267.7705,0.0005047513,-17.959583,-3.2674117,-2.7352052,-4.9474926,-6.026085,2.0664186e-06,0.3,1.1760433,54.40245,54.375183,54.212646,53.834335,0.5789707,0.5125,7.61369514465332,46.31246671676636
66,660000,81.19562380451538,-53.819748,0.0,-177.54044,5.409045,11.71604,7786.9463,112.27871,18.58682,103.55185,102.62403,101.281494,103.123436,24.439638,0.7,-104.74615,-2376.9775,0.0010388012,-19.496765,-8.724925,-8.923992,-9.83872,-9.55498,1.2029778e-07,0.3,0.22343594,52.3449,52.127823,51.722584,51.994453,0.7958461,0.47812498,7.70389461517334,47.03275796175003
67,670000,78.06212401224434,-56.775517,0.0,-279.06848,4.5375586,7.307992,8321.138,106.6709,17.577633,95.01047,94.79652,95.40407,95.796616,9.479231,0.7,-96.52663,-2567.4978,1.2951205e-05,-15.3954735,-6.4211607,-5.4009695,-6.144303,-4.87145,1.080507e-06,0.3,0.7288208,55.467186,55.487648,55.33097,55.37686,0.6743972,0.45624998,7.064532518386841,47.73840220371882
68,680000,83.201588210706,-56.939182,0.0,-208.87726,4.828247,12.479992,5782.356,79.46153,29.226109,99.02628,99.29345,100.331566,99.08804,9.065401,0.7,-100.3992,-2334.2783,0.0029973763,-14.194202,-10.504276,-8.27147,-10.943338,-11.190988,3.434845e-05,0.3,0.6155402,55.457253,55.260216,55.61331,55.598442,0.6187632,0.421875,7.420968532562256,48.45016551415126
69,690000,86.69519590304648,-54.89508,0.0,-202.55396,3.9325366,1.1132905,10618.871,38.74327,20.99968,99.90533,100.69271,99.791245,100.71143,9.597018,0.7,-102.24524,-2557.6924,0.013761545,-17.29225,-1.6404777,-1.8198577,-4.616868,-4.900244,1.0216922e-05,0.3,0.21039587,53.52333,53.647835,53.81442,53.64259,0.68807375,0.46875,7.742712497711182,49.165074404080706
70,700000,71.34029215031516,-54.756683,0.0,-254.41814,3.381771,7.2972894,5012.2627,51.507183,19.464993,97.24118,97.44019,97.84707,99.07864,32.333572,0.7,-98.45057,-2159.791,0.0025407672,-23.364664,-7.967432,-6.9168763,-6.2695103,-7.1712627,2.0424643e-05,0.3,-0.23469463,53.24357,53.263744,53.249886,53.415066,0.9716953,0.43906248,6.51626992225647,49.86515738169352
71,710000,78.884352680987,-54.61099,0.0,-360.96573,3.8163247,11.158375,13014.505,47.154343,13.937174,99.323265,98.41789,98.2961,97.387024,11.667409,0.7,-99.61981,-2971.4246,0.0043312963,-18.871824,-3.0790935,-2.8243327,-3.3944705,-4.0128145,6.551895e-06,0.3,0.126396,53.525223,53.41337,53.335335,53.28371,0.74788564,0.4796875,7.178296804428101,50.57695158720016
72,720000,80.71530572536138,-58.05001,0.0,-211.5455,3.184936,8.929636,7420.9,42.72048,19.715536,102.294846,100.96315,100.16314,100.58087,17.226412,0.7,-105.328445,-2389.4773,0.0033538048,-15.337776,-8.523569,-7.002487,-6.8536224,-8.11169,1.1092925e-08,0.3,0.72795343,56.794624,56.824432,56.741352,56.748486,0.7244934,0.421875,7.352630853652954,51.288007366657254
73,730000,79.3167832629449,-56.454056,0.0,-277.3497,5.560272,6.2933984,6990.99,202.16989,22.600616,100.67575,101.71459,102.53082,101.775314,8.338495,0.7,-101.93116,-2396.1943,0.00014545958,-15.453306,-6.117043,-3.191485,-5.9128056,-4.969649,9.6920125e-08,0.3,0.50733274,55.198284,55.140343,54.85177,54.829674,0.50273395,0.4328125,7.286628007888794,52.00147735277812
74,740000,85.85044950573761,-56.46768,0.0,-353.97412,4.480711,5.728116,4976.576,110.916565,19.54897,104.49207,102.78024,105.197014,100.540184,22.668442,0.7,-103.5511,-2659.3147,0.0032478098,-16.694187,-8.31106,-8.391506,-8.442468,-4.29224,3.810054e-05,0.3,0.8077511,55.231018,55.13914,55.098125,55.072456,0.9370574,0.4765625,7.837550401687622,52.72392627795537
75,750000,72.61083991136144,-53.806805,0.0,-342.14838,5.1492033,7.889047,10027.823,159.05179,19.125359,102.72756,103.154015,102.16506,102.23946,7.153871,0.7,-103.74192,-2893.8503,0.0052471566,-17.691084,-8.656551,-8.600453,-8.461629,-6.6122894,9.74412e-06,0.3,0.04119593,52.51998,52.52987,52.41995,52.382614,0.6787404,0.46875,6.64526104927063,53.42207281192144
76,760000,82.29197151034016,-55.107224,0.0,-242.99193,5.1399937,11.912657,7640.4204,258.25146,23.443281,103.542786,102.91017,102.496254,102.6953,14.347214,0.7,-107.70222,-2734.0286,0.022750963,-17.363213,-7.6513286,-11.824917,-7.9240584,-10.87242,3.833731e-07,0.3,1.0382977,53.57019,53.51449,53.360672,53.4562,0.6806644,0.45156246,7.436639070510864,54.128685315450035
77,770000,65.33818103588756,-54.45224,0.0,-207.52153,3.9076805,11.82447,11437.867,71.50383,15.36117,98.159225,97.87136,98.04911,97.8365,74.61802,0.7,-99.61636,-2705.4695,0.009167045,-16.929415,-10.622758,-7.8650885,-10.8855915,-11.793087,2.35378e-05,0.3,0.36628026,53.233517,53.082886,53.382153,53.22383,0.8624363,0.4640625,6.067488431930542,54.814980284372965
78,780000,91.13362281498647,-56.1644,0.0,-319.86798,4.5354586,5.490353,9449.941,62.657883,29.291327,98.22527,98.214325,99.37318,97.92749,100.98008,0.7,-100.95667,-3252.4775,0.012855547,-14.848845,-3.81223,-3.1613717,-4.4824634,-6.7551436,1.3956498e-05,0.3,0.9345883,54.732178,54.77272,54.1802,54.205635,1.1425593,0.5328125,8.122102737426758,55.533618466059366
79,790000,76.55895560207881,-56.034206,0.0,-332.60455,4.175194,5.129799,8049.1562,83.2168,30.844044,98.387695,98.442314,97.878006,97.89027,16.501114,0.7,-99.236786,-3049.3623,0.0035824655,-30.568127,-4.1520853,-7.024925,-8.173334,-5.1168213,2.1709566e-05,0.3,0.42943588,54.854103,54.87759,54.702374,54.766212,0.7446592,0.44531247,7.0829176902771,56.235897890726726
80,800000,77.66693716237666,-54.246838,0.0,-342.7047,5.4997864,6.5812,9109.129,318.06787,19.075563,102.93602,102.565506,101.69615,100.988625,23.935074,0.7,-103.69346,-2821.2058,0.0020686183,-13.310329,-6.1922617,-6.6399336,-8.067232,-7.2254643,5.867332e-09,0.3,0.59715664,52.98636,53.114952,52.78486,53.014618,0.7187098,0.44375,7.1452741622924805,56.94173399209976
81,810000,77.74124036642681,-57.58069,0.0,-237.76886,5.571652,15.105932,6336.6206,114.993164,18.513645,100.25202,101.16192,100.55459,100.974,20.929665,0.7,-102.18868,-3212.9927,0.02092582,-14.570365,-11.82793,-14.456632,-11.743336,-11.573189,2.1653756e-05,0.3,1.4034065,56.26243,56.16418,56.978745,57.059525,0.84720254,0.39218748,7.111628293991089,57.6449743827184
82,820000,87.02497088141415,-57.950623,0.0,-378.01962,3.973528,9.219332,7880.1865,89.8485,19.231756,104.3665,104.861336,104.054085,104.568405,12.487767,0.7,-106.82516,-2815.356,0.0034359205,-19.664946,-9.631651,-7.2852197,-7.4038506,-7.1099086,2.6560156e-06,0.3,0.55134463,56.554054,56.659042,56.59165,56.643887,0.69327277,0.46718746,7.799888610839844,58.3629825592041
83,830000,87.20124997194216,-57.446182,0.0,-446.1825,5.8453403,12.213848,7713.369,541.54065,17.402304,99.040405,99.79284,99.92181,100.14178,18.725294,0.7,-100.88228,-3585.3413,0.0052164495,-19.325794,-4.767852,-8.266785,-6.17294,-5.6412396,1.561147e-06,0.3,0.1254514,56.10972,56.093304,55.671288,56.04052,0.81463534,0.459375,7.816828489303589,59.08047184546788
84,840000,87.76322895929195,-54.81687,0.0,-447.40747,5.5281754,7.9062495,3531.685,113.39383,26.771803,99.507256,100.56859,101.13218,101.90051,20.69817,0.7,-102.08752,-3226.4797,0.009852482,-13.078073,-6.440927,-6.6405826,-5.677197,-5.667876,4.056911e-06,0.3,0.9289167,53.760525,53.82699,54.5726,54.08137,0.6931947,0.44375,7.863789319992065,59.801799428462985
85,850000,91.33350995649604,-56.568542,0.0,-359.66263,4.730164,3.4330382,8712.459,215.66418,18.855026,95.39418,95.865,99.00444,95.99857,24.027172,0.7,-97.07205,-2934.738,0.0011330121,-21.205532,-4.888685,-5.093033,-6.339463,-6.3432064,1.290976e-06,0.3,0.31163955,55.321968,55.301857,55.545464,55.480442,0.85775167,0.428125,8.217617511749268,60.5212380806605
86,860000,73.54341336120362,-56.05259,0.0,-288.74854,4.604619,5.4768963,6132.0664,104.8121,23.620466,98.3549,98.1938,98.330505,98.38108,52.841667,0.7,-100.81096,-2673.6157,0.004993432,-20.55917,-5.0147867,-5.0133266,-5.3146057,-5.6109953,2.8505558e-06,0.3,0.3202974,54.842308,54.83301,55.046852,55.005928,1.1018237,0.39687496,6.741096496582031,61.223868958155315
87,870000,87.52656417047261,-55.270546,0.0,-301.69446,3.8383415,9.455569,9230.411,72.963844,34.283054,95.51847,95.06249,96.203285,95.45893,18.757723,0.7,-96.88558,-3205.9783,1.1396245e-05,-14.252493,-8.866784,-7.657807,-8.319411,-7.8324986,3.2310676e-05,0.3,0.77622473,54.039875,54.13931,54.330143,54.212044,0.70290184,0.453125,7.917929410934448,61.95021377007166
88,880000,77.30507834662366,-56.023987,0.0,-369.3084,2.8757617,10.137316,8072.924,37.824127,19.12,99.87508,97.17898,99.71629,99.35627,14.903445,0.7,-98.82211,-3087.7695,0.002176605,-14.555119,-7.196059,-7.390909,-8.712253,-7.5960526,2.7899445e-05,0.3,0.87901986,54.81182,54.753918,54.79882,54.61779,0.6526482,0.4890625,6.969365119934082,62.65461411078771
89,890000,90.84865003943368,-54.037807,0.0,-179.36922,3.8044806,6.672408,9537.371,41.540348,28.515621,99.90498,100.43361,101.24759,97.81733,22.555582,0.7,-100.71928,-2894.615,0.0092836525,-15.563719,-9.422388,-9.436948,-8.934066,-8.780982,3.272716e-05,0.3,0.38521707,52.551563,52.541954,52.479286,52.470192,0.9236634,0.4515625,8.047864437103271,63.3711963057518
90,900000,86.2279210843781,-57.52543,0.0,-304.03247,3.7406678,13.143359,9362.061,70.19899,15.955708,103.224,102.61473,102.982254,102.90889,32.46715,0.7,-105.61621,-2936.3828,0.005188812,-17.293373,-14.884064,-15.24087,-11.798193,-13.882547,2.8749928e-05,0.3,0.49496195,56.316963,56.06466,56.199112,55.894005,0.67127335,0.5234375,7.772878885269165,64.09151007731755
91,910000,88.18672774144865,-56.597324,0.0,-334.17505,4.4458523,9.158224,14850.7295,71.2534,28.046093,97.122154,97.70846,97.38403,96.97431,19.449059,0.7,-99.19318,-3980.7822,0.001805576,-18.298477,-9.194272,-9.889959,-10.968231,-10.083215,3.392688e-07,0.3,0.219847,55.473335,55.283928,55.114113,55.229362,0.704324,0.43593746,8.223387956619263,64.81194369395574
92,920000,68.15227757719194,-58.10726,0.0,-256.41806,4.0680265,2.56369,12550.405,51.584404,17.348267,101.44019,100.941,99.91357,99.829185,13.420223,0.7,-104.69168,-3279.9507,0.008761551,-16.972124,-1.2859199,-3.987443,-5.2425585,-3.355186,2.4728362e-07,0.3,1.7443745,56.949333,56.627396,56.47856,56.27636,0.75381035,0.5171875,6.608740568161011,65.5044024070104
93,930000,85.70523719209122,-58.970337,0.0,-341.11426,4.5852647,9.922223,11901.613,109.61824,13.909601,98.16585,97.59826,98.48407,98.43331,53.89283,0.7,-98.56614,-3741.128,0.01586544,-19.592823,-8.272315,-8.255275,-7.3962708,-8.505532,1.2113497e-05,0.3,1.212019,57.35501,57.281067,57.2258,57.716915,0.87884784,0.4171875,8.143756866455078,66.22196628252665
94,940000,90.87398363269183,-54.25929,0.0,-335.95728,3.598223,8.879684,8175.0513,66.47893,22.184778,99.031715,99.71124,98.60192,98.476585,13.856795,0.7,-102.028404,-3206.7986,0.007048905,-18.32652,-6.3800716,-6.6350975,-7.244178,-7.522884,6.985902e-08,0.3,0.45831662,52.995148,52.9775,52.881584,52.684853,0.74275875,0.475,8.645622253417969,66.95136473576228
95,950000,86.96840811830053,-55.395897,0.0,-216.69867,3.9695497,1.6681135,27122.959,81.16856,28.297253,99.324974,99.55716,97.84843,99.375046,14.026102,0.7,-101.75518,-3577.7935,0.0016790582,-14.153947,-4.3343687,-3.6917171,-4.667078,-4.3801184,1.5012588e-05,0.3,0.898826,54.06399,53.990967,54.090614,54.209595,0.6463763,0.3875,8.16865611076355,67.66831651528676
96,955000,86.22605502234963,-53.57355,0.0,-350.26624,4.6360464,12.889315,10472.3125,130.38425,17.145332,97.88035,98.75649,98.891266,98.91013,16.765375,0.7,-101.543465,-3277.8638,0.0067998935,-16.14303,-9.4836855,-12.922667,-13.390467,-11.539769,3.71614e-06,0.3,0.9053076,52.1348,51.987812,52.336403,52.2091,0.8057195,0.4609375,7.727281808853149,68.08968127568563
97,960000,77.84128846033099,-57.18199,0.0,-308.01605,5.015927,6.5755143,8773.845,67.0053,34.315353,102.384865,104.05825,103.5478,101.04941,19.21698,0.7,-105.55758,-3142.1416,0.0010953125,-19.219252,-6.8655434,-7.7023015,-7.7247353,-7.177509,7.722265e-08,0.3,1.2720726,56.10131,56.00818,55.075108,55.356064,0.63946235,0.5281249,7.345548391342163,68.50122101306916
98,965000,92.04109370061623,-57.71093,0.0,-368.87677,4.966309,6.6690464,19054.623,152.56067,17.675234,100.47103,98.712944,99.21174,98.54865,17.890629,0.7,-101.33498,-3916.1628,0.004070501,-20.119991,-5.6286507,-2.8163624,-7.0185485,-7.90514,7.141386e-06,0.3,0.7840335,56.592903,56.68389,56.698135,56.45624,0.70841455,0.4578125,8.614217042922974,68.93961981534957
99,970000,83.62502532398636,-54.179325,0.0,-455.75928,3.6405,11.808783,7573.1807,100.45608,16.965397,100.086975,100.12761,99.92247,99.905785,84.41235,0.7,-100.19401,-3623.79,0.0015486614,-24.25639,-10.064072,-10.316221,-8.981713,-8.91289,4.774567e-07,0.3,0.12973529,52.784134,52.733368,52.664505,52.800076,0.8753082,0.4671875,7.917989730834961,69.36484103600183
100,975000,83.0538223646725,-58.61231,0.0,-307.97403,4.3429174,6.5419674,15331.962,124.14624,17.386913,96.90112,98.34661,97.90053,97.818954,9.22079,0.7,-99.302185,-3600.2178,0.0075206337,-22.417768,-9.420868,-10.042685,-10.285613,-10.154836,2.2933516e-05,0.3,1.1503259,57.399616,57.382004,57.228043,57.091377,0.506177,0.4765625,7.475129127502441,69.77887592315673
101,980000,86.14349657176798,-55.650272,0.0,-337.39966,6.4269147,3.050341,7775.2534,140.59355,23.587746,99.330765,98.492325,100.18964,98.88301,28.18232,0.7,-100.40807,-3471.3906,0.010145273,-19.427,-5.656741,-6.1964054,-7.6002645,-5.93512,6.337112e-07,0.3,0.2966886,54.12081,53.961613,53.66575,53.74019,0.89674693,0.4890625,8.024628400802612,70.20684915781021
102,985000,80.2470339452951,-55.82035,0.0,-371.74112,3.3665528,8.339539,12701.093,46.45863,21.316631,101.286705,97.69539,101.89357,99.60398,7.5884504,0.7,-102.37139,-4006.3254,0.0027624997,-15.350593,-4.121129,-4.6598296,-4.5323043,-4.602517,1.4172153e-06,0.3,0.70493555,54.589245,54.46707,54.20349,54.116154,0.4925059,0.465625,7.802709341049194,70.62760584751764
103,990000,85.79824509921869,-53.94259,0.0,-202.90639,3.8666158,12.198394,8121.2124,43.934006,18.17946,99.37318,99.47576,99.72469,100.17101,13.389114,0.7,-101.22797,-3490.143,0.013235913,-13.596731,-10.222469,-10.064645,-8.3226,-10.980922,5.9655287e-07,0.3,0.571097,52.583363,52.724907,53.039814,52.702007,0.8208982,0.49999994,8.346702337265015,71.06027760903041
104,995000,84.33771924839859,-58.120476,0.0,-68.51771,3.969436,7.4465322,17625.066,56.102608,17.193968,100.066925,99.50343,98.66375,99.55125,10.529672,0.7,-102.27752,-3359.7532,0.0060726297,-13.324808,-6.923913,-5.868437,-6.5992894,-6.720917,2.7969247e-06,0.3,1.3429521,56.99091,56.700058,56.332706,56.45098,0.6455263,0.465625,8.470136642456055,71.49658486445745
105,1000000,91.78294682118462,-52.510536,0.0,-634.19916,4.726557,8.890095,8649.978,52.294945,24.889696,100.58126,101.84153,103.570244,98.97781,24.345623,0.7,-102.043045,-4217.442,0.0011826195,-14.284478,-3.8604407,-4.6615405,-5.026108,-6.5084934,3.2129512e-05,0.3,0.16252418,51.404186,51.391567,51.080383,51.074493,0.7982464,0.434375,8.103217363357544,71.92807737588882
