Xixo99/comfo/baselines/comfo7_perterbation_both_actor_and_critic/20230224_alphaQ0.0001/hopper-medium-replay-v2/COMFO7_s2_20230224_233707_hopper-medium-replay-v2_67.26.csv
,step,reward,actor_loss,alpha,alpha_loss,avg_conservative_loss,avg_smooth_loss,conservative_weight,critic_loss,max_actor_loss,max_alpha_loss,max_critic_loss,max_mle_prob,max_q1,max_q2,max_target_q,max_v,max_value_loss,max_weight,min_actor_loss,min_alpha_loss,min_critic_loss,min_mle_prob,min_q1,min_q2,min_target_q,min_v,min_value_loss,min_weight,mle_prob,q1,q2,target_q,v,value_loss,weight,eval_time,time
0,0,5.34086652985424,,,,,,,,,,,,,,,,,,,,,,,,,,,,,,,,,,,,
1,10000,5.996890562139894,-29.479242,0.057358325,-8.218208,-0.0037153296,2.2432926,1.0,6.215421,1.4402806,15.875632,1397.0574,6.0939527,56.845528,57.371834,56.245514,55.86811,2.7854772,0.7,-57.5313,-29.006754,0.00026507518,-12.139834,-2.449769,-2.2811093,-2.605625,-1.8248394,1.0139379e-05,0.3,-0.7009262,29.27563,29.328663,29.123672,28.857462,0.13221538,0.43124998,0.7674882411956787,2.6961246609687803
2,20000,21.07523696667076,-48.920105,0.0037297448,-7.3495274,-0.002402541,3.9813378,1.0,2.2061434,-0.47590113,74.8747,79.932175,7.033519,80.30317,80.67758,81.214676,80.57744,6.156012,0.7,-81.36582,-48.53469,0.00025247788,-7.6625137,0.8889285,1.4976096,-4.259427,-1.841228,2.2255526e-06,0.3,-1.1364329,48.36387,48.272774,48.054874,47.956463,0.31725323,0.440625,1.8098196983337402,3.6329005479812624
3,30000,15.564395083206028,-59.115807,0.00023238367,-8.753243,-0.00981681,5.829663,1.0,2.459987,-5.3052764,138.00401,74.068985,7.3511724,90.09682,90.13948,91.370964,90.34507,50.790943,0.7,-90.62898,-88.99009,0.0034760525,-11.435537,-0.10526402,-0.023949772,1.8679993,1.4252136,5.2727455e-06,0.3,-1.2416167,58.189484,58.280266,58.61075,58.236797,0.72281474,0.51874995,1.0790939331054688,4.562299656867981
4,40000,45.94142984471488,-61.694595,1.3932467e-05,-8.812002,0.0033862514,6.8576355,1.0,3.823118,4.4803247,259.5431,129.30005,7.022296,95.05837,94.89692,94.84904,94.56482,95.81622,0.7,-95.518036,-82.31854,0.0009812919,-9.370675,-4.571603,-4.965869,-3.9578314,-2.9955416,1.23507525e-05,0.3,-0.8905757,60.65755,60.66452,60.366898,60.513584,0.9993431,0.44843748,3.515449047088623,5.527581961949666
5,50000,32.81051845928601,-66.60183,9.1262353e-07,-8.859694,-0.00012440607,7.595928,1.0,3.6542628,3.5821862,281.33093,71.626396,14.259018,100.686386,100.51254,99.075226,99.33303,20.16981,0.7,-101.07658,-108.63653,0.0015437526,-9.527237,-5.8489003,-5.856938,-6.62115,-6.131892,3.168988e-06,0.3,-1.2118937,65.74788,65.52434,65.31071,65.409195,0.94108737,0.4625,2.5994579792022705,6.48112842241923
6,60000,34.138625630941775,-66.92801,6.496002e-08,-5.622963,-0.009999571,7.7462974,1.0,2.1794615,-2.584126,539.9543,30.680809,8.068235,101.610825,102.0806,101.618065,101.5654,123.932396,0.7,-102.36503,-116.30243,0.00010552451,-11.245294,-0.26529068,0.35561696,-0.45674935,-2.1991103,1.0911863e-05,0.3,-1.1791675,65.82717,65.72299,65.77979,65.835556,1.2869579,0.4578125,2.3727927207946777,7.429084702332815
7,70000,44.91200881479924,-68.2735,5.690257e-09,-2.320868,-0.013434785,8.745319,1.0,4.427454,-3.8946598,556.8488,86.753555,18.194263,99.389984,100.34503,100.19651,99.24569,163.70276,0.7,-100.96037,-187.22842,0.005869647,-11.843418,0.05074638,0.399219,-3.1757872,-0.11830334,1.0705943e-05,0.3,-1.0721846,66.83646,66.956055,67.11952,67.33836,1.3983977,0.421875,3.267688512802124,8.394157628218332
8,80000,42.628028839578896,-65.11459,6.235352e-10,6.2403154,-0.0050986595,8.794942,1.0,3.2467604,4.325433,497.57898,35.88088,16.049612,98.411964,98.16408,99.00293,98.97978,31.746193,0.7,-98.8617,-166.58232,0.0027194023,-16.0457,-1.4157817,-2.4889648,-3.4741895,-4.292419,7.690363e-06,0.3,-1.6643369,63.707222,63.618988,64.16617,64.17154,0.99508536,0.43906248,2.935119390487671,9.357313366731008
9,90000,86.21610820135386,-67.94775,7.120056e-11,-14.478452,-0.014979295,8.791807,1.0,4.99122,-1.712958,377.4363,469.51758,6.4380836,102.46346,102.17234,102.18599,102.545815,138.4714,0.7,-103.52915,-180.84427,0.00087976374,-17.365889,1.9142749,1.977776,2.056213,3.2298493,7.554889e-07,0.3,-1.6261644,66.574585,66.6515,66.67828,67.348206,1.7320032,0.421875,6.096371173858643,10.371895384788512
10,100000,85.7932562022281,-65.30164,8.706549e-12,-13.444404,-0.021935353,9.083542,1.0,4.4349127,-0.16890234,536.9814,82.271736,6.575924,100.70176,101.43658,100.4991,100.61415,58.55151,0.7,-101.89837,-224.80165,0.00054355455,-11.205044,-3.092217,-2.684886,-1.7819225,-3.019126,1.678127e-06,0.3,-1.68759,64.02297,64.05757,63.971024,64.09743,1.1786356,0.471875,6.651487350463867,11.391731643676758
11,110000,48.656572748493154,-65.875,1.6480006e-12,10.276868,-0.016397491,9.133891,1.0,4.155655,-0.775822,1073.8989,273.15414,23.006351,100.72413,100.78234,101.13449,101.74443,65.36861,0.7,-101.38805,-199.04066,0.0009308928,-10.579226,1.7328062,1.4795581,-0.19252242,-0.653036,2.9068442e-06,0.3,-1.4132903,64.63097,64.701675,64.89816,64.866425,1.1302139,0.47187498,3.4045002460479736,12.36147704521815
12,120000,38.222002971055005,-69.80296,3.8410293e-13,-26.170853,-0.019740297,9.060649,1.0,4.6152153,-2.680316,454.736,150.6417,11.43536,101.207214,101.13757,103.04499,102.48146,10.294274,0.7,-102.6063,-228.86331,0.00044614734,-8.521175,1.9832761,1.6843864,0.8081967,1.6116787,2.5300587e-05,0.3,-1.0488816,68.846375,68.942535,69.68788,69.60458,0.62712806,0.434375,2.5992538928985596,13.310734192530314
13,130000,49.75411216470636,-67.777565,1.3468424e-13,12.755711,-0.00058926124,10.361284,1.0,3.2920635,-2.02848,628.47754,71.555145,9.762493,100.348305,100.03454,99.97019,99.78256,57.249268,0.7,-101.163414,-224.78697,0.0049624587,-11.333122,0.34273246,0.7972889,0.6947058,2.763488,8.6852816e-07,0.3,-1.4098725,66.03981,66.12874,66.027985,66.24465,1.510779,0.48749998,3.445065975189209,14.271618755658467
14,140000,52.026511722921434,-68.46682,5.560591e-14,2.1069164,-0.023134086,9.90563,1.0,4.1195664,2.6379972,986.44806,113.201195,6.869836,103.83455,103.84153,104.57611,105.06627,25.428595,0.7,-104.965935,-259.54553,0.002207321,-10.151385,-7.6572337,-10.555466,-15.185854,-13.327577,2.2674101e-05,0.3,-1.2791717,67.21987,67.1732,67.250755,67.44455,0.90380406,0.4703125,3.578991174697876,15.23746497631073
15,150000,101.3664458000859,-69.19008,3.2861822e-14,-2.905455,-0.0443326,9.60403,1.0,4.421035,-0.81605697,803.01025,236.035,6.7354355,102.16533,102.093124,102.15289,102.11569,54.545856,0.7,-103.08667,-290.56036,0.0026794942,-9.563592,-0.98431873,-2.0525632,0.57549155,-0.7925879,3.0365018e-06,0.3,-2.038175,67.95972,67.88959,67.70911,67.97682,0.9679066,0.39687496,7.145212173461914,16.26940426429113
16,160000,67.95269639740879,-69.16891,2.3811482e-14,-2.4874935,-0.03510452,9.059329,1.0,3.295632,-0.44442475,745.4123,64.73104,6.594666,102.17392,102.27664,102.56459,101.87129,168.51979,0.7,-102.322624,-283.26227,0.004108956,-10.514665,0.20087257,1.1696978,-3.610283,-4.5612803,3.6670826e-06,0.3,-1.4217043,67.794235,67.89392,67.64067,67.58966,1.8258562,0.5125,4.77954626083374,17.25856616894404
17,170000,59.57299035374898,-68.27425,2.0221497e-14,6.092371,-0.027152125,9.448675,1.0,7.0868454,1.937004,1015.723,559.21765,8.110973,102.428116,102.23739,103.039024,102.36134,36.655148,0.7,-104.03575,-235.57954,0.0006280512,-15.727957,-10.069958,-10.18058,-1.6440156,-7.886429,0.00012682911,0.3,-1.8007846,66.944244,66.733444,67.78082,67.55988,1.1292707,0.41250002,4.117070436477661,18.239481552441916
18,180000,94.88959033615762,-68.998116,2.2055146e-14,10.316633,-0.04348838,9.804566,1.0,5.261755,-4.193667,631.74133,126.345314,12.080343,103.14605,103.26912,103.42992,103.22347,24.082754,0.7,-103.650986,-268.20065,0.0003094122,-10.813806,3.5266793,1.1588188,4.3735857,3.927746,3.7222637e-07,0.3,-1.5152702,67.32132,67.34102,68.094025,68.08171,1.188875,0.4578125,6.744485139846802,19.25310468673706
19,190000,93.85044504591869,-67.26112,2.5686217e-14,-15.895132,-0.023794858,9.835929,1.0,3.7922003,-1.6628699,545.76624,41.51822,13.184634,104.400444,104.66807,105.78984,104.7219,52.443283,0.7,-104.54839,-270.2249,0.011139834,-13.06077,2.1133287,1.6272876,1.1266743,2.50512,1.4039589e-05,0.3,-1.2643266,66.5672,66.566025,67.33156,66.93326,0.9969439,0.45625,6.627006769180298,20.27163268327713
20,200000,75.22377006715864,-66.385895,4.0452274e-14,-13.297492,-0.027309865,10.270297,1.0,2.8190563,1.0755827,919.55994,58.503128,19.089478,102.655815,102.64225,102.41869,102.46544,41.41941,0.7,-103.28149,-252.77716,0.0029111844,-12.424577,-1.7724373,-1.8690908,-0.87497115,-0.7668046,6.9307866e-08,0.3,-1.8964283,64.80391,64.86672,64.987404,65.28886,1.0841105,0.41875,5.1433210372924805,21.263945412635803
21,210000,61.76150461685541,-66.2302,7.020952e-14,5.1051016,-0.055826068,10.8839245,1.0,4.139454,-4.0681925,559.22186,89.273705,11.838463,102.1623,101.705956,102.372826,103.64566,49.90232,0.7,-102.747604,-254.1151,0.0006247737,-9.993224,3.1313586,2.4788451,0.8672195,3.3546896,0.00014662663,0.3,-1.3242595,65.08746,65.0045,65.77846,65.659035,1.3480258,0.4125,4.249748706817627,22.245095284779868
22,220000,80.0178493281965,-71.29228,1.5314854e-13,-9.254221,-0.026585786,10.11198,1.0,3.5361497,-2.4070551,509.36624,185.53462,10.084379,103.42401,103.30614,105.12772,103.78641,49.287,0.7,-104.44355,-250.81505,0.0015532018,-10.690078,1.8368992,1.625435,1.4735503,1.5120343,5.3689755e-06,0.3,-1.2865777,70.13792,69.95497,70.172104,70.15822,1.1235898,0.47031248,5.513576030731201,23.24549444913864
23,230000,52.69128163648718,-67.20532,4.0821312e-13,6.4260216,-0.04142028,10.213691,1.0,2.8746426,8.688547,841.0529,55.17742,9.417386,106.84554,106.362434,105.228004,105.97786,179.24289,0.7,-106.77039,-245.99915,0.0007897826,-11.887756,-7.715813,-10.753776,-10.985561,-12.201838,4.0233135e-06,0.3,-1.4926271,65.35051,65.5186,65.41594,65.76865,1.6090328,0.4359375,3.6098792552948,24.216985714435577
24,240000,57.456728751956554,-66.94539,1.1345818e-12,-0.70449996,-0.044960987,11.15672,1.0,5.9675508,-3.3373148,739.7676,119.31445,10.544023,101.78385,101.72432,104.048874,103.16474,100.38203,0.7,-102.80669,-260.27618,0.004742128,-14.451349,4.1716623,3.8886483,5.477568,4.4555216,3.184862e-05,0.3,-1.571837,65.649635,65.479034,66.41583,66.18932,1.4766089,0.46406248,3.9153401851654053,25.194710648059846
25,250000,55.66145142098653,-63.363907,3.4156061e-12,24.999527,-0.06104753,11.997446,1.0,3.1987314,0.22885764,1043.5623,61.89952,10.903692,102.77199,102.86334,102.70157,102.339386,202.29526,0.7,-104.24858,-231.1116,0.00560517,-10.679142,-2.6285067,-4.0267496,-1.7211854,-0.46274638,1.2355624e-06,0.3,-1.960984,61.279964,61.1469,61.105705,61.540726,2.3435295,0.44687498,3.925281524658203,26.174386235078178
26,260000,51.32006569266932,-67.012634,1.306006e-11,9.207447,-0.051315427,11.481247,1.0,21.218079,-1.0403668,664.16486,4393.16,24.114594,103.90137,103.82532,103.70601,103.60469,202.7225,0.7,-103.67498,-174.90385,0.006211849,-13.947998,-3.7944047,-2.8746643,-6.277771,1.2969189,0.00011381593,0.3,-1.4271058,65.0829,65.22751,65.42711,65.637566,2.3286586,0.47499996,3.5593929290771484,27.148723797003427
27,270000,79.69453848376973,-68.95276,6.132851e-11,-1.8655274,-0.041955274,11.62576,1.0,4.017825,2.5907192,732.5021,68.84821,11.279358,104.008934,103.991295,103.50261,103.78406,224.38206,0.7,-104.74812,-161.1246,9.89635e-06,-9.281689,-1.8912665,-2.4257998,-1.4003284,-2.0946171,9.348657e-06,0.3,-1.3154674,67.581345,67.50731,67.49545,67.61807,2.9648495,0.4578125,5.609486103057861,28.153720812002817
28,280000,86.50254521189245,-68.51335,2.6832092e-10,-2.0837722,-0.024480756,10.357137,1.0,4.98437,1.4845062,464.51794,274.17664,8.786882,103.379234,103.068756,103.16534,103.4501,223.5202,0.7,-102.69256,-192.26273,0.00054449425,-11.73521,-3.7851954,-0.25412348,-3.2853026,-0.9303776,2.2110544e-05,0.3,-1.2605194,67.151596,67.19531,66.99314,67.54371,2.1268847,0.3984375,5.989340782165527,29.167983996868134
29,290000,67.89391330666,-66.12141,1.53233e-09,0.33253217,-0.04077391,10.993957,1.0,5.42342,4.883938,634.4849,284.72333,6.7238445,103.03668,104.14951,103.673164,102.52674,66.222115,0.7,-105.044014,-151.23842,0.0027928627,-16.124775,-11.385292,-11.326653,-17.115093,-6.4508038,9.9162964e-05,0.3,-1.836949,64.889244,64.81067,64.59623,65.00648,1.1446588,0.4203125,5.339799165725708,30.16076144774755
30,300000,90.15150683677562,-68.41928,9.3467305e-09,8.157087,-0.051350452,11.378318,1.0,3.5607748,-2.1425054,834.9121,66.81914,6.8784323,100.87336,101.35052,100.74685,100.688065,148.83778,0.7,-101.714584,-198.68503,0.0012630308,-10.463516,-4.8142114,-5.2977424,0.7190655,-5.648866,2.5503203e-05,0.3,-1.6692232,66.78204,66.75786,66.80415,67.17761,1.8548603,0.43593746,6.868696212768555,31.185450899600983
31,310000,100.6130197265429,-63.980103,5.606135e-08,7.7813597,-0.03809021,10.833818,1.0,3.6959388,-2.9352589,380.64685,81.488495,16.725704,102.59365,102.618164,102.39514,102.29634,172.44946,0.7,-102.98685,-159.24213,0.0024744894,-9.527036,-0.29474354,-0.20547843,-1.7160952,-0.047583014,2.3391797e-06,0.3,-1.6538448,62.21437,62.045654,61.730934,62.309074,1.9934394,0.446875,7.4167773723602295,32.21131834189097
32,320000,90.57613133481111,-66.86899,3.314884e-07,-1.9444752,-0.08966646,11.357408,1.0,3.4214654,3.0757256,364.53293,149.0776,9.247735,103.76494,103.16067,103.51752,103.63544,117.31141,0.7,-104.33474,-139.89088,0.00046338237,-12.362406,-12.576184,-12.556904,-14.187708,-16.805159,4.43717e-08,0.3,-1.5165759,65.40312,65.388824,65.31354,65.77399,1.9268204,0.4328125,6.367652416229248,33.22275187571844
33,330000,56.414210120561734,-65.35087,2.1108951e-06,5.025874,-0.039790303,10.764719,1.0,5.188479,7.305805,368.43127,262.13025,7.9559298,104.8795,103.79626,104.00349,105.135345,149.6847,0.7,-104.09683,-107.818054,2.0829611e-05,-12.388029,-11.285405,-11.263836,-2.2966642,-12.352876,4.0877495e-07,0.3,-1.5420747,63.817265,63.732315,63.878716,64.1034,1.9898918,0.41406247,4.100478410720825,34.19292444785436
34,340000,49.270886731109016,-67.033264,1.3047588e-05,9.509701,-0.044411678,12.211949,1.0,5.1915035,7.7283983,328.13028,153.60265,9.252734,104.64742,104.35745,104.60896,105.40565,202.33595,0.7,-104.50181,-103.68693,0.0001675646,-8.948547,-8.516342,-8.325275,-5.643465,-5.898988,9.597923e-06,0.3,-1.49754,65.0285,65.04703,64.72321,65.005615,2.1570668,0.4734375,3.835561752319336,35.16493548154831
35,350000,44.14853622988023,-66.44148,8.595976e-05,1.262714,-0.06982306,10.368008,1.0,2.8315167,1.0560408,381.10995,37.953163,10.23457,105.9541,104.9645,105.89149,107.21248,16.585901,0.7,-108.448875,-78.552475,0.009055843,-11.647331,-1.9321915,-1.7717248,-0.31182525,-0.3844153,2.9354124e-08,0.3,-1.3725388,64.78771,64.70793,64.41344,64.71218,1.0466337,0.4546875,3.419891834259033,36.122834440072374
36,360000,55.220761913176666,-68.82344,0.0005274106,3.2544851,-0.06269758,10.451743,1.0,3.2133884,-1.4547322,192.43048,43.887466,10.072395,103.47799,103.47029,102.88308,102.862274,198.67084,0.7,-103.08662,-60.88425,0.00088931253,-13.25078,1.3296399,0.10564339,-0.56495875,1.1092346,2.5187637e-05,0.3,-1.2081001,67.21501,67.247856,67.20883,67.55471,1.6568418,0.47187498,3.953303575515747,37.092816309134164
37,370000,101.34763541728869,-68.83905,0.0027507592,1.2075466,-0.043940116,10.821905,1.0,3.5250463,-5.018976,274.31918,94.007126,6.817396,104.51552,104.1612,103.485016,103.63477,270.01627,0.7,-104.9515,-61.342243,0.0076201186,-15.377478,-1.4635627,-0.23858213,-4.193684,2.881129,1.2102392e-07,0.3,-1.6687412,67.195435,67.23198,67.19307,67.45293,2.9214115,0.42031246,7.207879304885864,38.12005285422007
38,380000,98.18341976373502,-69.64607,0.006312005,2.965981,-0.07513262,12.027666,1.0,5.3859806,6.2848935,138.2616,64.41001,6.7234955,105.66001,105.78452,105.24319,105.48376,157.33145,0.7,-106.44845,-37.632496,0.0010963576,-11.247122,-5.726833,-5.289922,-6.047866,-4.2997527,1.3109996e-06,0.3,-1.3908203,68.080505,68.176926,67.24419,67.620895,2.1896267,0.471875,6.904186248779297,39.148057250181836
39,390000,41.974677518826724,-67.15111,0.0060377256,2.0535457,-0.050799407,11.168665,1.0,3.5404356,-2.446947,169.77812,90.63945,12.821817,102.57171,102.567604,103.563675,103.64558,79.822014,0.7,-102.68856,-46.064243,0.0036738585,-13.895353,-4.3136487,-7.0333123,-8.653802,-1.0859492,4.4911167e-06,0.3,-1.7243061,65.78865,65.6872,66.101295,66.180595,1.3800654,0.44062498,2.927090644836426,40.10807208220164
40,400000,95.41037411116676,-65.743355,0.0059697605,-0.4015525,-0.050099947,11.085057,1.0,4.6308117,7.331805,213.94032,129.66077,5.37342,102.8067,102.50839,103.60283,103.6522,179.76695,0.7,-103.22221,-45.0186,0.012999766,-14.851509,-4.2833114,-7.145684,-3.6356149,-8.9226885,0.00018451065,0.3,-1.6938686,64.31383,64.294426,64.94206,65.185715,2.5160775,0.38593748,6.842867851257324,41.13096373081207
41,410000,54.937297080579064,-66.684906,0.0058094067,-0.34080398,-0.073405474,11.200806,1.0,2.797137,0.8423291,164.28859,56.4355,6.732727,102.508415,102.26229,102.956154,102.689255,48.480404,0.7,-103.64708,-44.177578,0.00054956955,-10.145863,-8.65418,-5.3292546,-6.3064733,-6.2527547,2.5465852e-06,0.3,-1.4401795,64.90524,64.96867,65.24657,65.22949,1.2471673,0.45624998,3.913473129272461,42.104453615347545
42,420000,70.68963559384964,-64.89757,0.005484713,-2.1313472,-0.10327082,11.579625,1.0,3.454574,3.102197,114.151215,68.06363,8.887569,102.646706,102.92941,102.01162,102.40573,72.82059,0.7,-104.20987,-45.56208,0.0027576708,-12.659407,-3.3780785,-1.5805378,-1.2026525,-0.31509855,1.748078e-05,0.3,-1.6881642,63.38597,63.50164,63.201607,63.49205,1.3079317,0.43906248,4.92173171043396,43.09629455804825
43,430000,99.19032308031004,-67.45102,0.005280053,-2.3340168,-0.09210978,11.63961,1.0,4.7484565,-5.822778,116.68144,271.54968,16.31705,102.78503,102.39981,102.75241,103.76959,21.626793,0.7,-105.74691,-48.329967,6.172269e-05,-12.629026,-8.638238,-9.382058,-8.977194,-7.933116,6.1102787e-06,0.3,-1.3099263,66.24654,66.17926,66.24974,66.38809,1.1999593,0.44687498,7.084745645523071,44.12730419635773
44,440000,82.02372472291435,-70.29114,0.0045485613,-1.2928216,-0.04370151,12.048061,1.0,3.023788,-3.5129027,148.95062,48.958916,9.895935,104.42549,104.739395,103.92026,104.1545,366.43808,0.7,-105.5692,-47.76575,0.0024697217,-13.689534,2.1372645,2.4528303,0.96026635,1.4237189,1.478009e-07,0.3,-1.6791357,68.60152,68.54996,68.30329,68.893776,3.2828758,0.4484375,5.736729145050049,45.127671134471896
45,450000,82.43204463125214,-65.7262,0.0046308525,-2.6869655,-0.08417973,11.066407,1.0,4.322046,-1.2154608,100.0929,334.20184,6.878119,104.06361,103.80738,102.93365,103.051384,164.87874,0.7,-105.14144,-36.92758,0.0028455746,-11.290629,-2.7671707,-3.9133043,-1.5029943,-2.852161,0.00012262899,0.3,-1.1741748,64.449486,64.622536,64.23326,64.66456,1.5280907,0.44374996,5.622974872589111,46.125293016433716
46,460000,98.66762419349757,-66.09484,0.005234753,0.15741193,-0.06167227,12.4524765,1.0,3.6438084,2.7408843,116.9693,73.72725,7.435895,104.02545,104.343834,103.65143,104.55733,54.364624,0.7,-105.041885,-42.417736,0.0039719855,-11.028214,-3.9328218,-5.04148,-5.8037205,-7.672741,5.9958707e-05,0.3,-1.5917611,64.71638,64.64099,64.79727,64.814926,1.3326209,0.453125,7.24109673500061,47.15023702780406
47,470000,68.25133031284841,-67.09874,0.0046425485,1.7744998,-0.079445116,12.182441,1.0,3.0950532,-1.365054,103.5109,47.842644,8.87205,104.525665,104.969604,104.76613,104.689804,248.70294,0.7,-105.95281,-42.873642,0.0021295487,-23.566444,-2.4759448,1.0932751,-0.79822606,-1.6379747,3.989856e-06,0.3,-1.6577268,65.04106,64.97002,65.180435,65.35226,2.2402835,0.4328125,4.900493860244751,48.143738981088
48,480000,79.32535814641584,-67.57784,0.004517748,1.183715,-0.071177796,11.79628,1.0,2.9390643,2.5253468,243.85435,43.36708,7.856545,102.819084,103.015175,103.259094,103.25354,12.75699,0.7,-103.514595,-47.320942,0.006466315,-11.288025,-2.055782,-1.8665686,-0.23138411,-0.30046758,1.1770306e-05,0.3,-1.7791839,65.95631,65.86594,66.02219,66.12253,0.85817945,0.44687498,5.6357176303863525,49.14220242500305
49,490000,89.90206578739173,-68.5901,0.0048058764,-2.6138768,-0.059530377,11.505421,1.0,3.5109723,1.5699575,120.12045,63.66925,8.008083,104.778496,104.19462,103.22118,103.09788,170.78961,0.7,-104.31257,-50.54501,0.008293769,-12.938557,-1.6471157,-2.1924896,-0.4160686,-2.3023076,1.8399078e-06,0.3,-1.6629416,67.40973,67.43071,66.86337,67.231804,1.4085848,0.46249998,6.370968341827393,50.159263372421265
50,500000,61.167445835167435,-63.94233,0.0043668663,-2.809476,-0.060718413,12.144861,1.0,4.505801,0.7647922,100.76093,383.74316,5.670601,104.772,104.8449,104.40333,104.255516,138.34991,0.7,-107.63514,-49.66211,0.0025296924,-11.947476,-6.8221664,-8.219838,-6.145423,-0.15796152,6.572111e-07,0.3,-1.6839863,62.476692,62.38668,62.481445,62.486973,1.7672882,0.4671875,4.306552171707153,51.13987843195597
51,510000,99.35902748841941,-67.32097,0.0038198142,1.8896655,-0.103057496,13.799311,1.0,2.9567678,-0.042866707,103.9009,51.086823,10.275003,103.98359,103.49959,103.33439,103.72076,13.155484,0.7,-103.31466,-59.053814,0.0032494178,-12.582751,-0.681023,-0.6184643,-3.0154574,-1.8081259,4.0815544e-06,0.3,-1.5201089,65.35346,65.36,65.34134,65.51036,0.9702499,0.45,7.170034170150757,52.1713352560997
52,520000,100.77243303842506,-63.205627,0.0046705166,2.8538678,-0.09619313,12.549907,1.0,4.053692,-0.27439147,114.83571,296.45935,10.6419735,104.631386,104.52471,104.03656,103.65339,122.736336,0.7,-105.542465,-42.82905,9.643671e-06,-10.798048,0.18835348,0.44360584,0.6316391,0.1971403,7.099472e-07,0.3,-1.5063193,61.47997,61.588573,61.67914,61.579594,1.6437352,0.48125,7.258182764053345,53.198943213621774
53,530000,74.54735302454819,-66.727,0.0047178306,-1.6069071,-0.10383153,14.4285145,1.0,4.153452,-1.7774419,153.13823,90.977486,5.9787006,103.75806,103.3139,102.840614,102.884026,346.14584,0.7,-104.01278,-50.32057,0.008809585,-13.913919,0.6985371,1.162116,0.75558186,1.93064,1.4619874e-05,0.3,-2.1171668,64.69239,64.52181,64.31909,64.79541,2.7175102,0.45,5.324702739715576,54.20099694331487
54,540000,77.00099401055546,-65.38939,0.004739237,1.3464597,-0.07205843,12.688347,1.0,5.262397,-1.559752,147.15616,85.81903,24.326992,104.58594,104.379745,104.68052,103.7864,29.854609,0.7,-104.818985,-46.68454,0.012060801,-11.434697,-3.66328,-1.2322673,-4.8336062,-5.9631777,1.40503225e-05,0.3,-1.4989613,63.81539,63.78306,64.4164,64.17487,1.1867301,0.44843748,5.456520080566406,55.20123096704483
55,550000,100.8868732325057,-67.191864,0.0040816264,-2.3027208,-0.12394059,13.219319,1.0,3.772704,-1.7185609,156.7884,234.63736,11.499125,103.07636,103.000404,103.353806,102.760956,106.53863,0.7,-104.45234,-53.462917,0.0065673683,-12.010195,0.6831579,1.086242,-2.332149,-2.9776692,2.2179373e-05,0.3,-1.2752724,65.59541,65.59432,65.30404,65.38272,1.8246542,0.49843746,7.292419195175171,56.232109022140506
56,560000,60.53743069190548,-66.97389,0.00417765,1.6658041,-0.08124601,12.391604,1.0,4.461591,6.146309,149.48183,163.99683,7.822429,103.281944,103.68039,104.09728,103.883575,215.45605,0.7,-103.956024,-47.532394,0.0010205742,-10.050352,-8.090892,-4.3653226,-5.8838925,-10.03851,1.4183752e-06,0.3,-1.2859159,65.23486,65.216225,65.0944,65.05748,2.2361503,0.475,4.649777173995972,57.21590242783228
57,570000,97.55459506493264,-66.6618,0.00454491,0.5595232,-0.10180094,12.215032,1.0,3.6307092,-4.1526413,202.02238,244.53548,6.7366886,105.82905,106.60906,105.21922,105.52495,188.66022,0.7,-106.04892,-41.527348,0.0012964271,-11.869057,-7.1251,-7.579673,-6.1499763,-6.2841454,1.5200739e-05,0.3,-1.709943,65.02171,65.0522,64.7715,65.01515,1.5715376,0.496875,7.590835332870483,58.254503190517426
58,580000,65.4719524820362,-66.66086,0.005192064,1.4055593,-0.08280646,13.799262,1.0,3.8797941,-2.6161888,163.37578,45.53771,7.2308993,104.54495,104.28057,105.04462,104.29634,58.8553,0.7,-104.275185,-52.669403,0.0067654266,-11.408854,-3.8730488,-5.160977,-1.0746086,0.31589413,2.01715e-06,0.3,-1.8701416,64.80371,64.74843,65.11279,64.840805,1.9146314,0.515625,4.770885229110718,59.24129974444707
59,590000,79.78327899014704,-69.59945,0.004890647,0.7717687,-0.106426395,12.756279,1.0,4.206105,-1.1564064,216.44003,247.29446,6.4354696,104.57027,104.81197,104.47096,104.792206,372.54453,0.7,-105.84581,-45.162346,0.0007024573,-14.422067,-0.35357875,-2.0394766,-5.60402,-5.892988,4.960847e-06,0.3,-1.4906124,67.97651,67.9451,67.53354,67.7402,3.4210687,0.4375,5.964734792709351,60.246915157636
60,600000,89.10293950113305,-66.334625,0.004729232,0.8596125,-0.12131758,13.045239,1.0,5.58811,-6.04362,183.30956,492.2262,7.0930066,105.236275,104.71985,105.98556,105.38511,59.638966,0.7,-105.68548,-45.31594,0.016611872,-13.172031,-0.86067194,-0.58779013,0.8783839,5.583231,5.52654e-05,0.3,-1.5477253,64.743195,64.733475,65.150986,65.157394,1.9196936,0.41562498,6.784099578857422,61.26831953128179
61,610000,65.69275174169822,-65.92019,0.0047492227,2.4408839,-0.13031347,14.973332,1.0,2.9443483,3.1761951,174.14009,39.855415,24.225737,104.63899,104.89329,104.85428,105.07095,51.9224,0.7,-105.68528,-49.912155,0.0011928196,-11.8413925,-4.2437267,-2.4112873,-3.7715669,-4.4532833,1.718402e-05,0.3,-1.4108559,64.20622,64.21736,64.323105,64.1537,1.4276569,0.47031248,4.621107816696167,62.24968117078145
62,620000,48.26525079489126,-66.50487,0.004595003,-0.19688383,-0.12136022,12.649092,1.0,3.9965596,-2.6643307,97.913956,82.06754,19.043594,103.818985,103.690315,104.220665,103.68383,126.80111,0.7,-104.5783,-46.66583,0.0005589576,-14.293682,-2.500988,-1.9334955,-3.069733,1.3098879,5.2262914e-07,0.3,-0.97612756,64.80007,65.07471,64.57936,64.95821,1.4422166,0.4671875,3.4028241634368896,63.197034525871274
63,630000,60.94356271422575,-65.89437,0.004622824,-0.35715222,-0.14513086,13.298461,1.0,3.2437925,-1.4110751,156.81038,165.7006,6.142915,104.66751,104.91105,104.90008,104.78356,112.14668,0.7,-105.33859,-47.755775,0.0045814984,-13.8091545,1.6991537,0.8416225,0.6348617,-0.6126275,5.428301e-06,0.3,-1.678377,63.710762,63.89547,63.724083,63.83825,1.3749083,0.4421875,4.284847736358643,64.15495581626892
64,640000,91.7547411196439,-65.50569,0.0041965875,-1.6878026,-0.09756484,13.09791,1.0,3.5225902,11.149903,144.27158,77.920876,27.945911,106.896645,106.51112,105.22788,104.97252,199.54135,0.7,-106.307526,-43.04605,0.006607581,-11.745177,-16.950768,-20.9716,-19.951902,-8.164643,4.5781488e-07,0.3,-1.3284659,63.784966,63.59497,63.486958,63.546852,2.651785,0.5109375,6.451035976409912,65.17159031232198
65,650000,75.70653042530179,-66.34033,0.004274926,-0.39887452,-0.12788135,13.386571,1.0,5.393391,-1.4277394,174.0723,257.26642,6.2969985,103.7163,104.36025,104.69186,103.40844,42.87503,0.7,-103.68094,-39.365433,0.010622689,-11.379109,-4.081674,-4.710688,2.4655619,2.0693915,2.60807e-06,0.3,-1.8266163,64.58109,64.60591,64.94887,64.93638,1.772784,0.46875,5.487173557281494,66.16891540288925
66,660000,84.19684515574372,-64.41066,0.004837552,3.1363463,-0.14050701,14.333182,1.0,3.3275728,-2.73573,153.91817,39.25065,6.832572,105.0594,104.85696,104.771034,104.45031,81.92728,0.7,-105.555855,-41.05308,0.011141897,-10.632683,-1.0203552,0.33488393,-1.4497236,-0.6826246,5.186739e-06,0.3,-1.5526233,62.669907,62.81232,62.96167,62.90725,2.029871,0.434375,5.9857800006866455,67.17885704835255
67,670000,72.47339993732773,-68.93254,0.004612284,0.29590076,-0.10261514,11.919228,1.0,2.4720306,-2.6613097,142.35992,28.956715,10.363643,105.57588,105.48638,105.408325,105.20925,202.26382,0.7,-105.745186,-47.417004,0.002814552,-10.6034155,-4.4217443,-4.624084,-6.115996,-2.1603239,5.620129e-05,0.3,-1.5540955,67.280396,67.21181,66.79993,67.29905,1.6989511,0.4515625,5.1213977336883545,68.16808648109436
68,680000,81.70599374497452,-65.7585,0.0043812515,0.4061361,-0.14557447,14.4224,1.0,9.657135,-2.9747834,191.56705,1569.5474,8.726084,105.783775,105.93939,105.52389,105.71003,25.172995,0.7,-105.306885,-52.07374,0.0011110296,-15.729498,2.988158,2.3138053,0.47522992,0.49174255,0.000118408636,0.3,-1.2801809,64.25299,64.234985,63.664806,63.729496,1.1187549,0.4921875,5.726418972015381,69.17504434585571
69,690000,75.62210274757575,-65.72744,0.0045702625,-0.10762286,-0.108896725,13.225067,1.0,3.4607768,0.7782077,159.58066,105.85037,5.7900267,103.187584,102.91325,102.53336,103.42483,14.581408,0.7,-103.728935,-47.634018,0.0064300527,-13.37787,-2.6834111,-2.5394526,-0.27249205,-1.8424112,1.8399953e-05,0.3,-1.5913545,64.5118,64.360214,64.2586,64.03522,0.9574069,0.503125,5.341351509094238,70.17143776814143
70,700000,56.282694479656925,-67.8094,0.004385971,-0.6969421,-0.09357729,12.375007,1.0,4.41531,-7.8160896,93.03465,106.970245,7.791011,103.68556,104.12777,104.272675,103.941925,130.13419,0.7,-106.693985,-41.92195,0.002108648,-21.887543,1.0207763,1.5439979,2.273194,6.0264335,1.1363474e-06,0.3,-1.7015204,65.98979,66.10086,66.11309,66.33687,1.6031265,0.46249998,3.9194860458374023,71.14814864794413
71,710000,57.00212143808792,-71.22451,0.0044947523,-0.025079489,-0.13958226,13.434044,1.0,5.496995,-3.119238,189.03632,64.634346,14.722385,107.694115,107.08201,107.00865,108.37649,63.87947,0.7,-107.969055,-37.36017,0.010471264,-11.050197,4.3192415,3.9837341,4.9356594,4.422033,3.7222635e-05,0.3,-1.253908,69.77601,69.642975,69.9626,70.1263,1.3148167,0.440625,3.9454472064971924,72.1275330622991
72,720000,65.40578934224784,-66.34264,0.0042599374,0.45992124,-0.16976416,12.680558,1.0,5.0556736,0.74845624,141.96,510.90704,5.8451304,106.398,105.75282,104.585724,105.63957,55.532574,0.7,-105.59919,-42.618526,0.00242087,-16.077518,0.43349838,-0.66972286,-1.0174459,-1.0353681,7.072504e-09,0.3,-1.7121909,64.64316,64.65744,64.41339,64.62201,1.6572509,0.484375,4.634291648864746,73.11812932093939
73,730000,45.756144038070794,-67.46474,0.0042612394,-0.6284603,-0.14761552,14.066037,1.0,3.119264,-1.3947864,117.45608,134.01453,8.578036,103.22282,103.02381,104.23215,103.61066,94.02546,0.7,-104.13012,-44.24666,0.00175312,-11.331654,-3.4265466,-3.9985964,-3.1408498,-0.7368567,3.8904077e-06,0.3,-1.018395,65.93892,65.86821,66.172646,66.34423,1.1279984,0.47812498,3.1665844917297363,74.08228245178859
74,740000,56.91325952379328,-65.78467,0.004288444,-1.2730975,-0.106508486,13.575152,1.0,3.8548644,2.5049233,96.26864,136.35236,7.1047277,103.26826,104.05965,103.784294,103.74186,56.624157,0.7,-104.01685,-46.98195,0.005129122,-13.672251,-4.657161,-0.22262669,-2.2474847,-4.926825,7.888302e-08,0.3,-1.4758708,64.42095,64.312775,64.38188,64.50505,1.4103737,0.4203125,3.983933448791504,75.05757915973663
75,750000,75.43003803285721,-70.40671,0.0045095654,-1.7012942,-0.16169772,13.852404,1.0,3.6854887,0.47048235,99.72186,88.78881,6.2401667,105.407684,105.27541,105.06356,105.21309,55.699764,0.7,-105.44346,-42.80882,0.007455904,-11.219811,0.41176146,0.5028643,0.98027277,-0.39080793,2.5749207e-06,0.3,-1.4996893,69.31618,69.32979,68.94275,68.85329,1.2054822,0.4875,5.326316595077515,76.06090345780055
76,760000,98.19939760949885,-66.74602,0.0037922175,2.4575014,-0.14092,14.721201,1.0,3.2229252,-0.785027,162.02469,41.44662,15.826493,105.442276,106.266914,105.613174,105.36157,50.044582,0.7,-105.84035,-50.093838,0.0014635408,-15.777923,-0.93070763,-1.4712873,-1.4807898,-0.6157035,4.7349535e-05,0.3,-1.5690938,64.967026,65.019135,65.07596,64.923096,1.5468252,0.48593748,6.9842493534088135,77.08359245856603
77,770000,59.846159750017236,-68.67137,0.0032239398,0.32430464,-0.12884599,13.824208,1.0,3.7052147,0.101720944,150.60641,87.57048,26.432661,104.08398,103.32974,103.96213,104.09657,72.0953,0.7,-104.55144,-57.24728,0.0005803388,-17.623657,-2.4351478,-1.7518141,-2.1002982,0.13309509,1.718402e-05,0.3,-1.1451497,66.39429,66.47566,66.29175,66.74725,1.7301251,0.44375,4.106457233428955,78.06660589377086
78,780000,54.706083750035425,-69.6003,0.0039651482,-0.39265606,-0.13323542,14.288773,1.0,3.837298,-2.1608887,179.10779,132.48447,6.0824327,108.49023,107.6676,107.077644,108.00375,13.429551,0.7,-110.25805,-64.17914,0.003467926,-11.054955,2.4609149,2.2916732,2.172088,1.8345096,3.8778276e-06,0.3,-1.035178,68.3692,68.21498,68.12451,68.12916,0.96500355,0.496875,3.7559149265289307,79.03440850575765
79,790000,76.68958563538582,-67.81368,0.0037739153,2.755711,-0.18820132,14.588948,1.0,3.8804574,-0.33275676,141.76085,170.65501,32.035603,105.25847,105.27711,104.5107,104.14185,71.0096,0.7,-106.25783,-64.76001,0.007187088,-14.078899,-3.319993,-0.2660131,-5.7988524,-7.9497223,4.793651e-06,0.3,-1.0738188,66.19345,66.229614,66.15387,66.066605,1.7756586,0.5,5.37054181098938,80.03520536025366
80,800000,61.845570999972566,-66.58545,0.0035882257,-0.9076813,-0.089958504,12.095233,1.0,3.50315,-3.9542847,223.5962,57.68512,9.437359,104.31829,104.60228,104.645836,105.50684,38.09993,0.7,-106.7487,-45.018627,0.010586005,-11.00271,3.1960073,3.060571,4.625012,4.3920045,9.052455e-06,0.3,-1.4244373,65.187775,65.07689,65.43289,65.754265,1.2837279,0.39531246,4.336416006088257,81.0161973198255
81,810000,65.9824031111503,-65.12841,0.0036246658,2.6904209,-0.20574455,14.832782,1.0,4.2087727,-0.9736059,299.06705,162.7114,12.301713,105.385056,105.58403,105.44118,106.204155,62.034344,0.7,-106.892624,-41.22729,0.00054330064,-10.086449,1.301647,0.71086085,-0.08855618,-1.6558473,4.172325e-06,0.3,-1.1150709,63.537697,63.497246,64.09671,64.20555,1.1910361,0.43749997,4.680279970169067,82.00314918756484
82,820000,63.810077781253895,-66.287964,0.003211106,0.11947101,-0.074037075,14.418327,1.0,3.2343447,-1.3694985,99.10932,44.874165,7.3557005,103.9293,103.859245,103.46066,103.70911,25.546503,0.7,-104.34291,-51.768696,0.002786173,-14.070434,0.5593767,1.1975033,0.7706554,0.25359777,6.1656287e-06,0.3,-1.4426546,64.60996,64.547165,64.397705,64.73587,0.7541969,0.4578125,4.405423164367676,82.9849207162857
83,830000,67.19098766059261,-65.72423,0.0029844674,-3.1549723,-0.23039928,15.70282,1.0,3.0137515,-3.3961883,126.17593,35.122604,11.701042,103.18105,103.298615,104.9724,104.49302,13.5353775,0.7,-104.82298,-44.167244,0.005620377,-11.127389,2.9987478,3.0839052,2.2736063,2.3228433,2.6970347e-06,0.3,-0.9486435,64.51792,64.64437,65.01179,65.07831,0.76178324,0.4453125,4.677993059158325,83.97084070444107
84,840000,59.223970113970225,-65.975235,0.0030976736,1.2301373,-0.15314184,13.808917,1.0,4.255818,12.837745,161.29163,116.142685,13.236921,105.74331,106.08061,105.0731,105.60089,53.31097,0.7,-109.06232,-48.29218,0.0055381088,-19.140047,-6.7830663,-7.313571,-5.3254538,-6.269478,4.192698e-08,0.3,-1.3412741,64.230354,64.08615,63.841507,64.01485,1.5859613,0.45468748,4.12873387336731,84.95190867980321
85,850000,55.75610274212808,-67.56947,0.0026764104,-0.95048314,-0.23360704,15.858561,1.0,2.7722523,0.76509506,111.71451,31.937593,8.034728,105.01029,105.25774,106.30674,106.003395,294.486,0.7,-106.56271,-38.567123,0.0043402947,-8.935271,-0.423608,0.041688204,1.0436373,0.61998624,4.304282e-07,0.3,-1.1054597,66.21239,66.26817,66.527695,66.5941,2.6017866,0.44062498,3.9467244148254395,85.92657899459203
86,860000,77.65798601647714,-65.39127,0.0027299905,-2.1558864,-0.21345718,15.600844,1.0,3.947182,-1.169486,152.83208,252.0301,9.700554,106.89658,106.16561,107.466736,107.52411,26.157738,0.7,-106.55397,-54.132618,0.00067441055,-8.960065,-1.8500302,-1.6416105,-2.0494564,-4.1975164,1.2960937e-05,0.3,-1.473397,63.995453,63.90885,63.67124,63.878548,1.3081954,0.459375,5.4792327880859375,86.9293131073316
87,870000,84.1335324188694,-65.477684,0.00275463,-2.2892256,-0.15346159,13.343834,1.0,4.879046,-0.10697458,121.90676,155.45456,7.719803,106.881645,107.23687,106.32199,105.470345,17.470905,0.7,-108.24958,-55.764984,0.005582975,-11.053319,-0.03658676,0.6248618,0.5528039,-0.083904505,1.9676208e-05,0.3,-1.2835956,63.788864,63.820087,63.84913,63.794918,1.0774372,0.47812498,5.872156381607056,87.93977497816086
88,880000,68.60053109941386,-67.11074,0.0023437801,0.2960149,-0.13530439,12.273538,1.0,3.1613991,-0.19026732,136.40044,77.26118,7.704051,106.109314,105.18469,106.250465,105.58441,188.70795,0.7,-106.860344,-61.63227,0.00391485,-11.044443,0.70900345,0.93223006,0.18354422,-0.1872251,4.0233135e-06,0.3,-1.4605224,65.548386,65.51834,65.67957,65.70331,1.9847066,0.47499996,4.760828971862793,88.93453095356624
89,890000,61.84867807615697,-64.200455,0.0022118974,-1.4449062,-0.21825257,14.224953,1.0,2.487252,-0.71674335,131.13905,50.158897,10.198308,104.001976,104.15568,104.02404,104.30949,22.944324,0.7,-105.097496,-53.34693,0.0017662896,-12.612127,-4.9485016,-4.5219903,-6.4186463,-3.5441415,7.227978e-05,0.3,-1.4837112,62.79284,62.775223,62.944042,63.17753,0.79879713,0.4421875,4.574125051498413,89.91927068630854
90,900000,80.75518826800372,-67.48222,0.0019548906,-1.6923665,-0.13154356,12.839975,1.0,3.1948354,-0.26870558,181.43118,85.0394,8.349289,107.076225,107.64968,107.29137,107.33998,57.782894,0.7,-108.47937,-62.05486,0.002225877,-12.06719,0.9053943,0.58359796,0.9932396,2.3139796,1.5716068e-08,0.3,-1.0486465,66.25714,66.42407,66.42494,66.448235,1.1599873,0.4296875,5.885478258132935,90.92895039319993
91,910000,58.90061660112035,-65.93271,0.001707452,-0.44726932,-0.24744885,14.9627905,1.0,2.4746487,-0.19794905,231.00618,23.860699,6.6942806,109.003876,107.974434,107.55345,106.746216,118.05754,0.7,-107.47836,-60.061073,0.007017983,-11.569627,-0.93863016,-0.70816183,-1.7865562,0.9693551,1.5461072e-05,0.3,-1.6757308,64.468155,64.418304,64.66441,64.792534,1.7218027,0.4609375,4.411638021469116,91.91261792182922
92,920000,75.88451305475017,-66.67995,0.0012955123,-1.2010086,-0.19842006,14.991365,1.0,5.867659,6.583339,143.81187,344.18066,6.941467,105.734604,105.87128,105.224815,104.8592,45.970596,0.7,-109.73156,-59.470135,0.007561514,-11.774123,-8.363913,-12.030854,-10.551422,-6.4438896,5.3246954e-06,0.3,-1.4650327,64.90598,65.05112,65.081665,64.865425,1.8461144,0.47812498,5.78369402885437,92.91701114575068
93,930000,79.42083210497086,-64.75409,0.0011438009,0.33145273,-0.1591684,13.509929,1.0,3.1704423,4.8924074,162.10057,38.4042,9.54697,105.81701,107.06768,107.08303,105.60446,19.239014,0.7,-108.03093,-55.684475,0.00622153,-13.293473,-1.634763,-1.9172719,-1.0777707,-1.088599,1.9509416e-06,0.3,-1.4623957,63.404522,63.475296,63.650997,63.68251,0.7601028,0.46875,5.813602685928345,93.92216046651204
94,940000,78.15870294273843,-69.37082,0.0010168249,-3.678564,-0.16396962,14.386769,1.0,3.5020194,-2.423582,168.44241,32.69498,13.643283,107.2119,107.32624,105.9558,106.905174,20.984146,0.7,-108.58263,-61.278305,0.00071619434,-13.917416,3.153686,3.042282,1.153119,2.398333,9.6660115e-06,0.3,-1.1294488,68.53288,68.310165,68.163574,68.38859,1.1120902,0.46249998,5.690978765487671,94.92244333028793
95,950000,66.11568617083977,-66.46179,0.00092905527,-1.6175759,-0.15871948,16.609524,1.0,3.176664,-0.42761862,187.12589,41.94562,7.8434787,109.06915,107.27725,107.43063,108.10389,306.78275,0.7,-107.54454,-60.216934,0.008088946,-13.862371,0.4229812,-0.7673861,-1.6753384,-0.72776675,1.0452907e-05,0.3,-1.9370514,65.01261,64.98772,65.196686,65.46555,2.517889,0.45,5.11049485206604,95.9146407008171
96,955000,69.83852001519318,-64.56614,0.0008616683,-0.87066174,-0.20974123,14.651275,1.0,3.1193993,-2.451919,182.09006,50.810604,21.686064,107.76732,108.106865,106.59789,106.80169,560.9741,0.7,-108.66031,-62.19094,0.00043094443,-10.104291,-6.0445766,-2.4178958,-5.033671,-3.7502775,2.913973e-06,0.3,-1.2210648,63.199238,63.406975,63.36468,63.26336,3.287233,0.4515625,4.928613901138306,96.45061903397242
97,960000,71.77503969183651,-68.95053,0.0008409752,0.082633615,-0.30327106,14.628797,1.0,2.938346,-1.321743,160.568,87.6317,14.858121,107.41208,107.50935,107.93024,107.964806,28.978153,0.7,-107.93489,-64.06205,0.0011272342,-9.472511,2.4183898,2.3040776,3.2084885,3.2605119,1.6625737e-06,0.3,-1.5322006,67.45563,67.45302,67.574036,67.65345,1.0503675,0.4140625,5.006404638290405,96.98377482096355
98,965000,68.0440494723791,-66.435814,0.0008630685,1.7723536,-0.19054571,17.874695,1.0,5.7028756,-3.3664258,186.8697,528.58026,7.8076663,105.54925,106.40503,105.95855,105.2303,73.95208,0.7,-107.36363,-60.02644,0.00044693018,-10.813917,0.04820025,-1.0757283,-1.3047693,-0.76597124,1.7968705e-06,0.3,-1.7810643,64.08867,64.107124,63.7093,63.840733,1.754875,0.48125,4.700655460357666,97.51736198663711
99,970000,72.7307051491009,-65.569466,0.00085155526,-0.67622334,-0.23474021,12.635811,1.0,2.4090343,-1.3716965,213.82988,35.05899,9.738334,106.89151,106.39983,106.60665,106.59993,46.831516,0.7,-107.256294,-56.099136,0.006149268,-10.899746,1.2121606,2.83009,-0.92219704,-0.05842769,8.3138e-06,0.3,-1.3567452,64.246826,64.15706,64.0401,63.936394,0.97370434,0.48125,5.0397114753723145,98.05365777810415
100,975000,65.59797861287767,-68.48024,0.00084686134,-0.25925237,-0.16513856,15.181168,1.0,4.1551695,-1.3290349,140.9957,55.712498,11.259184,105.750755,105.58768,105.69113,105.94019,76.78809,0.7,-107.39019,-54.17242,0.0015727672,-11.0051155,0.39278817,1.2580302,-0.25148162,-1.7957785,6.572111e-07,0.3,-1.1562642,66.946526,66.824844,66.59008,66.88817,1.5939754,0.4421875,4.554271221160889,98.58642685015997
101,980000,62.5401175732612,-65.45761,0.0008545483,-0.4752646,-0.26581034,16.449522,1.0,3.3653884,1.528867,162.01865,45.8844,7.912451,107.00635,107.457054,107.10449,107.82551,86.42653,0.7,-107.22332,-57.485348,0.00020353543,-12.99612,-0.95367914,-1.5338441,0.085786514,-1.8851075,7.627707e-07,0.3,-1.317514,63.77499,63.796844,63.31266,63.53244,1.7563341,0.4296875,4.427047252655029,99.11362769206364
102,985000,67.80349407506814,-65.72667,0.00079544936,-1.2830974,-0.26658842,15.343094,1.0,3.5691912,0.47763395,317.70334,100.138626,6.5427313,108.05936,108.500206,107.817986,106.20599,48.309032,0.7,-106.91624,-58.879047,0.007764087,-12.115954,0.19194067,0.40622222,-1.2517301,-0.75149894,4.313345e-06,0.3,-1.6305878,64.20094,64.25109,63.982716,64.19594,0.8950529,0.4296875,4.799415826797485,99.64762142101924
103,990000,77.67638447909412,-64.9986,0.0007381857,1.4763726,-0.18952155,14.869704,1.0,3.7725797,5.170395,223.67767,47.182507,8.139944,105.85502,105.66377,106.35087,106.70592,338.2175,0.7,-106.05242,-50.823284,0.0014871238,-16.314482,-8.001684,-7.969421,-7.9635677,-6.77218,8.329265e-05,0.3,-1.3677125,62.75097,62.765537,63.37358,63.830387,2.7875886,0.359375,5.388061285018921,100.1914924343427
104,995000,57.14382037895521,-67.49899,0.0006800612,-2.2477322,-0.254948,16.31893,1.0,2.7187996,-1.2611154,180.84932,27.194296,7.076798,107.67694,107.279945,107.43059,107.68428,71.21066,0.7,-107.553604,-61.356674,0.00065493304,-13.153564,0.056545317,-0.24532533,-0.8326178,-0.87806857,1.379475e-06,0.3,-1.2708479,66.1791,66.189644,66.13134,65.96598,1.1783655,0.4453125,3.93658185005188,100.71278067827225
105,1000000,59.40226195049709,-68.40684,0.0006437437,1.4261495,-0.27634093,15.981906,1.0,3.04008,3.5097365,287.9963,30.654099,7.254686,105.6834,106.05463,104.58728,104.89172,23.529163,0.7,-105.82743,-77.145805,0.004912773,-10.665284,-1.1213344,-1.3541528,0.033185508,-3.162867,4.3731834e-05,0.3,-1.4645677,66.54315,66.458694,66.085495,66.38589,1.1598444,0.4265625,4.071794033050537,101.23544198274612
