Xixo99/comfo/baselines/comfo7_perterbation_both_actor_and_critic/20230224_alphaQ0.0001/hopper-medium-replay-v2/COMFO7_s0_20230224_055839_hopper-medium-replay-v2_98.97.csv
,step,reward,actor_loss,alpha,alpha_loss,avg_conservative_loss,avg_smooth_loss,conservative_weight,critic_loss,max_actor_loss,max_alpha_loss,max_critic_loss,max_mle_prob,max_q1,max_q2,max_target_q,max_v,max_value_loss,max_weight,min_actor_loss,min_alpha_loss,min_critic_loss,min_mle_prob,min_q1,min_q2,min_target_q,min_v,min_value_loss,min_weight,mle_prob,q1,q2,target_q,v,value_loss,weight,eval_time,time
0,0,4.848995120123769,,,,,,,,,,,,,,,,,,,,,,,,,,,,,,,,,,,,
1,10000,15.927662127328562,-30.317738,0.05754624,-7.913368,-0.001782827,2.2642279,1.0,2.0180194,-0.12189174,24.593822,304.20026,8.011401,55.102978,55.049572,54.876373,54.139008,3.2833376,0.7,-55.284607,-23.624361,0.0002278762,-7.0978746,-3.7735953,-3.472607,-4.290787,-2.9755566,1.0892152e-06,0.3,-0.49193543,30.029366,30.003836,30.10005,29.789703,0.15010527,0.4671875,1.3229482173919678,2.714355425039927
2,20000,21.076234004628493,-48.10144,0.0037664906,-5.7622447,-0.0026959868,4.2721863,1.0,2.6792364,2.012794,114.468346,186.86533,9.536733,83.779434,84.043625,83.80794,82.2604,14.2768755,0.7,-83.827065,-41.710716,0.001916666,-10.3244915,-8.14012,-9.327672,-0.06519093,-1.9197417,2.0330324e-05,0.3,-1.2122184,47.271324,47.27492,47.284252,47.12587,0.6291925,0.45156246,1.755969762802124,3.663788421948751
3,30000,21.93370579039905,-57.875107,0.00023370917,-9.371424,-0.007003236,5.430408,1.0,5.0275545,1.9991993,161.21573,250.54239,8.374262,91.32156,91.02285,91.45845,90.521805,42.951904,0.7,-90.80304,-70.73596,0.0015111439,-10.174851,-1.7915556,-1.7558668,-2.5376644,-3.76441,8.329265e-05,0.3,-0.9842957,57.094612,57.09832,57.384773,57.461525,0.75292134,0.4265625,1.854250192642212,4.612236297130584
4,40000,24.06419616344525,-62.21829,1.3794714e-05,-11.116747,-0.014841619,6.6966805,1.0,35.259296,1.4068075,228.213,7979.094,7.593349,94.50042,94.02811,94.656334,95.38403,14.547742,0.7,-95.936226,-92.487274,0.0032625543,-9.533237,-0.8226314,-1.4223285,-3.3460712,-2.0987577,6.4445708e-06,0.3,-1.4849689,61.18242,61.189934,60.34395,60.893723,0.6550777,0.41875,1.977428674697876,5.565246005853017
5,50000,31.381708289111465,-63.187653,8.7208304e-07,-3.887982,-0.018963996,8.095297,1.0,6.53623,0.24329388,328.90222,731.86096,18.193596,96.17637,96.04473,96.48342,96.13387,47.661682,0.7,-97.25761,-168.27434,0.0019013621,-14.862457,-2.5077755,-2.1016123,-2.9620802,-2.074162,1.4963164e-05,0.3,-1.2161391,61.835117,61.82222,61.60187,61.88365,1.2396607,0.471875,2.3696155548095703,6.521779974301656
6,60000,31.952011359135973,-67.71951,5.865829e-08,-20.0565,-0.01676598,7.836021,1.0,2.7901008,2.104054,352.298,84.51549,14.658051,101.156166,101.72099,101.12029,101.07617,19.731155,0.7,-102.518135,-140.11923,0.009603987,-8.368906,-0.8491511,-2.162651,-1.0072839,-3.0888915,8.802745e-08,0.3,-0.828938,67.03052,66.99507,66.91438,66.61132,0.72025746,0.4765625,2.5131008625030518,7.48165719906489
7,70000,35.350788821300114,-62.00697,4.4268966e-09,-4.9247193,0.0029280894,8.383681,1.0,3.4562354,12.716559,479.4637,121.88567,6.527954,100.41301,100.41951,100.57667,98.795,92.07978,0.7,-103.07778,-154.19185,0.0015541326,-9.380197,-13.514104,-13.087754,-11.511567,-13.421478,3.277499e-07,0.3,-1.5527151,60.894054,60.79115,60.72523,60.57119,1.6230309,0.459375,2.6481828689575195,8.440076009432476
8,80000,31.869452890328503,-64.105255,4.0353565e-10,-9.442692,-0.022593325,8.8495455,1.0,3.372676,-2.7257075,333.44012,188.28972,6.5626144,100.09331,100.0025,99.015785,98.41781,189.83727,0.7,-101.69964,-214.74756,6.400813e-05,-15.315448,3.626611,3.7723362,1.2257612,2.3197327,6.572111e-07,0.3,-1.9676712,63.01142,63.152637,63.088226,62.993687,1.6727887,0.46249998,2.594123125076294,9.40120125611623
9,90000,32.99416387812643,-66.23774,4.787689e-11,0.93340564,-0.0077841803,8.383609,1.0,6.407576,3.5316434,542.4295,489.10297,9.26693,100.61189,100.78176,100.53439,100.11249,136.21046,0.7,-100.139854,-191.45627,0.0017054526,-12.738063,-4.847476,-4.767402,-6.4214277,-3.070322,9.1677066e-07,0.3,-1.4841471,64.804985,64.93315,64.96019,65.46256,1.6053573,0.4265625,2.449740171432495,10.356519254048665
10,100000,38.08769691948599,-67.35918,7.699537e-12,-3.374282,-0.016581757,8.72977,1.0,3.6433692,4.4805055,442.94324,52.35148,6.491449,103.023285,102.1402,101.30079,101.56057,81.407585,0.7,-103.06115,-247.79498,0.004173634,-10.631063,-0.72092426,-4.0423236,-5.2733555,-5.8740215,7.325038e-06,0.3,-1.2851179,66.46045,66.301315,66.26425,66.25175,1.315198,0.45,2.8891122341156006,11.316735704739889
11,110000,48.05386272869727,-65.25427,2.1268297e-12,2.8362353,-0.012492401,8.942683,1.0,2.9805646,1.1509637,1290.6257,33.437744,9.377424,101.16188,101.586105,101.80359,101.37331,96.927216,0.7,-102.077484,-209.61427,0.0028013617,-14.1192255,-0.5027928,-1.5172203,-1.402856,-3.4510057,1.2542122e-06,0.3,-1.412993,63.753323,63.840225,64.28848,64.30865,1.4724357,0.4265625,3.630131244659424,12.291968067487081
12,120000,36.02963766832825,-68.32323,7.615668e-13,-5.02439,-0.025390536,8.7651205,1.0,3.00954,-0.50036025,893.29736,72.94135,6.9482555,100.09625,99.37406,99.87815,99.99933,119.34223,0.7,-102.261734,-293.77588,0.00013173092,-11.764568,1.0221679,1.1222935,0.12133202,0.38724366,6.237708e-07,0.3,-1.5329407,67.00596,67.11604,67.30691,67.51756,1.7002938,0.43906248,2.8671696186065674,13.252707548936208
13,130000,41.67771994821998,-66.79452,4.7310213e-13,6.070842,-0.04059882,9.494256,1.0,4.8349633,-2.8129792,784.4509,171.90265,6.040483,100.835175,100.44441,101.40602,99.845055,197.55434,0.7,-100.20146,-224.80788,0.00074267044,-12.241926,-2.8654695,-6.0106516,-13.574706,-6.4616256,8.362066e-06,0.3,-1.5177916,65.34959,65.397484,65.03461,65.093834,2.311574,0.540625,3.1869354248046875,14.216982503732046
14,140000,34.09177666508937,-67.70366,3.6451555e-13,6.9621873,-0.026219625,9.929286,1.0,3.527229,-6.8309536,736.1745,67.6662,8.108176,102.99446,102.67903,101.83099,102.147026,190.1492,0.7,-103.735275,-218.04509,0.0014378515,-9.653295,-0.5321998,-1.9761531,-1.085167,-1.5688407,6.037485e-06,0.3,-1.4551542,65.93695,65.93564,66.04146,66.41196,2.6419878,0.4515625,2.5124475955963135,15.172479732831318
15,150000,34.71267730090102,-65.33163,4.1806578e-13,2.7346387,-0.01263357,8.961272,1.0,2.9652443,0.3090179,1219.137,71.47221,7.263261,101.19707,101.02397,101.22989,101.42812,122.19605,0.7,-101.92818,-208.18895,0.0058562797,-12.155638,-0.9976179,-1.0950067,1.0359225,-1.3993506,1.2415275e-05,0.3,-1.5808539,63.812073,63.86804,64.232544,64.46205,1.6538165,0.4765625,2.5977866649627686,16.13148998816808
16,160000,42.982031142981214,-68.36523,6.9778477e-13,13.466984,-0.027271006,9.682138,1.0,6.2159553,5.765701,789.69965,461.24088,12.976539,103.62117,103.27614,102.0686,101.97579,83.10779,0.7,-105.59677,-219.60185,0.0017628544,-12.556606,-7.844078,-5.375811,-5.921834,-3.8425276,1.0825635e-06,0.3,-1.3891714,66.68613,66.71968,66.11863,66.42729,1.3044586,0.4890625,3.023858070373535,17.097161388397218
17,170000,38.74298144869707,-68.060036,1.4195575e-12,1.4855795,-0.016309453,10.733019,1.0,3.2035587,-2.2064848,631.2477,45.954823,8.681095,103.074265,103.72507,105.214615,105.25098,33.542248,0.7,-103.86155,-230.50238,0.0013624955,-9.4959545,0.59323376,1.056838,0.52486104,2.1263194,2.1129383e-09,0.3,-1.6301961,66.57599,66.60487,67.00479,67.08686,0.8307854,0.44843748,2.775657892227173,18.061997695763907
18,180000,99.36678586047583,-67.87873,3.8283634e-12,-9.604866,-0.020712925,9.591715,1.0,3.5215883,-1.8552637,435.50595,233.63385,7.3143015,102.23217,102.60975,103.470566,101.64111,42.890602,0.7,-104.103516,-193.02933,0.0037465414,-10.643063,-3.2665427,-2.0166988,-2.0935261,-4.173388,1.8331223e-06,0.3,-1.2855992,66.724846,66.7561,66.43834,66.93088,0.8783042,0.42812496,7.287007808685303,19.099145380655923
19,190000,81.5585710709669,-68.42883,1.2298053e-11,1.9468426,-0.038759213,9.622873,1.0,3.1665177,-1.4986324,1030.3746,52.55365,6.6822805,103.19923,102.78873,103.466385,103.277794,41.236347,0.7,-103.53821,-210.9188,6.823451e-05,-10.685172,1.5347095,2.0253778,1.1771442,0.82255024,3.0205392e-05,0.3,-1.4845929,67.020966,67.05775,67.38373,67.480965,1.0214714,0.421875,5.842251300811768,20.11669148604075
20,200000,76.76678656722042,-65.26569,5.171594e-11,18.297142,-0.041145634,11.247367,1.0,4.7091722,-2.7641196,771.0729,307.6939,6.0725226,102.802444,102.346794,101.89068,102.63635,85.085815,0.7,-103.265,-206.76169,6.902992e-05,-10.330659,-3.8810482,-2.4067194,-1.0356219,-1.9410572,4.418119e-06,0.3,-1.6174744,63.740517,63.72288,63.46135,63.627663,1.6725961,0.4421875,5.568138837814331,21.129143448670707
21,210000,65.65157653031929,-66.905014,2.6303126e-10,-11.065062,-0.04458265,10.935915,1.0,3.6374104,3.9196146,351.65424,76.23146,12.4777775,101.75167,102.10271,102.31567,102.83312,24.789785,0.7,-101.62218,-221.94183,0.003246714,-10.096717,-3.0188715,-2.9261503,-4.509913,-2.7109196,1.0981149e-05,0.3,-1.1688547,65.719696,65.743034,65.75803,66.10653,0.8379263,0.4,4.641801357269287,22.12197511990865
22,220000,80.95494368105123,-66.6692,1.377904e-09,-1.7619486,-0.028648028,9.264259,1.0,2.9620585,0.91420984,489.3136,61.509888,7.9263797,103.07128,103.49581,103.06049,103.32671,80.87651,0.7,-103.914505,-141.92618,0.0013196194,-11.142703,1.5663579,-0.15757808,-3.1997766,0.48446873,3.4787412e-05,0.3,-1.4186134,65.198524,65.15381,65.39988,65.688034,1.4715886,0.465625,5.643438100814819,23.133721295992533
23,230000,59.89662479772498,-68.16794,7.354237e-09,17.301888,-0.03178787,10.513437,1.0,5.1843014,-1.0495524,612.63635,177.97333,6.427225,102.3351,102.60361,103.244354,103.959175,196.6797,0.7,-103.27556,-148.74718,0.0067185564,-12.611985,1.4345676,2.202692,-0.60215163,-0.76507676,0.00016074319,0.3,-1.615895,66.5287,66.59955,66.20527,66.798965,1.8690662,0.421875,4.327242374420166,24.126332167784373
24,240000,63.98448541059142,-67.589966,4.215588e-08,10.7614,-0.029877728,10.310407,1.0,5.2942276,-2.602591,590.07745,274.33246,7.901641,106.48398,104.726326,104.83797,104.5192,41.276176,0.7,-105.24015,-144.6799,0.0011438015,-10.153574,-1.0134897,-1.9466405,-0.47401148,0.81194395,1.4651847e-05,0.3,-1.7500458,65.8573,65.789536,65.63573,65.695885,1.0525073,0.4265625,4.663038969039917,25.125762327512106
25,250000,53.598975900903945,-67.790886,2.690675e-07,-0.48654628,-0.025283879,10.380906,1.0,3.8535542,-1.4725136,292.967,222.62526,8.579325,103.01538,103.474434,104.40179,102.07843,29.614872,0.7,-102.97355,-107.67533,0.0054593603,-8.653803,2.1061578,1.9846534,1.4628171,2.1318429,8.802745e-06,0.3,-1.646122,66.71173,66.74257,66.47451,66.54588,0.95607746,0.5078125,3.942035675048828,26.11121218999227
26,260000,85.98001228689952,-66.2789,1.5658518e-06,9.643682,-0.020383839,10.424356,1.0,3.5520146,-4.5667853,337.89047,84.65267,9.654404,102.704735,102.453964,102.30304,103.062355,99.923515,0.7,-102.6932,-123.76887,0.0035400153,-13.485207,5.5429535,5.1517234,5.770405,5.6836987,9.387732e-06,0.3,-1.6629667,64.49887,64.48248,64.66078,64.86122,1.3558786,0.45468748,5.983055353164673,27.12885619799296
27,270000,49.6274133613109,-68.13034,8.759285e-06,0.13184476,-0.03628355,10.651943,1.0,2.9352107,-0.86161464,279.14673,107.14595,8.851192,102.46147,102.90201,102.509995,102.20715,37.72612,0.7,-103.28859,-91.58662,0.00021161803,-15.860736,1.940423,1.3934493,1.2829279,1.7922795,5.9803282e-05,0.3,-1.91033,66.698456,66.60997,66.56884,66.71349,1.1614478,0.4609375,3.6494522094726562,28.109410655498504
28,280000,69.80135122164603,-68.96658,4.944173e-05,2.2129416,-0.03894901,9.482684,1.0,3.3617775,-3.8380437,169.64491,46.762222,9.710276,103.71266,103.18414,103.029816,103.06267,164.15097,0.7,-104.26402,-69.63817,0.0019010679,-10.646455,5.0677404,4.423029,3.710362,3.4857352,1.2765378e-07,0.3,-1.2689531,67.60327,67.543106,67.174446,67.430435,1.6454213,0.471875,5.021509170532227,29.111927374204
29,290000,37.56926104697337,-68.68724,0.00027596665,-1.3625017,-0.037433356,9.842917,1.0,2.696356,-3.2070184,220.61668,39.155552,16.113056,101.96579,101.96693,101.29932,101.49399,36.193405,0.7,-101.90787,-66.637,0.00057164585,-11.950123,2.217361,4.064123,1.4197966,3.3455827,9.00065e-08,0.3,-1.2209021,67.36228,67.428665,67.40428,67.32733,1.0042049,0.4984375,2.8623385429382324,30.07587947845459
30,300000,40.38161485716866,-66.72594,0.0012452424,-4.5608864,-0.021878606,10.581386,1.0,2.6720853,1.3948686,160.4018,47.983112,8.165335,103.026,103.27213,103.300064,102.281334,13.832918,0.7,-104.01157,-65.72438,0.0033338405,-14.405299,-2.2319157,-1.0608811,-1.4271929,-1.1209813,5.5300626e-07,0.3,-1.1476481,65.77786,65.67113,65.94075,65.959015,0.7880266,0.42343748,2.9449098110198975,31.04143034219742
31,310000,72.94215719838749,-67.98938,0.003683509,2.5081306,-0.0401772,10.306916,1.0,3.1468139,-2.1794858,137.51183,36.61754,6.835883,104.84739,104.410484,102.88168,103.24457,107.41939,0.7,-104.59961,-56.40913,0.0007751929,-10.56748,-3.1365104,-1.182854,-3.6215599,-2.5977325,5.388574e-09,0.3,-1.7914906,66.29783,66.109314,65.71866,66.05,1.5374415,0.4140625,5.304069995880127,32.049069023132326
32,320000,42.716911136831726,-66.21332,0.005403686,0.7944609,-0.03311957,11.24475,1.0,13.529339,-7.3126183,148.15768,2495.1335,8.257728,101.49522,102.55876,103.2716,101.812225,119.18894,0.7,-103.05289,-43.448803,0.0002965695,-14.672363,-14.384364,-18.297028,-18.921078,-13.190432,3.1393022e-06,0.3,-1.6959012,64.259155,64.29113,64.332504,64.63529,2.1258578,0.484375,3.084629535675049,33.02021103700002
33,330000,63.15335452725801,-65.67149,0.0053518377,1.444808,-0.046974853,10.908404,1.0,5.286456,-1.5646586,182.78462,322.41418,9.459557,102.362526,102.11021,102.78467,102.29362,493.2073,0.7,-102.902016,-48.660862,0.0007564433,-17.544493,1.0629574,0.974953,0.6724885,-0.06776294,1.945109e-06,0.3,-1.5813656,63.26652,63.379185,63.64951,63.950596,4.7024746,0.46249998,4.600745677947998,34.01341209808985
34,340000,46.619317580750185,-64.27025,0.004913247,2.5395303,-0.04084746,10.70238,1.0,3.781945,4.256803,132.33755,51.123116,7.065859,103.6121,103.50728,103.64685,103.39598,199.10454,0.7,-104.92146,-42.91232,0.0008592467,-10.243583,-2.083828,-2.9753351,-3.4149468,-4.876413,1.7437153e-06,0.3,-1.4570656,62.90425,63.014427,63.148315,63.09052,2.2010756,0.434375,3.600527048110962,34.991842583815256
35,350000,31.92908153296003,-66.405655,0.004566178,0.15566653,-0.05026564,10.501335,1.0,4.039467,8.258089,138.72357,208.5753,10.62145,103.39913,103.18396,103.39355,103.73584,68.18847,0.7,-103.49278,-47.400307,0.0016609491,-12.488455,-9.3888235,-10.622108,-0.509745,-6.070096,1.9965228e-07,0.3,-1.2252687,64.71623,64.7243,64.49538,65.246284,1.3733464,0.3796875,2.483665704727173,35.949447147051494
36,360000,65.6052275549369,-68.827736,0.00448727,0.7997574,-0.022927744,10.740868,1.0,3.8111491,2.7112787,161.40051,92.159836,7.193613,103.388115,103.12337,103.48753,103.87291,162.57617,0.7,-102.99624,-43.90468,0.0023973645,-10.46679,-1.6398745,0.52357966,0.6316222,1.4843054,3.7629197e-05,0.3,-1.7926348,66.93848,66.9857,66.8745,67.33053,2.5206594,0.4578125,5.258791446685791,36.951261293888095
37,370000,85.48447130271923,-68.466835,0.004326829,0.9820471,-0.051585447,10.974684,1.0,2.9452941,1.2991104,165.35168,113.41782,6.433769,102.147,102.671036,102.66641,102.71923,133.75357,0.7,-104.39042,-50.42803,0.016985774,-10.568274,-3.1047876,-5.7621927,-3.1163464,-4.5966563,3.352081e-05,0.3,-1.659897,66.55971,66.6723,66.30124,66.599,2.1188276,0.48593748,6.642096042633057,37.97535480658213
38,380000,36.65531260332715,-67.005135,0.004363563,-0.3848555,-0.03742322,11.099776,1.0,4.9020147,0.18521214,209.70909,86.70257,10.1605015,102.28417,102.56564,102.86892,101.07114,16.32573,0.7,-102.52597,-48.493893,0.0017226827,-10.253174,-1.4446841,-1.5446601,-1.8560611,-2.0467682,0.0001391628,0.3,-1.2804594,65.57759,65.771576,65.11184,64.976685,1.0379754,0.54375,2.7663769721984863,38.93652801116308
39,390000,67.36893228735326,-64.52322,0.00462185,-0.29957724,-0.036754068,9.842637,1.0,3.1793723,-1.6049473,213.3893,45.46289,9.5209055,102.387955,102.19189,103.05691,101.74294,63.015743,0.7,-103.6315,-54.634895,0.0016350003,-9.171732,-10.292803,-10.484905,-12.756275,-8.592558,3.666386e-05,0.3,-1.1376572,62.850555,62.818947,62.789726,62.65055,1.3861468,0.5171875,5.227458238601685,39.939917993545535
40,400000,59.621282194825135,-62.980106,0.0047534592,-0.8727423,-0.045763213,11.156894,1.0,5.6104918,1.9913015,110.33306,441.5211,9.626017,106.55333,105.767426,106.68361,105.67954,1080.8004,0.7,-106.95354,-40.147312,0.009545148,-14.217096,-13.877809,-14.711945,-0.024985075,-10.247882,0.00010016419,0.3,-1.4479448,61.82098,61.7744,62.207092,61.76191,5.544955,0.42343748,4.580146551132202,40.93122344811757
41,410000,75.20229007814946,-67.5533,0.0047187125,1.5583844,-0.039423406,10.480978,1.0,4.2580314,-0.9313929,161.6575,140.93161,21.404392,104.66689,104.36287,104.893005,104.391136,76.82181,0.7,-106.98191,-43.791737,0.0035336798,-12.190668,-0.8459888,-0.3629989,-8.995411,-1.1178049,5.2868858e-05,0.3,-1.2647765,65.75093,65.77122,65.97012,66.223755,1.424206,0.44374996,5.8442370891571045,41.9443537513415
42,420000,73.82617582153365,-66.77826,0.0045054145,-1.0004418,-0.04687993,11.264496,1.0,2.9950933,-0.062180698,139.21748,34.273384,9.941999,105.355896,105.67479,104.95151,105.5103,33.864967,0.7,-105.35082,-46.523853,0.002408613,-9.638438,-1.3509252,-0.39189684,-2.4422402,-0.65923387,3.7708618e-05,0.3,-1.2433982,65.283035,65.48947,65.29361,65.44531,0.96371484,0.46249998,5.7954981327056885,42.95705711841583
43,430000,71.674060307762,-70.439896,0.004061208,0.23706579,-0.046715174,10.775022,1.0,3.6855412,-2.747524,140.31323,35.731277,7.3705025,104.450775,103.91016,104.695404,104.86766,138.78282,0.7,-104.80032,-51.866547,0.00297046,-11.130539,2.4380171,2.1479282,2.455491,2.8592937,1.6790756e-06,0.3,-1.2241668,69.07021,68.958176,69.00285,69.17854,2.3791966,0.4375,5.306408643722534,43.96419358253479
44,440000,85.2278143966862,-67.82623,0.004427155,-0.52188325,-0.030396877,10.163607,1.0,3.3131716,4.1579266,145.23338,131.09561,6.4815083,104.10008,103.75913,104.76653,104.566124,24.483309,0.7,-103.984604,-46.074017,0.011098311,-11.706925,-2.6777406,-3.2218232,-5.1859307,-3.3755038,0.00012645291,0.3,-1.6113834,66.36789,66.48477,66.421936,66.756485,1.0045263,0.421875,6.201649904251099,44.98497350613276
45,450000,71.08783884722571,-68.3362,0.004565767,2.9638288,-0.030079925,11.911125,1.0,4.0910435,-0.9296204,163.23032,127.36299,12.310681,104.25237,105.36304,103.484535,103.8451,178.36093,0.7,-106.16071,-46.10759,0.0076399697,-10.654977,-3.9890501,-3.3513985,-3.9323473,-2.0047803,1.0171672e-06,0.3,-1.6277561,66.337036,66.38522,65.88475,66.31311,2.249673,0.43124998,5.2473437786102295,45.991113293170926
46,460000,58.87457381779514,-68.26827,0.0043254164,0.53358006,-0.042521752,10.662612,1.0,2.5154567,-2.6909685,157.86237,70.19383,8.721872,104.116875,103.85217,105.18508,103.65177,18.448477,0.7,-105.79463,-55.57595,0.00094764703,-10.00026,-1.2973547,-1.9725931,-2.1112301,-0.3890651,6.755884e-06,0.3,-1.5743715,66.802185,66.734665,66.612526,67.05751,0.9292551,0.40625,4.361912250518799,46.98373495340347
47,470000,51.64153115111554,-66.89532,0.004737452,-1.9130889,-0.028521908,11.321671,1.0,4.6366634,-2.7628727,103.46286,243.50858,7.8248763,105.09779,104.69381,104.04474,104.008224,56.38342,0.7,-104.24361,-49.386517,0.008164422,-9.233658,-1.8422921,-1.1116389,-2.3307323,-1.2195954,1.9900442e-06,0.3,-1.4980608,65.57641,65.57041,65.09906,65.36883,1.2285147,0.4375,3.7900302410125732,47.96826550960541
48,480000,77.31107549695807,-69.15862,0.0050831717,1.2448789,-0.04934082,11.61836,1.0,2.3860688,-1.515019,142.16719,57.93773,8.264433,103.54284,103.03348,103.10153,102.772255,19.100813,0.7,-104.021835,-43.56544,0.0062131956,-15.5193405,-1.6951069,-1.4665865,0.94990903,-0.58580416,1.810561e-06,0.3,-1.2504845,67.52174,67.58179,67.40745,67.43677,1.119503,0.5015625,5.713571310043335,48.98239157994588
49,490000,74.35875721574925,-65.866425,0.0049819723,0.15208453,-0.039141532,10.481635,1.0,3.1168413,1.0946059,129.86563,115.96824,6.822381,102.89545,102.82149,103.05669,102.52065,77.13872,0.7,-103.322174,-58.170628,0.00010551844,-12.399021,-6.2337346,-4.179777,-9.657139,-2.25025,7.0412357e-06,0.3,-1.3368834,63.64967,63.771423,63.551014,63.908028,1.7077588,0.4625,5.831976890563965,49.99931412935257
50,500000,69.4927619592879,-67.98761,0.00531962,1.3123105,-0.029905647,11.4516115,1.0,3.872828,-0.39097983,171.42294,72.52911,6.4386377,102.56459,102.94946,102.349434,102.532974,232.35057,0.7,-104.13189,-37.058395,0.00038018438,-11.999426,-2.1582358,-3.7402377,1.2463387,-2.6431243,1.9992585e-05,0.3,-1.4005017,66.02621,66.16376,65.62735,66.08301,2.1603763,0.44687498,5.052827835083008,51.00395117600759
51,510000,84.42808461101717,-65.77184,0.0050240927,0.5696809,-0.037053157,11.044131,1.0,3.439669,-1.1328574,194.52812,99.91585,16.355177,103.842514,104.20125,104.05411,103.95009,56.88424,0.7,-105.36173,-52.347164,0.0056696283,-11.655871,0.10864079,1.1372459,0.4938612,1.0842232,4.1308926e-06,0.3,-1.2034923,64.09643,64.11536,63.914207,63.977875,1.4821274,0.48593748,6.266146898269653,52.02645200093587
52,520000,61.01979597494006,-68.85121,0.004710574,-2.5884166,-0.03621119,10.915537,1.0,3.033544,-3.6016762,85.09013,45.321266,8.488712,105.44093,106.85022,104.09683,104.34421,15.899182,0.7,-106.07716,-45.967777,0.009432161,-13.890675,2.9303374,3.1413462,1.3273256,3.113022,9.153318e-06,0.3,-1.3505061,67.49028,67.65828,67.4753,67.737015,0.89726144,0.453125,4.508616209030151,53.01649356683095
53,530000,72.79241029323558,-64.474945,0.0046923733,1.8961915,-0.04297686,12.111384,1.0,4.160222,-4.3248286,146.1243,61.71318,8.95796,103.46146,103.4506,104.49798,104.02434,70.12449,0.7,-104.06366,-40.805027,0.0015202272,-18.234043,-3.5115652,-3.7619328,-0.2591647,-8.257171,5.862444e-05,0.3,-1.5627785,62.643063,62.531353,62.7252,62.752968,1.4170272,0.4609375,5.3023459911346436,54.022860475381215
54,540000,61.25420614409411,-66.53476,0.005244217,1.4054334,-0.04677579,11.662234,1.0,5.0450063,-2.8246293,140.36127,48.226532,11.604643,105.34065,105.1654,106.23614,106.064354,110.35791,0.7,-105.91,-42.722042,0.0028811963,-10.159164,-3.9022725,-5.9532843,-0.24425894,-1.3190049,1.745898e-06,0.3,-1.3347352,64.82864,64.90034,65.74377,65.899055,1.392024,0.4078125,4.509103059768677,55.0177206993103
55,550000,77.84033680937415,-66.9303,0.0056152185,-0.19518459,-0.05102362,10.728765,1.0,3.9776077,1.3031405,136.60852,102.44531,7.115283,105.55459,104.99515,106.573906,104.58457,174.99663,0.7,-105.70538,-43.617603,0.007850945,-12.260252,-3.979219,-1.6411288,-6.5164595,1.1510174,5.1961255e-05,0.3,-1.3882673,65.25555,65.3092,65.281555,65.7391,1.7886618,0.428125,5.763103485107422,56.0308363755544
56,560000,87.69186569324958,-64.30687,0.0054308083,-0.94583124,-0.025917545,11.598594,1.0,2.9799118,2.7485538,128.62692,62.148476,7.55389,103.245705,103.59333,103.78163,103.577576,25.100845,0.7,-103.60157,-41.990128,0.00451099,-13.027342,-3.5550385,-4.003469,-5.108447,-3.9754367,0.00016200503,0.3,-1.4330568,62.793877,62.76626,62.756065,63.054886,0.8880504,0.4453125,6.517940521240234,57.05994652112325
57,570000,45.904287808369766,-66.607994,0.0053632907,-0.23501658,-0.032024175,11.5448065,1.0,4.0977936,15.705722,116.992836,61.927322,13.161362,104.47329,104.65892,106.02855,104.67612,152.68596,0.7,-104.903564,-48.097733,0.00450014,-12.384201,-9.259703,-4.328691,-4.300196,-1.2747914,1.701123e-05,0.3,-1.5279577,65.335075,65.44979,65.20187,65.68206,2.5671647,0.43125,3.383234977722168,58.030022438367205
58,580000,81.10047290193089,-68.40757,0.005714011,0.52079105,-0.04750132,11.782689,1.0,2.7052155,-1.0270641,188.50761,25.12907,7.795767,104.160835,104.059906,104.1476,103.92614,99.82742,0.7,-104.93152,-44.485863,0.0018212344,-9.680977,-10.187505,-10.448583,-9.990722,-8.018453,4.2786996e-06,0.3,-1.2598997,66.41398,66.396774,66.31821,66.6883,1.3897507,0.453125,5.947775840759277,59.04918407201767
59,590000,86.11351919235733,-66.52635,0.005562479,1.8775128,-0.047921907,11.47029,1.0,4.0210304,-1.3603821,187.207,112.292694,9.622847,102.770836,102.65124,102.98637,104.18367,57.38951,0.7,-105.52665,-50.926613,0.0011848554,-18.543587,-0.10044497,-0.066167295,0.64189696,-0.6246358,1.3886719e-06,0.3,-1.3518422,64.94557,64.935684,65.301315,65.35862,1.3263109,0.40781248,6.316617965698242,60.069454801082614
60,600000,73.82315407741449,-65.80722,0.0057633044,0.711577,-0.019715793,11.765048,1.0,3.4257812,-1.6000369,162.26968,85.52069,7.8975534,103.349304,103.30958,103.40541,102.84754,363.09402,0.7,-103.87923,-41.005325,0.0002834911,-9.542395,2.1285896,1.5056313,-2.6754951,0.18620378,0.000108964814,0.3,-1.308892,64.20342,64.29186,63.894543,64.106415,2.3340542,0.45,5.6078808307647705,61.0806490778923
61,610000,57.96709505554608,-66.249565,0.0059428215,-0.21972954,-0.05397248,12.075269,1.0,5.6473703,-1.6547313,111.19078,538.38525,6.5770245,103.09303,102.9907,104.86876,104.16967,79.614685,0.7,-106.09649,-43.344086,0.0043613613,-11.920692,1.7329468,-0.890816,0.9965528,1.039639,4.895909e-06,0.3,-1.3786478,64.5626,64.671265,64.52389,64.80664,1.2962043,0.4453125,4.183576345443726,62.068635706106825
62,620000,54.178522369609894,-67.190186,0.0056555416,-0.37985265,-0.027121661,12.08677,1.0,2.9990296,-0.45547903,231.46005,59.572388,10.779873,104.06029,104.26775,104.57895,106.05193,48.140972,0.7,-104.76575,-42.07986,0.0021887585,-10.100832,-1.1102238,0.32874227,-1.6075103,-3.1212616,1.1092925e-06,0.3,-1.1571057,65.61793,65.73807,65.60265,65.874054,1.447958,0.41875,4.043965101242065,63.05541771650314
63,630000,71.75519637908573,-63.718018,0.0051697954,2.303648,-0.03869414,11.493912,1.0,3.2250094,-0.85051095,151.16582,66.08253,7.85715,105.65072,105.01874,106.74571,106.61508,66.149376,0.7,-107.32341,-58.8549,0.00035525794,-13.284283,2.2458386,2.1558466,0.13188158,0.45778352,5.309976e-06,0.3,-1.3701811,62.23556,62.260906,62.455902,62.384056,1.0693655,0.45937496,5.21425199508667,64.05963224569956
64,640000,49.9039618794075,-66.65077,0.0053215837,-1.7837653,-0.043539923,11.971265,1.0,3.1354961,-1.3184636,93.33963,103.11093,8.414133,104.029045,103.589005,104.08827,103.9916,42.600033,0.7,-105.18636,-43.475254,0.0004979934,-9.856844,1.9447289,0.958246,0.058048695,-0.45186466,5.505553e-06,0.3,-1.3440909,65.66747,65.53935,65.49634,65.447,1.3063369,0.43124998,3.7108449935913086,65.02675279378892
65,650000,82.09382555000771,-67.16017,0.0045510973,0.25842524,-0.057391804,11.789709,1.0,4.972128,-2.0664623,101.96084,270.474,6.5726404,102.97186,103.184135,102.82917,102.90111,53.444313,0.7,-105.95316,-40.38252,0.0050080325,-10.405044,0.8318179,-1.0245752,-1.4129322,0.49667373,6.370526e-06,0.3,-1.3207368,65.755714,65.74257,65.689606,66.113525,1.0315671,0.4140625,6.029381513595581,66.01561957200369
66,660000,57.3124789556541,-66.82556,0.0050190617,-0.10289687,-0.045361966,11.970471,1.0,2.8487742,0.1299904,153.73961,44.226273,9.011075,103.86747,104.099304,103.23667,103.57302,48.65603,0.7,-103.74203,-43.96764,0.004375647,-14.453577,1.0282674,-0.55689377,0.9536297,0.35627902,3.521098e-07,0.3,-1.5676111,65.19795,65.30146,65.270004,65.54048,1.1510494,0.42343748,4.188324451446533,66.9847258845965
67,670000,45.05546407467505,-65.22422,0.0051982696,0.8314252,-0.032674994,12.628052,1.0,3.634945,-0.16412997,146.74448,69.66436,9.036762,102.0871,102.22464,102.44593,101.92833,30.335897,0.7,-103.2194,-31.995558,0.0001716023,-11.010578,-3.872023,-3.483129,-2.6037664,-2.7996852,2.7154604e-06,0.3,-1.5387156,63.717197,63.771847,63.322906,63.567898,1.1395009,0.465625,3.459115743637085,67.95567656358084
68,680000,54.79398414148942,-67.761795,0.0050106016,0.509838,-0.03482298,10.75332,1.0,2.788438,0.90692973,108.2656,40.23741,7.270622,104.06927,105.3742,104.820625,105.2231,293.6217,0.7,-106.420044,-37.95498,0.0014937918,-20.585583,-1.9339552,-0.5204418,0.0980405,0.4575443,8.840289e-07,0.3,-1.2546524,66.15466,66.24556,66.559875,66.81055,2.5216126,0.4578125,4.293127775192261,68.94366867939631
69,690000,87.0341132509913,-66.27908,0.004856071,-1.9941242,-0.033770967,10.63206,1.0,2.9669597,-3.630869,116.69013,49.022785,7.6891255,103.255295,102.937065,103.45898,103.06042,115.65415,0.7,-102.89464,-40.169544,0.0032914819,-11.26019,1.6128454,-0.078975916,-0.33777303,1.357252,2.5615273e-06,0.3,-1.11221,65.04042,64.941055,65.29568,65.103905,1.3725734,0.4359375,7.264929533004761,69.97790081898371
70,700000,76.04845941062443,-64.248535,0.0048587597,-1.4738319,-0.031139845,11.415248,1.0,2.4465313,1.2760862,130.72804,64.463905,9.16628,105.227844,104.52502,104.14281,105.867226,231.4358,0.7,-105.77534,-37.351322,0.009447864,-13.608949,-0.01911199,-0.018095613,-3.7681804,-2.626585,1.7797981e-06,0.3,-1.0470577,63.06678,62.896603,62.830902,63.19434,1.8073589,0.44375,5.513490200042725,70.98629884322484
71,710000,64.70215521335525,-68.649414,0.0044784737,-3.1822367,-0.01566649,11.155955,1.0,2.7264438,-2.3831882,116.44272,95.42566,10.430229,102.04149,102.35313,101.68318,102.40291,111.83713,0.7,-102.79383,-46.890377,0.0029602502,-10.40391,-1.2372038,-2.5697675,-1.4882572,-0.82305104,2.0664186e-06,0.3,-1.4098175,67.171326,67.113045,67.085526,67.33835,1.2963979,0.4453125,4.626603364944458,71.98208055098851
72,720000,100.23618194570203,-67.921234,0.0047872677,-0.11624658,-0.041099172,11.076186,1.0,2.935875,-2.4128268,123.059074,37.933357,9.529067,101.11233,101.35442,100.84247,101.201645,78.95921,0.7,-103.05085,-53.08196,0.0022996496,-10.441315,0.6265352,0.19891012,1.5652753,-1.4609445,1.0353397e-07,0.3,-1.5312557,66.47987,66.49179,66.385666,66.79211,1.1568687,0.44843748,7.502769708633423,73.02427585919698
73,730000,91.12074337884054,-65.61755,0.004682101,5.437555,-0.05021673,12.909099,1.0,3.3938575,-0.49305618,170.98393,64.61894,10.182562,103.86045,103.50698,103.260086,102.85973,66.465996,0.7,-104.90579,-49.784027,0.0011279667,-11.493965,-0.09172565,2.6351528,0.42637527,1.9625827,6.350425e-05,0.3,-1.3927426,63.59348,63.59201,63.3083,63.489674,1.1684587,0.47031248,6.606559991836548,74.05374337037405
74,740000,61.2482116810017,-64.406586,0.004322759,-0.45423454,-0.05564485,11.961094,1.0,6.707185,-0.105921865,163.13158,361.90115,6.452441,103.62798,103.42549,103.00972,103.29043,123.48493,0.7,-104.05783,-46.542297,0.011636683,-12.409746,-1.865967,-5.577379,-1.682811,-10.057413,2.365855e-05,0.3,-1.8524756,62.743355,62.766632,62.032093,62.327583,1.8013018,0.5234375,4.419951677322388,75.04270069201787
75,750000,60.017929852298494,-66.4919,0.0042965226,-1.445455,-0.03650964,11.002679,1.0,4.720933,1.6470859,102.757545,91.333786,7.5157027,103.533424,104.3454,102.87575,102.713684,49.986515,0.7,-104.968414,-40.266064,0.0023851572,-9.97947,-4.073253,-3.088657,-0.2687372,0.61660296,3.6917325e-05,0.3,-1.4957237,65.28742,65.53375,64.65619,64.89484,1.1580535,0.4765625,4.620291233062744,76.03674904108047
76,760000,74.56553298893618,-67.960754,0.0038765424,0.43213332,-0.054283004,11.792509,1.0,4.165347,2.8784068,115.236336,241.54008,7.5585465,107.4977,106.1761,105.78818,105.97235,264.02863,0.7,-107.17421,-42.600872,0.0012833148,-10.091825,-5.377997,-2.2582183,-4.0460825,-0.80465627,5.720824e-07,0.3,-0.8911624,66.7973,66.69379,66.93195,66.823654,2.1955507,0.4671875,6.155618906021118,77.05192467768987
77,770000,94.71145863891151,-68.94354,0.0036959902,2.5099745,-0.02977674,10.973236,1.0,2.6816435,-2.8874745,178.71031,71.32415,8.491219,107.37529,107.60741,106.86682,107.199425,106.33192,0.7,-108.729805,-68.64674,0.00065622275,-10.341581,3.4383,3.6231987,0.62861454,4.242042,5.961301e-08,0.3,-1.1299324,67.54309,67.43681,67.40787,67.45279,1.2437515,0.44687498,7.4285218715667725,78.0924289782842
78,780000,100.03297776489026,-68.93615,0.0040927096,-1.4118581,-0.042782243,10.403815,1.0,2.551906,-2.2585106,149.5523,33.663273,8.627796,105.26164,105.249,106.033226,106.338326,8.753154,0.7,-106.37289,-51.984974,0.006901831,-9.47239,0.5917975,-0.51103264,-0.90719205,-0.2388959,5.111098e-07,0.3,-0.8830617,67.56833,67.601074,67.95545,68.16852,0.7504513,0.42343748,8.107540130615234,79.14017593463262
79,790000,77.11655607574927,-66.46184,0.0036970512,-1.0256286,-0.054103255,10.927633,1.0,4.1235065,1.2446887,156.23718,57.194286,21.3516,103.80526,104.555016,104.06859,103.893814,13.069492,0.7,-105.20727,-61.91126,0.0041558575,-12.622524,-1.156481,-0.92443794,1.2718618,-0.34266368,1.2448698e-06,0.3,-1.0602702,65.08505,65.06047,65.48956,65.58006,0.77877164,0.43593746,5.9700751304626465,80.15782168308894
80,800000,96.69676816684536,-65.93718,0.0038642308,0.7872337,-0.04692548,11.925526,1.0,3.6868815,0.19637734,198.37456,47.610203,8.145229,104.38446,104.79068,106.11613,105.993645,10.2096195,0.7,-105.70384,-44.097477,0.0015416846,-10.695743,-4.8858466,-5.0663376,-2.1292028,-4.172883,1.0597869e-05,0.3,-1.1106155,64.601456,64.76831,65.286446,65.164375,0.80923426,0.46875,7.518124341964722,81.19814868370692
81,810000,80.26419107591657,-66.0484,0.0041474607,-0.46917784,-0.036364373,11.006978,1.0,3.6093497,3.772214,183.70209,134.48643,9.018675,104.95275,104.906265,103.76537,104.163666,129.31969,0.7,-105.38208,-43.79108,8.7993016e-05,-10.98176,-2.7867131,-6.0631,-1.0336738,-7.4842143,4.2391474e-07,0.3,-1.1721392,64.694534,64.64958,64.47365,64.79162,1.6661696,0.45,6.126758575439453,82.2149053812027
82,820000,83.70784393084617,-65.25081,0.004332424,2.4362266,-0.062058073,12.186374,1.0,4.1135936,0.18337965,225.7285,83.80726,6.539211,104.34985,104.6697,104.62949,104.88892,59.92866,0.7,-105.1287,-43.356625,0.0021684743,-10.906309,-3.3549206,-2.3696003,-4.9525113,-4.586392,2.5874936e-06,0.3,-1.2070858,63.407173,63.492645,64.079926,64.048416,1.1085069,0.41875,6.2188379764556885,83.22744731903076
83,830000,95.39031894537112,-67.024605,0.0038859462,0.30141687,-0.055856835,11.08554,1.0,3.9999301,-1.7713232,294.04855,209.14355,27.339832,105.51683,105.69294,105.688934,105.66323,59.44745,0.7,-105.59205,-54.42326,0.0012681411,-9.003324,0.18706292,-0.008758366,-0.25848982,-0.62385434,9.129433e-05,0.3,-1.0043533,65.50774,65.58892,65.34436,65.57318,1.0814452,0.425,7.185931921005249,84.26433668533961
84,840000,97.07715429106271,-64.18012,0.0038581772,-1.7260282,-0.048339117,11.503617,1.0,2.933385,-4.346919,97.13364,62.864258,8.861535,103.795784,103.32178,104.34656,104.50361,93.652756,0.7,-105.3926,-59.50652,0.00019177237,-14.349583,-6.171531,-6.496234,-6.9949737,-6.2205815,1.8203416e-05,0.3,-1.6127319,62.798424,62.671043,62.77841,63.023247,1.5505123,0.42812496,7.4036266803741455,85.30562658707301
85,850000,100.42749156931467,-66.154976,0.00403961,1.622201,-0.03786411,12.898203,1.0,5.025118,-4.8094993,164.24437,116.8372,6.2384224,104.595276,104.75428,103.568115,104.079666,249.15741,0.7,-104.26148,-43.83771,0.010426281,-14.03987,-2.8096077,-2.5642722,-5.2277813,-2.1885674,1.0740013e-06,0.3,-1.6376336,63.889423,63.962334,63.366875,64.24692,3.571082,0.43906248,7.422203779220581,86.35004791816075
86,860000,90.63803391861276,-64.91094,0.0042931903,-1.266315,-0.04836027,11.537472,1.0,3.5486777,2.8599446,100.40618,81.31271,7.258027,106.26796,105.4289,105.000824,105.73603,14.682023,0.7,-106.5146,-46.27076,0.0035521926,-10.424929,-1.3572662,-0.12793201,0.6898049,-4.632708,2.3011035e-05,0.3,-1.4421625,63.447216,63.630302,63.420895,63.56556,0.82594955,0.4703125,6.6668541431427,87.37797238032023
87,870000,89.06199448727065,-67.78856,0.0037392168,1.2532581,-0.023758948,11.472495,1.0,3.3925936,-2.0301158,189.23782,67.09882,9.180312,104.635956,105.00609,104.10827,105.470535,53.01526,0.7,-106.09938,-45.733997,0.006068323,-11.864258,0.29584068,-4.7171516,-0.9629778,-1.4504756,1.6634167e-05,0.3,-1.1055274,66.04031,65.9966,66.19913,66.192955,1.4434538,0.4578125,6.5039520263671875,88.40691355864207
88,880000,97.6310109627179,-65.64412,0.0031868066,-1.1189783,-0.042156845,12.179766,1.0,4.002138,-1.0469171,129.17673,50.408516,8.6097,104.58079,104.893715,104.15158,103.86943,201.2538,0.7,-104.64177,-56.307022,0.006451238,-11.854766,1.0540287,2.2327123,0.2767045,-0.4566524,4.8119114e-07,0.3,-1.3560593,64.10099,64.12977,63.75232,64.07928,2.3151746,0.484375,7.558476686477661,89.45119673808416
89,890000,98.70101267641603,-64.77361,0.0032000896,2.3033497,-0.043700512,11.971023,1.0,3.5509408,-1.0414597,264.8905,82.29062,6.2063813,104.837555,104.91599,104.59958,103.78327,396.76523,0.7,-105.24868,-55.237904,0.0016753612,-13.89384,0.58970773,1.1154616,-2.0872307,-2.355443,2.212025e-06,0.3,-2.026866,62.9115,62.920246,62.53986,62.730865,3.2657042,0.51874995,7.49934983253479,90.49609939257304
90,900000,96.20905007813751,-67.38188,0.003903805,0.11041355,-0.032844912,11.77379,1.0,3.260879,-1.1764007,137.48767,162.24391,5.7827463,104.5677,104.49451,103.20205,103.29323,15.311393,0.7,-105.376305,-37.770916,0.0002767656,-12.336533,-2.7780008,-2.059406,-3.8866332,1.2693381,1.7825558e-06,0.3,-1.4122014,65.75487,65.798615,65.715576,66.13384,1.010497,0.4484375,7.22210431098938,91.53788712422053
91,910000,99.26246178705514,-65.04538,0.0039852946,0.17160976,-0.033895712,11.574605,1.0,4.2195697,-1.2276053,186.19624,257.06174,12.576765,104.083916,104.69886,104.343666,104.0992,33.78066,0.7,-104.40061,-54.459923,0.009976984,-10.929462,0.19336295,0.45113897,0.8546352,0.48382944,1.8525753e-07,0.3,-1.401562,64.03693,63.865177,64.05152,64.03044,1.0040593,0.434375,7.631917476654053,92.58733179966609
92,920000,97.71461594179826,-67.33493,0.00336752,-0.74311125,-0.03403763,12.017626,1.0,4.2245483,1.168674,221.34322,137.75693,9.345718,105.998955,105.13387,106.469154,105.64056,26.284277,0.7,-105.73362,-54.44275,0.0003699796,-14.158579,-8.76856,-8.638109,-2.1857662,-7.5511236,1.550722e-06,0.3,-1.3865597,65.86858,65.83624,66.18561,65.96158,0.9658097,0.42343748,7.362954616546631,93.62933012247086
93,930000,98.35385892765454,-64.24401,0.003248022,-1.1647428,-0.03934725,11.110251,1.0,2.9845374,2.4692075,235.38206,37.63376,6.7972746,104.00779,103.49106,102.3011,102.87495,25.005447,0.7,-103.699165,-50.668476,0.000604455,-8.785708,-4.145096,-1.6522487,-2.2015643,-3.874133,7.700874e-09,0.3,-0.9332557,62.99975,62.982483,62.834244,63.109753,1.0318471,0.47031248,7.368490695953369,94.66890323956808
94,940000,98.06082679104821,-65.73897,0.0033919725,1.8642068,-0.06643181,13.395055,1.0,3.782736,-1.4812617,263.40277,53.364525,9.241063,105.00363,105.86441,104.66833,106.72296,64.72739,0.7,-107.28925,-46.683544,0.0024281277,-13.865564,-4.4538727,-3.999566,-5.5948334,-7.4755807,1.788391e-05,0.3,-1.396599,64.10412,64.30705,63.965218,64.110306,1.2916156,0.4640625,7.533548593521118,95.71409155130387
95,950000,98.55031415070758,-65.54329,0.0029536355,-0.18261409,-0.060290135,12.615125,1.0,3.2946541,-2.5422707,129.454,44.789104,10.131357,103.84538,103.577995,103.83486,103.43175,39.273727,0.7,-104.67602,-49.934555,0.004251752,-10.95651,-3.9641676,-2.6024818,-1.9885585,-3.5048041,2.6547741e-05,0.3,-1.2135679,64.19661,64.195465,64.29398,64.264084,0.79225373,0.4265625,7.609259128570557,96.76026268800099
96,955000,98.80105908955872,-66.786476,0.002928746,-0.4219458,-0.055557836,12.634903,1.0,4.0154395,0.12745681,233.03369,123.3644,8.901593,103.63569,103.30332,102.742,103.780945,252.81815,0.7,-105.252655,-46.98829,0.0032468408,-11.77677,0.1873039,-2.9956968,0.97420526,1.1341429,2.212025e-06,0.3,-1.3332442,65.06528,65.241104,65.10656,65.338165,2.2104683,0.4640625,7.458181142807007,97.34322468837102
97,960000,100.10709186467336,-64.551056,0.0028691029,-2.0375848,-0.054478835,12.081161,1.0,3.265359,-1.537045,292.5938,61.526596,7.169247,103.24123,103.71068,103.38616,104.397,96.77833,0.7,-102.99575,-54.23075,0.008254653,-9.897259,1.487445,1.3329685,1.0362059,1.8189348,5.0466045e-09,0.3,-1.1934577,63.315758,63.226166,63.275005,63.295326,1.2098646,0.475,7.477797746658325,97.92683935165405
98,965000,97.86449294416906,-65.17819,0.0029077204,2.3248172,-0.053463127,12.9958515,1.0,3.114536,-0.93748474,179.13011,205.47531,6.8438845,106.03514,105.81645,107.021065,107.14029,88.49815,0.7,-106.98348,-44.95477,0.006177202,-12.805341,0.8031285,0.54639655,0.20454404,-0.15373671,1.807285e-05,0.3,-1.6225624,63.440434,63.247677,63.527977,63.93518,1.7775683,0.43124998,7.620504379272461,98.51257243156434
99,970000,100.0835043070949,-64.541565,0.0031386956,-2.339468,-0.06245611,12.256996,1.0,3.817356,-1.9005474,116.700836,69.57568,6.088104,104.79724,104.4218,104.2616,105.40192,339.01544,0.7,-104.01932,-52.662262,0.0012446737,-18.491493,1.1785806,1.7383126,0.85793924,0.64001137,9.426888e-06,0.3,-1.4105954,62.944115,63.028732,62.64972,63.168217,2.4255762,0.4796875,7.554994583129883,99.0977163553238
100,975000,99.31532685992921,-67.81286,0.0032223,-0.74415314,-0.04706328,11.32476,1.0,2.604319,-0.18336388,124.33055,27.38212,7.210531,105.60989,105.517395,106.04687,105.87989,29.722649,0.7,-106.5279,-49.271637,0.00076268153,-10.841501,-0.6816124,0.25199032,-2.1886442,-1.5800952,1.466833e-09,0.3,-1.1458308,66.80448,66.64366,66.50324,66.41568,0.972296,0.5015625,7.580431938171387,99.68509278297424
101,980000,97.71911955816643,-66.49682,0.0033522744,2.4757657,-0.02685875,12.091677,1.0,3.9549162,1.6360687,175.83562,98.26606,12.173933,103.60023,104.42623,104.61419,104.48254,70.811516,0.7,-104.48198,-44.91219,0.001460734,-12.843946,-0.96814024,-2.439784,-0.38853085,-1.8060274,1.1578596e-08,0.3,-1.7140522,64.85383,64.664185,64.87283,64.997986,1.2094688,0.4453125,7.602623701095581,100.26986399888992
102,985000,98.89949462495314,-65.95572,0.0033027893,-1.3430778,-0.031311568,11.988225,1.0,2.9674485,0.46006644,87.78245,50.464096,8.355608,104.24588,104.03583,104.006065,103.657555,96.79649,0.7,-105.45157,-54.004597,0.008061739,-11.3731165,-1.5883693,-3.0974324,-1.8931032,-2.0636764,1.3736296e-07,0.3,-0.95312774,64.70524,64.682816,64.75943,64.68535,1.6980925,0.5015625,7.402578830718994,100.85537561178208
103,990000,99.93308127137364,-66.673706,0.0031856792,-0.10160375,-0.05870536,12.955016,1.0,3.6366317,-4.6238604,126.17179,164.51086,7.8320255,104.35961,104.77975,104.45228,103.65967,119.73538,0.7,-106.132744,-58.16011,0.002772794,-13.177372,-3.153288,-4.47751,-2.598017,-2.4104908,7.511366e-05,0.3,-0.89933634,64.985725,65.00864,64.8435,65.26418,2.01584,0.4640625,7.5224692821502686,101.43966835339864
104,995000,97.88278568308536,-65.317604,0.003141524,-0.4579339,-0.064335175,11.966051,1.0,2.746112,-3.437261,141.01471,72.00268,16.114496,104.12495,103.84112,104.35386,104.374916,20.356588,0.7,-103.867065,-45.694572,3.933703e-05,-11.506461,1.5304732,1.2795866,-0.7658731,-0.16490209,0.0002693285,0.3,-1.2068775,63.827187,63.78461,63.69022,63.748997,1.0062783,0.49531248,7.485677719116211,102.02666624387105
105,1000000,99.08442801201726,-68.14264,0.0029680845,2.725103,-0.07461997,12.646596,1.0,3.4790435,-3.8703384,143.62791,55.902042,9.232967,105.66837,105.71215,104.59191,105.15819,45.04604,0.7,-106.44608,-51.939148,0.0016179011,-12.3697605,-4.236872,-4.7586813,-4.752616,-4.583297,1.4183461e-05,0.3,-1.3658904,66.59155,66.73146,66.218605,66.25241,1.1240966,0.48125,7.526301622390747,102.61042991081874
