Xixo99/comfo/baselines/comfo7_perterbation_both_actor_and_critic/20230224_alphaQ0.0001/hopper-medium-replay-v2/COMFO7_s1_20230224_215400_hopper-medium-replay-v2_80.31.csv
,step,reward,actor_loss,alpha,alpha_loss,avg_conservative_loss,avg_smooth_loss,conservative_weight,critic_loss,max_actor_loss,max_alpha_loss,max_critic_loss,max_mle_prob,max_q1,max_q2,max_target_q,max_v,max_value_loss,max_weight,min_actor_loss,min_alpha_loss,min_critic_loss,min_mle_prob,min_q1,min_q2,min_target_q,min_v,min_value_loss,min_weight,mle_prob,q1,q2,target_q,v,value_loss,weight,eval_time,time
0,0,4.928585947283264,,,,,,,,,,,,,,,,,,,,,,,,,,,,,,,,,,,,
1,10000,12.906277476710926,-28.975168,0.057240933,-8.77696,0.0012517965,2.3182137,1.0,1.8916727,1.0772551,10.630618,178.61128,8.489198,56.989822,56.874023,58.238297,57.104515,8.687754,0.7,-57.215492,-24.34398,0.0005555793,-6.6282034,-1.2028337,-0.87178355,-1.8284405,-2.2434287,1.4058397e-06,0.3,-0.53404224,28.765812,28.726097,29.199867,28.60072,0.16795892,0.4609375,1.263242483139038,2.7322838226954143
2,20000,16.0703539928036,-46.148663,0.003703267,-4.7253265,0.00254378,4.12314,1.0,2.0483725,16.987717,148.47643,85.24887,6.808484,75.11273,75.13065,76.55211,75.80139,44.15851,0.7,-75.52028,-43.2208,0.0024599943,-15.62136,-15.6276045,-15.616965,-15.316027,-16.571459,8.260759e-07,0.3,-0.9164872,45.299744,45.415028,45.610184,45.531715,0.63240796,0.42343748,1.5933213233947754,3.676954718430837
3,30000,22.384059051287313,-57.16586,0.00023267219,-6.235747,-0.0016600922,5.7507634,1.0,4.0850897,-2.6961074,215.18248,116.64868,18.560421,86.07108,86.044334,85.77784,85.51559,24.36316,0.7,-86.63523,-86.77164,0.003861283,-20.063763,-1.2246815,0.88626814,0.9100732,1.4757972,7.164159e-05,0.3,-1.1758251,56.025887,55.995003,55.587666,55.678097,0.951568,0.5109375,1.982673168182373,4.624194935957591
4,40000,53.192921987984334,-60.94821,1.3647284e-05,-6.6253405,-0.0037130502,6.569262,1.0,2.738537,-7.427857,237.54468,45.550034,29.774052,93.10674,92.988716,93.32911,92.8791,20.886604,0.7,-93.531906,-90.58416,0.00025805534,-8.926571,0.791035,1.4004977,3.3736439,5.286201,5.6829584e-05,0.3,-1.1072128,59.996292,59.848175,59.719017,59.68581,0.85166705,0.4796875,4.220507383346558,5.606061502297719
5,50000,35.28363478950505,-64.25586,8.2843144e-07,-11.395796,-0.004933478,7.452968,1.0,3.7117107,-2.5637221,205.09395,194.59619,6.94857,95.318016,95.258194,95.69896,95.60077,88.94332,0.7,-95.77069,-102.22384,0.0011888833,-20.811253,3.7065363,3.3316996,3.435164,3.46573,2.1930784e-06,0.3,-1.395861,63.192703,63.131294,63.09445,63.49784,1.2450556,0.4453125,2.8432748317718506,6.568732865651449
6,60000,34.49793215224519,-63.14718,5.54633e-08,-8.1717005,-0.0067247995,7.9634333,1.0,4.720808,5.3289833,420.6666,179.24582,16.134842,99.238556,99.052666,101.42235,100.3471,116.72367,0.7,-98.506966,-152.30719,0.0016450093,-7.8400073,-6.300986,-5.338421,-6.4385724,-6.2874613,5.0772387e-06,0.3,-1.3947666,62.15184,62.15835,62.649925,62.924374,1.3551835,0.44843748,2.6491572856903076,7.52144626379013
7,70000,53.69098100094668,-64.567764,3.7139956e-09,-5.0526943,-0.0063580475,8.621314,1.0,3.8029184,-1.4095963,461.7115,83.26893,18.24246,100.846565,100.623566,100.83443,101.052444,14.62204,0.7,-102.438194,-185.54596,0.0061664544,-9.796986,1.3768942,1.2015164,0.92872775,2.671791,8.679199e-06,0.3,-1.461921,63.465916,63.438095,63.033928,63.214188,0.6850788,0.49374998,4.158985137939453,8.504110304514567
8,80000,91.7092644867864,-67.5187,2.9194036e-10,-9.419813,-0.0006033249,8.092296,1.0,4.20244,1.769029,491.20694,73.37013,7.601431,103.27687,102.80835,102.221825,101.772224,71.83877,0.7,-103.60114,-192.80801,0.0046200845,-10.972255,-4.0295343,-4.0273967,-5.348784,-5.9872775,4.634278e-06,0.3,-1.3879478,66.52507,66.60051,65.798676,65.796455,1.0522869,0.5015625,6.957842111587524,9.53341212272644
9,90000,99.40022962692801,-65.231766,2.7127038e-11,2.7796874,-0.013372284,8.468783,1.0,2.9819987,4.046684,550.0593,59.580193,16.233398,99.40885,99.991394,99.88437,99.5678,125.28565,0.7,-99.90486,-198.97949,0.0022392087,-17.785255,-3.3449154,-2.905422,-3.4259338,-2.9680452,0.0002818316,0.3,-1.7054081,63.44786,63.514824,63.85383,64.13865,1.5149165,0.41249996,7.614667654037476,10.575175853570302
10,100000,101.91370265767985,-64.86934,3.0205697e-12,-8.7863245,-0.009722485,9.0109625,1.0,3.397038,1.916275,743.8577,87.86485,11.06389,101.06108,100.84843,101.43577,101.94347,46.388325,0.7,-102.53866,-215.28365,6.80011e-08,-17.600222,-2.4629347,-2.0316691,-3.5439181,-4.9387164,3.1716597e-06,0.3,-1.6834513,63.555454,63.505806,63.800453,64.07026,1.151053,0.42343748,8.039721965789795,11.618796332677205
11,110000,61.97285370576123,-65.8218,4.1044598e-13,-5.711299,-0.0118659735,8.580474,1.0,3.1647265,-3.8804667,464.2731,89.86253,15.39211,101.12354,101.28261,101.03744,101.8462,47.253418,0.7,-102.14494,-258.652,0.0015164379,-8.3611145,4.5794477,4.0400896,3.4047604,3.361308,2.2193228e-06,0.3,-1.4855144,64.65292,64.590546,64.613594,64.94145,1.010726,0.41718748,3.3668930530548096,12.591041139761607
12,120000,74.77439426707404,-69.57916,8.282492e-14,-12.795776,-0.02257537,9.025347,1.0,3.9163554,-3.275312,530.3787,250.85927,7.931777,101.04056,100.72715,101.10293,101.4819,25.159334,0.7,-102.8958,-237.43149,0.00070105854,-10.127597,3.7641485,3.2050626,1.343866,3.5252588,1.0300835e-06,0.3,-1.9272785,68.32959,68.42614,68.40857,69.024796,1.1937907,0.4046875,5.47785210609436,13.59697157939275
13,130000,103.17557425127129,-65.47334,2.845918e-14,-23.80302,0.009248001,8.869704,1.0,2.5608544,0.582939,610.05554,206.61407,7.0719757,104.42752,104.58102,104.38022,104.424065,28.384995,0.7,-104.231476,-245.43478,0.0037701582,-10.00575,-4.3664546,-3.5411317,-2.9736602,-0.11348656,6.1406e-06,0.3,-1.2590442,64.42069,64.49597,64.42641,64.41086,1.0087231,0.4796875,7.000888109207153,14.623933374881744
14,140000,102.99911676145528,-68.43337,1.9119128e-14,2.8105028,-0.017828835,9.793154,1.0,3.3209996,0.4540845,760.05664,193.41486,7.786083,100.74183,100.287384,101.129005,100.5139,16.236568,0.7,-101.03467,-285.0031,0.0051308614,-11.537199,1.3202963,-0.2823145,1.3973519,1.2541714,9.848754e-06,0.3,-1.2087672,67.14276,67.00894,67.17116,67.3364,0.94694847,0.45156246,8.061975240707397,15.677850612004598
15,150000,92.5743928223756,-68.609245,1.7815312e-14,-4.5924087,0.0016103176,8.679888,1.0,3.6148858,3.5850186,1012.4927,232.4071,6.3632994,102.06659,102.5208,102.69599,102.75833,628.4729,0.7,-103.52128,-240.78278,0.00043798523,-20.785248,-3.455125,-3.3435314,-0.5025523,-4.026291,5.5776326e-07,0.3,-1.2960914,67.41348,67.43974,67.3508,67.39632,4.837605,0.453125,7.598093509674072,16.71779359181722
16,160000,101.24282087262596,-66.5453,2.3335122e-14,18.806335,-0.014187597,9.718513,1.0,3.956236,-0.024150133,948.1648,56.414825,7.519365,103.98655,103.58064,104.316635,104.46396,113.076195,0.7,-103.751495,-271.31906,0.0022377297,-11.338747,-2.0021276,-2.15676,-1.172151,-0.48337224,5.388574e-09,0.3,-1.7309877,64.85089,64.82691,65.208336,65.36807,1.5621789,0.4359375,7.980778455734253,17.765363391240438
17,170000,102.43538137808525,-71.32132,3.425722e-14,0.12871933,-0.02429355,9.131198,1.0,2.7386262,-6.5259557,840.7357,76.44263,8.956028,103.32992,103.496346,104.2566,104.05944,441.10974,0.7,-105.6756,-219.8743,0.003936841,-12.633468,5.3412137,5.42295,4.7591286,3.6337676,7.792097e-06,0.3,-1.5741309,70.02841,70.092545,69.93063,69.92408,2.6850631,0.4875,7.554778337478638,18.80643616517385
18,180000,87.78036185485765,-67.48532,6.69857e-14,15.490919,-0.004299807,9.906735,1.0,9.196654,-1.9217827,910.4388,812.48755,6.853324,102.57516,103.32827,103.514435,104.35333,61.220493,0.7,-103.48805,-294.7324,0.008939004,-10.209972,-2.3665905,-2.924044,-0.53962344,-0.66097254,5.879949e-07,0.3,-1.5102384,65.998566,66.01369,66.56038,66.6728,1.1154091,0.421875,7.104034900665283,19.838636044661204
19,190000,102.43062568676461,-65.277275,1.5847207e-13,-6.4258595,-0.0023660883,9.393615,1.0,3.3588624,3.2951174,669.291,83.348755,4.930583,104.280235,104.09968,105.37872,105.22399,114.535835,0.7,-105.11466,-252.67159,0.00084542495,-10.557781,-3.281277,-3.353312,-1.6160924,-2.8996344,1.5493424e-06,0.3,-1.8330026,64.216194,64.27284,64.257965,64.082,1.2394766,0.47968748,8.038128137588501,20.886652759710948
20,200000,102.52391397527718,-65.42248,4.0711596e-13,-0.6434252,-0.013977572,9.521694,1.0,2.8084886,-0.33722436,621.87915,58.7627,7.792369,102.0655,102.26504,102.097145,102.339134,225.41673,0.7,-102.31012,-214.68683,0.00057874084,-10.395083,1.663146,1.7396016,0.8831395,0.08894789,1.776042e-05,0.3,-1.5143961,63.974976,63.93977,63.73508,63.898914,1.7096088,0.4671875,8.248101472854614,21.933307405312856
21,210000,58.786885569861326,-68.701546,1.5768252e-12,-9.374368,-0.0018922916,9.585749,1.0,2.4424443,6.803368,789.9672,42.96563,7.7719774,105.03999,105.34544,105.31928,104.329,39.229977,0.7,-105.98499,-276.68246,0.0017780813,-9.4339905,-14.1327715,-13.874293,-13.944596,-10.106748,1.3641592e-06,0.3,-1.527222,67.50795,67.564125,67.83812,67.87738,1.0249153,0.44687498,4.751277685165405,22.921994256973267
22,220000,76.90132793696593,-68.76765,6.8118167e-12,-11.91073,-0.020950899,9.742206,1.0,2.6513062,-0.7640398,484.6544,35.197792,4.647505,103.03748,103.50171,103.15335,102.6832,34.15715,0.7,-103.74081,-238.8129,0.006316731,-15.055456,0.8984444,0.8044209,3.8022556,2.7692366,7.722265e-08,0.3,-1.8276429,67.611786,67.78636,67.60115,67.52375,0.9593581,0.48593748,5.812785625457764,23.930709024270374
23,230000,94.21997836887104,-66.1991,2.7586149e-11,-0.6726475,-0.018159814,9.914821,1.0,3.3913374,6.0555925,566.2682,101.25865,7.037509,103.10268,102.97916,102.32477,102.03878,48.483448,0.7,-104.078476,-195.25676,0.0010563424,-9.045818,-16.336441,-11.97092,-11.39823,-7.074534,6.782636e-06,0.3,-1.6961057,64.7758,64.721375,65.01326,65.05565,1.2068962,0.47968748,7.360891819000244,24.96292840242386
24,240000,92.7249580620347,-65.37517,1.4238272e-10,1.0649662,-0.034017127,10.39238,1.0,5.0454273,-0.35708785,687.52094,517.53503,7.359314,101.37377,101.30211,102.07186,102.21281,11.994378,0.7,-102.043175,-188.38634,0.0016848429,-11.89016,-0.71217644,-0.32744113,-1.5656673,-0.86077034,9.618122e-07,0.3,-1.6398039,63.99655,64.1289,63.820473,64.00015,0.67971516,0.47968748,7.027675151824951,25.9885422706604
25,250000,100.73241213734319,-65.90248,7.4139633e-10,14.039769,-0.022745514,10.9784155,1.0,3.7469094,-0.830986,1256.6344,66.53128,13.233342,104.280396,105.26276,104.68747,103.91704,62.189297,0.7,-105.46483,-179.07932,0.009529,-11.947755,-6.6770334,-3.6351175,-7.1547246,-9.436147,4.0429587e-08,0.3,-1.6458427,64.22279,64.209305,63.657486,63.741158,1.6990731,0.46718752,7.965211629867554,27.032382233937582
26,260000,92.37457700152932,-65.74204,4.431002e-09,7.979169,-0.01929698,10.582582,1.0,4.8859043,-0.8837001,461.70117,164.48935,8.129086,103.31946,103.68784,103.67912,103.884514,130.926,0.7,-106.7176,-166.91458,0.00523453,-13.076431,-4.6484704,-4.2062593,-7.678553,-4.909572,2.9137906e-05,0.3,-1.7943703,63.643562,63.662018,63.67369,63.93793,2.237695,0.434375,7.089191675186157,28.065658803780874
27,270000,94.27911886710665,-66.83695,2.8233538e-08,9.458578,0.015557975,10.195462,1.0,3.9239748,-3.4737887,512.3438,306.0975,10.244015,103.28241,103.11674,103.2545,103.66187,58.60094,0.7,-103.96376,-139.68993,0.0041686855,-12.297004,-4.9188747,-3.2299426,-3.5455494,2.1568108,3.528262e-06,0.3,-1.5651895,65.04559,65.01112,64.91162,65.2247,1.0979682,0.4421875,7.41105318069458,29.103380298614503
28,280000,101.1397933940819,-65.64574,1.7695743e-07,1.2145699,-0.012779904,10.138089,1.0,5.9340134,-3.1725733,387.57635,319.85236,7.713326,102.94436,102.82337,102.981804,103.23865,39.68402,0.7,-104.26831,-134.8046,0.0025786362,-11.062613,0.80346906,-2.256086,-1.8096406,-1.8638606,1.0407251e-05,0.3,-1.5963272,64.26757,64.11903,63.90335,63.994186,1.1524274,0.453125,7.672316789627075,30.135937837759652
29,290000,67.72432957563251,-67.1455,1.1604051e-06,8.696242,-0.014095898,9.811362,1.0,3.673832,-4.641836,572.64105,64.545944,26.682232,104.26994,105.11691,105.12691,104.6046,41.402565,0.7,-105.236664,-107.352844,0.004393825,-11.827995,6.893016,4.1300135,5.239873,4.3498945,3.6386626e-07,0.3,-1.3280318,65.84775,65.86279,66.18881,65.986885,1.2468796,0.4875,5.245465278625488,31.11024167537689
30,300000,54.03226466197694,-68.84987,7.663686e-06,-0.053869724,-0.018701656,10.751147,1.0,5.1223936,-10.473667,447.2978,215.77591,8.599181,102.87379,103.096664,104.12812,103.57441,155.27579,0.7,-103.83164,-105.3428,0.00020076078,-9.212893,-8.853607,-8.118404,-10.735606,-6.3913145,3.6670825e-10,0.3,-1.4742085,67.09984,67.09595,67.61676,67.8459,2.1563044,0.41875,4.120267391204834,32.09389054775238
31,310000,101.70347142195817,-67.98955,4.856096e-05,-0.42544067,0.0024642746,10.435292,1.0,3.579041,0.94798505,220.98396,113.022766,6.4678507,104.091194,104.01794,104.664536,104.34347,25.827002,0.7,-105.554955,-87.3134,0.005411338,-10.236845,-0.2147128,0.40953565,0.5639901,0.72918123,7.4824203e-07,0.3,-1.2810302,66.54688,66.569824,66.861885,67.116035,1.0258415,0.428125,8.182006359100342,33.149580256144205
32,320000,101.67368147563795,-69.4642,0.00030310513,-3.044622,-0.004554788,10.1050415,1.0,3.2054381,-8.267796,295.45142,48.860435,6.8864746,105.82441,105.42196,106.658875,104.67428,82.086105,0.7,-106.53909,-84.868484,0.002655363,-9.980986,7.7220283,7.454937,6.5113287,7.5143814,6.366463e-07,0.3,-1.5146477,68.34836,68.20264,68.169365,68.414406,0.964096,0.4375,7.843883752822876,34.199676632881165
33,330000,30.23578380639995,-66.70862,0.0018365951,1.1895249,-0.013465089,10.491139,1.0,3.8684328,-1.2824144,118.81853,65.265564,8.787941,104.32795,104.65313,104.679276,105.338326,141.09846,0.7,-105.36441,-52.718254,0.00076950627,-8.391083,1.0686902,1.092715,0.5091434,1.0014981,8.709093e-05,0.3,-1.3627548,65.066605,65.08347,64.80296,65.35266,1.8272722,0.42968747,2.6108603477478027,35.16477228005727
34,340000,81.4114614453006,-68.98978,0.0054755514,-1.2409408,-0.028230924,10.0387945,1.0,2.947379,-2.702062,94.89074,35.783623,8.285341,103.57205,104.1742,104.13666,105.52558,24.059198,0.7,-103.96059,-46.852192,0.0007267641,-8.752247,3.4338453,3.6218495,3.4765546,3.030402,7.852487e-06,0.3,-1.6472585,67.76995,67.67148,67.644394,67.54329,0.87169373,0.47031248,5.95293116569519,36.18181273539861
35,350000,78.12479218435718,-67.10172,0.0060546207,2.4316502,-0.028425192,10.710797,1.0,4.247834,-1.2038343,199.3308,429.19452,9.9672575,103.15805,103.75267,102.92246,103.0523,50.833424,0.7,-104.02352,-46.623592,0.0041049123,-10.722125,-5.181049,-4.082187,-5.1778054,-4.400215,4.3918076e-06,0.3,-1.5322306,65.40051,65.479965,65.46553,65.80985,1.0572033,0.42499998,5.545996427536011,37.190715511639915
36,360000,68.08617823715237,-65.41187,0.004994617,1.5575219,-0.023449479,10.972949,1.0,3.540535,2.6594963,148.4972,172.146,7.559879,103.6098,103.32237,103.947174,104.1417,24.155195,0.7,-104.53863,-47.37522,0.002138283,-11.084011,-4.0928235,-2.7027783,-3.2493963,-3.414168,1.5926315e-06,0.3,-1.2943509,63.880775,63.910305,64.11099,64.39626,0.9017158,0.3703125,4.812506914138794,38.175596527258556
37,370000,78.0098145182623,-64.83492,0.005582924,-0.6392518,-0.02815443,11.323893,1.0,3.8797436,4.6102614,141.2822,127.93402,9.962422,103.08687,103.44821,102.83848,102.860306,171.80608,0.7,-103.399155,-40.87086,0.010000607,-15.386061,-0.13707739,0.40910757,-4.0658426,-2.180981,1.5973811e-06,0.3,-1.5372821,63.11291,63.091476,62.886673,63.157303,2.1794605,0.5046875,5.298051595687866,39.1796325246493
38,380000,68.4183379922086,-66.15219,0.005962992,1.1235764,-0.031494003,11.381732,1.0,2.9400985,-2.6673727,147.58723,43.743217,25.04507,102.58165,102.57819,102.42285,102.36086,37.216843,0.7,-103.87364,-45.25967,0.0025677057,-11.07042,1.322274,0.85503066,-0.08473903,0.9204338,5.0772387e-06,0.3,-1.5503821,64.64049,64.567276,64.68135,64.8071,1.2515306,0.45,4.945951223373413,40.16836269299189
39,390000,98.5487662202932,-68.91673,0.0051415875,-0.16505009,-0.031768646,10.004455,1.0,2.816028,0.90665436,174.19667,33.03835,7.6446304,105.172646,105.16669,105.465744,105.74598,31.756842,0.7,-105.07975,-44.82088,0.030614115,-10.49798,-2.2035437,-2.6617603,-0.5029395,-0.9044593,3.315059e-05,0.3,-1.5912035,67.25559,67.3697,67.3063,67.5809,1.2196772,0.42812496,7.5351574420928955,41.20078254143397
40,400000,95.68705638653245,-67.04512,0.0046831006,5.9192505,-0.030603547,10.825854,1.0,3.481156,-0.814254,176.55316,105.77687,17.636724,105.0357,104.888275,105.84695,104.66018,26.91645,0.7,-105.538025,-41.00009,0.00035887415,-11.245976,0.3684749,-1.1222895,-2.5955067,0.8596848,6.782636e-06,0.3,-1.3337107,65.58756,65.502,65.67029,65.6958,0.9996708,0.434375,7.200517177581787,42.22563487688701
41,410000,73.65632791824349,-67.62572,0.005729582,-1.0386895,-0.026428565,10.704515,1.0,3.468839,1.4344125,139.61871,69.68727,7.934489,104.19392,104.07982,104.06313,103.52668,54.549206,0.7,-104.18523,-44.38221,0.0037553909,-13.562276,-4.5233426,-3.34267,-3.3881736,0.30622703,6.33086e-05,0.3,-1.384105,66.18057,66.29497,65.94389,66.06507,1.1759866,0.48749998,5.333327054977417,43.223257386684416
42,420000,79.2833256920646,-67.007286,0.0050609265,-3.132924,-0.025848646,10.94461,1.0,3.1307654,-1.1212683,145.43042,82.192245,6.965995,102.44221,102.43305,102.323845,102.84032,290.4381,0.7,-103.70943,-46.038128,0.01510358,-9.671774,1.334342,0.19411933,0.0014997721,1.6096501,4.599988e-06,0.3,-1.2176447,65.637146,65.65964,66.044044,66.43782,2.0946581,0.4375,5.732242107391357,44.22751557429631
43,430000,99.95748850758376,-68.96799,0.0047272546,0.5538744,-0.03344077,10.881888,1.0,2.376181,4.995003,165.78922,32.728348,9.593626,102.41471,103.0372,102.30469,102.68076,103.391,0.7,-102.586075,-43.14343,0.0035649815,-10.970117,-8.174735,-9.459725,-6.9443097,-3.2964966,7.627707e-07,0.3,-1.4627006,67.18645,67.24649,67.19104,67.11266,1.6122845,0.4734375,7.5090765953063965,45.261073819796245
44,440000,65.88913037574609,-67.05515,0.0049413475,1.6597754,-0.0062578726,10.37919,1.0,3.943122,1.7438294,129.33704,70.04816,6.7147346,103.3441,102.383125,102.75924,102.85812,25.203245,0.7,-102.92808,-46.99215,0.001325638,-10.84584,-0.7895835,-1.2433814,1.2699788,1.8401885,3.1541276e-08,0.3,-1.7249157,65.76768,65.67236,66.35923,66.22006,0.993351,0.4421875,4.677633762359619,46.25002422730128
45,450000,76.94377312592576,-68.84755,0.00548796,2.8401892,-0.042597946,10.604723,1.0,2.3366795,1.1261584,139.64494,81.57095,10.9321995,104.40338,104.718895,105.22953,105.0921,35.809486,0.7,-103.94263,-42.819473,0.0026120034,-9.680218,-1.1645541,-1.3562384,-3.2571998,-1.0064633,3.4889363e-05,0.3,-1.3220592,67.43648,67.442245,67.285515,67.51614,1.0402057,0.45,5.363866567611694,47.248582255840304
46,460000,67.72832036955232,-68.28516,0.0046894248,-1.1254259,-0.031646878,10.879389,1.0,3.6164734,-0.21062364,91.40001,116.19435,18.465492,105.1959,104.825485,104.77962,104.68232,21.855352,0.7,-105.04749,-48.3346,0.00010323712,-11.208578,-3.159851,-2.784331,-1.4976586,-1.9167624,3.2891287e-06,0.3,-1.6646231,67.168304,67.17054,67.269684,67.40596,0.95626384,0.4484375,4.644969701766968,48.23962824344635
47,470000,93.17554681546507,-65.733536,0.0043437043,-2.842659,-0.046551567,10.81875,1.0,3.1350293,-0.7108262,121.11576,42.446175,6.7780943,105.24695,104.900024,104.6404,106.135544,208.41656,0.7,-105.66996,-40.929134,0.001496119,-12.466914,-1.458683,-0.46386445,0.8432311,0.8873105,5.4073334e-05,0.3,-1.1138661,64.34694,64.44008,64.377144,64.59352,1.7111212,0.41562498,6.58836030960083,49.256199975808464
48,480000,82.21356802179925,-67.701584,0.0045543364,-0.120925605,-0.036692783,10.709373,1.0,4.4351087,0.04485339,177.97745,72.6982,15.449769,104.47925,104.541145,103.60024,103.76981,29.041105,0.7,-106.03937,-46.741123,0.008483473,-9.717836,-3.2737212,-0.5679338,-2.0358284,-0.658421,6.557002e-06,0.3,-1.2531234,66.178535,66.25787,65.47089,65.82736,0.8981669,0.50625,5.777672052383423,50.2671360929807
49,490000,91.92605581331024,-67.47871,0.0038006427,1.2301902,-0.0090808,11.867655,1.0,4.4243326,0.072365046,277.83783,145.53935,29.163471,104.91288,104.4115,103.73039,103.81706,90.01748,0.7,-104.798035,-42.606388,0.00521933,-13.509146,-7.1403117,-4.994688,-3.7061143,0.038445532,1.5759724e-07,0.3,-1.4737687,65.36882,65.40823,64.75818,65.233696,1.9613357,0.48125,6.546893358230591,51.28419422705968
50,500000,61.52436271265361,-65.56271,0.0044811973,0.7557647,-0.03643663,11.0753,1.0,3.0541167,-0.93658954,162.09543,167.53369,29.025536,104.79152,105.34595,104.297,105.79485,27.83026,0.7,-105.91731,-42.313984,0.0005335857,-13.398883,0.3237704,2.0575464,0.04436487,0.61788887,2.0995678e-06,0.3,-1.1258681,64.27753,64.17386,64.18788,64.31249,0.9082387,0.4578125,4.250000238418579,52.26721882422765
51,510000,62.24087311317233,-66.55186,0.0044824732,-0.90338075,-0.04542951,11.314335,1.0,3.7558408,-0.46061122,112.44431,46.432816,10.116691,103.56412,103.67213,104.85571,105.24711,47.05622,0.7,-105.54472,-51.18407,0.016058816,-10.786638,-1.1301131,0.81936246,1.3138247,-1.1876535,3.480919e-07,0.3,-1.5474396,65.075096,65.25023,65.49619,65.61427,1.2080406,0.4671875,4.4647722244262695,53.24587184985479
52,520000,66.0203325694249,-69.2106,0.00409327,-0.98039603,-0.0282376,10.649302,1.0,4.7277317,-1.1939659,137.34981,502.44434,6.7218394,105.222755,104.76342,104.69137,104.07966,104.57476,0.7,-105.18611,-39.316837,0.0003533734,-12.544122,2.060213,1.4633518,1.3396581,2.1597135,9.3180574e-07,0.3,-1.6357846,67.77565,67.71628,67.853836,68.05621,1.2914376,0.47031248,4.490725994110107,54.23254019021988
53,530000,57.91055586491306,-69.71373,0.003943042,-1.6298783,-0.028395105,11.344815,1.0,3.1227162,2.5295675,124.723816,98.72356,6.492464,104.614746,104.05395,103.89978,103.95602,37.770382,0.7,-104.088394,-52.620693,0.0009164161,-13.6505995,-0.79501605,-0.9268641,-0.4039812,-1.3709134,1.1259847e-05,0.3,-1.3832297,68.60127,68.58047,68.616745,68.623116,0.9638078,0.46875,3.9267289638519287,55.20369104941686
54,540000,55.27378281506438,-66.763626,0.004000583,0.48986816,-0.022923395,11.434369,1.0,3.0709524,-2.3458066,141.05171,25.526098,8.8235,104.64125,104.854546,104.6843,104.65038,369.67538,0.7,-104.32227,-48.275192,0.0024930912,-18.038218,-1.8340234,-1.8970363,-0.025268853,0.4662736,1.9398867e-07,0.3,-1.8870921,64.90527,64.931854,64.95514,65.298904,2.7799325,0.45781252,3.7956950664520264,56.17646820147832
55,550000,82.13283250667118,-65.270615,0.0034832065,-0.63284534,-0.039962173,11.098041,1.0,2.832666,-3.1876082,177.32191,50.213673,8.004964,104.02269,104.29189,103.22848,103.57626,149.92857,0.7,-105.60493,-39.921234,0.00095942704,-20.91356,1.2520453,-0.87542313,-2.143507,-2.8565843,3.2638054e-05,0.3,-1.8208051,63.652885,63.720436,63.941414,64.05806,1.9615612,0.45625,5.673042297363281,57.178167978922524
56,560000,64.87732167576881,-67.04163,0.0036893748,1.404614,-0.022567183,10.9366045,1.0,2.6353786,-2.5188916,207.57703,57.56665,5.733787,105.17104,104.396866,105.26792,105.205376,254.55229,0.7,-106.71837,-39.092274,0.0011725824,-10.178526,-0.54723096,0.108493984,-0.2863866,-0.6928539,1.5265978e-05,0.3,-1.298477,65.69476,65.604095,65.48629,65.80022,1.7171175,0.46874997,4.375313997268677,58.16362030506134
57,570000,94.91996497126786,-66.89365,0.0037112823,0.80947566,-0.026730761,10.375594,1.0,4.9856834,-0.14847445,226.10823,131.166,24.142672,103.42757,103.03016,103.30002,102.49503,26.158684,0.7,-105.022415,-47.931053,0.0029804371,-12.514857,0.0030380487,-2.9747987,-0.9269435,-4.166419,7.6642465e-07,0.3,-1.1042538,65.53998,65.46948,64.952324,64.903465,1.1540267,0.54375,6.7403624057769775,59.18774830500285
58,580000,79.71523500039372,-65.76044,0.003305608,1.3199531,-0.025816966,11.192363,1.0,3.8619165,6.8586717,181.75479,268.6302,6.8024125,106.285324,104.88032,105.97194,103.4434,145.86043,0.7,-105.4814,-57.61583,0.0070928796,-11.97249,-10.44453,-11.574999,0.13012853,-10.21593,1.2631358e-05,0.3,-1.4248728,64.41309,64.41709,64.63877,64.48429,1.547476,0.4625,5.490882635116577,60.18974873622258
59,590000,81.59505934301312,-65.54604,0.0033236356,1.6135647,-0.0028915491,11.157129,1.0,6.3574433,0.021479547,165.8718,547.3357,7.6934223,103.767235,103.23551,102.0796,103.23702,16.261633,0.7,-103.79512,-41.219856,0.0070632845,-9.97765,-4.1795244,-4.89166,-2.6680574,0.173686,6.106391e-05,0.3,-1.21173,63.890026,63.8438,63.864475,64.03468,0.96199656,0.4578125,5.579355478286743,61.19313244819641
60,600000,62.19605801674126,-67.31875,0.0033254619,-1.2830236,-0.031353932,10.649812,1.0,3.7855163,2.2029018,124.18903,238.25725,8.084552,102.43088,102.65035,103.362045,103.25127,36.83224,0.7,-102.77356,-52.096756,0.005377575,-10.894513,-1.9610497,-1.0996736,-0.63464123,-3.8518176,5.339435e-06,0.3,-1.8991911,65.99281,65.984406,66.162025,66.21338,1.0785217,0.465625,4.2180657386779785,62.17717485427856
61,610000,52.06476068400925,-67.14961,0.0025882227,-0.4539994,-0.03386834,11.073191,1.0,3.1258028,0.07897574,170.1563,63.551327,8.314298,104.107475,104.16855,104.71284,104.687294,179.7926,0.7,-105.472115,-50.50155,0.0047092955,-13.818183,-2.288724,-1.6739244,1.0892036,1.2004583,1.5495416e-05,0.3,-1.1724198,65.514206,65.56485,65.83215,66.114586,2.078643,0.44375,3.598639965057373,63.15193669398626
62,620000,73.59392038637344,-67.3163,0.0027358795,-1.9583869,-0.04948039,10.764266,1.0,4.324961,-1.4723247,191.6522,264.35614,10.175864,103.989746,104.19008,104.43353,104.334564,229.98654,0.7,-105.03156,-52.74571,0.009012695,-14.79212,0.74329567,0.5602986,0.81789666,0.46815124,8.074567e-06,0.3,-1.2062366,65.6512,65.62569,65.71152,66.04677,2.4896204,0.47499996,5.109763860702515,64.14775566657384
63,630000,54.68290285772548,-66.63774,0.002675447,-2.899157,-0.042444233,10.425662,1.0,4.00223,-5.465683,154.00882,86.79611,6.8823953,106.00047,107.164375,104.57202,104.97174,138.35268,0.7,-106.99029,-43.466377,0.0012995156,-12.232386,4.5888047,5.169739,1.3816482,3.5783288,5.9635568e-05,0.3,-1.2611499,65.35353,65.353806,64.669586,65.05722,2.1566575,0.48906252,3.7789950370788574,65.12169773976008
64,640000,64.05148621080473,-67.208534,0.0020103452,-0.9827506,-0.0611552,11.343942,1.0,3.8704553,-0.7088254,201.92758,89.15332,7.5121794,103.87399,103.73163,104.097824,104.18238,229.13362,0.7,-105.05687,-55.842243,0.0017148063,-10.751099,0.6104252,0.24830216,0.21726893,-0.3408411,4.3226754e-07,0.3,-1.4616969,65.883,65.955864,65.80486,65.67125,1.8573401,0.4453125,4.593692302703857,66.11289649009704
65,650000,84.99918791211168,-67.199005,0.0021328754,0.2843861,-0.039127044,11.550676,1.0,3.0494475,1.0679312,131.52304,31.34515,7.3883934,104.732376,104.56118,104.26126,103.89027,15.795927,0.7,-103.917816,-48.798588,0.0023255844,-11.069217,-3.4083047,-3.5168104,-0.68800664,-0.6083747,1.1804514e-06,0.3,-1.350847,65.99614,65.93932,66.092766,65.78249,1.0189245,0.5015625,5.927359342575073,67.12644959688187
66,660000,71.04305835945097,-66.24254,0.0018261509,0.605319,-0.036702048,12.442478,1.0,3.031911,-1.9812016,236.72055,39.80343,13.26171,104.476746,103.25753,103.12846,105.29495,468.2015,0.7,-105.86783,-47.07541,0.00221127,-11.201227,2.4321632,2.3072243,1.7302513,1.8703104,1.0702024e-05,0.3,-1.2120389,64.740204,64.56035,64.53055,64.86518,2.5867248,0.4421875,4.8975889682769775,68.11535449028015
67,670000,54.00278729792616,-69.53795,0.0017222349,0.58096665,-0.013577356,11.47047,1.0,3.5403264,-5.524153,299.51685,101.999115,9.41087,103.28201,103.48611,104.60069,104.22111,260.64484,0.7,-104.48962,-58.04496,0.0017598274,-10.136909,-4.8333583,-4.214872,-5.559784,-2.1858268,7.759659e-05,0.3,-1.344605,67.99347,67.84825,68.03709,68.27066,2.0129333,0.453125,3.777339220046997,69.08996450901031
68,680000,88.90983143430353,-69.243744,0.0016243106,-0.37528425,-0.014663646,12.153092,1.0,2.5279381,-2.9646966,151.37738,45.17439,8.674706,103.655975,103.32625,103.305435,104.07662,20.96587,0.7,-104.01666,-60.413464,0.0039694533,-10.945016,3.378927,3.9880137,0.8247918,0.0009127259,2.9875619e-05,0.3,-1.2751367,67.90226,68.10423,67.983604,68.04268,0.8303433,0.46875,6.173902988433838,70.10160601933798
69,690000,58.666200528231535,-66.46318,0.0015949624,0.74391973,-0.040771943,11.76937,1.0,3.4077828,6.055162,158.3192,43.561695,13.707876,103.25754,103.754074,104.17615,104.34889,62.601543,0.7,-103.882385,-51.72276,0.0057549295,-11.620325,-5.2776546,-3.592114,-1.5459789,-2.2026265,1.5103143e-07,0.3,-1.4042213,65.02525,65.14635,65.32498,65.534966,1.252629,0.40468746,4.079666376113892,71.08072850306829
70,700000,69.30698419192066,-66.23879,0.00151701,-2.6354315,-0.030439159,10.507713,1.0,3.144094,1.0483905,141.95406,31.29755,20.453485,103.02965,103.110596,102.74262,102.95575,49.690388,0.7,-103.49003,-56.52692,0.00086440914,-12.006214,-2.7223153,-2.4273918,-1.5937726,-0.3593651,6.4977216e-06,0.3,-1.364933,64.78462,64.71594,64.41539,64.746,1.0887064,0.45624998,4.747852563858032,72.06432230075201
71,710000,99.89802395479333,-66.28231,0.0012421781,2.7475548,-0.016102403,11.790453,1.0,4.0095263,0.5952937,190.93741,88.3604,8.734638,105.6176,105.353096,106.90559,106.78768,17.609694,0.7,-106.22471,-51.921036,0.0003169771,-12.12482,-0.39340967,-0.6036674,-0.3200331,-1.417525,1.7217128e-06,0.3,-1.3170884,64.8714,64.98538,65.31771,65.40985,0.9949089,0.3984375,7.039016485214233,73.09865969022115
72,720000,97.04077580477103,-65.87564,0.0011708606,1.7639959,-0.020685107,10.475158,1.0,1.852295,3.904296,235.2146,22.527256,29.270243,103.9663,104.32269,103.33474,103.104,117.45373,0.7,-104.23219,-52.121277,0.0012128671,-12.837404,-6.1398296,-7.6669054,-5.128349,-1.6488578,7.187482e-06,0.3,-1.4750165,64.10676,64.19941,64.00124,64.44313,2.0343966,0.440625,6.939114093780518,74.12606937885285
73,730000,83.09613083771804,-65.8282,0.0011203138,0.038525224,-0.056800086,11.941681,1.0,3.639903,2.3383887,211.19287,118.412,5.836818,104.839195,104.49451,104.8941,104.96377,32.497543,0.7,-105.4033,-61.011913,0.008140027,-12.918341,-6.9335246,-7.31027,-2.2202623,-7.698923,1.2146007e-05,0.3,-1.1003721,64.48276,64.397095,64.76715,64.94261,1.0261216,0.4046875,5.941636800765991,75.13996466000874
74,740000,89.2353151981929,-66.34891,0.0011180744,2.399776,-0.05403123,11.728591,1.0,3.8985028,-1.2297709,217.74219,54.517857,10.918658,104.37079,104.42909,103.97846,104.10382,40.709297,0.7,-104.26456,-66.995514,0.0008234704,-11.797872,1.3297651,0.045182884,-0.19544905,-2.8884892,3.676514e-05,0.3,-1.8682642,64.59654,64.50775,65.00851,65.06337,1.2820721,0.421875,6.875958442687988,76.16313536564509
75,750000,60.78658638164778,-64.94123,0.0013624423,-1.1257507,-0.015430202,10.760087,1.0,4.5808477,1.2995293,178.23839,198.71075,7.1472588,104.24759,104.18153,102.47142,102.451,28.19225,0.7,-104.02142,-46.976017,0.005788636,-9.580697,-8.278109,-4.872016,-3.9849477,-3.3146286,9.115919e-06,0.3,-1.4178399,63.436157,63.453003,63.78795,63.87273,1.1249206,0.43906248,4.556366920471191,77.15266065994898
76,760000,79.54961262132912,-68.10913,0.001733893,0.73024774,-0.04265205,12.085457,1.0,4.6033754,2.6555078,296.58438,206.96756,9.058367,104.6853,105.105865,103.964294,104.002815,62.394073,0.7,-105.69661,-75.65042,0.0014899336,-10.865503,-2.0972285,-3.4598315,-0.9446361,0.26462793,4.5178826e-05,0.3,-1.3383958,66.43501,66.37203,66.499664,66.91232,1.1647226,0.434375,5.5280632972717285,78.1556922475497
77,770000,85.84123631734776,-64.76724,0.0017598689,1.2461438,-0.03419159,11.589236,1.0,5.159669,2.2294683,267.10852,78.514084,13.43061,103.16538,103.47924,105.12201,104.826836,242.28944,0.7,-103.31391,-53.353416,0.0031754985,-11.018002,-5.0826383,-5.015527,-5.2708263,-3.4571812,3.0773044e-05,0.3,-1.310555,63.352444,63.42475,64.01221,63.80713,2.957322,0.415625,6.400431394577026,79.1737357934316
78,780000,99.65105863302233,-67.09198,0.0017477096,-0.58887017,-0.049405318,11.507633,1.0,4.5116253,-1.3230317,164.59523,265.54535,7.0348015,101.31041,101.932816,102.39778,102.08183,23.340054,0.7,-102.808266,-62.052105,0.0016904204,-12.776678,1.0244491,1.1083908,1.2183423,0.36747628,3.452437e-05,0.3,-1.4218762,65.71705,65.73674,65.74519,65.77925,1.0039775,0.453125,7.161538600921631,80.20208639303843
79,790000,71.8336258070876,-63.89588,0.0016880545,-0.6224712,-0.038133003,12.703165,1.0,8.107662,-2.056355,139.31805,111.647964,7.0901556,102.97332,102.91571,104.16174,104.22663,106.30253,0.7,-103.692406,-43.61609,0.0026291807,-10.305615,-3.9259186,-4.822838,0.6160496,2.8841848,9.115919e-06,0.3,-1.5243622,62.289803,62.285706,63.286705,63.414387,1.494931,0.3984375,5.286748647689819,81.20353156328201
80,800000,71.15789293831996,-66.20133,0.0015311551,-3.8477836,-0.015264777,12.334582,1.0,3.8500218,-5.1824074,166.6899,74.26473,6.4838405,104.92441,105.34106,104.9204,105.19451,112.94488,0.7,-105.774,-52.96844,9.362702e-05,-11.484805,4.734055,4.8805966,4.8980136,4.614059,1.0447733e-05,0.3,-1.7408905,64.61427,64.73546,64.67278,64.821655,1.608111,0.44843748,4.85408616065979,82.19586558739344
81,810000,93.61962529479845,-65.7208,0.0015944757,1.6951797,-0.004765609,12.583135,1.0,4.2734385,-1.533113,163.9877,140.11377,7.3086014,104.1179,104.23558,103.61018,103.86002,107.38713,0.7,-103.96722,-54.323147,0.0018677593,-12.975361,0.33691192,-0.66612256,-2.6898813,0.50894105,6.9307866e-08,0.3,-1.6876204,64.132095,64.09778,64.139725,64.40354,1.5179372,0.4625,6.5645222663879395,83.21572681268056
82,820000,96.33700651982149,-64.894844,0.0015255538,0.8855633,-0.03697346,10.639064,1.0,3.721012,2.7569792,164.17595,173.0151,8.987967,104.89769,103.90193,104.8699,103.64848,17.010542,0.7,-106.24627,-71.2585,0.0009983056,-10.787187,-0.8247234,-0.6031469,0.018768152,-0.503494,4.6134696e-06,0.3,-1.2520261,63.526825,63.479603,63.76987,63.962517,0.9484627,0.43124998,6.736295700073242,84.2386044383049
83,830000,81.11825347041318,-65.355576,0.0013492862,3.8586512,-0.028344108,11.736217,1.0,4.7385035,0.16262841,275.58884,123.54072,22.758255,104.419945,104.083206,104.13301,103.95299,71.093216,0.7,-105.54722,-64.014694,0.0042620683,-11.133927,-0.18221074,-0.50814945,-0.27647185,0.7698719,1.1444092e-06,0.3,-1.3383348,63.727974,63.68017,64.119446,64.18686,1.358156,0.434375,5.5208516120910645,85.2404216170311
84,840000,79.17107640863003,-66.97002,0.0013669799,2.9526196,-0.046414226,11.596318,1.0,2.7738311,-1.1160408,222.59369,74.158394,7.2916055,102.706474,102.62045,102.89825,102.29044,260.3747,0.7,-103.805725,-52.347267,0.021984495,-10.553392,0.8284387,1.0163574,0.8758805,1.8270023,1.5145096e-06,0.3,-1.28226,65.32514,65.367966,65.34758,65.512695,1.9432313,0.44687498,5.522569179534912,86.24324527581533
85,850000,85.888774830432,-66.77956,0.0012924132,0.8419133,-0.038691062,12.678449,1.0,3.3701534,-1.189182,210.66275,61.238113,8.382637,104.614426,103.97071,103.68336,104.58043,48.42067,0.7,-103.57042,-51.952328,0.000105159415,-16.282019,-3.246897,-2.851303,-3.207759,-3.1572669,2.8219774e-06,0.3,-1.4393904,65.24453,65.28621,65.58919,65.52017,1.2622631,0.4265625,5.927893400192261,87.2501253883044
86,860000,84.68149350063935,-66.7573,0.0013671337,2.4605434,-0.042692967,12.752641,1.0,4.4420214,-5.4822755,339.88635,65.24471,29.666416,104.07131,104.13145,103.358116,103.07862,57.400948,0.7,-105.77708,-52.049133,0.0022759617,-11.22214,-3.56744,-5.1970153,0.5703403,-4.00885,2.8642535e-08,0.3,-1.4364467,65.1086,65.17102,65.39395,65.28073,1.3888462,0.484375,5.760104417800903,88.25134279330571
87,870000,87.88854332502827,-65.37146,0.0012500149,0.5650865,-0.045908444,11.731946,1.0,2.954517,5.548618,216.91548,54.88064,6.689045,104.04629,104.81185,104.68326,104.49705,13.984018,0.7,-105.81721,-65.53104,2.0123844e-05,-11.610283,-4.9132247,-5.3086762,-7.0921454,-6.7844443,7.885695e-06,0.3,-1.2501652,64.14096,64.3173,64.58139,64.556656,0.9509554,0.425,6.099912643432617,89.26704560518264
88,880000,86.47734504663346,-66.90689,0.001323193,0.30188674,-0.045798585,12.011928,1.0,3.0155544,1.4458241,198.10718,73.51937,9.172159,104.243835,104.59764,103.82104,103.987114,68.97757,0.7,-104.09969,-55.878098,0.0061685676,-11.113017,-3.026361,-2.3386524,-0.2553317,0.80955374,4.0023863e-08,0.3,-1.4119489,65.5706,65.54972,65.57726,65.74381,1.8413407,0.47499996,6.071785926818848,90.28139445781707
89,890000,101.38175377566903,-68.256546,0.0013811052,-1.0196462,-0.028092682,12.29724,1.0,3.0886116,4.284485,197.02843,39.26362,6.367679,103.79415,103.58659,103.435165,103.66892,8.599804,0.7,-106.02226,-64.62347,0.005502037,-11.928151,-1.5084199,-1.098376,-0.5090111,0.24188066,1.1921321e-05,0.3,-0.65281796,67.08774,67.02896,67.70085,67.81338,0.72587216,0.39374998,7.18106746673584,91.31456050078074
90,900000,93.85966932238956,-67.314285,0.0013863883,-0.8474175,-0.037010908,13.751735,1.0,16.73347,-1.9107443,184.28207,3483.7217,5.6652665,107.5206,106.937805,106.5052,107.04038,188.99258,0.7,-108.12833,-52.095512,0.00084018626,-9.497923,-9.234601,-2.8026726,-6.821941,-7.5247755,3.1944364e-06,0.3,-1.2963676,65.456345,65.58566,65.5015,65.83156,1.9993513,0.42031246,6.570474147796631,92.33903562227884
91,910000,90.83776902924178,-68.31103,0.0014058618,4.1464114,-0.019704597,12.338548,1.0,4.0899425,-2.6601973,263.16406,64.06781,22.568733,106.76053,106.44617,105.152626,105.59263,79.094055,0.7,-108.60219,-65.158615,0.0011091179,-13.777162,3.4444394,4.056301,3.5959811,1.5947467,2.3648145e-06,0.3,-0.949655,66.299934,66.36575,66.04151,66.27885,1.8672698,0.453125,6.348479509353638,93.35342746575674
92,920000,100.74225826593938,-67.71089,0.0015042897,1.5429693,-0.04314314,12.375113,1.0,4.3558373,0.28750706,297.49396,140.92123,22.439018,106.19962,105.18363,104.82818,105.794685,700.99493,0.7,-105.938065,-52.964573,0.00040831626,-13.675025,-2.316799,-1.6711323,-1.042449,-0.9704784,1.2175151e-07,0.3,-0.9402869,66.13222,66.07208,65.74637,66.221634,3.6754851,0.5015625,7.050647497177124,94.38106798728307
93,930000,94.98427865650454,-66.47194,0.0013326805,-2.8363934,-0.05300163,12.3649435,1.0,3.403341,-1.4625173,249.5886,113.864685,6.0742526,102.03437,102.13003,101.8388,101.895195,76.84657,0.7,-102.28347,-55.56464,0.013125921,-7.927637,1.605768,0.850511,1.8211004,2.0446146,8.265674e-06,0.3,-1.3817344,65.091705,65.14424,65.35566,65.54877,1.1139804,0.41875,6.684700965881348,95.39948525031407
94,940000,88.60804805178651,-66.52969,0.0013177473,-1.9609897,-0.04914055,11.9206085,1.0,2.8253613,1.7628663,152.34563,50.347816,8.697798,104.64785,104.58427,105.74921,105.69341,52.134,0.7,-105.33388,-62.28715,0.00047873822,-10.298107,-0.2685603,0.47765213,-1.2837163,-0.42909306,1.562307e-07,0.3,-1.3030288,64.99591,65.09355,65.11057,65.34181,1.1740637,0.4359375,6.053281784057617,96.4089848001798
95,950000,78.77819277765781,-63.91635,0.0012849226,-3.5185144,-0.0291165,12.81075,1.0,4.3465214,23.725542,84.32916,77.74068,8.998847,104.83291,105.290215,104.85667,105.10694,333.82278,0.7,-105.41898,-49.7912,0.00023998518,-13.953863,-11.246158,-15.4832325,-17.810633,-6.273068,1.135486e-06,0.3,-1.5296321,62.491943,62.369278,62.066856,62.65602,3.6571512,0.46406248,5.598559141159058,97.40972636938095
96,955000,79.75605311782732,-69.10706,0.0012204732,-1.7229174,-0.052922405,11.240241,1.0,3.6894932,-0.5366804,154.14151,65.65787,19.543156,105.41562,104.79728,104.39542,103.81867,79.55474,0.7,-104.52175,-56.474922,7.8483135e-05,-12.284652,-2.4928389,-3.4053454,-0.9341533,-1.1131159,3.0680392e-05,0.3,-1.4720585,67.605804,67.55065,67.164406,67.37332,1.5242469,0.45624998,6.023746728897095,97.95358812014261
97,960000,74.34198083561618,-65.04065,0.0011028632,0.69338226,-0.03655815,12.183612,1.0,3.8368883,1.0432703,156.80844,152.96878,9.614996,106.1959,105.853424,105.72402,105.29818,54.73247,0.7,-107.15247,-82.1382,0.00043923227,-11.562086,-3.6503363,-3.0068216,-1.8609248,-4.2558975,9.588217e-06,0.3,-1.3432217,63.569717,63.601604,63.833763,63.65542,1.104723,0.4328125,5.541819334030151,98.4877617319425
98,965000,81.56906619732187,-69.33084,0.0010299595,0.011531979,-0.02811721,10.571734,1.0,2.2608778,0.10569942,159.67058,40.89422,6.8372984,104.8598,104.58406,105.2744,105.23833,159.04684,0.7,-105.19549,-58.466354,0.0048092557,-10.608319,-0.035328627,0.87113166,-0.2786312,-0.20058787,8.998148e-07,0.3,-1.3332205,67.78457,67.68526,67.7054,67.83386,1.6524132,0.425,6.331953525543213,99.04430340925852
99,970000,87.95461686161838,-66.344864,0.0010124121,-1.3879001,-0.029682938,11.376555,1.0,3.5444176,-2.2804537,315.43982,48.82362,18.376606,105.55755,105.44511,105.15181,104.776695,28.473162,0.7,-106.95232,-71.35592,0.004175224,-9.17437,-0.82553804,-0.8716905,-2.9679284,-3.4016488,9.643554e-07,0.3,-0.8306728,65.28667,65.26878,65.058266,65.16055,0.91815937,0.47812498,6.722836017608643,99.6125062306722
100,975000,72.35446783403083,-67.99446,0.0010035471,-0.8258066,-0.05626545,11.757671,1.0,3.8423014,-0.8100039,203.57559,62.27105,8.7009535,105.32905,105.18007,104.48688,104.81306,205.74634,0.7,-104.89006,-63.9528,0.014424099,-8.938942,-0.034388185,-0.20748591,-1.8689191,-0.8302921,4.543287e-05,0.3,-1.6007862,66.65871,66.569885,66.483345,66.821655,1.6623818,0.4484375,5.60990571975708,100.1618094642957
101,980000,88.22418464110177,-68.60668,0.0010300798,1.8692294,-0.053091194,14.131225,1.0,4.904325,-0.8205818,211.76202,74.201065,15.572474,104.863075,105.18437,103.97319,103.72024,154.23392,0.7,-105.50755,-47.745018,0.0013973425,-11.206205,1.0053037,-1.5006385,-0.27563524,0.8714942,3.673197e-06,0.3,-1.5679145,67.06265,67.03116,66.549194,66.72775,2.2727537,0.49531248,6.370816469192505,100.72683407465617
102,985000,84.33109102838534,-69.65986,0.0010169733,-1.591265,-0.03330912,11.837743,1.0,3.473153,8.626338,142.62738,63.434555,9.995523,104.80315,104.91876,104.409325,104.23704,48.307396,0.7,-106.325035,-56.187122,0.018120553,-12.292482,-1.2794313,-1.8517532,0.24575612,-4.7931733,1.5859418e-05,0.3,-1.1835217,67.85199,67.86754,67.52097,67.61782,1.6829715,0.421875,6.46901798248291,101.29030078649521
103,990000,75.50598907518312,-67.0054,0.0009846156,-0.12139267,-0.046067357,12.211925,1.0,2.8231049,1.8292761,200.9197,56.994717,7.6857243,104.428345,103.87345,104.51213,104.0505,19.722904,0.7,-103.92789,-46.01703,0.0045560524,-12.284514,-2.5071998,-3.2404027,0.8573323,-2.1039019,5.8836303e-08,0.3,-1.3414063,65.79191,65.78365,65.797775,65.739914,1.1184757,0.471875,5.7868733406066895,101.84235764741898
104,995000,81.30905886931632,-66.94056,0.0009951409,-1.5324092,-0.0472934,12.162595,1.0,3.2838035,0.101011634,358.62994,32.952198,8.532736,104.99577,105.49694,105.00807,104.66085,301.0053,0.7,-106.67081,-62.928844,0.0082810195,-11.215904,0.12455773,2.1685896,1.0468866,0.45347464,3.5820165e-06,0.3,-1.2242329,65.071495,65.10354,64.64948,65.15673,3.3619473,0.5046875,6.004172086715698,102.39876300493876
105,1000000,77.71036065094682,-67.678635,0.0009909288,-1.4667486,-0.020015085,11.763025,1.0,4.4861445,-1.970994,155.34184,141.90298,6.9290752,104.96461,105.41307,104.04008,104.74143,26.982061,0.7,-104.83409,-68.713905,0.00047472608,-9.498898,2.706075,2.6007442,1.3050022,1.2435706,3.9131845e-07,0.3,-1.1900089,66.41784,66.46929,65.75112,66.06911,0.89378464,0.43593752,5.956791400909424,102.95481886863709
