Xixo99/comfo/baselines/comfo6_perterbation_actor/20230222_actor_perterbation/walker2d-medium-v2/COMFO6_s0_20230222_105321_walker2d-medium-v2_81.55.csv
,step,reward,actor_loss,alpha,alpha_loss,critic_loss,max_actor_loss,max_alpha_loss,max_critic_loss,max_mle_prob,max_q1,max_q2,max_target_q,max_v,max_value_loss,max_weight,min_actor_loss,min_alpha_loss,min_critic_loss,min_mle_prob,min_q1,min_q2,min_target_q,min_v,min_value_loss,min_weight,mle_prob,q1,q2,target_q,v,value_loss,weight,eval_time,time
0,0,1.774692874575134,,,,,,,,,,,,,,,,,,,,,,,,,,,,,,,,,
1,10000,63.75645783936034,-34.395477,0.083092004,-5.571083,0.6305296,-2.095461,36.858498,14.997375,16.492851,44.752712,44.80891,45.09995,44.36365,0.6735727,0.7,-56.060577,-31.797798,0.00013033394,-6.92581,-0.63014364,-1.8720578,0.7358818,-1.4919316,1.0186341e-07,0.3,4.5354185,30.249985,30.227505,30.168835,29.713089,0.03312506,0.4671875,6.651968479156494,2.0857274452845256
2,20000,75.18730303404803,-56.668457,0.0058250655,-5.824477,1.2154659,-5.7211857,72.48834,83.24336,18.604164,73.83463,73.88474,73.36722,72.91692,13.419707,0.7,-84.02327,-65.13952,0.001511889,-6.361536,8.302244,4.950225,3.0975838,3.872983,1.7326967e-06,0.3,4.666662,52.0548,52.005714,52.06123,51.840805,0.11488792,0.390625,7.380876541137695,2.797779683272044
3,30000,73.67939764494163,-70.29111,0.00039147824,-4.7873898,1.7479111,-16.318974,79.18627,100.20859,15.414101,83.40111,83.83123,84.45464,82.918915,2.687359,0.7,-95.995476,-75.54629,0.00040263694,-4.9644156,16.422552,16.168211,13.067017,16.48285,7.2671105e-07,0.3,5.289404,65.04968,65.14922,65.188354,64.98074,0.114243425,0.4765625,7.7569801807403564,3.5185097098350524
4,40000,57.34603825342111,-78.02176,2.7433438e-05,-5.6750555,1.3235676,-12.914793,104.12578,68.31113,18.799335,96.77868,95.53926,95.596146,96.483475,4.5842032,0.7,-106.56848,-137.06082,0.00091846875,-4.96985,6.779048,6.622815,9.043835,8.106692,2.0444393e-06,0.3,5.148056,72.86627,72.881516,73.0875,73.06367,0.13631159,0.4125,5.8318095207214355,4.203576934337616
5,50000,69.94624755388159,-81.015594,2.0161078e-06,-7.5117955,2.1420536,-20.322056,146.399,110.24832,15.671511,98.392296,98.719406,98.860916,98.40838,4.1379027,0.7,-110.664505,-144.94398,0.0024077366,-3.8523092,11.013083,8.924212,8.464857,9.347455,1.9965227e-09,0.3,5.6372786,75.33089,75.39523,75.44026,75.38339,0.10879728,0.48125,6.576582431793213,4.90111205180486
6,60000,66.88303951198512,-83.801895,1.5146541e-07,-2.852689,2.5545666,-21.514336,211.25197,81.84531,20.84475,103.692444,104.57574,104.26513,102.45453,13.925442,0.7,-119.56695,-182.22961,0.00274452,-7.2114625,16.919003,15.5853405,13.474983,16.145573,6.437302e-07,0.3,5.9183364,77.90448,77.88964,77.44674,77.58571,0.21073982,0.42187497,6.582971811294556,5.597216387589772
7,70000,63.7420700199968,-83.40876,1.2006773e-08,-10.267206,1.9139922,-6.564238,287.95322,62.895443,19.40912,104.152916,104.09634,103.52642,103.215614,11.852482,0.7,-115.052475,-295.28354,0.0008657089,-2.7663565,3.9828591,6.240021,2.421244,5.165922,4.0344895e-07,0.3,5.640995,77.75023,77.81885,77.340744,77.55232,0.14506696,0.47968748,6.616443395614624,6.293067129453023
8,80000,66.70017307113903,-85.97352,9.778913e-10,-10.993813,1.8780653,-8.128547,229.17537,74.83615,19.573465,104.28561,104.42264,104.836464,104.56617,6.1547427,0.7,-115.36967,-332.68784,0.002349688,-3.2848663,2.857293,2.497525,1.277596,-0.080388695,6.4977215e-08,0.3,5.1969967,80.80777,80.81627,80.637085,80.72008,0.14850229,0.44374996,6.48184871673584,6.983066153526306
9,90000,68.57771987300093,-86.96432,8.316349e-11,-2.390713,2.351367,-14.922032,260.92047,221.1774,18.175413,104.03993,103.67884,104.26115,104.409325,3.4030936,0.7,-118.02524,-237.12898,0.000631826,-3.2520454,16.510765,16.600126,13.191951,15.115216,1.678127e-06,0.3,5.532501,81.525604,81.4338,81.74571,81.63871,0.12968749,0.43124998,6.618418216705322,7.675645975271861
10,100000,80.21316274134715,-87.04825,7.363897e-12,-13.927836,2.2009454,-23.43578,342.274,219.79852,17.337315,105.403915,105.26134,106.02639,105.62045,4.491447,0.7,-116.491394,-238.65811,0.0004463155,-2.8385327,17.722979,17.213198,15.992911,16.82029,1.5812867e-06,0.3,5.442702,81.670105,81.61157,81.556465,81.75308,0.11902389,0.4328125,7.694792032241821,8.390491394201915
11,110000,75.78520434396088,-87.784096,6.7236754e-13,-11.870277,1.1858196,-25.20863,379.6508,31.942146,19.90278,103.833336,103.56243,103.582855,103.36121,10.276914,0.7,-117.882225,-277.43723,0.00019189541,-3.8752089,13.574273,13.447406,9.51496,11.604056,9.387731e-08,0.3,5.3236084,82.47223,82.51564,82.57441,82.6233,0.1621319,0.44999996,7.24280571937561,9.097439662615459
12,120000,76.52688968717415,-84.788284,6.432019e-14,-6.8003187,2.7825649,-18.176039,341.19952,208.96231,16.598389,103.131004,103.39975,104.10552,103.757576,2.4442234,0.7,-116.41449,-322.0228,0.0005177327,-4.0582056,13.767263,12.492083,12.559051,12.330304,1.4736478e-06,0.3,5.636581,79.222534,79.28398,79.14914,79.05378,0.12947926,0.4734375,7.325299978256226,9.806307419141133
13,130000,75.30185571150612,-89.84667,6.1624226e-15,-24.924255,1.7356898,-24.874382,386.5264,61.532013,18.678284,104.11308,104.00512,103.901115,103.84312,11.987858,0.7,-119.21251,-375.5008,0.0001334332,-7.1439724,11.731416,12.201417,12.563955,11.024081,1.4942241e-06,0.3,5.624667,84.29543,84.323685,84.11211,83.984085,0.1988442,0.496875,7.316347599029541,10.51338433821996
14,140000,71.6172324014491,-87.71006,6.138629e-16,-5.122526,1.0454605,-18.709377,341.83295,39.166683,17.66448,103.49095,103.652695,103.26285,103.81526,6.306603,0.7,-118.03503,-378.9183,0.00037954608,-6.1308017,9.101894,8.326162,6.6746435,4.435748,3.4325956e-06,0.3,5.919939,81.897934,81.85961,81.753265,81.90105,0.16756941,0.33906248,6.883159875869751,11.217925786972046
15,150000,61.1527853680571,-85.30294,6.1850485e-17,-15.36623,1.287553,-15.157227,426.47876,51.557247,18.779118,104.00616,104.31154,103.64146,103.28914,10.376537,0.7,-117.87489,-462.50104,0.0016910699,-7.466961,12.783492,12.700679,9.389644,12.137519,1.5265978e-07,0.3,5.522417,79.82315,79.8418,79.801796,80.10017,0.17866375,0.3734375,5.860266923904419,11.903657774130503
16,160000,74.56900340137523,-84.72292,6.5211826e-18,-14.483544,1.5155706,-18.96919,459.574,40.90044,16.648005,103.839005,103.651535,103.69307,103.97222,5.7634463,0.7,-117.445435,-348.95676,0.00016612379,-5.9379635,16.55578,14.0605345,12.509511,13.513477,2.7756148e-06,0.3,5.4291315,79.34947,79.29685,79.22464,79.32503,0.15266761,0.44375,7.176431655883789,12.613328035672506
17,170000,71.03791741074032,-84.83301,7.046559e-19,-6.59282,1.829257,-19.518408,581.5044,82.12479,19.839355,102.69134,102.88235,102.76159,102.62992,8.646496,0.7,-121.89516,-503.30576,0.00063765654,-3.4905,16.734842,18.140202,14.724991,15.687408,1.9363827e-06,0.3,5.280734,79.52341,79.49393,79.21337,79.43477,0.18432274,0.39999998,6.815220832824707,13.315802371501922
18,180000,72.56145370113416,-87.71201,7.6120824e-20,3.0089836,2.7570903,-20.4303,554.949,445.52228,19.211246,104.353584,103.989296,104.17037,104.043594,6.463832,0.7,-116.10453,-429.32742,0.000850294,-4.005124,11.239358,11.530915,12.598071,12.183536,2.5465852e-08,0.3,6.1097984,81.7299,81.62924,81.720245,81.79088,0.14628986,0.403125,6.910497426986694,14.016255748271941
19,190000,82.41352060591932,-83.326294,8.520995e-21,-7.7990932,1.8402967,-8.054197,571.1777,70.23767,17.178074,103.041306,102.84454,103.20214,102.706665,11.224623,0.7,-117.43431,-474.8682,0.00016212907,-4.7606,6.152762,7.049652,7.811114,6.4951262,3.229827e-07,0.3,5.4181223,77.97335,78.04084,78.03444,78.03712,0.1886586,0.47968748,8.019943714141846,14.738303871949514
20,200000,68.2305192227755,-87.34374,9.965735e-22,-10.732873,2.1491184,-4.419505,642.99896,92.872604,21.284283,105.424164,105.97828,104.33335,105.26544,9.474558,0.7,-118.14015,-567.2061,0.00030840386,-6.128791,7.151882,10.150054,14.257314,10.666862,1.7813291e-07,0.3,5.7110434,81.625885,81.70067,81.72038,81.81683,0.14841163,0.45625,6.646438121795654,15.43344533443451
21,210000,76.96230086366592,-90.261284,1.1432741e-22,-3.2745628,2.558226,-2.1735935,876.2752,223.85757,16.837841,102.75598,102.75884,102.36124,102.61164,4.753792,0.7,-115.125786,-476.90173,0.004739493,-3.2612529,4.8905196,5.743319,4.247885,4.5254307,6.708317e-07,0.3,5.5927486,84.80294,84.742645,84.354614,84.37132,0.14429449,0.4453125,7.38695502281189,16.14706540107727
22,220000,77.34639368835043,-87.526886,1.3670931e-23,-11.982999,3.0659864,-11.786519,833.1684,457.0871,20.454294,102.563065,102.66606,102.566536,102.53875,7.024801,0.7,-121.78767,-639.4885,0.0007091815,-4.3675756,6.974527,7.879853,9.087912,5.1043215,3.309542e-06,0.3,5.6883607,81.95819,81.895805,82.15398,81.95073,0.19682378,0.3796875,7.387082099914551,16.851420191923776
23,230000,76.0826002169597,-86.88938,1.6151849e-24,12.7328205,1.983104,-4.0835032,727.6393,77.42348,17.333754,104.82156,105.18817,105.24261,105.36273,6.1605263,0.7,-117.094826,-656.14716,0.0011500812,-4.8453074,2.4188192,3.080005,-0.824279,1.530005,2.07845e-06,0.3,6.028569,80.971985,81.018555,81.11771,81.157425,0.20104451,0.44374996,7.30485725402832,17.559598191579184
24,240000,73.05895895686206,-86.43631,1.9183275e-25,-4.1350527,1.108311,-17.36783,567.89606,61.02884,18.243721,103.24018,103.50183,103.98333,103.51494,4.894945,0.7,-112.22159,-515.7182,0.0024929475,-5.8277473,8.855535,8.189076,10.351636,8.201992,6.9849198e-09,0.3,5.6933517,80.79554,80.86008,81.06497,81.03462,0.12888668,0.4609375,7.118323564529419,18.266675543785095
25,250000,78.33296792849069,-87.06765,2.3920541e-26,8.42613,1.5710601,-10.519604,636.4594,46.634506,15.063589,102.46371,102.607704,102.481125,102.5928,5.7123804,0.7,-113.451546,-686.5777,0.0006511601,-3.747959,8.814049,8.383902,5.402314,7.615449,5.657785e-09,0.3,5.9446726,81.22109,81.2699,81.19826,81.31244,0.22335012,0.33593747,7.547167778015137,18.97631376584371
26,260000,66.99089144127161,-84.14223,3.1295872e-27,4.837723,3.106528,-2.4622731,1114.4015,278.2547,25.338184,104.38396,104.99745,105.435524,105.16913,33.90137,0.7,-123.45607,-645.44836,0.0012354066,-4.2894864,4.5571322,5.798788,4.518564,5.2451673,2.231053e-06,0.3,5.718028,78.48004,78.49501,78.50655,78.4515,0.3569529,0.40937498,6.408769607543945,19.670341078440348
27,270000,77.33774873872427,-87.22314,4.1021196e-28,5.269169,2.1034527,-14.098194,824.586,50.589478,17.600273,102.8403,103.24971,102.93669,102.865234,7.1024094,0.7,-120.46575,-573.237,0.0013027877,-4.898943,7.1850767,7.108122,3.7835398,7.044683,7.9970346e-07,0.3,5.909668,81.3985,81.358,80.97547,81.0085,0.1792663,0.540625,7.9628636837005615,20.38593877951304
28,280000,75.1990020416627,-85.81387,5.278246e-29,-19.245373,1.7165537,-4.553201,894.8392,90.37413,26.762106,104.34488,104.58885,104.69312,103.71239,5.749085,0.7,-116.20751,-604.8706,0.0009466122,-7.915685,5.272757,5.08801,7.3534746,6.4378433,2.0368026e-07,0.3,5.73197,80.06374,80.129395,79.95747,79.98489,0.14175667,0.41249996,7.866611957550049,21.100487864017488
29,290000,76.51536217913117,-84.78109,7.269229e-30,33.056023,1.5123777,-10.654926,1016.9873,89.502686,19.95954,103.310295,104.080795,104.06177,103.802414,19.453138,0.7,-114.63426,-596.324,0.0010984438,-3.3492088,8.0898,8.100931,6.128272,4.9564934,1.4685793e-08,0.3,6.231228,78.67092,78.6629,78.87759,78.70108,0.19341214,0.48125,7.894753932952881,21.816973650455473
30,300000,82.39333536202042,-85.15947,9.628433e-31,-36.343285,1.2534552,-14.564524,924.779,53.240578,17.632105,101.34118,101.006195,101.19138,100.954285,11.939506,0.7,-118.05516,-737.814,0.0002901166,-3.9143143,10.021436,11.228021,6.345523,11.681981,4.9051597e-08,0.3,5.611391,79.66519,79.53252,79.532074,79.46568,0.18264174,0.503125,8.65263295173645,22.546637539068858
31,310000,78.88051457536545,-90.57248,1.3313956e-31,2.5987594,2.2646003,-7.127697,732.0999,115.56861,17.791134,101.07912,101.01119,101.08524,101.00367,6.825806,0.7,-118.09652,-667.5719,0.00017872079,-2.589357,3.5884125,2.4246445,5.550969,1.9563873,7.700874e-09,0.3,6.0659704,84.52067,84.52616,84.671684,84.65393,0.10059648,0.4125,7.869920015335083,23.260468753178916
32,320000,83.72740206246363,-85.55928,1.8819346e-32,1.6909485,1.7385926,-11.956967,1019.90814,114.1112,19.586897,102.25091,102.622055,102.17841,102.27843,20.200468,0.7,-118.775826,-648.0989,0.0008091973,-2.7830331,10.23377,11.923612,11.875075,11.413759,5.286886e-07,0.3,6.0576277,79.633575,79.62171,79.46352,79.62927,0.19504817,0.403125,8.298888444900513,23.9860160112381
33,330000,78.51439428049521,-85.58301,2.7185162e-33,-14.834884,2.9300292,-12.13456,789.1096,200.4614,18.067654,102.508125,102.386345,102.720924,102.72958,6.438767,0.7,-118.89581,-637.1789,0.0005751775,-3.1932604,11.616513,10.056763,12.802148,11.791676,3.1489647e-06,0.3,5.8094425,79.894104,79.85432,80.33414,80.33017,0.19204469,0.35937497,8.046174764633179,24.701579225063323
34,340000,81.7910400695259,-85.93618,3.8894757e-34,-7.1905117,2.381856,-16.953697,867.07605,152.55148,18.262915,102.69785,103.004715,102.277725,102.599106,3.9180803,0.7,-120.5919,-749.1879,0.0007765672,-5.340755,12.732682,12.999078,8.934011,10.068821,1.9160616e-07,0.3,5.6221657,80.264305,80.29164,80.12305,80.172905,0.12895662,0.4953125,7.685445547103882,25.4106543024381
35,350000,78.20795965104496,-87.42102,5.6452433e-35,-3.5306036,0.95348704,-4.8194513,923.67975,36.442642,16.122702,101.27462,102.280205,101.83242,101.25937,9.16971,0.7,-115.239525,-918.2697,7.801602e-05,-4.9562497,3.276986,3.014884,3.5716028,3.194864,1.1637283e-06,0.3,5.7794504,81.67987,81.76187,81.89929,81.76235,0.17374368,0.565625,8.243887186050415,26.132471199830373
36,360000,80.32817730642554,-84.987885,8.596971e-36,-26.298296,1.5130231,-8.582144,895.3797,88.42507,20.402927,103.10248,102.49271,102.05439,101.98885,11.508604,0.7,-117.35661,-911.25323,0.0024285375,-4.3077064,10.734762,7.5109572,9.237976,8.089912,4.172325e-06,0.3,5.8103733,79.286736,79.38782,79.40561,79.38483,0.15947855,0.44374996,7.946495294570923,26.850411069393157
37,370000,77.58501746165598,-85.91519,1.3211067e-36,-14.390425,1.118997,-5.3244944,939.49915,21.441614,18.505184,102.33463,102.475044,102.5997,102.53126,6.800501,0.7,-119.28984,-756.1959,0.00052107964,-1.9307232,4.03881,4.6435337,3.8839073,5.191958,2.3534521e-07,0.3,6.0044165,80.03427,79.93476,80.22775,80.33737,0.13389337,0.3875,7.441211223602295,27.554821232954662
38,380000,80.5440739617092,-88.3736,1.9741047e-37,-8.437304,1.1019835,-13.587679,1167.8549,32.91291,18.383755,101.902054,101.797005,102.27873,101.67647,5.062694,0.7,-117.750595,-874.31757,0.000982653,-3.7113805,11.935143,12.751014,12.986173,13.155361,4.821643e-06,0.3,5.757959,82.65085,82.65811,82.44253,82.42301,0.14458889,0.51875,7.711425065994263,28.26870140234629
39,390000,82.2543564525909,-84.27691,3.0784187e-38,-31.70322,1.7249258,-15.291273,997.94354,41.371944,15.580561,101.749054,101.28759,102.003525,102.18707,3.4970596,0.7,-114.03435,-1191.1927,0.0058402964,-6.175603,9.708581,8.744008,10.9786215,10.642018,1.478009e-07,0.3,5.3972306,78.99101,79.03251,79.354004,79.12528,0.117867075,0.428125,7.830803871154785,28.98874052762985
40,400000,78.52943838874509,-86.660576,4.857443e-39,2.8498383,1.11702,-12.300594,1021.29047,50.30372,19.978666,100.85689,101.207306,101.1456,100.99216,5.9169664,0.7,-118.10936,-770.50854,4.080357e-06,-2.030736,8.827927,7.1648903,8.339311,8.911285,1.1872716e-06,0.3,5.948347,80.795334,80.82012,80.8866,80.83751,0.10756542,0.45156246,7.686884164810181,29.705382092793783
41,410000,77.00432493611751,-86.9243,8.0245e-40,12.449345,1.9462801,-10.203291,967.40436,166.10542,16.56831,102.08848,102.40074,102.17381,102.07937,3.734237,0.7,-114.54467,-1067.086,0.00052873004,-5.9206767,4.300964,5.266192,1.0988587,4.801071,6.476435e-06,0.3,6.2034507,80.84042,80.76869,80.70543,80.73263,0.15063149,0.5046875,7.552966594696045,30.42205738623937
42,420000,81.33585790789107,-84.60677,1.26886e-40,-8.207129,1.4292622,-2.033182,1285.8071,74.63411,16.748854,102.711624,102.77494,102.626686,102.53819,4.6316586,0.7,-112.73607,-943.6098,0.0007345588,-6.3278713,3.240032,3.2638633,-0.48886096,2.606654,1.7326967e-06,0.3,5.334371,79.25627,79.2734,79.309204,79.28784,0.10147156,0.453125,7.957326889038086,31.143932723999022
43,430000,83.05147202443888,-88.48306,1.965e-41,20.506546,1.104293,-22.714203,1032.7253,30.465502,18.664125,103.17275,102.716606,103.22706,103.11941,10.604311,0.7,-115.950775,-965.07806,0.00038137735,-2.317267,14.766834,13.688131,12.035126,14.372147,2.673303e-07,0.3,5.8577476,82.71164,82.627365,82.71132,82.66879,0.14739925,0.434375,7.9731361865997314,31.868172518412273
44,440000,82.04382310097694,-87.96869,3.173e-42,-15.801337,1.6306025,-18.699795,1049.2552,76.166336,16.511045,102.44772,102.488495,102.72175,102.69325,13.946197,0.7,-114.49678,-958.4228,0.000236855,-2.7530417,14.561955,15.258201,13.30056,13.865607,4.899266e-07,0.3,6.061837,81.98027,81.95354,82.061386,82.017395,0.20025678,0.4390625,8.112780809402466,32.589287928740184
45,450000,79.69883148215098,-84.02324,5.4e-43,-48.70912,1.5702779,-14.380968,985.3548,155.0532,18.785727,104.253204,104.44153,104.04688,103.8552,45.10898,0.7,-116.03424,-1316.7618,0.00018070417,-7.106701,12.127584,12.943271,12.709674,10.836153,1.7813291e-07,0.3,5.456819,78.49026,78.548355,78.29587,78.35642,0.29854357,0.453125,7.700616359710693,33.30658262968063
46,460000,68.98917887690291,-84.51786,9.4e-44,-18.104795,2.6351833,-4.9332848,1189.2057,127.371185,15.3478775,102.32672,103.8841,103.085045,102.88559,11.432868,0.7,-115.9765,-1134.3375,6.7884626e-05,-6.263917,5.8859577,4.146534,3.5477815,2.9479413,3.873854e-06,0.3,5.4860315,79.03145,79.01875,79.45465,79.34155,0.30087945,0.421875,6.567964792251587,34.003306464354196
47,470000,72.92346735373826,-85.6537,1.5e-44,34.822186,1.4853642,-2.3687246,1372.1525,47.54342,17.135422,103.92761,103.73841,103.34995,103.69745,6.7662497,0.7,-115.112625,-1002.8526,0.00082529295,-4.5451765,1.865597,4.2786093,7.58149,4.997985,6.106391e-07,0.3,5.912847,79.73559,79.77486,79.62822,79.611755,0.14118114,0.45156246,7.1014792919158936,34.71043047507604
48,480000,70.35407570640592,-88.74229,3e-45,4.309145,2.190858,-14.306992,1705.0332,163.01195,18.006598,101.74963,102.14636,103.11916,103.24048,4.2911215,0.7,-114.56878,-845.03125,4.9958548e-05,-5.6634803,2.8177738,2.6959257,0.99827045,4.590848,2.0179868e-05,0.3,5.9108267,82.844315,82.90027,83.16446,83.211975,0.13961004,0.3609375,6.811135292053223,35.40902238686879
49,490000,72.96445889998353,-85.930565,0.0,41.692795,1.4263364,-3.8320432,1330.1833,69.62013,19.028362,101.337296,101.85005,101.5532,100.75697,15.579322,0.7,-118.514824,-900.4688,0.0016594119,-5.9854574,-0.37191588,0.18102413,0.084733546,-0.84398425,3.22744e-07,0.3,6.617509,79.303406,79.30351,79.61554,79.509766,0.1858359,0.4765625,6.979841232299805,36.11119262377421
50,500000,79.45756895159587,-88.79891,0.0,-16.95293,1.3211143,-17.491404,1370.3298,36.672737,18.438793,102.59538,103.263596,104.36103,104.03728,22.504154,0.7,-116.7995,-1053.5857,6.5884175e-05,-1.6289887,13.61469,13.888906,16.812696,15.7356205,8.265674e-06,0.3,5.864927,82.94742,83.02468,83.24837,83.07681,0.20730671,0.38437498,7.588438987731934,36.828002933661146
51,510000,76.46748522437048,-84.51149,0.0,-68.739975,1.9620926,-10.491083,1409.9803,234.99474,20.779587,101.54183,101.40382,101.91824,101.697426,1.7982739,0.7,-112.88921,-1034.3591,3.413465e-05,-2.9775486,7.210828,8.89356,9.671076,9.606351,4.172325e-08,0.3,5.549924,79.019684,79.14793,79.317085,79.04045,0.093509555,0.46875,7.620966196060181,37.54353232781092
52,520000,81.76619589470972,-85.45635,0.0,-6.983638,2.7458935,-10.236122,1400.048,251.40839,19.8315,99.612946,99.72937,100.29528,99.957085,4.6982713,0.7,-114.67618,-882.327,0.00032444403,-4.671808,5.3910213,4.931283,1.1771766,5.9521327,1.1227792e-06,0.3,5.869247,79.65837,79.71187,79.84515,79.75334,0.16626048,0.46406248,7.9761528968811035,38.26016057332357
53,530000,82.89173098704275,-89.85246,0.0,5.5710125,1.5510004,-3.9542732,1371.2222,30.081139,17.966297,102.152054,101.986,102.48891,102.252945,6.9523325,0.7,-114.91351,-1106.2115,0.0022766744,-5.170944,2.6909888,4.399763,5.056753,5.8154907,6.1406e-06,0.3,5.861738,84.097824,84.00684,84.391914,84.36568,0.21802188,0.3515625,7.929584264755249,38.973839569091794
54,540000,73.05394091576859,-85.21077,0.0,-2.2658882,1.7025975,-14.4627,1337.6261,77.12541,21.090128,101.85042,102.077034,101.58107,102.04412,6.407657,0.7,-116.63082,-1359.3209,0.00074120855,-4.14057,10.175805,11.086298,11.825744,12.3666725,9.305659e-08,0.3,6.200176,79.0168,79.03563,78.9317,78.99227,0.13561268,0.43124998,7.089783191680908,39.6802517414093
55,550000,74.295593268333,-85.63671,0.0,-23.895672,1.8387197,-8.358765,1765.6378,211.10394,19.089153,101.86193,102.15479,102.037,101.99207,9.581937,0.7,-114.90733,-1267.0596,0.00032012875,-6.804413,6.7524576,5.1020617,7.026016,6.7216253,2.3648145e-06,0.3,5.834047,79.892365,79.845985,80.031364,80.040016,0.23951249,0.3796875,7.842613458633423,40.394352944691974
56,560000,75.41908978774049,-87.44066,0.0,41.267075,2.0646017,-13.254774,1244.2097,231.31433,18.176956,101.94505,101.724846,102.049355,101.926384,3.582614,0.7,-114.45827,-969.2895,0.001304579,-1.7215776,6.066617,7.257932,10.970682,8.322053,3.5361154e-08,0.3,6.166372,81.39308,81.31943,81.44942,81.32524,0.10589816,0.4375,7.5153374671936035,41.10681553284327
57,570000,72.83583983427427,-87.02411,0.0,-58.877167,1.096408,-20.610807,1293.9763,44.448303,17.046028,102.53694,102.27515,103.08575,102.961464,5.641538,0.7,-115.28591,-981.9696,0.0002950137,-3.3414917,19.132698,19.10066,19.281843,18.477402,2.8749926e-07,0.3,5.723711,81.32153,81.32066,81.4191,81.47427,0.176834,0.3953125,7.31505823135376,41.81122258901596
58,580000,76.14167147863516,-85.49509,0.0,-29.825861,1.6628355,-21.01548,1344.106,50.963364,17.192774,101.15549,101.12056,101.03819,100.95824,11.802621,0.7,-112.77886,-1028.2595,0.003493082,-4.40032,12.68255,13.774648,11.234458,11.964295,2.514571e-07,0.3,5.59631,79.99203,79.87797,79.526474,79.48676,0.1838693,0.4609375,7.936359643936157,42.528421711921695
59,590000,82.5447774356368,-85.82097,0.0,-34.91986,1.216585,-7.591258,1649.3604,28.797918,17.679613,102.89073,102.78633,101.91575,101.9407,6.990873,0.7,-114.34465,-1010.3855,0.0034945135,-3.8128648,-1.5685495,-0.89643717,-0.49584195,-2.068228,1.41444625e-05,0.3,5.506075,80.294586,80.29191,79.90001,80.0003,0.18433361,0.56562495,7.953245401382446,43.24168115854263
60,600000,76.53555894854527,-90.14561,0.0,37.48751,1.7629445,-9.029811,1344.0242,75.70926,19.339617,101.36655,101.38361,101.39668,101.56876,9.43565,0.7,-115.19348,-962.17645,0.0006445814,-3.6676216,4.14298,3.3186893,4.085971,4.2348866,4.0745362e-11,0.3,6.3476453,83.87132,83.91488,84.0698,83.97,0.17427124,0.459375,7.786198377609253,43.960038801034294
61,610000,76.61737488119182,-87.14086,0.0,-8.252915,1.3447113,-6.162796,1364.893,37.572205,17.52108,102.84133,103.35637,103.00105,102.9516,5.6484537,0.7,-113.76225,-1051.4104,0.00014981213,-3.9338827,5.349402,2.689937,5.577178,4.7027736,5.94421e-07,0.3,5.764524,81.53482,81.46454,81.27913,81.21092,0.12556648,0.5375,7.83521032333374,44.677895708878836
62,620000,83.91058996352547,-87.39982,0.0,1.6830921,1.3079222,-6.285143,1796.171,48.036697,20.35247,102.418915,102.9108,102.749565,102.595695,9.072607,0.7,-118.26617,-1071.661,0.00018172257,-8.711719,-0.8675326,-1.1064627,0.8582996,1.1177373,3.929017e-09,0.3,5.7978153,81.718704,81.75377,81.828445,81.927475,0.16576207,0.37812498,8.12984323501587,45.39863378604253
63,630000,78.41953193839713,-88.062195,0.0,28.729218,1.1547688,-14.246498,1660.5881,42.358322,19.745752,101.642044,101.3842,102.25956,102.1641,4.149105,0.7,-117.96291,-1520.6423,0.00079024176,-3.3004274,11.401582,12.20196,9.542492,11.007598,3.229827e-07,0.3,5.7141423,82.27672,82.38704,82.404396,82.4387,0.11863086,0.440625,8.220447540283203,46.11817795038223
64,640000,82.26754745218523,-86.19818,0.0,-7.760499,1.1752484,-16.124989,1993.8809,46.251488,20.247738,101.77869,101.89734,101.674034,101.61781,10.541112,0.7,-118.781586,-1379.7292,0.00034347532,-5.1830416,10.212402,10.743113,10.287039,10.258314,1.525598e-06,0.3,6.2402277,79.96556,80.0823,79.86634,79.98866,0.18015239,0.45,7.900007963180542,46.83436809778213
65,650000,82.58310085567845,-83.36192,0.0,-4.1898575,1.1853194,-8.484768,1741.033,37.738693,23.924746,100.88766,101.14725,101.01857,101.12432,41.951954,0.7,-116.452126,-1435.598,0.00094569393,-4.815673,2.3628778,3.2964497,2.4251525,2.829264,8.451753e-07,0.3,5.5070515,77.75427,77.87955,77.88774,77.86072,0.29232353,0.4765625,7.973456144332886,47.555401571591695
66,660000,80.94986896697279,-87.729256,0.0,-53.427315,1.3156708,-24.091778,1497.235,69.85198,21.020035,101.4823,101.54627,101.24323,101.71729,11.080105,0.7,-115.427734,-1473.3665,2.6738562e-05,-6.6121774,17.686457,18.297674,18.310335,18.787193,2.4314505e-07,0.3,5.6825767,82.012245,82.04201,81.81219,81.83101,0.1666916,0.453125,7.830936431884766,48.27379445234934
67,670000,82.8824313003961,-85.37927,0.0,-33.761925,1.548253,1.431675,1293.4657,79.31647,17.810852,101.23129,101.2602,100.69362,100.84433,3.1116724,0.7,-117.55628,-1999.2566,0.0013492742,-5.819783,-1.1115054,0.35034359,4.203263,-1.6796038,4.8119114e-07,0.3,5.691865,79.84044,79.81975,79.63431,79.604164,0.13551696,0.521875,7.910463809967041,48.99757963021596
68,680000,80.05739120786394,-85.08043,0.0,13.661103,2.1905274,-10.073191,1480.8656,175.26254,16.408915,101.58007,101.305466,102.25067,102.27618,8.5393,0.7,-115.41217,-1245.1074,0.0012929214,-2.5632539,6.459449,7.4205036,6.844241,6.847518,1.3690443e-08,0.3,5.897489,79.22265,79.23831,79.32506,79.27435,0.14649804,0.421875,7.731681823730469,49.71358445088069
69,690000,82.12199243813019,-87.13864,0.0,-75.93596,1.3471174,-9.375389,1683.5564,106.71493,18.503952,100.295975,100.36823,100.51885,100.25919,9.90587,0.7,-113.28383,-1473.4589,0.0006207305,-3.034742,8.811503,7.7315245,7.9422493,7.086335,4.3655746e-08,0.3,5.4822726,81.6116,81.59879,81.564926,81.51805,0.16467667,0.5015625,7.903995037078857,50.43527573744456
70,700000,81.75299106668635,-87.432495,0.0,5.901121,1.4589751,-16.320858,1810.6133,66.70761,19.302776,101.13211,101.23983,101.123535,100.88601,12.805301,0.7,-116.77675,-1279.0781,7.37058e-05,-4.448393,12.068376,11.138401,9.1971,9.07939,5.593126e-06,0.3,5.8578176,81.66705,81.68596,81.638336,81.46629,0.1848848,0.5265626,7.952998876571655,51.15657927592596
71,710000,81.83300746599879,-87.6987,0.0,24.149208,1.6747721,-25.950901,2169.7224,38.66869,18.582382,99.99902,99.76889,99.98028,100.0605,19.749348,0.7,-116.007706,-1090.3005,0.00074736873,-4.456671,19.475258,20.57419,21.311298,21.703993,2.7385188e-06,0.3,6.051109,81.67234,81.672745,82.063,81.908585,0.25875962,0.48749998,7.9746253490448,51.87564319372177
72,720000,83.32224805156063,-86.040184,0.0,-35.292904,1.3481163,-19.805185,1558.8654,77.472015,18.143417,101.27602,101.39819,101.94275,101.24228,13.798198,0.7,-113.05063,-1927.7323,0.00020797539,-5.876825,9.010929,9.562466,10.949407,10.359482,1.11758716e-07,0.3,5.7333055,80.298065,80.35297,80.15846,80.25361,0.19031802,0.453125,7.929723262786865,52.59515335162481
73,730000,80.32962024679567,-86.29159,0.0,6.6326914,0.82340276,-8.06103,1635.9055,18.841894,17.597616,102.07501,101.66043,101.44274,100.93809,8.479936,0.7,-115.3511,-1276.0917,0.00030933414,-3.58394,5.1820655,5.0563307,3.502967,3.7193341,4.3655746e-08,0.3,6.0738673,80.226295,80.235,80.19762,80.05754,0.14074928,0.5609375,7.690592527389526,53.309093292554216
74,740000,79.58885567496706,-86.457886,0.0,-13.413332,1.2659638,-6.373871,2082.9893,25.221079,18.162842,100.74317,100.55298,100.82812,100.810326,44.78714,0.7,-113.867744,-2072.852,0.00064014597,-1.8447952,3.975092,2.3095007,1.6780187,3.0658703,4.0686687e-06,0.3,5.8469734,80.63918,80.56241,80.97864,80.9532,0.28932115,0.39374998,7.55960488319397,54.023837510744734
75,750000,78.84958487827808,-86.16752,0.0,-27.593845,1.6378558,-4.9175653,1744.8223,88.139435,16.100355,101.69215,101.35117,101.87911,101.574615,6.65917,0.7,-113.51637,-1381.1832,0.0007290233,-4.3809,1.3103886,0.8199794,2.869176,2.6588154,8.074567e-08,0.3,5.870288,80.319336,80.3312,80.315346,80.21083,0.14168948,0.5015625,7.796066999435425,54.74096529483795
76,760000,80.94603445122442,-86.9186,0.0,13.975057,1.3073455,-10.592412,1701.2208,67.84718,15.10774,101.085014,101.19429,101.20481,101.18259,20.58634,0.7,-111.524994,-1388.8029,0.002802672,-4.6947856,0.98156226,2.806493,0.6251204,1.7777483,8.5287616e-07,0.3,5.925819,80.95387,81.08,81.14302,81.15498,0.18904014,0.4140625,7.67583441734314,55.45580089489619
77,770000,82.23569869387738,-85.21452,0.0,-15.910909,1.167664,-8.849746,2029.0277,57.68876,18.88636,101.87643,101.637825,101.94729,101.74129,22.476982,0.7,-116.54982,-1437.2787,0.0001252243,-4.9763503,2.49882,2.948712,0.9446138,1.9121021,5.2293844e-06,0.3,5.826586,79.38592,79.430534,79.48062,79.38348,0.23540147,0.4453125,7.979939222335815,56.175842614968616
78,780000,82.41952950163069,-87.23328,0.0,3.640583,1.1867353,-18.981628,1747.829,31.005241,23.16435,102.4901,102.586334,102.61466,102.14765,11.135214,0.7,-115.79329,-1392.4724,0.0025709276,-5.1105404,12.511896,12.73083,10.46797,11.190347,2.7939677e-06,0.3,6.0748253,81.262085,81.25604,81.37538,81.332886,0.16454051,0.41875,7.908801317214966,56.8985258658727
79,790000,78.81430602069716,-86.24027,0.0,-4.341795,1.0294367,-14.404761,1956.9612,32.406864,18.704647,102.13815,102.70296,102.315414,102.170074,4.4868608,0.7,-115.20726,-1462.3652,0.00033059617,-2.144617,8.245016,8.410267,6.7816725,6.4410133,2.7067e-07,0.3,6.12509,80.213135,80.14699,80.29866,80.23822,0.11246008,0.4984375,7.509826898574829,57.6101215004921
80,800000,77.91713962716659,-85.59955,0.0,-54.83379,1.5489693,-1.2820196,2077.1306,68.23146,17.088078,100.53219,100.468254,100.34775,100.44558,12.916772,0.7,-111.36928,-1204.3583,0.002447161,-5.307975,1.6057425,2.1408968,1.8423817,3.3749552,1.6298145e-10,0.3,5.9619355,79.601456,79.67112,79.342545,79.45693,0.19053914,0.39999998,7.434032678604126,58.31854802767436
81,810000,82.45353649620529,-86.00925,0.0,-66.61575,1.6436826,-25.402271,1507.7472,42.74654,15.721241,102.50572,102.67251,101.67074,101.65906,6.2050943,0.7,-116.18654,-1766.5455,0.0008721868,-5.3378477,17.120365,11.969318,11.514027,14.506917,4.541944e-08,0.3,5.6836233,80.35718,80.22432,79.96413,80.02847,0.15187392,0.4796875,7.92355751991272,59.03134820858637
82,820000,82.62088786067801,-84.81059,0.0,-24.463568,2.1601658,-18.69124,2038.1047,140.57193,20.485714,103.65086,103.54069,103.43443,103.45813,5.7940164,0.7,-117.93135,-1623.14,0.0004907421,-7.244417,11.173385,10.426168,12.908979,11.300557,1.3302081e-06,0.3,6.0783224,78.75758,78.752426,78.69278,78.65808,0.18894759,0.42343748,7.943821907043457,59.74402041435242
83,830000,82.28403841749319,-83.81211,0.0,-45.004936,1.2793279,-10.586805,2124.0266,33.978355,17.492918,101.36449,100.979454,101.63401,101.282684,4.400418,0.7,-112.941055,-2347.186,0.0017276558,-7.249339,4.091235,2.4055054,1.1637452,0.68210053,1.1175871e-09,0.3,5.6968355,78.151024,78.11008,78.290535,78.1207,0.2015175,0.43593746,8.043038129806519,60.46215405066808
84,840000,81.21637208757735,-87.25331,0.0,-23.30954,0.89504737,-21.194695,2266.9397,26.873606,20.145428,101.97901,102.05418,101.66583,101.647026,9.622842,0.7,-113.69142,-1992.617,0.0005180967,-4.6270685,19.489227,16.929153,17.489143,16.112501,2.818316e-06,0.3,5.917592,81.293686,81.292206,81.1465,81.153114,0.14482252,0.5328125,7.935666084289551,61.18237541913986
85,850000,75.55331088151122,-86.07533,0.0,-17.174809,1.0288228,-11.122235,1752.8849,57.910416,18.926651,103.15946,103.420654,103.21791,102.83612,10.422557,0.7,-115.034515,-1267.7466,0.00085873017,-2.8307638,10.084315,10.693814,9.6868925,9.260034,1.9992586e-07,0.3,6.022561,80.10559,80.07609,80.03728,80.119446,0.19790736,0.3890625,7.273545265197754,61.891439870993295
86,860000,82.13764790380806,-88.999954,0.0,-5.567723,0.6643716,-24.08108,2454.3289,20.940628,18.424696,101.46164,100.96205,101.055275,101.64151,2.115321,0.7,-117.64562,-1438.9277,1.1269003e-05,-4.2170277,22.659788,22.438404,22.810019,23.221111,9.045878e-07,0.3,5.948676,83.051895,83.03125,83.01878,82.902275,0.066332355,0.50625,7.9490838050842285,62.60966966152191
87,870000,82.1959128410048,-85.86218,0.0,-14.48367,1.8221614,-7.5369897,2025.9417,43.804657,19.019619,99.87015,99.88999,99.94118,100.04242,10.84962,0.7,-113.926315,-1677.9424,0.0006373958,-6.391916,6.1696734,4.6579943,7.518549,6.320091,1.8218242e-06,0.3,5.6070127,80.138306,80.21115,80.36884,80.36824,0.27473646,0.371875,7.922897815704346,63.326688555876416
88,880000,81.24856807242817,-85.28827,0.0,-2.2496462,1.2556857,-8.002541,1856.3088,39.616577,19.506332,102.52484,102.57363,102.91821,102.76051,16.407757,0.7,-113.64171,-1612.7035,5.5530603e-05,-4.12049,0.24503565,0.6796329,1.5501335,1.1139623,3.6670826e-08,0.3,5.974339,79.33795,79.309525,79.503525,79.466644,0.14569774,0.4890625,7.804060935974121,64.04054523309073
89,890000,82.7100878517628,-87.73172,0.0,-14.969585,2.7641292,-16.37134,1443.1262,197.54355,17.734407,101.35428,100.45732,101.02584,100.83382,9.505799,0.7,-112.65163,-1418.2239,0.00016800058,-3.5297613,11.257356,10.798297,12.2834635,13.094939,5.409122e-07,0.3,5.84809,81.89395,81.85783,82.133286,81.99278,0.22299147,0.44375002,8.065558195114136,64.75689110358556
90,900000,77.68350920678961,-88.73272,0.0,33.74253,0.8413893,-21.418526,2143.0723,35.18588,18.494347,101.579025,101.3912,101.17539,101.32573,3.2676845,0.7,-115.80693,-1297.6505,0.00070263655,-4.586485,21.01473,22.043663,20.120302,20.980247,1.31917595e-05,0.3,5.879091,82.9501,82.962776,82.689545,82.68184,0.105051786,0.48593748,7.398854732513428,65.46660177310308
91,910000,82.14287989005454,-86.84113,0.0,-112.3049,0.8656056,-21.20015,2289.417,51.742783,17.957504,100.225464,100.09351,100.14735,100.331085,6.431626,0.7,-115.94649,-1584.8912,0.00078099227,-1.966485,20.451443,19.270628,21.367496,18.89767,1.177541e-08,0.3,5.6498775,81.21207,81.19571,81.124344,81.031876,0.120703936,0.52812505,7.894383668899536,66.18674857616425
92,920000,78.94199057565493,-86.68668,0.0,-50.203114,1.0963492,-24.384068,2304.879,83.09611,18.444721,101.8362,102.07283,101.9485,101.94252,8.296898,0.7,-111.56476,-1339.5099,0.00024485227,-3.7513049,19.28343,18.946026,17.545084,18.908276,1.466833e-07,0.3,6.0343018,80.66901,80.72305,80.73183,80.84798,0.12153831,0.38437498,7.617462158203125,66.89642963409423
93,930000,80.2592087861251,-87.02444,0.0,-48.397984,0.77646506,-10.070328,2609.3875,37.99945,23.934027,101.14952,101.38954,101.22586,101.04162,9.415995,0.7,-122.16079,-2118.2905,0.0009891513,-7.608035,5.2179317,7.408136,5.2035666,6.9395885,1.0913936e-06,0.3,5.6323066,81.46526,81.51416,81.54901,81.49715,0.16289651,0.371875,7.726844787597656,67.61053714752197
94,940000,81.32374572125377,-88.96652,0.0,-44.598183,0.7599334,-24.874754,1950.2605,29.740479,19.821733,100.81341,101.09462,101.06571,100.62973,11.650158,0.7,-118.423676,-1795.8412,0.0006877743,-4.168949,21.857166,22.157532,22.130379,21.866453,4.2509228e-06,0.3,5.985092,83.01407,82.980225,83.114334,83.084465,0.11947777,0.44687498,7.847795724868774,68.32737016280493
95,950000,82.5656822265969,-87.40825,0.0,0.796093,1.425416,-5.982018,2273.555,47.1273,18.470667,100.20069,100.16482,100.23076,100.082634,6.177696,0.7,-114.08872,-1948.8816,0.00018712977,-6.3283796,5.239619,3.397438,4.0843763,3.1949894,1.1457014e-07,0.3,6.0670786,81.45488,81.323975,81.25219,81.19476,0.13007855,0.546875,8.49209451675415,69.04246867895127
96,955000,82.76224239697284,-83.85493,0.0,-14.445776,1.2619661,-8.098423,2187.4653,119.880554,18.878294,101.45868,101.60034,101.238525,101.618996,5.849348,0.7,-113.186295,-1626.6685,0.00016384135,-3.1040976,6.9456816,6.4064827,5.1724396,4.897734,7.781101e-06,0.3,5.5937667,78.18948,78.16698,78.13147,78.23989,0.1398609,0.44375,8.245816946029663,69.46536629199981
97,960000,82.51613814028525,-84.93518,0.0,-72.754364,0.768001,-5.176058,2385.8071,18.279978,18.483835,100.92797,101.040565,100.28249,100.36003,5.5068398,0.7,-113.48783,-1741.3292,0.00020375673,-4.694864,2.6996431,1.8840663,4.5664,5.190318,2.4556359e-08,0.3,5.8562403,79.13066,79.15033,79.17732,79.17239,0.13089953,0.4140625,8.218381881713867,69.88702008326848
98,965000,82.92343055879027,-87.62482,0.0,-33.57611,1.3200046,-8.683704,2126.0215,115.53067,20.419384,100.74987,101.525215,101.19182,102.443535,3.3280458,0.7,-112.14554,-1681.6583,0.00030378165,-5.473671,7.5479617,8.308586,6.83218,7.03955,1.3495563e-06,0.3,5.632745,82.05112,82.090004,82.069916,82.04285,0.10437106,0.459375,8.106606245040894,70.31698710521063
99,970000,81.90911805352027,-83.94351,0.0,-43.592335,3.0459657,-19.160202,2357.9353,177.52881,17.655544,100.1516,99.80307,99.33569,99.96533,11.877255,0.7,-115.77998,-1529.8524,0.000611425,-2.4620645,11.041145,11.846048,11.954416,11.979046,1.0460365e-06,0.3,5.48563,78.44701,78.44452,78.61667,78.5488,0.21913126,0.4515625,7.889782667160034,70.7425497452418
100,975000,78.39382981169119,-86.07045,0.0,18.109877,1.1188468,-21.618896,2132.4934,78.195244,21.064516,101.25356,101.13246,101.282425,101.21202,5.8724136,0.7,-115.68421,-2107.386,0.0009115008,-4.3018312,15.890513,15.472858,13.276718,13.784502,1.6171835e-07,0.3,6.1473823,80.04278,79.948296,80.012314,79.96203,0.097132795,0.42968747,7.639332056045532,71.16177901824315
101,980000,79.75782284783158,-88.1381,0.0,2.1100368,1.5851495,-26.37531,1662.1383,45.64267,17.309326,101.25162,101.48079,100.947815,101.42908,11.092829,0.7,-114.852615,-2590.137,3.2108743e-05,-5.3426433,22.156403,22.246662,22.243998,22.203913,1.7813291e-07,0.3,5.8102107,82.33472,82.370575,82.00669,82.11995,0.2058978,0.490625,7.772665739059448,71.58653524319331
102,985000,82.40056709242653,-85.20575,0.0,-21.210379,1.2448131,-8.116908,2105.137,31.59642,16.333235,101.4535,101.475784,101.17442,101.509605,4.792935,0.7,-114.89093,-1503.9396,0.0011155908,-11.497924,1.8129177,1.0396534,1.054992,2.514461,2.6560157e-08,0.3,5.7187166,79.54113,79.54803,79.272194,79.329704,0.17530102,0.51875,7.932744026184082,72.01375064055125
103,990000,82.63613949433997,-85.06749,0.0,-26.976833,2.314718,-17.612019,2479.9739,236.38893,20.633982,101.64041,101.7797,101.53205,101.716545,39.783848,0.7,-115.67583,-2135.469,0.0001219166,-2.0619516,3.9651146,5.574429,4.5107555,4.337981,6.041257e-07,0.3,6.0571165,78.977615,79.01831,78.798294,78.75517,0.29500118,0.4890625,7.9573211669921875,72.44011752208074
104,995000,82.99590965763589,-88.435394,0.0,24.743107,0.9012066,-22.369444,4340.9507,24.442665,27.895668,101.61656,101.45142,101.108795,101.191475,13.180004,0.7,-116.56968,-1541.6155,0.0011837243,-5.293317,6.9048347,9.837316,9.234562,6.9774523,6.9307866e-08,0.3,6.045804,82.4254,82.415955,82.25807,82.22838,0.17959201,0.54375,7.911090612411499,72.86890275081
105,1000000,79.17322665043824,-87.17314,0.0,0.40968132,1.5735595,-23.10241,2127.7346,68.14751,19.9347,100.871796,101.00503,100.57281,100.97387,10.361251,0.7,-114.735344,-1796.739,0.0005002991,-2.9957263,21.195724,21.615543,21.567728,22.005892,1.8840656e-07,0.3,5.9472475,81.18715,81.224335,81.25549,81.205734,0.19362746,0.440625,7.907066106796265,73.29568210442861
