Xixo99/comfo/baselines/comfo6_perterbation_actor/20230222_actor_perterbation/walker2d-medium-v2/COMFO6_s2_20230222_132017_walker2d-medium-v2_80.81.csv
,step,reward,actor_loss,alpha,alpha_loss,critic_loss,max_actor_loss,max_alpha_loss,max_critic_loss,max_mle_prob,max_q1,max_q2,max_target_q,max_v,max_value_loss,max_weight,min_actor_loss,min_alpha_loss,min_critic_loss,min_mle_prob,min_q1,min_q2,min_target_q,min_v,min_value_loss,min_weight,mle_prob,q1,q2,target_q,v,value_loss,weight,eval_time,time
0,0,2.9066781960158017,,,,,,,,,,,,,,,,,,,,,,,,,,,,,,,,,
1,10000,55.883029334138676,-38.02523,0.08326841,-3.3171606,0.6197331,-8.313792,26.877913,19.250345,15.844662,46.76262,46.502167,45.578266,45.03485,1.3200966,0.7,-59.162502,-29.64444,0.0005839058,-6.1610746,8.164665,8.012955,7.8862596,8.015919,2.1544384e-08,0.3,5.1965055,33.290787,33.282303,33.434067,32.90132,0.04305677,0.4265625,6.010221004486084,2.059069875876109
2,20000,48.96631629562058,-56.032173,0.005847747,-2.5260413,1.1561241,-8.481283,82.548,52.703682,19.953228,70.481064,70.128334,70.21619,69.510376,20.05679,0.7,-87.17862,-65.995285,0.0010248239,-5.994524,6.5302014,6.5706496,3.5635111,11.402754,2.620436e-07,0.3,5.3506265,50.65192,50.593586,50.40738,50.390617,0.30214113,0.47187498,5.028958797454834,2.73238613208135
3,30000,72.8896473732373,-69.92673,0.00038470316,-5.134259,0.9543115,-17.65725,84.198166,29.585636,14.322432,87.31593,87.1291,87.14818,87.012215,4.678483,0.7,-99.06751,-70.85621,0.00013489943,-4.656674,12.154206,12.402524,12.178568,14.375682,6.708317e-07,0.3,5.320312,64.63361,64.655914,64.579956,64.4538,0.14659294,0.5015625,7.38327169418335,3.4445472081502277
4,40000,62.09147666149756,-78.6476,2.664085e-05,-7.8487315,2.0901556,-0.31817806,122.7232,61.599297,17.193314,95.46132,95.48088,93.1079,94.45392,60.995213,0.7,-107.4711,-118.85217,0.00055433466,-10.554403,-4.250646,-1.1388841,-4.7701583,-1.8089149,1.502037e-06,0.3,5.300591,73.29524,73.260994,73.316986,73.134735,0.36323386,0.5015625,6.145076036453247,4.136189818382263
5,50000,76.53182151137722,-83.290726,1.9395636e-06,-5.779714,1.4713874,-21.764576,159.06017,95.80812,18.414635,99.30675,99.053444,99.178314,98.67134,6.7991867,0.7,-115.38748,-111.56443,0.0002079425,-4.383943,12.853223,12.567152,12.553797,11.042624,5.6892605e-07,0.3,5.535153,77.65649,77.75133,77.5879,77.382484,0.13984206,0.5125,7.5256898403167725,4.850323895613353
6,60000,76.87855151539019,-85.75055,1.4522705e-07,-3.728061,2.3351088,-24.913914,161.12807,229.61127,16.04712,101.50165,101.35958,103.26418,101.563835,6.120207,0.7,-113.558075,-162.85387,0.0055929096,-7.697837,19.81245,19.695812,20.34364,19.283974,7.2671105e-07,0.3,5.7364364,80.0884,80.07795,79.9583,79.87757,0.114017874,0.4375,7.6181745529174805,5.559847195943196
7,70000,71.72800553207928,-86.14252,1.1372752e-08,-6.1520844,1.4993335,-9.124672,244.14107,47.366814,18.699837,102.97297,103.239494,104.43715,103.496025,5.4799995,0.7,-117.24177,-154.73338,0.0055632093,-4.0933924,6.4434586,6.088182,8.078299,7.6807985,6.468734e-07,0.3,5.4895782,80.651505,80.75963,81.08997,81.00752,0.13807377,0.4375,6.875463008880615,6.261990865071614
8,80000,70.77639876744611,-87.67317,9.250086e-10,-5.7691264,2.857582,-20.17636,288.4633,183.06126,22.715494,103.29656,103.291695,103.09205,102.69606,3.4311411,0.7,-114.57514,-157.29555,0.0016791763,-3.8989165,12.601199,14.889463,10.738264,12.880074,1.983176e-06,0.3,5.779847,81.954124,81.90644,81.68795,81.762596,0.12164125,0.39218748,6.881856679916382,6.962579480806986
9,90000,70.65371987710954,-85.431946,7.92526e-11,-16.003643,2.5763898,-12.360509,273.80014,155.89078,18.870077,103.06724,103.74257,103.1407,103.24491,16.37223,0.7,-116.17395,-266.8053,2.6584894e-05,-7.963455,11.342692,11.712693,10.559319,10.795348,9.480107e-07,0.3,5.47122,79.9725,79.95567,79.535,79.8047,0.17730528,0.46875,6.889552593231201,7.6673248966534935
10,100000,80.62687089496774,-87.31976,6.8920724e-12,-1.9820685,3.9007952,-11.691385,289.45245,523.517,19.453928,103.219536,102.9711,104.183334,103.39705,9.908197,0.7,-117.76222,-296.62195,0.00054127176,-1.7869124,11.025176,10.035978,8.837715,9.133523,7.3098754e-06,0.3,5.8893676,81.424484,81.46758,81.59826,81.78056,0.1533225,0.42968747,8.13180685043335,8.382486196358998
11,110000,77.64333689798367,-81.490425,6.1340624e-13,-22.924839,1.9439635,-0.50368285,311.40662,57.445984,20.718962,104.23668,103.31604,103.71101,104.552055,11.701539,0.7,-118.17188,-280.8602,0.0015770255,-5.728731,-2.213474,-1.1372706,0.9113864,-2.3493392,4.9874075e-07,0.3,5.2501254,76.394806,76.333244,76.66199,76.661476,0.27136475,0.3875,7.887392282485962,9.09989329179128
12,120000,78.01924008489995,-86.35297,5.619285e-14,-15.163744,1.5779507,8.047049,352.95038,66.52971,21.097855,103.583046,103.32341,103.198204,103.54466,9.88141,0.7,-115.74248,-267.98267,7.4847325e-05,-7.0927906,-0.2952805,0.7022921,1.9924161,3.0724268,1.0913936e-08,0.3,5.4150286,80.88601,80.98095,80.93863,81.05225,0.25376093,0.45624998,7.864005088806152,9.818083413441975
13,130000,75.97449868041133,-87.13513,5.344048e-15,-16.839533,1.3376334,-4.6032844,413.8502,48.84875,18.282263,106.76725,106.80352,106.13136,105.81409,2.0204513,0.7,-116.9547,-285.11267,9.285315e-05,-6.2714705,11.3761425,10.818883,11.408822,11.285133,5.867332e-07,0.3,5.384405,81.78598,81.87566,81.69517,81.62039,0.10841492,0.4875,7.408795595169067,10.526608522733053
14,140000,72.51743435066611,-86.20755,5.1448495e-16,-6.803756,1.2590135,-2.8832533,451.25677,65.99438,15.54159,103.651276,104.01636,104.56955,104.65649,5.8264666,0.7,-113.79373,-345.4419,5.1407005e-05,-3.4921198,-2.2011268,-2.4523985,3.416181,0.8810401,1.517724e-06,0.3,5.7855644,80.4787,80.52181,80.85713,80.77095,0.11416678,0.40468746,7.088611364364624,11.229070206483206
15,150000,75.05533496933636,-88.07272,5.016186e-17,-4.262163,1.8588095,-12.398971,467.1239,64.572296,17.423489,101.77907,101.9496,102.563705,102.52527,1.7455101,0.7,-114.94561,-436.78842,0.0004972069,-7.158504,10.335083,9.974357,10.437782,10.253482,4.9874075e-07,0.3,5.164153,82.995865,82.995346,83.21483,83.18535,0.0950993,0.4359375,6.970450162887573,11.93161077896754
16,160000,75.2256475226392,-84.89783,5.0078664e-18,-25.669405,4.7886863,-12.023239,526.3383,558.0376,17.042635,105.84278,105.85537,105.86541,105.82836,22.95888,0.7,-115.08917,-502.83694,0.0005725296,-6.9604936,4.1503935,4.851235,2.8396113,1.8571393,3.426685e-08,0.3,5.485593,79.42248,79.407074,79.40573,79.25086,0.33896932,0.4765625,7.342539310455322,12.640364317099253
17,170000,78.84225830494115,-86.937454,5.1207e-19,28.274063,3.7591777,-14.5559845,484.49716,554.1698,16.871216,102.50968,102.176254,102.47087,102.48939,6.9998965,0.7,-115.23588,-445.60986,0.000591679,-8.592489,9.540012,9.823732,9.4102545,9.928009,6.2864274e-08,0.3,6.018683,80.96329,80.97992,81.11749,81.11482,0.17479506,0.4515625,7.635605096817017,13.352955893675487
18,180000,76.44459223801782,-85.772736,5.3169496e-20,-17.356085,1.1831216,-7.316376,492.8851,20.605412,17.19453,103.36476,104.25506,102.580505,103.83899,4.5463696,0.7,-118.51918,-490.25046,0.00047117064,-8.304623,5.2841606,3.078308,4.762942,5.190967,6.30389e-09,0.3,5.791402,80.09691,79.99821,79.76475,79.856476,0.14920066,0.4703125,7.428443431854248,14.062596261501312
19,190000,73.68716716786368,-87.66302,5.682771e-21,-14.123886,1.8142757,-5.482189,608.78375,80.48798,15.775138,102.93546,103.16773,103.229576,103.19004,15.712878,0.7,-112.79419,-492.10593,0.0017003766,-3.2956796,3.2418494,1.1887376,2.702248,3.5096905,1.1804514e-06,0.3,5.4980597,82.23799,82.31159,82.49065,82.37813,0.25830138,0.4265625,7.244652271270752,14.764705642064412
20,200000,79.34689353659509,-88.56407,6.1189944e-22,-30.511786,1.0650984,6.5177975,711.52136,35.585148,16.58738,102.22421,102.231,101.93816,101.712395,14.075898,0.7,-114.67807,-521.0931,0.0023471403,-5.7569575,2.9086628,-0.524884,1.3953197,1.1356208,2.1904708e-07,0.3,5.474559,83.14828,83.2066,82.918304,83.11183,0.14765629,0.41562498,7.809673547744751,15.47838751077652
21,210000,78.79487045668998,-87.21702,6.6545554e-23,-13.091663,1.1533453,-17.174623,809.6876,35.110718,15.101278,104.51674,104.06027,104.51956,104.28349,4.8426065,0.7,-114.56642,-468.7987,9.2024e-05,-5.6558,9.899851,10.335069,12.780536,12.037156,5.186739e-06,0.3,5.8289385,81.555954,81.486626,81.47658,81.54708,0.122892566,0.41406247,7.596578121185303,16.191239098707836
22,220000,81.3415039576288,-83.37076,7.573112e-24,-38.48332,1.9550635,-25.099148,619.20264,33.53073,14.836676,103.14798,103.25894,102.72508,102.88223,30.022757,0.7,-113.29799,-542.23315,0.0010906395,-1.6193237,19.785055,20.430979,18.78594,19.04887,3.4030934e-06,0.3,5.2501574,78.229126,78.13555,78.26745,78.316956,0.353867,0.4296875,8.181188344955444,16.90863387187322
23,230000,72.48676247825418,-86.464584,8.71297e-25,-16.769863,1.7052736,-18.26764,727.47253,104.66443,18.999521,102.745926,102.737686,102.66443,102.55537,17.269941,0.7,-119.00043,-572.3903,0.0007647822,-7.1623316,17.043776,17.281223,16.899084,14.330075,6.519258e-10,0.3,5.5447407,80.85115,80.89833,80.64882,80.58304,0.3083437,0.496875,7.0700013637542725,17.61127727031708
24,240000,76.84782105929298,-88.69143,1.0234201e-25,-1.506465,1.9742398,-7.96312,638.87384,58.54712,20.18167,103.05244,104.769196,103.1642,102.966995,5.117782,0.7,-115.777534,-613.3828,0.0049733045,-5.9016747,5.0068426,5.146336,6.291072,6.392734,7.700874e-09,0.3,6.1766386,82.54999,82.544914,82.05732,82.15093,0.13964984,0.5203125,7.758068799972534,18.322519357999166
25,250000,72.19494517198041,-83.72917,1.21908346e-26,-13.937464,1.0976604,-16.42638,607.21265,29.34682,20.166882,101.426704,101.69148,101.2287,101.440735,7.494518,0.7,-117.09595,-547.8305,0.00068582746,-3.7853703,9.9302,6.973545,9.63521,8.49941,7.152558e-08,0.3,5.568125,78.227646,78.1457,77.944534,77.87668,0.14211243,0.5609375,7.200805187225342,19.025564336776732
26,260000,74.24345955358118,-85.88852,1.4849195e-27,-10.935148,2.1211152,-13.685895,713.59814,105.41458,19.522724,101.61091,101.5655,101.58236,101.44919,3.1294258,0.7,-116.63574,-795.59576,0.00010333938,-5.307674,8.779821,9.378087,9.295908,11.024498,8.287648e-06,0.3,5.766602,80.29263,80.264755,80.31263,80.2919,0.1027811,0.45468748,7.245663642883301,19.728677622477214
27,270000,80.45896486599935,-88.95935,1.8295356e-28,-7.3042345,1.161597,-15.267428,674.01074,43.888397,17.333492,103.67269,104.01522,103.872925,103.32913,2.463652,0.7,-118.21997,-790.97266,0.0016697659,-5.67125,12.255228,12.1599245,12.80685,11.490072,1.0353397e-07,0.3,5.7609005,83.18526,83.27425,83.08782,83.20003,0.101617016,0.4515625,7.955359935760498,20.443750949700675
28,280000,79.51230175079131,-88.983215,2.2861356e-29,-34.060806,1.0851086,-25.767273,776.4106,59.04245,20.785715,102.50978,102.37465,102.43983,102.19182,5.8759375,0.7,-118.32343,-606.93085,9.803643e-05,-8.779786,19.864735,17.803118,20.790577,20.225502,2.0262262e-06,0.3,5.731058,83.2836,83.34306,83.177025,83.23537,0.101259455,0.47187498,7.713742971420288,21.157617684205373
29,290000,76.59705187556675,-84.796074,2.957338e-30,-17.779247,1.5502615,-21.626556,626.06964,91.022285,17.092445,101.77882,102.19473,100.978,101.17053,10.599718,0.7,-113.94703,-567.95325,0.00068096304,-3.5098906,14.283426,13.417771,13.200783,12.00375,3.7550925e-07,0.3,5.766359,79.03327,79.03238,78.76042,78.8568,0.1615107,0.4421875,7.623303174972534,21.86120421886444
30,300000,82.01471460088484,-88.69552,3.745261e-31,14.486052,1.1441674,-13.620481,938.293,51.966866,18.209324,103.032265,102.758736,102.3428,102.722694,17.499758,0.7,-115.96912,-730.42255,0.0005765032,-2.8169355,9.478711,9.013954,6.397522,8.534661,1.2355624e-06,0.3,5.79263,82.99382,82.929985,83.12066,83.079544,0.1876922,0.4609375,8.51532244682312,22.587432805697123
31,310000,78.41774343519006,-86.57066,4.963461e-32,23.801651,3.250556,-4.7451468,791.16815,423.93457,17.26703,103.142555,103.92561,103.42633,103.35749,2.531107,0.7,-116.26451,-638.9148,0.0022891841,-3.8972487,5.6748753,6.648514,0.26703003,7.050928,1.4787249e-06,0.3,6.1933975,80.40579,80.47093,80.37578,80.66782,0.15032466,0.34375,8.253573417663574,23.306883339087168
32,320000,67.83332797258737,-85.10272,6.7496775e-33,-38.150394,2.0260265,0.7443526,840.33295,231.12773,20.119564,102.33764,102.11208,102.32722,102.014244,7.0201774,0.7,-113.46837,-708.465,0.00061476376,-7.2405925,1.9849694,-0.27893776,4.0688825,2.8023343,1.2194679e-06,0.3,5.70405,79.489975,79.39665,79.51732,79.34987,0.17380996,0.5484375,6.312957763671875,23.999755012989045
33,330000,82.32266260308494,-85.71944,9.272672e-34,14.569969,0.7665454,-21.802752,901.3009,22.728073,16.544477,102.144,102.37759,102.15972,102.131165,3.2658503,0.7,-114.586,-751.9651,0.00024697935,-4.565755,15.40725,15.894328,15.322333,14.02227,1.11237384e-07,0.3,5.792852,79.947754,79.96028,79.98662,79.83671,0.12197604,0.49843746,8.064435720443726,24.718695918718975
34,340000,74.44498474445919,-88.02083,1.3087885e-34,-14.739768,2.243846,-19.479141,818.60474,219.78528,15.606152,102.10717,101.717804,102.275406,102.35384,5.2104826,0.7,-113.68496,-1034.6138,0.00012281962,-3.003312,17.869001,17.622498,18.232977,17.186651,2.8164942e-07,0.3,5.7412934,82.37773,82.33524,82.41754,82.446686,0.13971987,0.49531248,7.1245200634002686,25.42227057615916
35,350000,75.4792754980239,-83.86007,1.8813933e-35,-52.868088,1.5049375,-7.18583,1091.9801,50.82865,16.245857,102.30247,102.165764,101.691475,101.032524,5.580573,0.7,-116.84945,-745.05554,9.101094e-05,-5.689594,3.5535555,5.2438774,4.294572,4.4822693,8.6852816e-07,0.3,5.6771574,78.28756,78.23723,78.02167,78.0668,0.13309862,0.4640625,7.122821092605591,26.13023960987727
36,360000,76.67839835033642,-86.75183,2.7170712e-36,-20.871155,1.0458219,-14.764579,888.95074,43.297516,17.857506,101.186,101.26199,101.27759,101.20689,6.5759683,0.7,-114.554855,-807.9591,0.0003778942,-2.759324,17.029627,17.101215,18.461645,18.533417,3.1355304e-07,0.3,5.5129356,81.31378,81.40803,81.5755,81.62627,0.1482816,0.4421875,7.304269313812256,26.839776583512624
37,370000,79.38858992947068,-84.65095,3.7915953e-37,-35.46684,1.3059504,0.2833345,880.1355,59.17256,16.13524,102.58139,102.81866,103.09323,103.257965,26.512989,0.7,-112.28736,-1093.1263,0.0019117558,-7.886466,1.0595715,-0.48364437,0.80606055,0.16822219,6.078626e-08,0.3,5.346971,79.377,79.34593,79.31932,79.31897,0.24239193,0.421875,7.436513185501099,27.551427535216014
38,380000,76.03344821813126,-86.64621,5.5362786e-38,20.280312,2.2027354,-0.33252084,991.802,65.27168,16.740482,102.41627,102.66284,103.1707,102.60627,3.241075,0.7,-112.99784,-911.3907,0.0073862043,-6.504622,-1.4748929,-2.2703753,1.5301902,1.7839644,2.542918e-07,0.3,5.7914968,80.87796,80.93814,81.43169,81.33724,0.1395489,0.41249996,7.458735466003418,28.259391395250955
39,390000,80.37117986439164,-86.72049,8.508833e-39,-15.856327,2.1939163,-7.8807178,1069.4957,110.05179,17.133444,101.32257,101.75447,101.195015,101.50064,22.876932,0.7,-116.03938,-1028.7747,3.393332e-05,-3.1781006,4.2937436,6.2402453,8.039501,7.8565283,1.11758716e-07,0.3,5.6632476,81.11749,81.08925,81.15654,81.038956,0.2711881,0.5015625,7.596961498260498,28.972935807704925
40,400000,71.61867362241482,-86.26367,1.282066e-39,-28.007423,6.261617,-2.4721289,1051.1749,689.0202,18.307598,103.42862,103.73844,103.56827,103.266075,13.287986,0.7,-113.87872,-1176.9894,0.00018476674,-5.838893,1.0981722,1.2295694,1.3514853,1.9210904,3.277499e-07,0.3,5.5341835,80.81474,80.740036,80.68736,80.87378,0.1688846,0.35625,6.969992637634277,29.671822321414947
41,410000,75.68882433302771,-85.431564,1.98047e-40,5.3060036,1.1935685,-10.985397,1275.6298,29.202877,16.491726,100.29064,99.95542,100.60464,101.15261,2.2485592,0.7,-113.03285,-1089.787,0.00027224032,-5.3250933,3.7971659,3.630496,3.9512193,3.1093392,5.57804e-06,0.3,5.6875877,79.78757,79.738144,80.034805,79.93936,0.12024149,0.440625,7.261625289916992,30.381126761436462
42,420000,79.62719296917739,-85.068245,3.056e-41,-72.332016,1.763178,-4.804265,1010.3454,105.68182,21.609674,101.86333,101.51424,102.048225,102.00603,3.424329,0.7,-113.96935,-962.2353,0.00045096793,-5.2218275,8.928919,8.354435,8.081913,11.151288,1.9010156e-06,0.3,5.3895454,79.7175,79.63335,79.98246,79.94214,0.12953585,0.41718748,7.601687669754028,31.094673005739846
43,430000,83.37317323205404,-83.3324,4.732e-42,-16.543636,1.5276983,-12.602299,974.9309,33.939705,15.896058,102.34421,102.22133,102.33325,102.439,4.7836776,0.7,-112.819435,-1118.7051,0.00072344963,-5.9382915,7.2617145,7.534552,7.3408117,7.3336573,2.5669985e-06,0.3,5.562476,77.88588,77.84754,78.08107,78.07906,0.14132424,0.38593748,8.067163467407227,31.817705837885537
44,440000,75.25023898475493,-87.8611,8e-43,-0.82916605,1.1115777,-21.343191,1433.2096,34.15202,16.535112,100.791595,100.65431,101.48138,101.416985,4.958893,0.7,-116.160126,-1162.1719,1.0877033e-05,-7.3201013,19.882513,18.59111,22.14481,22.787933,2.4789477e-07,0.3,5.6501055,82.34615,82.294914,82.49524,82.54393,0.097890325,0.3828125,7.319223403930664,32.52774033546448
45,450000,76.56804824171512,-86.02223,1.37e-43,-22.930887,1.0869503,-2.4497461,1433.9452,63.844246,18.871572,101.53933,102.04421,101.417145,101.682724,3.4927692,0.7,-114.55043,-1164.9646,0.0015612729,-5.0595655,3.5371637,4.5752544,2.1012695,1.6054292,5.3982253e-06,0.3,5.4576297,80.65398,80.602066,80.675896,80.66336,0.10535652,0.3890625,7.44856595993042,33.241071450710294
46,460000,83.86550005400764,-85.64691,2.4e-44,-6.324145,0.7773026,-19.532263,1443.5817,24.631378,16.675516,100.38075,100.38434,100.578804,100.47297,5.0294924,0.7,-113.85222,-1005.01245,7.956487e-05,-3.5829568,19.890081,19.836958,18.412565,17.754658,1.561147e-06,0.3,5.645209,79.99208,79.96733,79.90239,79.900276,0.12554091,0.528125,8.012469053268433,33.96328465143839
47,470000,84.3244208414091,-86.41191,4e-45,-48.642014,1.3991832,-0.36644542,1218.682,78.79156,20.195717,102.38744,102.00898,101.86792,102.149025,7.5073376,0.7,-115.19339,-982.7497,0.00049155066,-3.9386015,-0.14072847,-0.66161215,1.0568913,0.26632047,1.6171835e-07,0.3,5.759674,80.66052,80.687454,80.5849,80.611496,0.15274397,0.47187498,8.147310256958008,34.68873529434204
48,480000,75.30607680892084,-86.39099,0.0,-31.737816,1.332192,-4.090906,1060.1218,44.71443,19.285652,102.12713,103.217354,102.734856,102.71304,6.5083246,0.7,-115.4623,-1350.7388,0.0025730322,-3.302143,0.013477445,-1.3189927,-0.78836596,-0.070326865,1.2321398e-07,0.3,5.5231924,80.96382,80.945854,81.11959,81.12281,0.1060084,0.4375,7.103384494781494,35.39679524103801
49,490000,82.41899026096004,-84.35335,0.0,-11.04092,0.6892324,-1.2712101,1625.8912,24.29868,20.299652,102.33611,102.52223,101.99336,102.31297,3.5482745,0.7,-119.36834,-1178.5442,0.0006308366,-4.1858215,0.9413925,-0.6670109,0.9984146,-0.65199393,1.7114799e-07,0.3,5.616744,78.69096,78.702515,78.641235,78.71788,0.107708655,0.40937498,8.044808387756348,36.12073846658071
50,500000,73.31785915759205,-87.82657,0.0,1.4091597,2.7829537,-16.414219,1278.699,449.47272,16.542887,101.01169,101.13366,100.501884,100.608574,37.869297,0.7,-112.79729,-961.2329,0.00014661375,-5.1043878,11.109654,10.4660425,8.11374,8.192093,8.451753e-09,0.3,5.926396,81.92316,81.99227,81.7771,81.793015,0.22501843,0.5203125,7.079212188720703,36.82930810451508
51,510000,83.45453075509525,-84.986206,0.0,-31.611094,1.122278,-13.191906,1309.8793,53.357887,18.366154,100.79566,100.45402,100.42483,100.59383,3.1534517,0.7,-112.90191,-1071.2405,0.0022023183,-8.201604,4.54626,5.330391,3.8419237,3.5275936,4.5264025e-07,0.3,5.840266,79.18318,79.13411,79.08272,79.028114,0.100842476,0.5453125,7.934116840362549,37.54795556863149
52,520000,59.95351744261313,-85.75911,0.0,-31.449152,0.9469922,0.696154,1203.5332,20.60079,17.80033,102.53569,102.12057,102.392075,102.43432,5.785448,0.7,-111.34815,-1198.6078,0.0002776953,-5.0062976,-1.3032106,-0.27825826,0.23640555,-3.073977,2.4728362e-07,0.3,5.6164746,80.260704,80.14276,80.30544,80.240585,0.12801597,0.40625,5.7654101848602295,38.22990640004476
53,530000,81.56743103021597,-87.856766,0.0,-59.028263,1.6549978,-26.25695,1147.9767,72.48606,15.688633,101.74117,101.38827,100.39447,100.388954,6.5925055,0.7,-113.17981,-1199.6697,0.00024647903,-3.32403,23.576805,23.707613,23.60525,23.660069,2.3469328e-08,0.3,5.5519977,82.28287,82.2648,82.21036,82.353134,0.12560447,0.38437498,7.823698043823242,38.94895004034042
54,540000,81.25728778989459,-86.06244,0.0,-40.813408,1.4166484,1.2661338,1237.0458,25.202946,16.371952,100.124855,100.03018,100.63766,100.84376,5.434713,0.7,-113.53244,-1592.9886,0.00031919905,-3.4071398,1.9141941,2.0986543,2.3516583,2.6843934,1.5429687e-07,0.3,5.561344,80.53569,80.50712,81.08708,81.024025,0.12211238,0.36875,7.577389717102051,39.66081594228744
55,550000,78.61885311516552,-83.7102,0.0,-33.64482,1.0342555,-7.6258283,1486.0127,28.135181,20.98664,101.8146,102.516205,101.67286,102.10306,5.227122,0.7,-115.724915,-1225.5208,0.0025829608,-4.647064,9.222362,10.126066,8.610754,8.863116,1.7272004e-06,0.3,5.539628,78.17162,78.20801,78.118546,78.08986,0.109862715,0.471875,7.480468511581421,40.371734925111134
56,560000,79.68440672549126,-86.025604,0.0,-13.233448,1.4366907,-25.563234,1227.3309,67.22301,15.641623,100.65849,100.55241,101.274055,101.029785,4.6609645,0.7,-110.40008,-1038.562,0.0010465903,-3.6223898,19.687748,19.569935,19.191095,19.393183,8.222822e-07,0.3,5.7027335,80.41865,80.42761,80.71837,80.688644,0.097413436,0.4828125,7.87767481803894,41.08758130868276
57,570000,79.43131204971372,-84.30863,0.0,-32.47108,1.4191811,-3.8958068,1119.5507,45.186813,16.817621,101.622375,101.17319,101.18535,101.162735,4.4390793,0.7,-115.02301,-1140.7507,0.001773518,-6.73881,6.887923,5.952443,6.2818937,6.495704,4.1564343e-07,0.3,5.145798,79.18995,79.06912,78.80628,78.87088,0.17436019,0.4609375,7.515064001083374,41.80155103603999
58,580000,83.35855890866092,-86.940796,0.0,-38.53526,1.0761254,-9.221878,1301.5258,64.99312,19.26,102.30461,102.53889,102.51086,102.82946,10.668972,0.7,-115.31622,-1130.6195,0.00020950948,-2.4408965,3.9628825,4.3827353,0.9949943,5.17359,1.8061064e-05,0.3,6.0158477,80.99925,81.038086,80.90619,81.00734,0.17024052,0.484375,7.946449041366577,42.52040961583455
59,590000,84.18747053284615,-89.08563,0.0,9.762535,1.6673989,4.1868215,1361.3547,126.179565,18.192507,100.81814,100.834366,100.544975,100.56183,80.45546,0.7,-113.07059,-1371.2025,0.00082424015,-4.0379605,-1.4669707,-3.654132,-1.2986252,-0.80889034,2.263114e-08,0.3,6.0877953,82.96346,83.08376,82.9673,83.0356,0.46579114,0.4953125,8.043851613998413,43.24062576293945
60,600000,76.78809830270906,-87.441124,0.0,-37.565075,1.0241339,-0.29719412,1210.5233,20.496876,16.355051,102.74693,102.75472,103.27733,102.93362,4.01417,0.7,-110.61473,-1180.1271,0.0008772405,-3.1116943,3.1762667,1.7225572,1.3464274,4.607337,1.4709076e-08,0.3,5.6998034,81.892334,81.81026,81.99324,82.01246,0.08595745,0.3953125,7.289627313613892,43.95119513670603
61,610000,82.046818176808,-85.867004,0.0,-52.47471,1.3428959,-2.0271301,1726.7239,45.178375,17.442558,100.28229,100.40812,100.468216,100.520615,3.8043187,0.7,-113.595314,-1711.5417,0.00065042917,-3.2008605,3.1776109,3.7028189,0.89462423,1.2135853,3.3807012e-08,0.3,5.6505165,80.171295,80.187,79.99835,80.01291,0.1253697,0.421875,7.990347862243652,44.66605219443639
62,620000,84.90254516197774,-86.99806,0.0,-48.00635,1.47455,-22.592821,1406.0762,54.58162,16.64344,101.366745,101.0381,100.24014,100.43088,4.5507827,0.7,-110.16675,-1162.9585,5.6541758e-05,-3.1059055,14.96003,14.82377,17.014822,16.964424,4.4703485e-09,0.3,5.8592114,81.19777,81.26431,81.14345,81.15129,0.15973827,0.459375,7.984366178512573,45.38675440549851
63,630000,77.43469412757776,-86.98806,0.0,1.3525691,1.1777735,-22.032696,1568.7369,31.023935,20.676052,101.43678,101.09814,101.68617,101.51716,13.456502,0.7,-115.79339,-1283.4908,0.0004647602,-3.1220713,21.920336,22.0954,23.11908,22.498425,1.4183752e-06,0.3,5.9404855,81.20314,81.146996,81.37804,81.34485,0.21519879,0.4078125,7.40179705619812,46.0958552479744
64,640000,80.03458764457044,-86.72801,0.0,-21.893093,1.2752098,-7.196686,1457.034,30.038383,15.332941,102.76564,103.15873,101.5265,102.80189,17.268658,0.7,-113.32573,-1171.5796,0.0058335876,-4.292022,7.3559313,5.5906086,9.470221,9.600437,3.273989e-06,0.3,5.506669,81.23369,81.18702,80.88533,80.92078,0.24768817,0.55156255,7.6720428466796875,46.80837423404058
65,650000,83.59290773077296,-87.99092,0.0,36.747757,1.0136185,-4.255844,1790.5242,89.774345,18.138824,102.513504,103.00965,102.311844,102.35357,4.3758545,0.7,-117.3285,-1377.42,0.00024620263,-2.9156756,-6.943797,-6.53594,-7.3273034,-8.679937,2.2006861e-06,0.3,5.8579216,82.07936,82.26448,82.039185,82.04916,0.14556101,0.43906248,7.930859327316284,47.526026368141174
66,660000,83.21757235996303,-88.34334,0.0,-59.302605,0.9977428,-7.816182,1545.3842,62.78028,18.26375,101.83704,101.90933,101.83589,101.74522,2.3706722,0.7,-119.011536,-1301.797,0.0013367734,-2.6015277,4.474506,3.5130517,3.6090493,3.9541776,2.2883296e-06,0.3,6.013101,82.32704,82.41687,82.31811,82.32582,0.09247191,0.43124998,8.056473970413208,48.24496454000473
67,670000,77.82750404636732,-87.22238,0.0,3.9464903,2.604768,-4.878556,1573.7289,423.64218,17.751516,101.923164,102.27438,101.97566,102.08972,3.0140066,0.7,-113.179,-1101.2268,0.00045992353,-3.4999294,2.5451007,2.1128933,2.1787777,2.6668565,1.1457014e-07,0.3,6.065316,81.19563,81.18312,81.00813,81.14422,0.11134793,0.43593746,7.5776050090789795,48.9547045191129
68,680000,83.47885915907173,-84.18294,0.0,-28.879128,1.2131321,-4.623068,2209.3386,38.640663,17.671589,101.15075,100.889145,100.671524,100.62916,5.6676154,0.7,-115.8831,-1341.4268,0.00015355443,-3.3942113,3.6393092,4.4166756,1.674769,0.51758665,1.2370333e-05,0.3,5.5855865,78.619896,78.51834,78.34173,78.24933,0.1126309,0.5140625,7.984709739685059,49.67110642194748
69,690000,79.36690417245835,-85.43718,0.0,-25.63096,1.1788492,-6.701378,1492.5732,96.23882,17.96569,100.93822,100.825066,101.104836,100.13572,10.165916,0.7,-113.25018,-1549.8472,0.00011730683,-2.456511,7.570839,6.6059732,5.6827254,4.512762,1.3302081e-06,0.3,5.9199057,79.64598,79.64319,79.5551,79.48884,0.16438328,0.47812498,7.490320920944214,50.37980372508367
70,700000,83.74515963226632,-87.70859,0.0,-70.843445,1.4900858,-20.954084,1955.0079,76.67507,19.105839,100.79132,100.66494,100.646645,100.52991,4.9128447,0.7,-113.12466,-1254.2544,0.0011594375,-6.0637827,12.986841,14.241147,12.626474,12.795943,7.213774e-07,0.3,5.8341527,81.94905,81.841866,81.86246,81.85029,0.14791802,0.490625,8.197035312652588,51.102409557501474
71,710000,77.46673909018085,-87.176834,0.0,-16.888992,1.2877686,-4.4435587,2050.1062,43.371613,17.899647,100.79078,100.74172,100.97323,100.53077,7.8645043,0.7,-116.72702,-1267.2017,0.00038562715,-3.6082306,4.3605223,2.2198925,3.5787678,3.8213205,1.1067267e-06,0.3,5.5933466,81.72106,81.60401,81.52008,81.49057,0.17103428,0.509375,7.427931070327759,51.80833282470703
72,720000,77.43385625142005,-86.34474,0.0,11.775619,1.3436182,-17.916739,1367.8473,67.003944,18.201595,103.676285,102.81796,102.54685,102.76096,7.2166038,0.7,-116.29283,-1249.3203,6.367464e-05,-3.6807113,12.408787,11.487311,9.246251,9.530192,5.8743176e-06,0.3,5.8604956,80.57202,80.5601,80.537125,80.47538,0.15445316,0.45624998,7.513036012649536,52.52160604397456
73,730000,79.95332924932993,-83.90544,0.0,-65.48156,1.4916201,-16.806526,1399.4993,43.899826,16.489796,100.961586,100.97157,100.80321,100.9024,4.5512285,0.7,-113.47605,-1568.955,0.00040070532,-5.324073,14.452341,14.071896,13.05706,14.057872,2.9923801e-06,0.3,5.433954,78.59769,78.58448,78.3048,78.39368,0.11918748,0.50625,8.373082876205444,53.24074625968933
74,740000,79.54886143090157,-86.45009,0.0,31.216934,2.7264194,-6.7817116,1645.5466,108.37603,18.613405,100.644714,100.94545,100.56759,100.568184,30.676294,0.7,-112.996994,-1164.7875,0.0011190284,-8.105097,2.8440914,2.9076488,2.7216907,1.9219074,1.466833e-07,0.3,5.8998513,80.554535,80.691246,80.37163,80.43988,0.50092924,0.4609375,7.887103796005249,53.954020249843595
75,750000,83.1290176842499,-84.31992,0.0,-24.473011,1.2236997,-10.0872,1997.957,40.829826,17.216997,102.84632,102.07065,102.781746,102.5092,13.086613,0.7,-112.744675,-1487.0232,0.00025313866,-4.3876877,5.153124,5.014491,2.5197928,3.2139878,3.9290174e-07,0.3,5.727318,78.70178,78.712906,78.41629,78.410706,0.11738361,0.5296875,8.547221422195435,54.67510272264481
76,760000,67.72628208421143,-84.6557,0.0,-21.099289,1.9490976,-7.890374,2159.2175,185.04485,18.270758,102.30631,102.35129,101.99,101.9047,4.635387,0.7,-115.59739,-1663.7961,0.0011654333,-2.7102702,0.8343555,-1.0061522,-0.14724672,0.050684452,2.8829788e-06,0.3,5.8111706,78.95979,78.902275,78.80943,78.8284,0.11838272,0.525,7.088860273361206,55.37534257173538
77,770000,84.04269917532358,-88.13136,0.0,33.23451,1.0435903,-9.290652,1760.252,75.215164,18.862444,101.18065,101.396286,100.408714,100.53789,6.517139,0.7,-115.561066,-1153.3357,4.7848676e-05,-2.4418867,7.0272856,4.798275,6.151149,5.2540417,1.00862235e-05,0.3,5.9189796,82.21985,82.16665,82.118774,82.12001,0.16065842,0.48125,8.314331769943237,56.09530569314957
78,780000,73.73056973399517,-85.03674,0.0,-77.204834,1.7636139,-9.064379,1590.5448,67.73659,17.595951,100.950584,100.963905,101.34365,101.51541,21.307049,0.7,-114.37216,-1607.8533,0.0024581205,-4.7738047,0.23982811,5.4500356,0.40331608,0.91659355,6.8859663e-07,0.3,5.4179544,79.622665,79.60423,79.58296,79.708725,0.30420035,0.48125002,7.343351364135742,56.80246914625168
79,790000,82.07784650689915,-83.66871,0.0,-41.879265,0.9697966,-8.7607565,1761.1943,44.897163,17.982208,99.8847,99.95741,100.432076,100.45918,2.4265318,0.7,-114.634224,-1531.2056,0.00029983494,-2.7994957,8.308399,6.4535017,6.986977,7.299995,9.052456e-08,0.3,5.706208,78.026855,78.03871,78.07948,78.054115,0.07498141,0.4375,8.296909093856812,57.52523279984792
80,800000,78.07205507171211,-87.076065,0.0,36.18975,1.3703564,-17.810871,2037.9523,53.286224,20.835949,99.95524,99.85801,99.91781,99.84651,14.960828,0.7,-117.67961,-1278.4857,0.0014530602,-2.8443065,10.00939,10.447402,9.660372,9.062836,1.7497241e-05,0.3,6.358465,80.680824,80.68663,80.63144,80.720856,0.19868518,0.43281248,7.682400226593018,58.235792406400044
81,810000,83.28227174676925,-84.924774,0.0,-71.21129,1.8350328,-0.59563756,2710.317,164.01593,16.444805,100.882614,100.89017,101.51309,101.602684,6.3918157,0.7,-114.63098,-1726.8268,8.241093e-05,-6.0057597,0.5948994,0.84693646,0.9013034,1.7906278,2.0539737e-07,0.3,5.6180053,79.42358,79.404495,79.52376,79.45977,0.15572855,0.35312498,8.517584085464478,58.955990668137865
82,820000,75.89997290600589,-86.07909,0.0,-66.383766,1.6707214,-26.051146,2179.5386,115.06706,21.732006,100.19351,100.157265,99.484,99.71031,8.307609,0.7,-114.80596,-1384.9962,0.0009646309,-5.5066414,13.716279,14.965146,16.076391,17.266338,4.654913e-06,0.3,5.471141,80.6579,80.67117,80.45473,80.57189,0.23901683,0.53437495,7.138261556625366,59.659794584910074
83,830000,83.45068437213745,-85.73044,0.0,-2.5661938,1.044378,-8.252173,1519.2902,69.193924,16.566402,102.439095,102.22929,103.481384,103.09534,4.3095407,0.7,-114.013565,-1315.5969,0.0009975436,-4.48475,5.4336195,6.294257,5.790341,4.6893826,5.0731646e-06,0.3,5.8505464,79.97231,79.96121,80.12013,80.09717,0.120163806,0.375,7.9720139503479,60.38011345465978
84,840000,83.49234313611981,-87.58143,0.0,-30.09887,0.8761873,-3.0898275,1548.0983,31.199373,17.347317,100.85497,101.01518,100.78953,101.16935,2.2567062,0.7,-112.628815,-1667.9565,0.0009465211,-5.1581535,2.2170782,1.2297221,1.1722287,3.4872491,9.167707e-09,0.3,5.7610846,81.870285,81.83957,82.14177,82.03921,0.09084016,0.36249998,8.015875339508057,61.09488424062729
85,850000,76.60072061938928,-86.377335,0.0,-38.09582,0.9992277,-6.6949606,1951.207,37.663273,21.156776,101.21743,101.81424,101.4369,100.995636,35.705353,0.7,-116.57065,-1599.4021,0.00052327337,-4.284064,3.864359,4.2707677,2.975815,2.9897184,1.290976e-06,0.3,5.73857,80.784485,80.639435,80.70103,80.65434,0.26185045,0.47031248,7.4566121101379395,61.803927997748055
86,860000,78.43562248178914,-86.18307,0.0,-55.096855,1.0168924,-4.8854036,1906.7037,47.38424,17.603006,100.46489,100.05897,100.38536,100.24952,7.475151,0.7,-112.530426,-1734.3954,0.0016287214,-2.9361172,2.410987,1.9098847,1.2084802,3.9309196,6.915245e-07,0.3,5.7605247,80.49278,80.36371,80.34541,80.476944,0.16179366,0.46875,7.455249786376953,62.515868707497916
87,870000,79.68011554298054,-86.62658,0.0,-26.962614,0.7509444,-19.338476,2100.126,15.801149,19.40511,101.94707,101.62816,101.038246,100.95276,7.00989,0.7,-112.81269,-1597.4949,2.7451722e-05,-3.708091,13.320213,14.223496,14.898333,15.177052,9.29035e-07,0.3,5.62891,81.02737,81.069885,80.94815,80.862366,0.112518966,0.51874995,7.595614194869995,63.21281815369924
88,880000,79.91151618221433,-86.84277,0.0,51.25137,1.3468559,-14.445522,3187.368,31.677933,19.09113,101.27195,101.92499,100.91062,100.77907,12.348565,0.7,-116.52112,-1428.426,8.4033294e-05,-2.1893177,3.199254,0.99118924,3.398939,2.9639964,2.1129382e-07,0.3,6.345044,80.50312,80.44481,80.78648,80.78948,0.26575541,0.3875,7.525848150253296,63.90732227166494
89,890000,83.98152241687006,-89.12464,0.0,28.784958,1.0066195,-6.335358,1913.6497,31.820969,16.84033,100.16057,99.960335,99.82119,99.93252,9.407345,0.7,-111.592285,-1782.2886,0.0016545234,-4.353483,1.1028962,1.0984006,1.7550712,1.4282477,6.67572e-07,0.3,5.7833347,83.46599,83.40233,83.25862,83.323105,0.16284056,0.471875,7.867520332336426,64.61298055648804
90,900000,84.0725571142759,-86.55408,0.0,-81.49158,1.0840907,-10.596979,2036.0709,28.82706,17.947926,100.69063,99.99688,99.861855,100.118996,11.580778,0.7,-114.86075,-1902.7161,0.0006290118,-4.5354958,4.992115,4.5927687,4.502648,3.711968,8.362066e-06,0.3,5.767471,80.84964,80.80176,80.85811,80.927185,0.19508556,0.39218748,7.745257616043091,65.31721900701523
91,910000,83.53468229412923,-84.38695,0.0,-70.285576,1.1200304,-10.965458,1868.7083,39.74453,16.877071,101.63614,101.97595,101.98671,101.81219,2.895793,0.7,-113.38565,-1684.9196,0.00045580935,-5.922709,2.388103,2.6104853,-0.6798618,-0.19739819,1.05978685e-07,0.3,5.364543,79.0756,79.117584,79.16711,79.06075,0.08595974,0.403125,7.912261486053467,66.01879285573959
92,920000,84.06008321830704,-85.89734,0.0,-77.17718,0.9723856,-9.117081,2453.4915,26.42819,18.051594,100.152664,100.24411,100.37333,100.200745,5.8258333,0.7,-113.35773,-2226.6082,3.666134e-05,-3.5648174,3.4142566,2.6640024,1.0290128,2.8892527,4.69666e-07,0.3,5.9429107,80.08223,80.035324,80.138824,80.18036,0.14111009,0.3640625,7.931484699249268,66.72195705572764
93,930000,77.68503929357814,-87.556,0.0,-9.239744,1.0852345,-13.992246,2452.9263,40.97774,16.830635,100.91634,100.72929,100.90292,100.69126,4.8483424,0.7,-113.6118,-1858.9673,3.5292618e-05,-4.550321,10.247063,11.644331,11.69715,11.246078,5.0466045e-09,0.3,5.596596,82.04021,82.025925,81.97588,81.94473,0.111223236,0.4796875,7.326903343200684,67.41517399946848
94,940000,72.67923746590934,-89.01139,0.0,-14.529827,1.8210149,-27.327162,2521.4163,77.43129,18.98048,101.66754,101.77407,101.16953,101.09187,31.202229,0.7,-114.76767,-2124.2808,0.0003495699,-6.2204213,22.51765,22.726583,21.827002,22.184824,7.647497e-07,0.3,5.952262,83.104225,83.21237,82.844765,82.82639,0.28766972,0.496875,6.956317186355591,68.10549383958181
95,950000,83.86617146730605,-85.98456,0.0,-56.944893,1.242878,-21.34026,1909.6095,54.73921,15.411034,100.957985,100.86913,100.876686,100.89077,8.490013,0.7,-112.22571,-1589.1746,2.3519737e-05,-3.1308155,16.140312,16.95294,15.535745,15.943117,7.0549436e-07,0.3,5.586145,80.54883,80.45245,80.52797,80.48871,0.16966328,0.40624997,8.10141134262085,68.81323491334915
96,955000,73.88557302888914,-83.898094,0.0,-21.268246,2.5816905,-10.307219,2514.0078,149.3778,20.472496,100.79928,101.545,100.86621,101.306076,5.594103,0.7,-120.48809,-1575.9022,0.0010775463,-3.8566594,1.4884347,1.098759,1.1403397,0.8224114,5.280599e-08,0.3,6.0517206,77.92536,77.95154,78.19449,78.30029,0.20574546,0.3875,6.888988733291626,69.21158473491668
97,960000,82.24581760395395,-84.668076,0.0,-22.093689,2.2978914,-22.809517,2558.9805,189.23366,19.258432,100.92542,100.75317,101.11807,100.824165,12.346075,0.7,-112.22626,-1837.953,7.272657e-05,-5.186367,20.142593,19.685875,20.35672,20.630846,2.8076101e-08,0.3,5.5675383,79.239105,79.2251,79.255844,79.14653,0.2151626,0.4546875,7.560177803039551,69.6246376077334
98,965000,73.18553566484766,-87.82696,0.0,50.628174,0.94229484,-26.716795,2463.0732,33.623016,20.783394,100.975174,100.64432,100.51605,100.4538,5.5045238,0.7,-119.12795,-1483.8007,0.00037598202,-4.3663235,23.369516,23.398914,23.399979,23.069126,4.5182123e-06,0.3,6.165212,81.674614,81.64816,81.76395,81.78287,0.13159297,0.428125,6.776561260223389,70.02510397434234
99,970000,83.14610331233841,-85.68633,0.0,-114.14191,0.9135137,-14.273114,2025.2583,36.56932,16.972916,102.72189,103.73377,103.18898,102.34174,3.587045,0.7,-116.37334,-1746.1576,0.00029386632,-5.40931,10.031429,8.984827,9.509792,9.14255,3.929017e-09,0.3,5.243427,80.342255,80.31527,80.20598,80.12352,0.09782753,0.45625,7.829522132873535,70.44070308605829
100,975000,79.0869361889032,-88.80965,0.0,-35.286255,1.5215898,-22.13295,2866.6838,78.19023,21.957016,100.82491,101.26021,100.23729,100.618095,3.3870742,0.7,-113.41431,-1253.8513,0.0006756794,-1.2736416,13.984221,12.822799,14.738213,12.162248,1.370674e-07,0.3,5.8595505,82.96686,82.95501,82.65491,82.66176,0.1416817,0.53125,7.648407459259033,70.85318309863409
101,980000,82.86675408167564,-83.67871,0.0,-70.0044,3.099258,-22.297176,2537.6174,211.35204,18.06297,101.53498,101.67651,100.180565,100.986176,11.641793,0.7,-115.70143,-2050.4033,4.462742e-05,-3.8795967,23.049217,23.179127,23.59281,21.393673,3.9290174e-07,0.3,5.248132,78.3894,78.48837,78.42667,78.476654,0.38284135,0.47031248,7.711806297302246,71.26886041561762
102,985000,84.1293919711948,-86.22716,0.0,-41.140083,0.74440074,-0.9344661,1699.942,19.385925,18.60389,100.12793,100.34729,99.62539,99.909615,9.652401,0.7,-111.841896,-1585.7527,0.000714575,-3.675624,0.5281229,-0.47318769,-3.045366,5.6360927,5.1660464e-07,0.3,5.717889,80.550934,80.62372,80.434555,80.48749,0.12254028,0.47812498,7.800616979598999,71.68481922149658
103,990000,82.00437154522916,-86.367355,0.0,-7.034913,1.0292193,-3.348558,2135.3303,43.052757,19.81926,100.76366,100.93977,101.550964,101.495155,4.270112,0.7,-117.743866,-1598.9354,0.00038913637,-1.0393198,3.0453868,2.0882525,0.83638024,2.0637796,2.1515298e-07,0.3,6.322056,80.20395,80.08638,80.38782,80.3996,0.08047484,0.39218748,8.264746189117432,72.10601795911789
104,995000,84.13710292843967,-87.53228,0.0,58.698635,2.8848538,-7.6348767,2051.3977,325.5265,17.930038,99.404945,100.49535,99.63515,99.51072,4.7351723,0.7,-113.69473,-1888.0872,0.0020191558,-5.7030344,2.0268273,1.9796605,4.605481,3.9277468,9.052456e-08,0.3,6.1989717,81.27771,81.42833,81.25841,81.23331,0.15203473,0.4109375,8.16757845878601,72.52658279736836
105,1000000,83.42895693751132,-86.71866,0.0,-7.1037064,2.3858023,-8.452917,2321.6987,109.33064,18.892437,100.025,100.265526,100.20368,100.400604,9.930046,0.7,-114.44472,-1669.3154,0.0074434374,-4.0445967,4.0850306,3.777388,6.209609,5.7843294,2.514571e-09,0.3,5.8717923,80.82446,80.73674,80.83206,80.92311,0.21938162,0.44687498,8.398540735244751,72.95129240751267
