Xixo99/comfo/baselines/comfo6_perterbation_actor/20230222_actor_perterbation/walker2d-medium-v2/COMFO6_s1_20230222_120649_walker2d-medium-v2_80.51.csv
,step,reward,actor_loss,alpha,alpha_loss,critic_loss,max_actor_loss,max_alpha_loss,max_critic_loss,max_mle_prob,max_q1,max_q2,max_target_q,max_v,max_value_loss,max_weight,min_actor_loss,min_alpha_loss,min_critic_loss,min_mle_prob,min_q1,min_q2,min_target_q,min_v,min_value_loss,min_weight,mle_prob,q1,q2,target_q,v,value_loss,weight,eval_time,time
0,0,1.6943577562613226,,,,,,,,,,,,,,,,,,,,,,,,,,,,,,,,,
1,10000,26.732110443493223,-36.629112,0.08302206,-3.211371,0.6384764,-1.7110015,22.481953,39.20588,15.462973,46.661476,46.943817,47.045887,46.326565,1.4064302,0.7,-57.748566,-31.255651,0.00025549022,-5.181345,1.074451,0.9979855,1.8809792,1.0062416,9.439464e-07,0.3,4.596019,32.45484,32.45054,32.578716,32.104053,0.049224652,0.4125,9.122716665267944,2.1444703459739687
2,20000,45.67770437403436,-58.847248,0.0057885437,-5.3880053,1.4522095,-12.79874,58.397278,92.86269,16.500156,71.19851,71.801735,72.6634,72.26135,19.062885,0.7,-85.620636,-60.648228,0.0003602755,-4.867403,5.1281056,4.966861,3.697561,5.5476913,8.434727e-08,0.3,5.1579103,53.64969,53.695858,53.98329,53.590405,0.14585558,0.4515625,5.271607875823975,2.813871745268504
3,30000,58.36553823805291,-69.88637,0.00038867834,-3.1919951,2.1502156,-15.395148,104.59628,108.97348,18.266201,84.33435,84.194016,85.07393,84.41387,5.212639,0.7,-99.854004,-73.76599,0.00028762344,-4.1939335,5.5239353,4.308067,7.5140567,5.8899937,1.4685794e-06,0.3,5.2222724,64.52057,64.57681,64.63063,64.45514,0.12861134,0.4921875,6.078675270080566,3.49841046333313
4,40000,61.195895760102395,-78.0679,2.6900774e-05,-3.619859,3.203466,-14.019644,113.38487,480.47595,16.684853,96.34199,96.49118,93.85211,95.21431,4.442685,0.7,-107.89879,-125.06133,0.0017384936,-7.2259383,15.134487,14.9762745,2.1003108,15.550171,9.000651e-06,0.3,5.1009474,72.95984,72.989624,72.68126,72.70211,0.14955184,0.5,6.338564395904541,4.185711447397868
5,50000,60.184738189099775,-82.68736,1.9364547e-06,-8.84927,3.5565226,-14.027155,152.24486,217.25763,18.51595,102.037674,101.13258,101.4456,101.2788,11.026033,0.7,-113.339294,-147.75577,0.0007997831,-5.380656,12.941495,11.901409,17.668663,14.499998,1.9597064e-06,0.3,5.52676,77.14569,77.14432,77.57811,77.51129,0.18381244,0.371875,6.100002765655518,4.869372268517812
6,60000,73.59850413066843,-82.1422,1.4818818e-07,-9.340323,2.5104394,0.4590479,172.42813,130.6463,17.503178,104.341064,103.670494,102.634605,104.8222,12.151427,0.7,-112.89831,-170.39032,0.00035647146,-5.9265933,1.1311133,1.1975619,-0.5044818,-1.7656536,3.727223e-06,0.3,5.405779,76.76718,76.66616,76.81146,76.58778,0.21670705,0.4609375,7.472071170806885,5.573961949348449
7,70000,77.76025935722922,-86.443115,1.1644492e-08,-6.684412,1.254892,-16.492348,272.55096,40.597496,18.202583,102.18027,102.38207,101.71674,101.87962,11.323878,0.7,-116.996185,-155.3914,0.00014755476,-10.014353,13.423909,12.760878,13.822491,12.758488,1.5973811e-06,0.3,5.1590195,81.31523,81.28778,81.14552,81.14492,0.19127607,0.5234375,8.465583324432373,6.295267991224924
8,80000,77.85156610305006,-88.14011,9.567537e-10,-9.8318405,0.974988,-5.291997,231.7365,26.20116,15.710487,104.655624,104.10817,105.15268,104.57367,3.7970085,0.7,-115.67633,-298.44897,0.00023080804,-4.83125,3.5168211,0.6641148,0.74126923,0.6002805,3.9790393e-08,0.3,5.3984404,82.80029,82.76741,83.11087,83.009346,0.1320437,0.4359375,7.460966348648071,6.998749196529388
9,90000,77.27455626608467,-86.71543,8.187166e-11,-5.8615136,2.3523865,-1.1573,341.2305,74.97038,18.371254,104.37886,104.361305,103.52627,103.802475,5.61478,0.7,-117.45813,-293.17728,0.0005208755,-3.7516565,-1.8121495,0.38360703,-4.1747904,2.103295,1.6350998e-06,0.3,5.924814,80.82723,80.872406,80.39615,80.546936,0.13947533,0.4734375,7.402804136276245,7.705562047163645
10,100000,68.98612093210944,-89.34201,7.226289e-12,-4.5471497,2.5094135,-24.648525,328.7831,277.71436,18.54315,103.658005,103.46079,103.51117,103.64963,4.0865693,0.7,-119.12155,-267.37067,0.0011136315,-9.235512,10.364682,9.381759,10.780216,7.5752716,2.766098e-06,0.3,5.722741,83.64778,83.63043,83.56459,83.65883,0.12812787,0.421875,6.610877990722656,8.399584563573201
11,110000,78.51011975116238,-83.92073,6.4115434e-13,-6.918477,1.1968169,-7.3278666,367.80933,19.79803,21.19105,105.34075,104.20312,105.36641,105.367256,6.2079887,0.7,-117.80844,-294.39496,0.00025468494,-6.901596,6.352105,5.5757427,7.504836,6.497058,5.020236e-07,0.3,5.6875253,78.19832,78.27077,78.374146,78.39177,0.10089839,0.459375,7.686008930206299,9.113200612862904
12,120000,69.32164310419864,-89.90105,5.9091905e-14,0.05859804,0.95178306,-17.042946,411.15097,41.080368,18.386467,105.00016,105.1321,104.759155,104.25235,3.2582808,0.7,-117.582275,-287.2811,0.00067096634,-2.7238662,10.129157,8.582778,7.872828,10.532712,1.5111681e-05,0.3,5.8962727,84.08469,84.05487,83.992455,84.202484,0.11972852,0.43124998,6.7863969802856445,9.812858140468597
13,130000,79.7925939413494,-89.99041,5.645107e-15,-7.8407516,1.8562521,-1.0632415,390.8254,44.049843,19.475098,103.948265,104.10416,104.36099,103.67418,6.299359,0.7,-122.866264,-337.4021,0.00123765,-7.0225377,0.22489128,-0.9037766,-1.2050115,-0.20413554,7.8724116e-07,0.3,5.886283,84.24014,84.1743,84.474655,84.41589,0.12449678,0.41562498,7.8617119789123535,10.529384112358093
14,140000,73.89992101472008,-87.80214,5.5520336e-16,-12.4447155,2.3050823,-14.879532,463.80634,155.52496,16.630135,102.533554,102.80833,103.87396,102.71508,7.5416336,0.7,-114.6632,-313.8304,0.00044179917,-5.5379105,3.9425554,4.5183196,3.6832883,1.224505,3.865268e-06,0.3,5.746881,82.1501,82.08214,82.038376,82.2127,0.16508503,0.39999998,7.205349445343018,11.236680563290914
15,150000,78.4629367699431,-84.30943,5.6667854e-17,2.68499,1.5452789,-15.392441,484.4929,76.4278,19.142654,102.94,102.772705,102.38832,102.35164,10.15064,0.7,-117.00666,-326.83734,0.00026744406,-4.4552317,9.864797,13.2629595,16.757645,12.372292,4.172325e-08,0.3,5.9265213,78.52236,78.46579,78.36397,78.29294,0.15087181,0.53125,7.7029266357421875,11.951118036111195
16,160000,81.31553988966134,-88.85016,5.853293e-18,-4.3313036,1.4034057,-9.842026,560.06915,108.46068,20.72366,103.12734,102.49782,103.54761,103.57809,4.2397275,0.7,-118.00214,-479.95853,0.00046417047,-4.1819954,6.589561,4.8377113,4.7378597,7.440896,1.6177182e-07,0.3,5.717444,83.235245,83.18758,83.23719,83.35997,0.12803823,0.43906248,7.963285207748413,12.669882535934448
17,170000,73.6133053356704,-86.88701,6.1597074e-19,-11.982959,1.8622311,-16.432869,528.7883,116.316444,17.67365,103.88299,103.39696,103.68894,103.87425,4.6475677,0.7,-118.7899,-390.52844,0.0013941503,-3.6944175,10.567369,11.837391,10.264611,13.054495,2.0746957e-07,0.3,6.0150833,80.92353,80.95224,80.93781,80.93277,0.13995828,0.41562498,7.0725250244140625,13.370646913846334
18,180000,63.232905207655776,-87.16456,6.495058e-20,0.6213803,1.3174262,-1.3103371,525.79224,26.60553,16.895878,105.211845,105.0251,105.10036,105.19156,4.0725646,0.7,-116.93819,-462.84576,0.0010158017,-3.6708713,3.4240227,3.6573372,5.7179956,5.8265023,1.5973811e-06,0.3,5.8748364,81.32235,81.341675,81.392006,81.498825,0.13239616,0.3953125,6.193519353866577,14.059121517340342
19,190000,82.99437967128503,-87.15059,6.996677e-21,1.6567266,1.6666592,-15.59281,776.16284,132.23416,20.53458,103.27248,103.372574,103.84236,103.55443,13.721656,0.7,-119.48219,-459.206,5.716068e-05,-5.411892,3.3746815,4.6486645,2.708556,4.834601,5.847949e-07,0.3,5.685813,81.487724,81.48136,81.71991,81.5019,0.25819474,0.4578125,7.841432094573975,14.775950487454732
20,200000,76.65542062634901,-87.79539,7.755787e-22,-25.92157,2.8039174,-11.85588,754.8162,227.54285,15.878486,102.8115,102.62368,102.58337,102.46281,7.2966294,0.7,-115.39777,-598.7669,9.658892e-05,-3.227649,9.290338,8.507351,7.257773,5.571182,5.0920065e-08,0.3,5.405636,82.37073,82.517845,82.53775,82.41104,0.19481763,0.36093748,7.560661554336548,15.489491260051727
21,210000,81.58736370761015,-85.86654,8.889336e-23,-29.137005,2.5172215,-20.539555,478.4172,409.68976,17.289623,104.465355,104.299774,104.72252,104.710785,1.8402581,0.7,-116.34071,-501.13425,0.00021752901,-7.361279,20.736803,21.383364,21.931858,20.592648,2.7723146e-07,0.3,5.336688,80.56456,80.62463,80.68707,80.598236,0.07553382,0.425,7.953384876251221,16.205780279636382
22,220000,71.91590482211888,-86.47237,1.05874765e-23,-18.921734,1.3739408,-2.1013944,501.51758,47.920464,18.38088,102.58007,102.728424,102.23026,102.126564,3.7805507,0.7,-117.61139,-526.62317,0.0007651793,-6.7790937,3.27935,5.2261715,4.817088,5.522207,5.2823456e-08,0.3,5.404019,81.13486,81.17543,81.15532,81.0341,0.12121954,0.42499998,7.057059288024902,16.911553021272024
23,230000,74.58174533817467,-86.126236,1.2807225e-24,4.2641516,1.4663148,-6.471184,695.0107,27.216854,18.269943,103.35713,103.863655,104.7853,104.43658,5.096934,0.7,-117.72581,-557.39154,0.0020896273,-5.58243,3.3337848,4.2546945,3.6304922,3.3080564,2.1713204e-07,0.3,5.5861187,80.53662,80.59913,80.740746,80.76465,0.13452479,0.3984375,7.041202068328857,17.61708471775055
24,240000,78.31722495191067,-84.733246,1.5706104e-25,-4.1198163,1.9482367,-4.972676,742.8291,159.19339,19.518982,102.82778,103.04727,103.28309,103.6782,4.4381857,0.7,-115.47397,-797.6656,7.149443e-05,-6.194006,3.9285846,3.2643046,6.0800896,5.26174,1.5299768e-06,0.3,5.5431113,79.25131,79.251305,79.16224,79.38516,0.18139705,0.38437498,7.507357358932495,18.329220124085744
25,250000,81.81344036831891,-86.307816,1.9862547e-26,-7.3820443,1.4362557,-4.366415,606.31396,88.02671,17.636911,100.33286,100.989655,101.25504,100.923676,6.573709,0.7,-116.189545,-625.0934,0.0051277336,-4.7368717,4.639477,7.6904955,0.9575479,6.190379,7.160634e-09,0.3,5.546233,80.8575,80.89275,81.20346,81.12903,0.16172442,0.3984375,7.958736896514893,19.043602029482525
26,260000,76.46954215610342,-83.40172,2.5753108e-27,-16.568336,1.0033512,-7.844852,750.7388,24.20106,18.301699,103.62368,103.05887,102.80569,102.69948,10.589226,0.7,-119.0925,-708.2952,0.001379594,-8.241004,3.8238578,4.799543,5.3095684,4.174791,5.167723e-06,0.3,5.8404903,77.68831,77.684555,77.86485,77.6832,0.0957972,0.4765625,7.303184986114502,19.751715568701425
27,270000,78.48278480585577,-84.577194,3.285413e-28,0.4512112,1.4837277,2.424677,656.92053,76.187485,17.304247,104.13757,103.42377,103.687805,103.68612,10.663791,0.7,-115.937004,-562.7771,0.00026060746,-6.641166,3.1593628,2.8654108,4.298332,3.3561256,6.2864275e-10,0.3,5.5867133,79.07947,79.06319,79.05623,78.90712,0.16079327,0.50937504,7.415165424346924,20.45961538553238
28,280000,82.46182333497111,-84.76663,4.3846085e-29,-31.627438,1.0755968,4.498456,709.6527,57.39807,19.076681,101.66189,101.972244,101.626236,101.8298,5.9033194,0.7,-117.98806,-842.8476,0.0003093051,-4.750623,-4.0842757,-3.4967692,-1.4228524,-4.4057484,1.8525753e-07,0.3,5.742189,79.11013,79.03557,78.99275,79.05074,0.16106378,0.37656248,7.920542240142822,21.175819496313732
29,290000,82.60945096040582,-85.740654,6.000435e-30,-12.401703,2.0043244,-14.638775,852.22235,183.23337,18.861305,102.099045,101.94851,102.58053,102.56812,31.53682,0.7,-119.08328,-825.2678,0.0026265748,-4.222784,10.230173,9.156835,9.398884,9.716026,2.9438525e-07,0.3,6.14281,79.800964,79.77933,79.969246,80.081474,0.22466442,0.39375,7.91181492805481,21.89135796626409
30,300000,78.57512585909791,-86.60364,8.126284e-31,0.69475603,1.4490123,4.383848,883.9282,138.69913,20.544239,103.07514,102.59753,102.69115,102.34674,1.4549721,0.7,-119.10054,-764.0999,1.947215e-05,-2.244986,-3.3888395,-1.6307914,-4.323432,-4.190045,7.3551378e-06,0.3,5.9575415,80.79866,80.79747,80.84125,80.780266,0.074538425,0.43906248,7.569735765457153,22.601249957084654
31,310000,81.92368585086798,-88.51564,1.1190793e-31,-8.686623,2.5235138,-7.023412,969.1936,156.41223,19.14444,100.868996,100.46133,100.68052,100.45426,14.087273,0.7,-118.90015,-661.11066,0.0002053577,-2.7715526,5.200615,6.1561503,2.5148842,3.2897205,1.1445372e-07,0.3,5.666873,82.92192,82.9031,82.697754,82.64672,0.1926384,0.5015625,7.989625692367554,23.322264897823334
32,320000,80.49146886508296,-85.41994,1.612851e-32,-24.763044,1.2581239,1.9788321,958.5771,39.478054,16.381298,102.28094,102.39755,102.704025,102.113945,6.581673,0.7,-116.72652,-719.05133,0.0013546378,-3.5488617,1.6128353,2.582214,1.4841602,-0.18011838,9.00065e-08,0.3,5.656477,79.91934,79.7802,79.71838,79.66316,0.25413337,0.51875,7.970006942749023,24.04272467692693
33,330000,76.91898321912792,-82.775795,2.4268063e-33,-34.055656,1.1959131,-7.8154864,792.58264,56.93984,16.289032,102.386665,102.38294,102.7321,102.515854,3.3955617,0.7,-111.13474,-974.7083,0.00015859707,-3.6117396,5.582311,5.8099947,3.6968482,6.6816545,5.487952e-06,0.3,5.25864,77.51837,77.62611,77.70804,77.71707,0.10622981,0.4046875,7.44764518737793,24.751898364226022
34,340000,83.17397936401426,-84.7412,3.4584476e-34,0.6619539,1.3640199,-5.9578323,806.14624,98.847336,17.803333,101.98301,101.40534,101.549194,101.21609,6.0001884,0.7,-116.41445,-638.72046,0.0009919297,-5.6317334,-1.1012915,0.93476754,-1.2811491,-2.0195038,5.2952674e-07,0.3,5.644157,79.09189,79.10252,79.11288,79.20339,0.15786034,0.434375,7.918354034423828,25.46964171330134
35,350000,80.38217571366455,-87.3979,5.075017e-35,-1.4713259,1.3316972,-1.3804016,1128.1157,36.346176,16.736462,103.3422,103.69877,102.8874,102.88245,5.740966,0.7,-116.82579,-814.76733,0.00081120274,-5.556834,-0.9654407,-0.25233275,1.2810892,1.9366686,1.9992586e-07,0.3,5.538512,81.92587,81.90958,82.075195,82.11984,0.13242987,0.4203125,7.611375093460083,26.18674418926239
36,360000,75.38582669089278,-85.921455,7.3025025e-36,-7.698404,0.8169768,-26.149342,1003.14166,12.256083,17.171951,102.64461,102.87045,102.87482,102.68591,1.5936865,0.7,-112.42042,-675.2902,0.000963612,-3.0857425,19.198553,19.131765,19.38063,19.85018,7.8482554e-07,0.3,5.4622545,80.55476,80.50502,80.14816,80.36232,0.07137182,0.428125,7.254346132278442,26.89597183863322
37,370000,81.40174246050071,-87.22577,1.12376935e-36,-29.26534,1.7357024,-8.317604,873.597,111.34858,18.683022,101.42976,101.44608,101.034454,100.779945,5.5149794,0.7,-118.0055,-852.57544,0.0055037485,-4.7497644,2.4915607,1.8975787,6.273795,5.139557,3.3003744e-09,0.3,5.339916,81.8785,81.94807,82.08372,82.0055,0.15641162,0.446875,7.992433309555054,27.614688853422802
38,380000,79.58698391978906,-85.75187,1.8201296e-37,-30.615978,3.8316839,-11.220276,954.0728,632.68787,17.849127,102.943016,103.02542,102.80538,102.64559,7.642042,0.7,-113.69805,-793.46704,0.0033994631,-2.0474288,7.7330117,7.5893607,7.0084176,7.080811,2.514571e-09,0.3,5.9369245,79.90845,79.92846,79.86731,79.96775,0.18564405,0.40781248,7.81278395652771,28.33038109143575
39,390000,82.38560979718959,-85.500206,2.8408232e-38,-31.949247,1.3609467,-21.074917,1235.2609,37.09513,20.31907,102.97428,102.89766,103.175285,102.67872,11.112628,0.7,-121.61126,-833.43054,0.00043954817,-5.11424,17.392998,16.640747,16.783636,16.129705,4.249625e-07,0.3,5.675741,79.86963,79.79705,79.6658,79.62268,0.17652592,0.48593748,7.920497894287109,29.04786233107249
40,400000,83.88769570908327,-87.24701,4.61993e-39,21.008581,0.94443125,-10.980162,987.3028,53.660664,16.862404,101.19386,101.20379,101.81646,102.015945,1.1630634,0.7,-115.29432,-902.5455,3.479654e-06,-2.9426675,2.5345023,5.6269584,5.323648,5.434678,1.6458042e-06,0.3,6.1842866,80.958466,81.03273,81.122856,81.08434,0.07306006,0.4609375,7.956125736236572,29.767092514038087
41,410000,73.75144400488793,-83.939026,7.37578e-40,-14.446548,1.9963113,-18.804657,1187.3763,85.18615,19.30202,102.12121,102.085754,101.538666,101.68397,22.094847,0.7,-115.33071,-810.2054,0.001367226,-4.71878,3.7272604,0.4513783,0.77074784,3.7083762,1.0958872e-06,0.3,6.0708513,77.94396,77.7655,77.61127,77.78526,0.34845865,0.40781248,7.154551029205322,30.472151263554892
42,420000,80.8049179364253,-84.84984,1.20537e-40,-24.276379,1.8429363,-13.712061,1062.9117,67.571,18.027584,103.39517,103.33158,102.66059,102.87438,11.74165,0.7,-120.02641,-769.5108,0.0006994647,-6.0579576,4.1158366,5.605191,7.3466606,6.8481007,6.849295e-08,0.3,5.8142595,79.04181,79.01338,78.50162,78.73583,0.20668638,0.5015625,7.584013938903809,31.187018597126006
43,430000,82.53382809949899,-85.72515,1.9924e-41,12.252785,0.949577,-13.187859,1041.2036,77.59442,20.453762,100.9142,100.61247,100.80339,100.836044,3.7771635,0.7,-115.95653,-991.47485,0.0011870752,-3.4257135,7.1564536,7.2246995,7.881181,7.630464,1.3944081e-07,0.3,6.032075,79.65554,79.74152,79.601746,79.52282,0.10359941,0.5109375,7.924618244171143,31.903277786572776
44,440000,81.04136692091053,-87.306366,3.345e-42,-35.25951,1.3730751,-9.803854,1187.5463,83.838524,16.15933,101.39691,101.25948,100.96848,100.86173,3.8903577,0.7,-115.34295,-1434.4498,0.00012598565,-3.916994,14.123076,12.876488,11.989148,12.491667,6.265007e-07,0.3,5.4639597,81.95227,81.842514,81.77468,81.64581,0.13883996,0.5703125,7.697979211807251,32.61660865545273
45,450000,82.52856850261419,-86.25993,5.68e-43,-27.124165,0.93100196,-11.331221,1171.6788,15.063796,18.736954,102.053154,101.75971,102.16698,101.96516,7.0739293,0.7,-117.89632,-1050.3585,0.0007006799,-3.851387,6.6174264,7.3206186,7.0057926,5.923716,1.2448698e-06,0.3,5.8050985,80.447205,80.44664,80.75574,80.71395,0.1653447,0.3546875,7.9252660274505615,33.33547900120417
46,460000,83.47398456127007,-82.58064,9.8e-44,-20.256323,1.0466363,-10.938489,1179.9934,38.54811,18.669296,102.26264,102.30794,102.536285,102.49793,2.2396042,0.7,-118.731125,-811.08936,0.0020181967,-4.968059,9.394936,8.188634,9.391555,8.840707,8.451753e-09,0.3,5.8305464,76.81728,76.76376,76.60048,76.68147,0.06417514,0.45,7.914117336273193,34.04870827595393
47,470000,77.40802252450422,-85.67093,1.7e-44,-38.1954,2.3768864,-12.552118,1232.0294,128.64801,17.379162,100.74171,100.80236,101.81058,101.558,5.7488184,0.7,-115.7352,-1085.4196,0.0014337916,-3.9195023,7.338199,7.752572,7.9656873,7.1000776,2.3009898e-06,0.3,5.4276867,80.22116,80.283875,80.64232,80.54065,0.16644602,0.5,7.622169733047485,34.75791363716125
48,480000,80.22310842187686,-84.84235,3e-45,-33.77577,2.45956,-16.125599,1115.6824,227.51413,18.10823,100.91112,101.11671,101.33004,101.047165,12.3872,0.7,-115.384186,-1126.7194,0.0038178405,-3.0894966,7.5918584,10.17756,7.6080713,7.0764904,4.2786996e-06,0.3,5.8158464,79.03034,79.114006,79.51021,79.41873,0.15219186,0.40937498,7.669130563735962,35.46703476905823
49,490000,82.92136111963308,-85.25372,0.0,-52.70531,0.9381776,-8.062944,1189.5402,33.315804,17.247719,101.400024,101.37961,101.33263,101.40907,6.9513407,0.7,-114.623795,-1218.0377,0.00013870187,-6.158043,9.762477,8.467777,9.563055,10.899753,4.930189e-07,0.3,5.4774437,79.86405,79.803375,79.64761,79.651855,0.17881484,0.440625,7.928973436355591,36.18137904405594
50,500000,80.61253162249321,-87.58758,0.0,-3.0327492,1.6293595,0.34084606,1356.7406,47.71473,19.351978,102.997734,102.711914,103.26283,101.69151,11.663344,0.7,-116.812836,-1074.549,0.0019599756,-3.920691,0.8882523,1.445793,1.8973651,0.9852677,1.2325472e-05,0.3,5.916197,81.61575,81.731094,81.82507,81.71208,0.33339033,0.45937496,7.805289268493652,36.88963779211044
51,510000,82.45311322248273,-87.47161,0.0,-35.61651,0.751837,5.935746,1294.9005,26.76808,20.295958,103.726585,102.94029,104.03614,104.00466,3.780667,0.7,-117.36787,-1031.6484,0.00059978955,-4.2023783,-1.9683504,-0.89991736,-1.7951676,-1.5254103,4.991307e-10,0.3,5.8090897,81.69118,81.70247,81.79947,81.63489,0.11545101,0.4359375,7.866476535797119,37.60444196065267
52,520000,82.96300418529935,-85.95042,0.0,-9.051489,0.94961077,-0.6274507,1432.4757,50.85021,18.540777,101.82689,101.89316,101.90329,101.715034,2.3428977,0.7,-114.63628,-1116.5804,5.061488e-05,-3.1860218,-2.559756,-2.2609742,2.6297526,2.2046685,1.8127163e-05,0.3,5.7256994,80.2359,80.31706,80.372284,80.401566,0.08813854,0.446875,8.60291600227356,38.329657860596974
53,530000,74.90225290496177,-88.19695,0.0,-9.196205,1.0524133,-14.456689,1678.0801,45.147743,21.282557,101.615715,101.19919,100.99015,101.0566,20.532593,0.7,-117.38169,-1412.4155,0.00074736495,-3.336087,8.946832,9.572175,9.51495,9.223836,1.446053e-07,0.3,5.947973,82.30328,82.34914,82.14154,82.21362,0.25245836,0.43593746,7.314918279647827,39.029777546723686
54,540000,82.89773642743215,-85.30887,0.0,-5.770298,1.6254114,-13.66056,1413.7078,99.74069,18.697739,103.533134,103.1193,102.94795,103.381546,16.730396,0.7,-115.35988,-988.8615,0.0001214543,-2.9900222,6.0059223,6.7894263,7.8944273,7.561301,3.101766e-07,0.3,5.8015423,79.43196,79.55969,79.524376,79.565384,0.24273176,0.4296875,8.50952434539795,39.75131198962529
55,550000,71.31063429250158,-86.14889,0.0,-0.36382484,0.9941023,-15.965632,1218.9701,29.923721,15.586439,101.22524,101.10541,101.02682,100.713425,3.2768183,0.7,-113.60357,-1190.159,0.00048220326,-3.9255137,12.800536,13.248516,12.5440445,13.259618,1.9992586e-07,0.3,5.6736946,80.56726,80.53064,80.67247,80.65964,0.10862742,0.40156248,6.957120418548584,40.44968484242757
56,560000,82.6305214186783,-87.34897,0.0,11.549752,1.304183,-8.19744,1798.281,56.290287,18.320251,102.39202,102.50769,102.12772,102.56209,7.836218,0.7,-116.3521,-1287.6063,8.679816e-05,-3.5395164,4.5761294,4.5950327,5.9350977,5.8390994,5.867332e-07,0.3,5.8661222,81.540306,81.516396,81.61212,81.48443,0.16865438,0.39687496,8.104279279708862,41.16241689523061
57,570000,81.60607675208517,-89.976105,0.0,-39.64829,1.7415318,-18.417603,1335.025,104.809,18.124187,103.53798,103.714485,103.32188,103.31821,12.230815,0.7,-113.86684,-1056.2905,0.0050176205,-2.7885993,15.910269,17.404108,16.350658,15.438399,1.5299768e-06,0.3,5.7298565,84.327736,84.27345,83.96434,83.85599,0.23347616,0.50312495,8.193440914154053,41.88029901186625
58,580000,80.50907991270468,-85.2827,0.0,-13.728291,1.798757,-10.292493,1558.374,62.55149,19.145405,101.24765,100.35329,100.25167,100.48079,11.328887,0.7,-116.28377,-955.19305,0.00018528575,-3.5230594,6.650548,7.710703,8.231094,8.418308,1.0058284e-08,0.3,5.8519115,79.47158,79.51785,79.47076,79.59097,0.17048612,0.39218748,8.04993486404419,42.5949964205424
59,590000,83.88863579275191,-87.130745,0.0,-65.54859,1.4683344,-3.9729414,1361.3641,55.809906,20.069843,102.073395,101.93602,102.05678,101.78866,3.781941,0.7,-119.05936,-1296.9471,6.826699e-05,-3.652028,1.0738393,-0.3889228,3.598811,2.4384604,4.2098286e-06,0.3,5.7481885,81.60156,81.42807,81.302734,81.4088,0.14620954,0.4890625,8.37563419342041,43.31483947436015
60,600000,78.15469321704859,-89.249054,0.0,14.789896,1.3011658,-8.031037,1421.656,57.117542,17.833,102.19056,102.42438,101.60168,102.28924,8.818808,0.7,-112.06851,-951.75226,0.00014139999,-6.9001694,7.482085,8.795729,6.283424,7.44868,5.720824e-07,0.3,5.964217,83.35515,83.359505,83.24008,83.33417,0.13427436,0.4140625,8.236895322799683,44.03181238174439
61,610000,80.07284302152334,-88.45572,0.0,-46.196045,1.7433372,-15.327135,1360.3314,194.72449,19.28351,102.26174,102.38755,102.97761,102.74381,7.1466403,0.7,-112.39249,-1236.7158,0.0004936701,-7.5494156,9.40478,10.417822,9.968815,9.1297865,2.3274158e-06,0.3,5.8370667,82.597725,82.61626,82.51925,82.56767,0.15297261,0.41718748,7.906383514404297,44.7412024974823
62,620000,80.14971743841932,-88.243835,0.0,74.510254,1.0325277,-3.3820457,1943.0548,26.626633,23.176014,102.14072,102.19288,102.3022,102.172386,6.909165,0.7,-115.55088,-1153.5216,5.7276804e-05,-3.0154781,2.8925934,3.0226588,1.0720365,0.9037425,5.286886e-07,0.3,6.1406355,82.087265,82.20389,82.22247,82.17116,0.1689597,0.403125,7.904629707336426,45.45695933103561
63,630000,80.68863646488744,-90.56737,0.0,47.820007,1.8080916,-8.694141,3168.447,88.66353,28.281578,101.63305,101.59654,101.42764,101.440384,7.76391,0.7,-114.86172,-1245.421,6.1008264e-05,-2.825015,-3.910133,-2.9987571,-0.019506121,-4.942194,1.1089259e-06,0.3,6.474843,84.12717,84.10647,83.91202,83.88874,0.19551316,0.5234375,7.823372840881348,46.16904991865158
64,640000,81.28743661853183,-85.83395,0.0,-36.01683,2.6695738,-16.194542,1074.5939,168.14708,16.76123,101.71874,102.39556,101.540306,101.6759,9.50365,0.7,-113.114944,-1272.2073,0.0020874299,-6.906953,8.713627,8.746365,7.8246737,7.189882,5.2262914e-07,0.3,5.4941745,80.22475,80.32845,80.49414,80.53021,0.27532554,0.490625,7.7816126346588135,46.88079303900401
65,650000,79.29765581014968,-87.80913,0.0,-3.7161708,1.1118397,-6.3894744,2512.1677,38.51947,20.963692,101.00828,101.254234,100.7292,100.70217,6.0329685,0.7,-115.88446,-1388.7244,0.00014934625,-5.2337,3.9303677,5.357518,3.6483445,3.1412492,2.1391315e-08,0.3,5.9603186,81.80399,81.763885,81.77594,81.77074,0.16449252,0.5265625,7.560956001281738,47.59286768436432
66,660000,80.86138390819751,-86.18386,0.0,-45.591408,1.0186675,-26.818344,1574.185,61.319946,17.49057,100.70792,100.92073,100.92199,100.65122,12.968198,0.7,-115.10868,-1361.6332,0.00030133245,-2.9597654,19.825508,20.390423,18.97628,18.604786,2.3469328e-08,0.3,5.7000265,80.42925,80.44208,80.35693,80.342354,0.17921141,0.4828125,7.775604486465454,48.308186042308805
67,670000,76.17948956747588,-86.457085,0.0,-69.07776,1.1400454,-17.900852,1318.8107,22.483994,17.29003,101.66258,102.05271,103.15241,103.45255,7.2729573,0.7,-116.70696,-1453.704,0.0016277875,-2.5626361,6.348359,7.092154,5.781288,5.2089915,3.7550925e-07,0.3,5.6067724,80.88977,80.955376,80.81999,80.92954,0.13180372,0.434375,7.335038423538208,49.01885313193004
68,680000,81.62879366772488,-84.24094,0.0,-27.29948,1.1245595,2.4249551,1394.8275,24.783691,17.095348,101.07591,101.178825,101.31157,101.247765,5.348643,0.7,-114.354324,-1337.3815,0.004007794,-3.5413942,1.5916498,1.0803316,1.10515,3.8968768,8.924864e-07,0.3,5.6079483,78.721985,78.74438,78.912025,78.76807,0.14263426,0.48125,7.965977907180786,49.73734586238861
69,690000,82.7667330967491,-86.95084,0.0,29.4341,2.3484747,-9.887856,1740.2648,202.7972,20.105831,101.516525,101.81781,101.70755,101.6334,16.902609,0.7,-116.72768,-1122.8182,0.0034676595,-6.13018,5.594142,7.482298,5.6361933,5.7326007,1.2325472e-05,0.3,6.324682,80.64821,80.64461,80.41917,80.31371,0.2928815,0.46406248,7.93375825881958,50.45848386287689
70,700000,81.2573021548967,-86.82237,0.0,-19.410463,1.1677432,-7.7131863,1656.5033,46.82148,19.10117,102.83714,102.7515,102.75072,102.93852,6.17895,0.7,-114.73805,-2087.808,0.00089465716,-2.7300549,2.900074,4.769022,0.8794364,0.9854922,1.08268e-06,0.3,6.18777,80.71327,80.735504,80.72491,80.60214,0.17871968,0.47187498,7.796252965927124,51.17386606534322
71,710000,82.86145825710506,-83.90941,0.0,-81.942245,1.1099865,-11.300487,1805.5143,26.797184,16.790182,101.37802,101.43473,101.14631,101.12395,10.058266,0.7,-116.81441,-1507.3793,0.0009905354,-4.5775294,8.323842,8.969664,9.326862,8.896624,8.265674e-06,0.3,5.3924055,78.63223,78.590515,78.478325,78.393875,0.1840528,0.44375,7.870464563369751,51.889177711804706
72,720000,81.98075421593836,-87.96348,0.0,-52.602882,1.5209179,2.0454745,1834.276,51.568558,20.486591,101.83131,101.969505,102.164566,101.96047,11.472642,0.7,-117.07338,-1136.8909,0.00047255133,-3.496175,-1.5347556,-2.8963685,1.101271,-3.366712,3.6950226e-08,0.3,5.821254,82.12259,82.174866,82.36254,82.15261,0.18583085,0.48125,8.044257640838623,52.61148422559102
73,730000,82.38633808679128,-85.02169,0.0,-16.776281,1.1819742,-7.109603,1897.246,35.059883,17.88668,101.207565,100.83464,101.08818,101.26874,3.4581168,0.7,-115.145805,-1358.9534,0.000229139,-4.285534,7.2996044,6.915066,11.116449,11.876795,6.519258e-10,0.3,5.747365,79.20033,79.30167,79.35283,79.48868,0.13878411,0.3875,7.902957201004028,53.328366156419115
74,740000,81.17735973466561,-84.27903,0.0,-86.430176,1.1621635,-15.900831,1417.4318,36.537235,16.700867,100.18247,100.496346,100.58221,101.01456,22.942436,0.7,-113.867836,-1694.7122,0.0006019465,-4.160255,11.393212,10.853388,11.41426,11.056549,8.507702e-06,0.3,5.321594,78.91735,78.972336,79.04649,79.05002,0.23899382,0.3953125,7.675660610198975,54.041365583737694
75,750000,82.91626532229965,-89.22894,0.0,-33.04729,2.1072044,-3.5953057,2014.1124,239.33064,21.133198,101.62086,101.68965,101.54877,101.272934,10.226494,0.7,-116.14085,-1607.8488,0.001490195,-6.7956214,2.1613955,2.131625,3.408689,3.7674084,1.6846128e-05,0.3,5.810134,83.35005,83.44408,83.13864,83.01285,0.22422028,0.5765625,7.95751690864563,54.758465246359506
76,760000,82.06873256908618,-85.188385,0.0,-24.672749,1.0768435,-4.7611203,1550.0634,31.974194,17.16045,102.62483,102.42483,102.96657,102.18558,10.468044,0.7,-113.93582,-1450.9425,0.00026342232,-3.68966,6.8300543,6.176013,6.316701,8.256838,3.126351e-06,0.3,5.451589,79.74102,79.74585,79.663055,79.744194,0.14509964,0.42812496,7.960824489593506,55.47512940565745
77,770000,83.05197454364904,-87.738174,0.0,-29.897457,1.2088157,-23.8246,1498.1958,89.549835,18.403202,101.37001,101.35342,101.961975,101.76741,4.820218,0.7,-115.630226,-1324.002,0.00030925358,-3.2777925,23.198277,23.164331,22.232038,22.495615,1.4685793e-08,0.3,5.6628723,81.97535,81.975945,81.975555,82.064926,0.120300665,0.4296875,7.872525691986084,56.19123066266378
78,780000,83.21957147526275,-87.990524,0.0,9.468382,1.5254476,-22.409851,1807.9849,59.225777,16.93164,101.26829,101.04294,101.43159,101.557724,8.703707,0.7,-114.04492,-1376.9945,0.00058800227,-4.382575,20.367966,19.925713,20.930473,20.254274,2.6077032e-07,0.3,5.959894,82.03224,82.07547,81.87264,81.83861,0.15773116,0.471875,7.9893834590911865,56.90518200794856
79,790000,82.27620284315785,-84.77978,0.0,-25.85663,1.4292479,-7.100893,2428.34,99.28799,19.539108,101.96702,102.131966,102.28851,102.16441,20.320547,0.7,-115.94744,-1475.8264,2.2390042e-05,-6.294614,4.8346777,5.3734264,2.323914,3.7713156,1.1001423e-06,0.3,5.919369,78.99658,79.0218,79.094864,79.167786,0.17766961,0.35625,7.975670576095581,57.622972973187764
80,800000,82.05756160276054,-86.70841,0.0,-19.33392,1.6141944,-15.862551,1625.3119,82.57181,16.979069,102.543076,102.314316,102.08353,101.67708,12.439025,0.7,-113.51973,-1371.0374,0.00011897909,-3.4148784,13.541198,13.717451,12.310206,13.220811,9.167707e-09,0.3,5.9590425,80.74597,80.75546,80.53617,80.68272,0.22980332,0.4109375,8.09018611907959,58.34083072344462
81,810000,82.99977973852918,-84.700676,0.0,-71.65599,9.506924,-19.407776,1739.6694,1172.6127,18.145838,101.834335,101.73915,101.937256,102.16947,17.89628,0.7,-114.019615,-1755.0563,0.0007326343,-2.5043392,12.42429,13.586748,8.905913,12.952264,1.3065729e-05,0.3,5.342068,79.391396,79.41039,79.18388,79.62681,0.27220938,0.36718747,8.535226821899414,59.063022029399875
82,820000,81.92793273402691,-86.25229,0.0,-73.68698,1.2697334,-5.216598,1829.633,66.10341,18.172213,102.14725,102.05566,102.37131,102.247284,8.412193,0.7,-114.74106,-1721.3806,0.00035361672,-2.9295793,4.158635,3.0747514,5.125723,5.403331,1.1145038e-05,0.3,5.6505394,80.71352,80.75787,80.7845,80.77729,0.14986064,0.4046875,7.93179988861084,59.773583102226254
83,830000,82.01676988802781,-85.97033,0.0,-26.98321,1.0583215,-16.674011,2479.955,60.825687,19.422796,101.5317,101.43622,101.410736,101.18421,4.250559,0.7,-114.97816,-2009.363,8.2197716e-05,-3.374079,7.8455153,9.713941,9.367571,8.671558,6.171875e-07,0.3,5.938241,80.037605,80.01912,80.11412,80.09787,0.12156617,0.42499998,9.228249549865723,60.50607775847117
84,840000,82.3150853431063,-86.75081,0.0,6.783946,1.6942582,4.611273,2312.1333,142.71442,16.711489,100.10112,100.35239,100.28653,100.383995,9.257562,0.7,-113.884605,-1326.9592,4.573529e-05,-4.2059474,-3.1460896,-2.4413056,-3.1746862,-2.6837192,3.4716797e-07,0.3,5.8855495,80.87603,80.91376,80.75635,80.901375,0.1523546,0.425,8.297045230865479,61.219904784361525
85,850000,79.31965607800271,-83.556206,0.0,-50.2781,1.4244192,-6.115797,2128.7063,65.90391,19.465902,100.489746,100.50254,102.51429,100.448975,10.270468,0.7,-112.6469,-1337.0101,0.0004393934,-3.2855814,5.9080935,4.8633876,0.7392473,7.325058,8.840289e-07,0.3,5.3309402,78.25894,78.24448,78.43514,78.39661,0.18878642,0.48749998,8.281036853790283,61.93655709822973
86,860000,82.08323660187126,-87.12355,0.0,16.8386,1.5497308,-14.847957,1850.6659,64.304054,21.32178,100.831665,100.589455,100.793724,101.1798,3.8406646,0.7,-120.81439,-1530.3472,0.00068620336,-6.9754558,12.610043,13.51147,11.138958,12.509371,2.1904708e-07,0.3,6.390973,80.84945,80.88185,80.84439,80.882065,0.110581405,0.4515625,8.049968242645264,62.65139030615489
87,870000,82.36900224503252,-86.556366,0.0,-46.64059,0.751415,-22.114866,2499.7808,17.05403,20.675428,101.6297,101.737045,102.35688,101.71159,14.981788,0.7,-118.627396,-1994.1128,3.98134e-05,-2.0799232,15.437655,17.756445,15.935745,17.011358,6.037485e-06,0.3,6.022741,80.57208,80.6699,80.842094,80.5428,0.21397775,0.565625,8.294333696365356,63.37037689288457
88,880000,82.62089838989283,-85.80554,0.0,-61.864822,2.268021,-9.372549,3490.4946,202.9306,18.210468,102.58194,102.19146,101.31992,101.26056,23.493208,0.7,-114.81151,-2344.533,0.00030356296,-2.0290926,6.3568525,5.3717375,6.4682536,6.395487,1.5196566e-06,0.3,5.534653,80.33771,80.28409,80.15564,80.137085,0.29343402,0.5921875,8.28821849822998,64.08498298327127
89,890000,83.37458709960455,-83.88774,0.0,-108.744736,1.2851102,-19.23785,2282.2883,27.772663,21.549286,101.90894,101.490326,101.03188,101.7743,4.558827,0.7,-116.46389,-1927.174,0.0020073955,-4.117343,12.33067,12.249434,8.563837,8.227168,3.9156294e-08,0.3,5.844928,78.12062,78.08727,78.4663,78.4793,0.14765555,0.3828125,8.438265323638916,64.79820716381073
90,900000,80.98984437371745,-88.96214,0.0,-11.68947,0.7770301,-14.706625,2171.0312,27.651323,19.78516,101.07925,101.36886,101.355606,101.35937,4.4359674,0.7,-117.51213,-1483.835,0.0011089453,-4.0726323,7.9692526,6.069686,4.8119025,4.373582,3.456289e-06,0.3,6.0315456,82.9518,82.87918,82.72133,82.71585,0.08168696,0.496875,8.423851251602173,65.50452859401703
91,910000,79.68132255803707,-87.1199,0.0,-35.906296,0.7803832,-4.658112,1814.0487,22.461262,18.060116,100.76284,100.70783,100.636955,100.647514,3.2013254,0.7,-117.776,-1439.2659,0.0013254151,-3.4660654,2.514646,2.1871614,1.531967,3.0773401,5.7734727e-08,0.3,5.9668837,81.17144,81.21799,80.93567,81.09688,0.110133454,0.39374998,7.840959548950195,66.21530598799387
92,920000,82.69248063804446,-88.80269,0.0,-7.8729877,1.8961091,-16.614464,2181.5278,247.43661,19.863054,101.144646,101.01795,101.51296,101.07575,6.247877,0.7,-112.37583,-1562.0822,0.00048458978,-3.664496,9.971649,7.7317495,8.630737,8.35985,1.7462299e-09,0.3,5.8319073,83.118744,83.11411,83.037,82.91916,0.15298155,0.5203125,8.351547956466675,66.93454358577728
93,930000,79.27842916520254,-85.360405,0.0,23.89872,1.230592,-11.56756,2146.0525,62.543434,21.333176,100.31633,100.77566,101.382095,101.659615,2.834529,0.7,-113.547806,-1639.6439,0.00024673087,-7.886755,6.616466,8.013106,7.1072135,7.8935814,7.429061e-06,0.3,5.7450457,79.68674,79.69939,79.89855,79.932106,0.116133496,0.3875,7.758907079696655,67.65402726332347
94,940000,83.16656067997513,-85.09607,0.0,-43.704174,0.7185092,-9.049011,1664.4869,17.815918,17.790947,101.637955,101.74118,101.69875,101.78252,8.171004,0.7,-117.26231,-1612.1903,0.0023819776,-4.499991,11.046369,9.740216,10.024389,9.105782,1.2837336e-08,0.3,5.5510116,79.574356,79.56101,79.56067,79.62709,0.13741615,0.4296875,7.975260496139526,68.37485882441203
95,950000,80.17914575913423,-86.7424,0.0,2.0101223,1.1873456,-24.211678,2493.651,90.0703,15.199578,101.1939,101.12399,101.20344,100.96958,10.769076,0.7,-115.31171,-1619.5317,0.0002310102,-5.6509705,17.457434,16.359898,17.788876,16.060688,1.0481745e-08,0.3,5.9412937,80.793076,80.69943,80.64514,80.556,0.19952832,0.49687502,7.759589910507202,69.0901459256808
96,955000,82.69594116374093,-85.666435,0.0,-63.609604,1.0859196,-5.459922,2288.769,45.247887,17.170742,101.50722,101.154724,101.22153,100.96878,8.9500265,0.7,-114.66556,-2036.1122,0.0007302618,-3.6644154,0.7490772,0.3036927,1.2760442,-0.79606414,1.7462298e-07,0.3,5.8625674,79.76523,79.730965,79.70598,79.710304,0.1323559,0.51874995,8.116296529769897,69.51845542192459
97,960000,76.89328902304204,-88.82521,0.0,-17.876661,1.2768239,-11.406309,1914.2682,106.50281,20.422798,101.23201,101.49992,101.36775,101.093124,32.838104,0.7,-119.25208,-1590.7375,2.1982589e-05,-6.3801765,6.1059914,8.501832,6.418466,6.8453455,0.00010456091,0.3,5.7141566,83.095505,83.098236,83.25006,83.2678,0.263168,0.3328125,7.3718531131744385,69.93433947960536
98,965000,78.6181434673987,-87.251785,0.0,-2.3853528,1.7731967,-17.202827,1877.4679,127.67869,17.954361,101.85818,101.77043,101.58822,101.55901,5.382177,0.7,-115.844826,-1423.994,0.0052068383,-5.162809,10.10563,11.52597,17.062511,12.017479,2.514571e-07,0.3,5.7603054,81.62411,81.517746,81.36624,81.30934,0.12938058,0.4671875,7.552659034729004,70.3532942255338
99,970000,76.38225617745653,-86.363625,0.0,-47.180595,1.7433417,-21.806767,1727.1741,159.75998,19.33748,101.72657,101.62902,101.95985,102.28887,3.497966,0.7,-117.514786,-1942.9321,3.258606e-05,-2.134007,7.943451,7.3189325,11.98915,12.186479,4.0344895e-07,0.3,5.9504447,80.399506,80.44031,80.73195,80.69314,0.12394884,0.4578125,7.339759349822998,70.77149946689606
100,975000,80.91667411028767,-86.8716,0.0,-71.313095,1.3059863,-6.341819,1603.605,28.285976,16.185617,101.4352,101.36519,101.35748,101.33201,11.761218,0.7,-114.29735,-1748.5256,2.1608037e-05,-3.3524823,5.905534,5.1170683,4.778129,4.278862,1.9597064e-06,0.3,5.8043942,81.07185,81.13815,80.81874,80.892685,0.12220031,0.4921875,7.72510290145874,71.19498935937881
101,980000,82.38027603498833,-84.88173,0.0,-16.16349,1.118623,-9.954769,2188.209,63.24421,20.21129,101.453804,101.537315,100.99938,100.86173,10.157164,0.7,-113.93822,-1719.2263,0.00012063328,-3.2774096,3.624685,2.4714015,5.322721,5.4545593,6.9849196e-11,0.3,6.0177026,78.88369,78.928635,78.79872,78.89719,0.17859128,0.4765625,7.882679462432861,71.61677110592524
102,985000,79.37997180214232,-87.821976,0.0,-15.021585,1.2315673,1.3735342,1973.1516,54.963257,20.650639,100.17103,100.78508,100.13,100.85932,5.5202904,0.7,-116.05954,-1771.2098,0.0002408892,-6.3361597,6.389942,4.953066,4.461903,4.23005,4.934426e-06,0.3,5.806093,81.975174,82.058,81.71217,81.975716,0.14153889,0.3734375,7.544102430343628,72.0369711279869
103,990000,82.82415228129416,-88.47879,0.0,-36.37153,0.91101736,-11.753674,2309.6265,54.51821,16.670012,101.394585,100.93198,101.18232,100.88109,4.1313853,0.7,-111.760086,-1740.6833,0.001160871,-2.3929367,9.3395195,7.768646,3.392475,8.202781,9.419175e-07,0.3,5.316828,83.17304,83.13428,83.11971,83.177124,0.099376686,0.41562498,7.854970216751099,72.46015750964483
104,995000,82.30274683266869,-86.76674,0.0,14.534061,0.93834513,-2.4362168,2280.6885,54.22441,18.899666,102.02563,103.040924,102.17883,102.17685,8.217353,0.7,-113.39856,-1679.2472,0.0013688467,-6.0636024,2.6927433,3.2874737,3.4804077,3.9506717,2.806948e-07,0.3,5.6938534,81.06788,81.04015,81.05405,81.05859,0.1226168,0.509375,7.963664293289185,72.88510267734527
105,1000000,82.65825858677191,-85.63107,0.0,-29.529716,1.0672789,-10.431758,2573.1553,70.848465,20.284029,101.493065,101.31566,101.33672,101.248344,6.1022425,0.7,-116.61313,-1568.7825,0.000239597,-2.495871,3.7282696,1.6928031,5.1727724,4.811867,1.0624062e-05,0.3,5.946033,79.83027,79.77704,79.8514,79.894485,0.12841311,0.428125,8.122410774230957,73.31708753108978
