Xixo99/comfo/baselines/comfo7_copy/20230223_cw0/walker2d-medium-replay-v2/COMFO7_s0_20230224_015336_walker2d-medium-replay-v2_53.14.csv
,step,reward,actor_loss,alpha,alpha_loss,avg_conservative_loss,avg_smooth_loss,conservative_weight,critic_loss,max_actor_loss,max_alpha_loss,max_critic_loss,max_mle_prob,max_q1,max_q2,max_target_q,max_v,max_value_loss,max_weight,min_actor_loss,min_alpha_loss,min_critic_loss,min_mle_prob,min_q1,min_q2,min_target_q,min_v,min_value_loss,min_weight,mle_prob,q1,q2,target_q,v,value_loss,weight,eval_time,time
0,0,2.009077345155106,,,,,,,,,,,,,,,,,,,,,,,,,,,,,,,,,,,,
1,10000,12.448694234171057,-23.895473,0.059636477,-13.137777,-0.00017386158,1.0996375,0.0,2.2548013,0.43279886,45.021202,82.50107,17.58901,46.15027,47.03128,45.784325,45.347775,4.2877636,0.7,-48.23006,-37.28383,0.0069587883,-7.772622,-2.5440152,-1.9742792,-1.8801007,-2.7753165,6.76675e-08,0.3,1.5306878,23.361507,23.740038,23.26006,22.923838,0.10204941,0.5078125,2.5405731201171875,2.6329661210378013
2,20000,3.955232907433913,-39.388123,0.0035949615,-15.165735,0.0016971835,1.9188372,0.0,2.7670927,2.8006992,74.7825,90.58963,17.069656,72.64039,71.93015,73.18546,72.85397,11.774448,0.7,-73.0305,-67.35932,0.00030546123,-9.869009,-5.7583437,-6.8203115,-6.8843956,-5.787239,1.177541e-06,0.3,1.0777858,38.651802,39.04429,39.0056,38.695274,0.2290776,0.4546875,1.1034183502197266,3.581362756093343
3,30000,6.838480475505183,-49.088135,0.00019399337,-17.986279,-0.00027594325,2.7423935,0.0,2.8999476,5.0667477,241.20543,128.63132,17.735619,82.35623,84.192635,83.01642,82.41633,18.881903,0.7,-83.165146,-125.68994,0.0005013334,-20.567913,-6.368187,-8.242198,0.08880806,-8.737169,3.6950226e-08,0.3,1.5435976,48.219917,48.15901,48.08876,47.86927,0.5410487,0.49687502,1.2099287509918213,4.530702789624532
4,40000,13.550910570613642,-50.58545,1.0167861e-05,-26.91929,0.0040181302,3.3166046,0.0,3.970235,0.49170172,351.39172,96.542465,28.622768,89.91799,88.85015,89.60489,89.233986,18.94479,0.7,-93.94441,-158.84326,0.0074798996,-11.795252,0.23646685,-0.18160623,0.029861381,0.32200685,1.0171672e-06,0.3,1.0082316,49.6511,49.73358,49.4709,49.47978,0.37347224,0.47968748,2.1858761310577393,5.496154661973318
5,50000,13.925810459384595,-53.21807,5.277409e-07,-35.135506,-0.005860162,3.2852979,0.0,4.792046,-3.190692,346.10474,213.8941,18.857811,97.32952,95.611115,96.98492,96.58556,23.485973,0.7,-97.0476,-203.17705,0.0023057808,-13.622747,-7.168251,-7.5224175,-8.989362,2.0555332,2.1883054e-06,0.3,0.79623556,52.51727,52.2945,52.437897,52.58339,0.4827823,0.4140625,3.11320424079895,6.479117647806803
6,60000,30.27754614228831,-54.069183,2.7224685e-08,-45.904785,0.002255523,3.3378723,0.0,5.526428,7.4270725,566.433,245.58258,21.54128,91.29395,91.96045,94.42038,91.113144,6.3410754,0.7,-92.41348,-225.43347,0.0032832962,-14.031549,-10.821921,-9.883053,0.7186881,-10.154982,1.3157886e-06,0.3,0.5563328,53.3865,53.38279,53.400402,53.542046,0.409532,0.390625,3.4378178119659424,7.469737656911215
7,70000,15.412745303086039,-53.815292,1.4078706e-09,-45.542656,-0.001542371,3.7064655,0.0,7.545575,3.0173502,562.29626,411.33453,18.30065,95.44617,94.559654,95.61564,95.54899,16.75151,0.7,-95.84379,-267.36462,0.0007851069,-13.323226,-3.1635969,-2.384059,-1.7574534,-6.4533024,1.08066885e-07,0.3,1.056041,53.112144,52.978897,53.253998,53.046978,0.55006886,0.46406248,2.4527902603149414,8.43755179643631
8,80000,17.60439906666407,-56.15809,7.3160214e-11,-65.08959,-0.005749378,3.4748323,0.0,6.8061104,10.473982,418.8715,454.1253,18.349327,98.84484,98.39674,99.44419,99.34342,13.576503,0.7,-100.20272,-335.19412,0.011285018,-17.426144,-10.305504,-11.07355,-10.934832,-10.011978,1.7881394e-08,0.3,1.0289724,55.608807,55.33801,55.633217,55.669113,0.41562295,0.4203125,3.2843222618103027,9.422533512115479
9,90000,35.15065329824836,-54.79582,3.805576e-12,-55.05286,-0.0016963169,3.8048704,0.0,6.7197237,-0.52792525,581.3017,401.289,19.080479,97.54118,97.2821,97.90361,97.80925,12.228884,0.7,-98.37408,-357.14056,0.0043198103,-15.9603405,0.24516422,-2.0576649,-7.2388363,0.41090056,4.7727103e-06,0.3,0.23687765,53.920143,54.003857,53.99941,54.124626,0.41727394,0.43281248,4.012502670288086,10.418375356992085
10,100000,36.078799220715,-53.864613,1.9945516e-13,-62.96042,-0.0033766942,3.922089,0.0,3.7600098,5.0714636,891.58856,60.039543,17.711327,98.512115,98.49925,100.531906,99.369,16.263536,0.7,-99.41082,-383.5492,0.00464653,-18.349207,-5.4545445,-5.281428,-8.196202,-5.6920776,8.802745e-08,0.3,0.65301216,52.96855,52.767014,52.835,53.13977,0.58566606,0.4296875,3.97566294670105,11.415469654401143
11,110000,36.98966321513418,-56.68808,1.03444746e-14,-54.03844,0.0023001228,3.552059,0.0,6.8125634,14.451014,517.8077,513.3569,25.072014,92.65742,93.20231,94.146645,93.503426,37.571297,0.7,-96.60354,-463.86597,0.0016893083,-17.237223,-11.469133,-10.132775,-11.88407,-10.033501,2.542918e-07,0.3,1.2977382,55.537865,55.752316,55.67167,55.63833,0.69395256,0.43749997,4.815002202987671,12.42301267782847
12,120000,38.41579122290903,-56.356674,5.440329e-16,-67.064896,-0.0050549856,3.7061207,0.0,6.7366924,-1.9227926,1201.492,268.98474,22.243002,101.00415,100.8927,101.72272,101.68029,14.562056,0.7,-101.83042,-461.6964,0.016679803,-15.951614,1.38434,1.951221,3.7999306,2.933128,1.7462298e-07,0.3,1.1043177,55.471657,55.601265,56.003838,55.91919,0.6671654,0.43281248,5.624887466430664,13.446804932753246
13,130000,30.255281127905036,-56.56779,2.827113e-17,-75.8116,-0.003268299,3.786216,0.0,4.131627,3.5592947,877.0312,138.61256,24.395794,97.95177,98.28978,97.86819,99.46305,10.789607,0.7,-99.88214,-437.49512,0.00012688944,-11.216002,-3.270247,-4.47295,-2.3601418,-2.9327402,3.583421e-06,0.3,1.1695127,55.72959,55.73459,56.01812,56.072433,0.4191041,0.4203125,4.151018857955933,14.446011408170063
14,140000,66.97805974833864,-56.8699,1.4779076e-18,-70.45015,-0.0014809177,3.8380806,0.0,4.2364864,6.056427,818.6483,103.29243,17.459623,96.07063,96.03189,96.358955,96.352005,18.516365,0.7,-96.71429,-572.13336,0.0029284684,-13.813341,-7.5140038,-8.561124,-9.3894,-7.487849,6.4977215e-08,0.3,1.2984723,56.067616,55.73706,55.75287,55.915726,0.47338253,0.4671875,6.751669406890869,15.487084877490997
15,150000,44.48056542571403,-54.488976,7.748491e-20,-88.42674,-0.0047786534,4.3504786,0.0,6.4646473,1.3934684,900.1019,213.52713,24.728561,96.73379,98.33336,98.34218,98.16761,35.8133,0.7,-99.038185,-500.4606,0.003530922,-10.749027,-5.993293,-6.0340166,-5.302352,-5.668401,1.2542405e-07,0.3,0.9345987,53.395645,53.46693,53.767994,53.64731,0.7182225,0.4265625,4.986731290817261,16.49618774652481
16,160000,32.653755534055016,-54.212852,4.065882e-21,-74.46744,-0.00077019766,3.6383069,0.0,3.62203,7.166213,914.63544,48.465584,20.571154,98.92402,97.6422,97.974434,96.73614,67.90273,0.7,-100.15813,-735.179,0.011540418,-19.000591,-5.8740864,-4.5195827,-3.9892209,-5.14237,3.8574218e-08,0.3,1.1201857,53.221397,53.333527,53.63615,53.384666,0.87218815,0.46875,4.483165264129639,17.50289048751195
17,170000,56.906144732958396,-55.59091,2.1315138e-22,-90.39564,-0.0037734748,3.399119,0.0,3.4608598,8.600048,1689.7511,51.392124,37.118458,92.2281,92.152016,93.65259,93.78102,36.291134,0.7,-93.376205,-554.3988,0.008967837,-16.111547,-9.657933,-10.606404,-10.75702,-9.606577,5.8743172e-08,0.3,0.97701216,54.73774,54.59881,55.043793,55.00161,0.5465716,0.43906248,6.253413200378418,18.53825509150823
18,180000,32.63422541362041,-55.808388,1.1195836e-23,-107.38586,-0.00850307,3.7220972,0.0,4.670376,7.5218124,1186.6818,199.28348,21.993551,96.1931,97.456726,96.683495,96.39028,45.9414,0.7,-99.3049,-675.9964,0.0033651963,-18.144629,-2.207424,-2.1121898,-3.2093494,-3.8912408,1.7603089e-08,0.3,0.70399857,54.766678,54.80371,55.064728,55.126587,0.59754395,0.44375,4.43949818611145,19.53803287347158
19,190000,68.63911069567185,-56.823586,5.8525576e-25,-111.62177,-0.0021972526,3.819173,0.0,4.2911515,-0.4344232,798.2687,84.18803,15.521834,95.573235,94.84483,95.804436,95.927925,72.825745,0.7,-97.03999,-773.8709,0.00050115894,-22.388687,-5.4954734,-4.6468782,-2.5986042,-1.7136889,2.6850032e-07,0.3,1.1639653,56.110992,55.7052,55.679802,56.05719,0.8514164,0.4375,7.249462842941284,20.590995808442432
20,200000,38.88786003387125,-56.94835,3.1043698e-26,-99.385284,-0.00435297,3.8482442,0.0,3.3406038,0.07363629,2915.8142,73.75704,17.61562,93.38092,93.17958,92.72713,93.34051,15.42432,0.7,-94.244316,-891.8375,0.005592862,-14.607447,-1.5294354,-2.3909664,-5.345689,-3.5550406,1.732288e-05,0.3,0.78616035,56.098747,56.005497,55.992172,56.13847,0.55394125,0.4109375,5.168853282928467,21.603763512770335
21,210000,58.40362102065642,-54.81105,1.6265595e-27,-74.371605,0.0014183496,3.8777688,0.0,5.7325597,-0.4726994,1842.0337,163.00006,24.864775,96.88686,94.28953,96.64984,95.74952,14.438068,0.7,-98.09038,-879.4701,0.0058366414,-14.243006,0.50563115,-1.1002471,-3.469208,-2.0502892,6.7769435e-07,0.3,1.334106,53.794582,53.8722,53.682007,53.77084,0.6887954,0.40937498,6.267676115036011,22.635324561595915
22,220000,62.195915310778304,-54.028465,8.5423756e-29,-111.304146,0.0032306463,3.7424634,0.0,4.9068856,6.5655265,1916.827,144.89136,16.511719,92.303635,93.01957,94.24728,95.978714,24.652088,0.7,-95.821465,-945.5052,0.0002775633,-16.131813,-10.217549,-7.844896,-14.590339,-9.541687,4.4103185e-06,0.3,0.9738468,53.0468,53.317253,53.16204,53.25299,0.70285654,0.4171875,6.54538106918335,23.672616215546928
23,230000,44.49153023672124,-55.566486,4.5263608e-30,-136.48439,-0.0012514323,3.7126904,0.0,4.4100585,-0.91143966,1114.2433,141.26213,17.023619,96.83229,96.88404,96.923874,96.44699,11.006478,0.7,-98.01473,-844.592,0.0030407044,-22.96999,2.805488,3.294092,4.4556127,1.2558527,4.3317416e-07,0.3,1.0654707,54.59724,54.53495,54.272903,54.27899,0.48288077,0.465625,5.994297504425049,24.700660598278045
24,240000,59.76495110116551,-55.911057,2.3840314e-31,-115.63771,-0.006735723,3.489011,0.0,3.54875,5.213586,3582.5032,59.37053,17.460247,93.53878,93.73513,93.918106,94.048874,29.217485,0.7,-95.049866,-921.6089,0.011998417,-16.527542,-6.040367,-6.0472918,-5.866634,-5.6106825,1.8558233e-06,0.3,0.52887505,54.838127,54.696213,54.752144,54.820206,0.55518484,0.425,6.8045196533203125,25.738200851281483
25,250000,49.077022045399204,-54.06847,1.267826e-32,-83.712875,-0.00024619457,3.6776245,0.0,4.5091405,-2.0037699,3052.4478,87.14545,18.98948,95.52845,97.74123,97.39196,97.238144,22.776573,0.7,-97.683,-1001.91986,0.0022047362,-13.423405,-2.160598,-0.59234,0.015822666,-0.3258528,3.9917823e-06,0.3,1.2510655,52.814392,53.200954,53.508053,53.228348,0.6252283,0.49062496,5.953340768814087,26.760500574111937
26,260000,35.7174799713837,-53.838203,6.6778365e-34,-125.24543,-0.006081175,3.5798702,0.0,3.9977853,5.5519676,1461.685,122.1715,17.916012,92.92432,92.56853,92.1327,92.216835,6.097552,0.7,-96.542725,-893.1317,0.005454553,-11.826108,-5.0391226,-2.6314862,-3.9885974,-3.9761076,3.469218e-05,0.3,0.8289199,52.8881,52.952347,52.826252,52.680225,0.38277498,0.475,4.706160545349121,27.760885870456697
27,270000,27.89926333040036,-54.446712,3.5185008e-35,-122.69734,-0.011772726,3.6327527,0.0,3.4674058,8.31413,2222.5684,43.24164,17.683516,91.8993,91.63366,92.917595,91.43962,8.953822,0.7,-94.75967,-964.2078,0.00350975,-20.361704,-6.6893463,-9.685009,-7.8333406,-10.291242,3.551849e-06,0.3,0.90472656,53.296776,53.284523,53.1615,53.10721,0.501754,0.4921875,4.118358850479126,28.754310766855877
28,280000,69.45480629737966,-55.002777,1.8716214e-36,-163.4303,-0.008424306,3.4042282,0.0,12.696543,8.063178,2952.8174,2127.5227,18.537441,92.63558,93.08458,92.72953,92.785736,39.960686,0.7,-92.40277,-1106.6066,0.0041085347,-16.955704,-7.20544,-9.122434,-11.212023,-8.550503,2.4556357e-06,0.3,0.9348206,54.03675,53.805122,53.885677,53.901924,0.570048,0.47499996,6.984931468963623,29.793727401892344
29,290000,67.62147501948564,-55.842194,9.952736e-38,-134.74757,-0.0025593648,3.3766568,0.0,3.5363874,8.337622,2797.0515,101.95726,23.64109,94.20267,94.36902,96.02453,95.63147,7.934363,0.7,-99.60231,-1299.5708,0.0029704496,-23.380913,-9.883587,-5.7076406,-10.491847,-5.493519,1.7968704e-08,0.3,1.1857079,54.928402,55.051445,55.502365,55.577663,0.42445683,0.4140625,7.81955885887146,30.849092996120454
30,300000,52.68658663813728,-52.093887,5.272142e-39,-122.17739,-0.0005973838,4.261809,0.0,4.864887,-3.9207253,3509.4841,454.22202,17.427551,94.7927,94.22475,95.50046,94.89207,17.232956,0.7,-95.28742,-1360.4347,0.006363683,-14.978989,-0.5724575,-0.63004154,-0.8366358,-1.181031,1.0353397e-07,0.3,1.1951723,51.070683,51.0001,51.14022,50.889416,0.5953953,0.5296875,6.475133419036865,31.849626060326894
31,310000,39.618975039835405,-53.247704,2.79638e-40,-176.7755,-0.0018958877,3.7535274,0.0,5.5989394,10.925724,1399.1724,201.33925,16.049696,92.434525,94.1496,93.47351,94.657295,19.882507,0.7,-94.17256,-1240.02,0.004657452,-17.33574,-7.135397,-9.681243,-6.698041,-9.94294,0.00016458042,0.3,1.2680902,52.166912,52.402878,52.548447,52.612415,0.44491065,0.4109375,5.193119049072266,32.83427557547887
32,320000,40.456485684670824,-55.08763,1.4914e-41,-207.52496,-0.009082069,3.9053953,0.0,3.2212896,11.018002,1764.4326,60.616478,18.698845,93.39498,92.224014,93.44773,93.220665,12.647136,0.7,-94.835785,-1324.2836,0.0073008845,-21.272873,-13.343064,-13.882954,-11.737395,-12.888757,1.5916157e-05,0.3,1.3226154,54.08336,53.959534,54.184113,54.09071,0.4336142,0.4484375,5.312475919723511,33.8566779255867
33,330000,33.858931454773305,-55.835598,7.93e-43,-133.04478,0.0030680695,3.6007519,0.0,3.8730114,3.241008,2338.0725,80.40932,14.584789,92.78467,93.05009,93.6503,92.76338,23.489592,0.7,-94.90222,-1169.3158,0.008848354,-19.819532,-7.964892,-5.4853067,-6.78273,-6.8990364,1.679377e-05,0.3,1.073721,54.61679,54.456055,54.648228,54.394154,0.6292855,0.53437495,4.646790266036987,34.86526439587275
34,340000,69.28071793183179,-53.63866,4.2e-44,-172.52766,0.0060847276,3.8738315,0.0,4.4458995,7.635279,2223.8296,139.32123,25.266428,94.84869,94.23205,95.1998,94.48019,72.532555,0.7,-96.57809,-1155.0062,0.0032648374,-21.847263,-7.0061684,-8.510829,-8.3701105,-9.186899,5.1203347e-06,0.3,1.2606901,52.605457,52.219574,52.76216,52.808434,1.0987657,0.4421875,7.212130069732666,35.9173108180364
35,350000,67.49789417198103,-55.21016,3e-45,-182.59006,-0.0049421485,3.7550855,0.0,3.0361187,5.24408,1677.1241,43.91676,17.565552,92.59434,92.83913,93.47032,91.05627,15.954132,0.7,-94.75366,-1352.4564,0.0009978786,-14.390428,-7.5968776,-5.9099183,-9.898803,-5.4665947,4.1756025e-06,0.3,0.9626012,54.13448,53.94758,53.793755,53.881916,0.5177556,0.46875,7.349234342575073,36.97133864959081
36,360000,37.652073001800154,-53.121445,0.0,-138.24622,0.008841101,3.7916887,0.0,3.9341307,4.7155113,4970.9062,70.07237,17.110733,90.97947,91.05136,90.47553,90.667534,23.729877,0.7,-91.99709,-1337.3654,0.004482422,-15.360345,-7.247898,-4.4966073,-6.722047,-2.5074365,1.6298145e-06,0.3,1.304873,51.893333,52.07445,51.989204,52.00999,0.74111664,0.4484375,5.428656101226807,37.99505410194397
37,370000,57.518558912661334,-54.696617,0.0,-220.16449,-0.009209321,3.8746622,0.0,5.0768876,9.568578,1916.3247,94.83497,17.947136,90.587204,91.41027,91.21806,90.94001,20.596672,0.7,-93.51977,-1180.0559,0.0035355748,-18.630919,-11.2311,-10.0596,-11.514606,-11.281394,1.0594431e-08,0.3,0.8785886,53.260105,53.64149,53.50305,53.50902,0.5955285,0.428125,6.334459066390991,39.032600784301756
38,380000,72.32288549935491,-56.766315,0.0,-138.50331,-0.007593052,3.819962,0.0,3.7611067,8.76559,3172.5652,109.80628,16.49314,93.22403,93.98161,93.9219,93.49401,17.579458,0.7,-93.228195,-1362.0215,0.00022421265,-12.933859,-12.785805,-13.160863,-12.135443,-10.55262,2.2006862e-08,0.3,1.2580185,55.802483,55.709488,55.82004,55.86261,0.52359307,0.4515625,7.301581859588623,40.08307443459829
39,390000,67.72998576589275,-55.315758,0.0,-230.20209,-0.002722698,3.6386826,0.0,3.1668282,8.673208,2029.7249,77.99023,21.773466,92.9522,92.46635,92.9457,92.68164,25.431217,0.7,-94.58615,-1495.6107,0.0008587062,-21.463951,-10.332694,-12.158303,-10.672604,-13.07766,8.679199e-06,0.3,0.94179595,54.38054,54.103348,54.436802,54.431087,0.48872495,0.4265625,6.871901750564575,41.12435555458069
40,400000,58.95304119051396,-55.260803,0.0,-177.78122,-0.0020575514,3.4685638,0.0,4.0863957,9.935169,2966.525,82.81578,20.951637,95.326355,95.11787,96.48744,96.19954,14.632683,0.7,-97.69833,-1433.941,0.0059467833,-15.54887,-12.49038,-8.630059,-7.461738,-8.388113,2.766098e-06,0.3,1.4154512,54.08796,54.698082,54.436554,54.01455,0.46380216,0.4484375,6.545378684997559,42.161090528965
41,410000,69.94834458032258,-56.271866,0.0,-191.32736,-0.007743459,3.9258614,0.0,3.9666843,6.634618,4057.775,68.489204,18.744354,95.41026,94.87421,94.50533,93.42867,38.556755,0.7,-96.59191,-1417.0667,0.0018177979,-15.54199,-4.0404863,-6.0697017,-4.2835984,-2.5076892,3.8042945e-05,0.3,1.1317716,55.060753,55.123993,55.12937,55.20996,0.7394991,0.440625,6.873352289199829,43.20323380629222
42,420000,50.99200127714224,-54.42255,0.0,-180.01926,-0.001102092,3.8104284,0.0,4.183072,9.626356,4844.9683,112.064415,26.3936,94.79282,95.36463,95.632484,95.472084,70.83913,0.7,-96.087776,-1673.1454,0.003716356,-18.624462,-9.006177,-9.711397,-9.652845,-9.286977,2.124479e-05,0.3,0.8119329,53.093483,53.43885,53.173508,53.282883,0.99047214,0.459375,5.871864557266235,44.23245490789414
43,430000,62.43409779143557,-56.75122,0.0,-224.81732,0.0023362592,3.7138417,0.0,3.7545457,2.9695559,3571.4421,65.97536,17.628616,97.60053,95.68526,97.40229,96.4365,28.568514,0.7,-98.29377,-1675.7795,0.0020966087,-16.200613,-9.673702,-5.552057,-6.822282,-8.0750885,4.8061152e-05,0.3,0.6695932,55.697636,55.503853,55.601303,55.501144,0.67686045,0.5171875,6.585256576538086,45.27497934103012
44,440000,53.168616093368115,-52.722466,0.0,-212.20404,-0.0022055465,3.583522,0.0,4.5633373,10.166199,4956.1885,69.95616,20.376713,93.92707,94.72204,93.80937,93.7023,11.792609,0.7,-98.235504,-1528.1484,0.010651138,-11.792305,-10.48092,-11.144395,-12.752255,-13.184295,2.723038e-07,0.3,0.8955726,51.63281,51.946426,51.357613,51.477783,0.46195677,0.45,5.956175327301025,46.30538713534673
45,450000,73.52947567574648,-54.107536,0.0,-269.75232,-0.0030572743,3.753706,0.0,5.0423393,5.3913546,3181.6362,113.37218,17.57519,89.87953,89.792564,90.26451,90.073875,26.430967,0.7,-91.313,-1579.9293,0.0013990911,-14.947959,-8.135903,-8.564384,-11.102786,-8.481536,3.9399312e-10,0.3,0.6018707,52.954575,53.12214,53.04937,53.18454,0.7833596,0.428125,7.3754942417144775,47.355246615409854
46,460000,45.95781257073527,-55.794746,0.0,-238.02982,-0.0069391388,3.492134,0.0,4.6169224,1.5938088,4726.2886,217.18576,16.367928,94.306,95.880905,95.387474,95.75616,19.47389,0.7,-95.29264,-1866.6893,0.00010410609,-22.127975,-0.6703375,-3.778551,-2.5257628,-1.9735327,5.0772387e-06,0.3,1.2068967,54.64284,54.63102,54.264008,54.547417,0.6373266,0.40156248,5.2896857261657715,48.3763551235199
47,470000,64.94207687501296,-54.137543,0.0,-306.58987,-0.0023319912,3.5059476,0.0,4.05114,5.618358,3235.6755,111.310486,21.667377,91.82174,91.18995,92.6586,92.36272,11.0054245,0.7,-94.14546,-1907.7542,0.0021394882,-10.479515,-2.390871,-3.7568796,-5.2385473,-4.054884,9.077415e-06,0.3,1.4590286,53.490273,53.29899,53.743507,53.66104,0.52000546,0.396875,6.609207391738892,49.417689418792726
48,480000,51.558909625574636,-56.3163,0.0,-145.8961,-0.0025869915,3.440625,0.0,4.8254404,6.382059,4446.187,87.60415,35.727715,92.512825,91.510765,92.55043,92.276436,16.038425,0.7,-92.82951,-2301.122,0.0022824772,-16.3852,-4.3048096,-5.5634365,-8.567573,-3.6795335,4.3568607e-06,0.3,1.9947886,55.401196,55.28199,55.182434,55.27478,0.4025581,0.43906248,5.960850715637207,50.44868190685908
49,490000,72.7719303890122,-53.633087,0.0,-245.89233,-3.727656e-05,3.8548088,0.0,3.679677,5.6872635,3657.3188,85.66377,13.944939,93.03491,92.7444,92.68045,92.63867,10.065727,0.7,-94.85837,-1903.5269,0.0051488196,-18.279736,-4.3691993,-3.120737,-1.7454435,-3.4715219,3.7191596e-06,0.3,1.2287898,52.58872,52.892944,52.629555,52.61258,0.4472543,0.465625,8.884780168533325,51.525987497965495
50,500000,52.99558955091735,-53.726616,0.0,-249.91228,0.0018209735,3.6111324,0.0,4.139287,6.5288677,3355.5908,134.09103,35.94317,92.680016,92.75413,91.50592,93.27135,12.540732,0.7,-94.54369,-1673.323,0.00064521754,-11.254767,-9.94509,-9.044888,-10.199517,-10.822077,1.9655608e-06,0.3,1.5920025,52.56286,52.38353,52.27375,52.433563,0.44304478,0.47499996,5.991615295410156,52.553515084584554
51,510000,50.47936385417901,-55.558434,0.0,-270.6656,-0.00156838,3.7754865,0.0,3.3721466,9.841479,5092.4585,53.360523,19.213219,92.774376,92.70924,92.73439,92.38381,5.0599675,0.7,-93.515114,-1772.1958,0.00072611275,-11.964851,-7.3663673,-6.617388,-9.816752,-7.741215,1.3492088e-05,0.3,1.2447553,54.622032,54.372715,54.57248,54.52386,0.39993697,0.4625,6.015573978424072,53.57935854196548
52,520000,61.098626124067366,-55.227524,0.0,-237.04718,0.0021545123,3.2062173,0.0,3.5088754,3.7855394,6650.163,51.77792,17.891083,90.668495,89.79625,90.724686,90.0159,6.8659773,0.7,-90.980804,-1816.2855,0.0017268137,-14.082727,-3.7992604,-3.9626236,-2.9912977,-3.2916257,1.2915017e-05,0.3,1.1419191,54.26427,54.10848,54.19898,54.141685,0.45161396,0.42499998,6.955133676528931,54.62164928913116
53,530000,64.95879882822531,-54.11724,0.0,-117.44846,-0.0029349334,3.655766,0.0,3.7246659,1.1895338,5764.5522,66.295525,20.83422,88.70077,89.31298,88.84463,88.58204,11.107663,0.7,-92.54559,-1718.948,0.0012589033,-18.779213,-3.2525785,-0.8248936,-1.1491122,-0.811288,5.6829584e-05,0.3,1.1297086,52.99607,53.13015,52.92188,52.72214,0.5406006,0.509375,7.765727758407593,55.68054804801941
54,540000,57.684521164994585,-53.043552,0.0,-223.08325,-0.0028738587,3.4105852,0.0,7.2442636,11.628084,5062.97,888.7982,16.591007,93.04887,93.403076,92.46156,92.25862,15.959723,0.7,-94.102776,-1846.8732,0.00020906358,-15.480049,-9.825392,-10.111511,-10.413532,-9.348881,5.405509e-06,0.3,1.339842,51.956482,52.369797,52.191917,52.328518,0.5261406,0.45156246,6.464114189147949,56.717731002966566
55,550000,57.71278963548624,-54.5614,0.0,-153.05023,-0.005657284,3.4728112,0.0,4.6080217,1.405088,5845.118,183.6571,35.134262,92.10985,91.554276,92.46518,92.36565,21.318373,0.7,-93.9394,-1794.1173,0.003993303,-13.970775,-1.455683,-1.5065694,-8.646254,-0.97259605,2.739718e-07,0.3,1.7549679,53.674706,53.14544,53.155502,53.210682,0.5458375,0.4921875,6.948648691177368,57.76082213719686
56,560000,61.49643701109244,-52.887333,0.0,-272.9787,0.00093429675,3.5005176,0.0,3.8838415,1.8702681,5048.0195,151.91904,16.869175,90.3002,91.74379,91.50996,91.55693,126.34431,0.7,-92.21089,-1990.9556,0.009686014,-11.128809,-3.0031953,-1.762853,-0.9488591,-1.5661764,6.468734e-07,0.3,0.9348189,51.427734,52.045395,51.92416,51.792454,1.2355385,0.4734375,6.770183324813843,58.799453322092695
57,570000,66.65273199768998,-53.962753,0.0,-289.3425,-0.0023065181,4.0905194,0.0,4.2189245,10.233478,4373.347,118.77514,14.988963,95.52079,95.16126,93.98068,93.95975,7.9206557,0.7,-96.5869,-2054.7322,0.0013096479,-13.235237,-9.048035,-9.799125,-9.42153,-9.13958,2.7939679e-08,0.3,1.3688929,52.67563,52.73777,52.768036,52.654655,0.46538705,0.484375,6.951135158538818,59.84536655743917
58,580000,51.84870780967873,-55.613144,0.0,-246.52567,-0.0046732672,3.4797914,0.0,3.0148797,9.050278,3982.4473,44.051167,14.553633,92.56602,92.17799,92.17659,91.88585,7.4782224,0.7,-94.04695,-2120.0046,0.0027939933,-10.928439,-10.781388,-9.670813,-12.605192,-11.055779,1.2777745e-07,0.3,1.2654032,54.321724,54.548187,54.58738,54.358994,0.42240432,0.45468748,5.687946081161499,60.872183271249135
59,590000,64.05377020185651,-55.392174,0.0,-307.13593,-0.010573096,3.7456806,0.0,5.0140142,9.34893,3934.5437,252.29208,23.533455,92.168655,91.513916,91.68866,91.98215,35.271385,0.7,-93.87281,-2459.8696,0.0039222296,-14.668949,-10.543738,-8.341396,-7.319187,-8.357251,1.8588757e-05,0.3,1.3441519,54.28157,54.222813,54.483025,54.454487,0.710113,0.39374998,6.647024393081665,61.91398607095083
60,600000,48.975470436754506,-53.450005,0.0,-202.56561,-0.002801607,3.9016876,0.0,4.6031427,9.161,4227.5547,162.4129,17.074068,89.91549,92.425766,90.48284,90.526146,11.9058075,0.7,-93.94055,-2129.4539,0.003968398,-12.998134,-7.1243577,-7.774172,-9.508615,-7.57637,1.9435976e-07,0.3,1.5342422,52.06266,51.84751,51.745396,52.077892,0.5896912,0.41718748,5.850957632064819,62.939949842294055
61,610000,46.1591300178668,-53.305,0.0,-342.699,-0.0009444337,3.37501,0.0,4.2870626,0.9223658,5063.6426,98.61717,19.276455,90.72049,90.42387,91.55985,89.959175,8.771841,0.7,-91.50926,-2372.0273,0.005373721,-17.79555,-0.62964725,0.2018081,-1.7309353,-2.0085921,2.673303e-07,0.3,0.9116758,52.034412,52.489685,52.30712,52.134605,0.53121126,0.4609375,5.686453104019165,63.9690842072169
62,620000,28.156855680766707,-53.736107,0.0,-307.1765,0.0013004523,3.6149704,0.0,5.391837,6.441225,4598.8247,136.44295,38.393684,92.29649,91.53163,92.037346,91.968666,29.508083,0.7,-94.963844,-2612.132,0.003018762,-19.432028,-5.974495,-5.7898707,-6.426461,-5.9169884,1.822125e-05,0.3,1.4468318,52.64851,52.11995,52.214626,52.3639,0.7546222,0.4140625,3.8380227088928223,64.96264112393061
63,630000,62.2027643983649,-53.402542,0.0,-243.99121,-0.006103474,3.511266,0.0,4.310835,-1.1648239,13216.266,67.02664,18.175388,89.960495,89.80565,91.28654,90.1721,13.562169,0.7,-91.08951,-2451.7944,0.004464066,-15.482454,0.13539767,-0.55503964,-4.0276184,-0.10440487,6.0786265e-06,0.3,1.192559,52.43534,52.177917,52.163116,52.19816,0.6169541,0.46249998,6.508304595947266,65.99900829394659
64,640000,53.58377855439135,-53.28501,0.0,-303.22742,-0.0041597644,3.9548829,0.0,5.221219,6.6138906,5435.737,315.22296,27.717903,90.75986,90.40291,90.27581,90.68302,118.82056,0.7,-92.350136,-2576.4927,0.003943004,-24.348133,-7.5566516,-7.8345556,-8.152538,-7.510604,1.8561743e-05,0.3,1.3773091,52.222855,52.081524,52.161774,52.31204,1.326972,0.4578125,6.470510244369507,67.03335677782694
65,650000,60.44582163986097,-54.05343,0.0,-340.39288,-0.0116246,4.0065465,0.0,5.9303026,9.244302,3527.4636,226.872,17.534468,90.49627,91.47926,93.19855,92.174194,61.52118,0.7,-93.79535,-2305.3574,0.000915614,-17.99109,-9.321347,-8.915777,-8.027301,-7.914956,1.2170524e-06,0.3,1.0787511,52.67395,53.311737,53.46866,53.535667,0.83535475,0.38125,6.333272933959961,68.06614730755489
66,660000,66.38558184836884,-54.199425,0.0,-443.17624,0.00047661643,3.7686887,0.0,4.685981,4.9948483,4679.009,135.82504,16.024897,92.96392,93.11105,92.38983,92.29809,13.448859,0.7,-94.38144,-2687.0598,0.0011125801,-13.168957,-6.822604,-6.4387255,-6.518484,-6.901716,8.6217185e-08,0.3,1.1735635,53.1505,53.56561,53.116764,53.08313,0.5221734,0.4515625,6.59391975402832,69.10530639886856
67,670000,76.95794056503605,-54.669876,0.0,-372.92444,-0.0054021883,3.8123956,0.0,4.659883,0.1385392,3131.2107,77.64523,18.62772,91.36338,91.996605,92.39896,91.25478,12.628887,0.7,-93.76767,-2810.231,0.0018571139,-11.656848,-0.8237667,-3.1158314,-0.29397145,-0.7667358,3.4226106e-09,0.3,1.4869376,53.615158,53.64789,53.584366,53.45422,0.68668985,0.47187498,7.726949453353882,70.1622512459755
68,680000,76.6199061013323,-52.78315,0.0,-263.07553,0.0022145614,3.9237976,0.0,3.4678607,8.680788,4711.5806,58.01929,18.01707,93.23405,92.88292,92.42266,92.936966,12.90637,0.7,-93.86345,-2559.5842,2.665833e-05,-21.2012,-6.605101,-7.26052,-8.181965,-6.9913273,2.3264147e-06,0.3,0.75982654,51.78508,51.84343,51.83426,52.025696,0.62275994,0.4140625,7.665380239486694,71.219380513827
69,690000,67.02891579480209,-53.496326,0.0,-319.28186,-0.004714969,3.3887832,0.0,3.6608372,9.211367,6389.4204,81.240326,17.002861,90.297325,90.34925,90.34599,89.84254,29.20354,0.7,-91.43527,-2499.9365,0.002379178,-15.586041,-10.1985855,-9.290538,-9.464863,-8.870876,1.2646215e-05,0.3,0.86504877,52.47248,52.223373,52.096004,52.086685,0.6791469,0.49374998,7.218802213668823,72.26887426773708
70,700000,69.87224080971485,-53.85044,0.0,-284.39478,-0.0074951435,3.6716194,0.0,5.2950187,6.739667,8735.778,140.23978,16.991566,89.95412,91.60175,92.23777,91.458305,18.763714,0.7,-93.32892,-2775.0867,0.0014273952,-16.763727,-6.000552,-4.9114633,-5.8669987,-6.6071577,1.9160616e-07,0.3,0.8444654,52.605278,52.573353,51.997322,52.327896,0.61293685,0.484375,7.16964864730835,73.31888885100683
71,710000,59.250126945426786,-53.265194,0.0,-209.60861,0.0022185724,3.736353,0.0,3.8605385,10.031426,5705.54,51.60522,18.471684,91.750305,90.56414,91.96545,92.025635,151.64131,0.7,-92.43368,-2408.1782,0.0040694987,-16.994913,-7.884218,-8.971766,-9.869783,-7.8684826,1.0488293e-05,0.3,1.3335824,52.09542,52.001835,52.125862,52.220512,1.1246293,0.41875,6.1785361766815186,74.35044273535411
72,720000,62.39418495130612,-54.80384,0.0,-315.10922,0.00027905637,2.9912713,0.0,2.7902482,9.286678,11683.157,64.0173,34.28395,89.656815,90.165886,91.5001,90.89993,14.665623,0.7,-91.71656,-2695.9475,0.0031878455,-14.481355,-7.577842,-7.569387,-7.495275,-7.4267044,6.1339697e-06,0.3,1.1104683,53.76779,53.791927,53.719765,53.785744,0.4553848,0.4203125,6.502419710159302,75.38707557121913
73,730000,76.59599434041678,-52.65391,0.0,-187.47055,-0.0038594834,3.9552438,0.0,5.094516,0.07927048,10043.6,62.10913,23.270689,90.888435,89.75276,89.689186,90.60963,28.678366,0.7,-91.43251,-2265.8545,0.001310707,-15.745542,-3.4278135,-3.2074962,-6.0227394,-2.7806702,2.2584349e-05,0.3,1.0974622,51.809265,51.337776,51.66562,51.72997,0.7167684,0.46249998,7.633643388748169,76.44694896936417
74,740000,73.85768384842926,-55.857628,0.0,-419.9489,0.0011019026,3.5011902,0.0,3.1850636,4.4771585,2965.7483,79.03279,17.7809,93.331024,93.4888,93.71972,94.039825,7.7630873,0.7,-94.1851,-2673.3992,0.0008437401,-14.690598,-1.8954,-5.788555,-3.8225937,-5.3449454,1.3055221e-06,0.3,1.7043334,55.073456,54.649044,54.9095,54.738525,0.392397,0.50312495,7.241499423980713,77.5004164258639
75,750000,61.467496245211485,-53.085533,0.0,-492.2359,-0.0032729597,3.8831718,0.0,4.094226,7.3737392,2838.133,71.1824,18.34878,91.42542,91.32746,91.7621,91.59432,118.58723,0.7,-94.702156,-3210.445,0.0024333915,-26.799358,-6.3000145,-6.1546063,-5.9686146,-6.9088492,2.3627512e-05,0.3,0.538805,51.859474,51.805763,51.964863,51.994553,1.4948484,0.43124998,6.276484966278076,78.53449102242787
76,760000,58.18352918829217,-54.510323,0.0,-324.87854,-0.011760934,3.5758932,0.0,4.416464,9.05049,10213.148,154.57533,18.568033,91.93256,91.03368,92.88758,92.60563,47.72344,0.7,-93.16123,-3256.6052,0.003052677,-16.731947,-6.981041,-7.380473,-3.8836832,-6.223171,6.6154216e-06,0.3,1.9298446,53.575356,53.162304,53.50254,53.60583,0.7028233,0.409375,6.70501708984375,79.57765567700068
77,770000,77.99954052463269,-55.09909,0.0,-419.5027,-0.006292333,3.698021,0.0,3.332199,5.0801353,7399.454,151.3636,17.937218,90.53172,89.53314,90.29863,90.37436,74.840645,0.7,-91.86664,-2737.2358,5.4072734e-05,-14.697664,-2.2645297,-5.8571873,-2.2017105,-4.482515,3.894443e-06,0.3,0.6263664,54.096016,53.72593,53.92751,54.035294,0.91403735,0.4578125,8.059998989105225,80.64044141372045
78,780000,25.558218819820013,-53.86499,0.0,-438.84772,-0.0020254117,3.4651353,0.0,3.0115485,7.2618256,7582.3174,34.52366,18.136816,89.45975,90.76915,91.22682,89.81012,14.256148,0.7,-91.48787,-3590.783,0.0058370503,-12.491806,-9.655925,-8.122124,-8.792303,-9.762759,1.3050628e-05,0.3,0.93732977,52.970222,52.69108,53.119377,52.871986,0.5289997,0.45624998,3.076340436935425,81.61921762625376
79,790000,72.7307607549119,-50.283005,0.0,-423.89908,-0.0039450102,3.8079345,0.0,5.151278,10.419897,6143.203,99.097466,15.131345,90.8625,92.082146,91.11627,90.59608,41.797333,0.7,-94.24156,-3433.8901,0.000710201,-15.505092,-8.07998,-7.2519426,-8.298728,-7.666274,1.8274803e-05,0.3,0.7468336,49.021366,49.286423,48.60589,48.776424,0.7185006,0.48437497,7.4228997230529785,82.6658668200175
80,800000,65.51628880703737,-53.6082,0.0,-261.12762,-0.0026515555,3.7904592,0.0,3.737496,9.396273,14300.49,89.51982,21.324785,92.901596,92.20886,90.88113,91.584435,53.365486,0.7,-92.51221,-2649.3025,0.0005272013,-17.221756,-10.919139,-10.804693,-10.256418,-9.8949,6.8492955e-06,0.3,1.0661933,52.297737,52.250454,51.90439,51.9158,0.90540534,0.534375,6.881260871887207,83.70807545185089
81,810000,45.47328887364831,-50.302856,0.0,-476.29614,-0.004578183,3.3823917,0.0,3.4820778,10.765606,5140.955,51.009724,18.02107,93.53257,93.17141,92.43674,92.86997,9.691953,0.7,-95.713905,-3101.5535,0.0025782932,-13.106181,-10.345423,-10.235603,-10.081477,-10.195878,3.9028673e-05,0.3,0.8303013,49.314476,49.7841,49.68606,49.57919,0.38934147,0.4171875,4.950376510620117,84.71901727517447
82,820000,67.50179793444757,-54.590195,0.0,-278.76868,-0.0036582493,3.4337146,0.0,4.98625,8.5921545,13884.334,73.38236,16.69159,91.83869,91.82298,92.01577,91.45943,21.386902,0.7,-95.16941,-3491.8137,0.0038004639,-15.198473,-7.172963,-5.021324,-9.202531,-9.859191,1.5663726e-06,0.3,1.405548,53.205265,53.72902,53.62124,53.50405,0.88021934,0.453125,6.97336745262146,85.7617883960406
83,830000,53.59933618439759,-50.92942,0.0,-254.69572,-0.0012530581,4.2552204,0.0,5.453721,4.343083,11777.054,54.9236,19.237637,91.53803,91.59919,92.07117,93.01525,99.03867,0.7,-93.69257,-2630.7654,0.0011910158,-23.45839,-7.601218,-5.9386106,-3.6790795,-9.581417,3.414879e-06,0.3,0.8583993,49.72701,49.72852,49.72634,49.60299,1.1183826,0.4578125,5.393768548965454,86.780227235953
84,840000,61.65547939717547,-52.447376,0.0,-284.28137,-0.003184534,3.350785,0.0,3.7875671,7.613022,8116.003,88.00646,19.055935,93.20891,93.21751,95.27319,93.609505,27.746197,0.7,-96.214554,-2939.6367,0.0021486238,-20.306225,-6.2190905,-6.949357,-7.492393,-6.622811,1.5012588e-05,0.3,1.3797034,51.198917,50.871506,51.019855,50.84532,0.6309529,0.47812498,6.302932500839233,87.81374437014262
85,850000,68.3316943237872,-50.763123,0.0,-361.583,0.0034233765,3.3943086,0.0,5.3099008,2.7998269,8495.981,75.93048,21.417637,89.158966,90.98213,91.7068,88.77235,182.80042,0.7,-90.97567,-3092.4893,0.01153188,-14.211984,-3.87221,-1.8185397,-4.189685,-4.5366106,3.677269e-07,0.3,1.0875167,49.72104,49.4869,49.22572,49.288124,1.3561273,0.515625,6.797598838806152,88.85627016623815
86,860000,51.20468517070705,-50.719963,0.0,-423.04297,-0.00370968,3.94676,0.0,4.9949465,10.985039,5295.6265,153.6466,27.665136,89.23766,90.24952,88.96195,89.67974,11.434433,0.7,-92.27446,-3010.4368,0.0026304703,-21.35522,-9.030447,-10.930673,-11.225282,-8.993852,5.3906973e-05,0.3,0.79825866,49.41808,49.32401,49.3669,49.55945,0.73477197,0.425,5.2060706615448,89.87121870915095
87,870000,50.7112290222066,-52.59781,0.0,-470.08136,-0.008567408,3.7711742,0.0,6.107088,8.4649105,7767.757,467.59473,30.131672,89.699066,90.46501,90.935326,90.855835,21.513172,0.7,-93.44158,-3205.7034,0.0031321952,-16.622782,-9.288023,-7.756913,-9.328453,-9.151516,9.377955e-06,0.3,1.0866289,51.730423,51.552505,51.604263,51.63263,0.4771784,0.45,5.1904778480529785,90.88722811937332
88,880000,43.490859879768806,-49.893394,0.0,-496.6269,0.0004857676,3.79522,0.0,3.5316634,8.045718,5803.4214,84.72896,18.392267,91.00177,91.13049,90.917725,90.903496,19.15915,0.7,-92.1939,-3511.4355,0.017388254,-13.588616,-9.090088,-9.911622,-11.220101,-10.509657,5.6735007e-06,0.3,0.9525249,48.627697,49.232544,48.768784,48.650944,0.59983253,0.44843748,4.575742244720459,91.89165183703105
89,890000,68.67579559050827,-53.44323,0.0,-312.91916,-0.005000262,3.8220334,0.0,3.1260533,8.29321,8496.399,30.604504,24.439333,92.07735,89.79654,90.802246,90.18984,14.120301,0.7,-93.19959,-3258.3306,0.006540333,-13.520422,-8.508393,-10.932777,-9.471449,-9.874839,2.8784154e-06,0.3,1.5644429,52.599895,52.07397,52.25969,52.20898,0.48785782,0.44062498,6.7325005531311035,92.93388984998067
90,900000,65.14714952307908,-53.49196,0.0,-391.4466,-6.068852e-05,3.617289,0.0,3.4120893,7.527315,10521.352,58.60891,21.27686,92.85214,92.94709,93.10852,92.93316,9.259977,0.7,-95.099846,-3449.236,0.0041227574,-18.41549,-6.927473,-7.2756934,-7.722617,-7.6368976,5.9163285e-05,0.3,0.88179505,52.02346,52.438873,52.188984,52.290634,0.5695822,0.4171875,6.43311333656311,93.97009171644847
91,910000,25.552294352990796,-55.94513,0.0,-504.56314,-0.003848005,3.4284005,0.0,4.027341,8.945523,3229.3186,70.07925,23.221403,91.63911,90.75754,91.84407,91.789665,15.499221,0.7,-92.752716,-3732.2925,0.0060006976,-15.110191,-10.844128,-9.090844,-11.730613,-10.922221,2.3009898e-06,0.3,1.4085419,55.11,54.940132,54.76902,54.84405,0.44220954,0.49531248,3.196014881134033,94.95483307441076
92,920000,56.33988350613589,-54.816246,0.0,-450.8413,-0.012262929,3.8012702,0.0,3.7103846,11.284537,4287.229,77.94498,16.134037,91.196304,91.96526,92.12858,92.05811,12.755166,0.7,-93.11541,-3817.3772,0.0026028685,-16.984854,-5.1014423,-4.678505,-5.4650435,-4.684178,1.2915116e-07,0.3,1.4542127,53.890076,53.54973,53.91871,53.77949,0.51289564,0.43124998,5.775871515274048,95.98066739638647
93,930000,54.53998111979955,-52.86016,0.0,-469.66806,-0.0075669074,3.291191,0.0,4.115362,12.563304,6991.422,60.085117,16.181854,90.11973,90.15073,90.05741,90.07562,10.758605,0.7,-90.682045,-3091.989,0.0037039157,-17.883274,-8.983253,-10.079066,-9.372793,-9.490072,1.5759724e-07,0.3,0.7518287,51.71845,52.04062,52.217743,51.92601,0.60176575,0.45,5.494493246078491,96.99844898780186
94,940000,68.22540026239511,-53.442493,0.0,-426.95822,-0.0075034485,3.470206,0.0,3.7633705,16.36906,8651.275,117.60445,19.44591,91.33813,91.7336,91.2211,91.17497,11.447512,0.7,-94.51588,-3555.8296,0.0011512787,-20.585474,-9.892572,-9.660114,-10.238754,-12.206951,2.2654207e-05,0.3,1.0681237,52.158146,51.7807,51.882446,51.84638,0.54820114,0.4484375,7.054342985153198,98.04207940896352
95,950000,75.11446906368076,-53.27102,0.0,-293.50092,-0.0060327905,3.814298,0.0,5.2000628,7.8423986,9740.808,64.109566,16.835165,90.739655,91.435356,89.79494,88.92993,10.28645,0.7,-92.922485,-3513.0095,0.009069093,-21.130852,-6.5380583,-6.22379,-6.9101887,-7.3686852,6.0945104e-06,0.3,1.4564283,52.107605,51.828068,51.4065,51.480324,0.44145948,0.4890625,7.249286651611328,99.09127906958263
96,955000,45.03129551232647,-55.811295,0.0,-353.36685,-0.00018627681,3.7357385,0.0,2.9747696,7.0547247,6597.018,43.970333,24.237432,88.608765,88.86492,88.420586,89.02638,41.041943,0.7,-90.36175,-3217.4387,0.00029389077,-21.284893,-7.2131147,-9.07437,-10.16716,-6.2244234,2.9641205e-06,0.3,1.2078922,54.444153,54.457123,54.56253,54.59,0.8014257,0.41562498,4.675210237503052,99.62838725248973
97,960000,51.875803967495834,-51.750546,0.0,-536.8676,0.0047448906,3.843666,0.0,4.335738,7.392885,5816.135,65.95114,18.355152,91.07664,91.2533,91.44253,91.62141,28.11941,0.7,-95.864975,-3524.9084,0.004452866,-13.754587,-8.75942,-8.821393,-8.953299,-8.689817,9.891345e-07,0.3,0.9416454,51.045456,50.643326,51.153206,50.90407,0.64253426,0.4640625,5.452643632888794,100.18752402861914
98,965000,73.49471495974196,-54.975967,0.0,-478.23578,-0.0035470359,3.9318206,0.0,4.2787795,5.8488235,6539.9663,60.942657,18.561049,92.90616,92.101425,92.60607,93.39291,7.5378413,0.7,-94.09291,-3868.697,0.00333644,-19.54665,0.3628025,-3.986578,-3.768468,-3.9507985,1.1175871e-05,0.3,1.1583737,53.603363,53.763474,53.72374,53.900875,0.4723189,0.428125,7.309844255447388,100.77218639453253
99,970000,55.773642584578,-51.989426,0.0,-56.574623,0.0036881627,3.7619507,0.0,3.717995,15.379323,12773.092,87.5146,16.751984,89.2567,89.34439,89.16982,89.48085,11.295373,0.7,-92.013245,-3681.1394,0.008026139,-15.714901,-13.879646,-16.00245,-12.788173,-14.946613,3.8083354e-06,0.3,1.3671756,50.33744,50.706406,50.363525,50.729496,0.53335124,0.4125,5.538696527481079,101.32952486276626
100,975000,49.108552832793094,-55.280056,0.0,-253.43756,-0.0035090714,3.517226,0.0,3.683893,0.26369917,28559.885,58.88247,18.37783,90.071236,90.81575,90.32152,90.03965,16.951063,0.7,-92.76036,-3733.6633,0.010168612,-14.608433,-0.21610487,-2.0123146,-1.3384727,-5.6810527,3.0365018e-06,0.3,1.7725861,53.842964,54.093887,53.733887,53.77446,0.59421116,0.4609375,5.04526424407959,101.87734854221344
101,980000,44.657136406957385,-54.005516,0.0,-559.169,-0.0044876896,3.376353,0.0,3.8118649,9.759952,4894.7983,66.5731,25.243895,91.58425,92.79742,92.21368,90.80274,32.42075,0.7,-93.655594,-3999.5955,0.0025998033,-18.962072,-9.371282,-11.4208765,-10.039932,-10.497544,5.359459e-06,0.3,0.96919537,52.896988,52.882362,52.569218,52.796135,0.7107317,0.440625,4.5537269115448,102.42045672734578
102,985000,55.955326822123986,-53.403755,0.0,-544.2965,-0.005188588,3.5651917,0.0,3.6636543,9.794636,4364.324,94.881516,28.478619,89.45542,91.353096,89.100426,89.02668,52.85842,0.7,-91.54053,-3603.3865,0.0018053991,-17.0728,-12.286566,-11.389039,-9.363561,-10.351934,7.152558e-08,0.3,1.2493091,52.422653,52.33755,52.218758,52.094364,0.7520993,0.5203125,5.551624298095703,102.97827885548274
103,990000,70.92417148935515,-53.873142,0.0,-564.2272,-0.0038206626,3.27937,0.0,5.7129936,2.5362287,6637.8994,149.29951,19.101097,90.887474,92.782906,91.42077,90.794235,64.01803,0.7,-93.26126,-3702.5354,0.0031203462,-25.996338,-2.8225088,-2.471195,-3.5149412,-1.6284819,1.5926315e-06,0.3,1.062341,52.806168,52.50047,51.882915,52.051826,0.69300616,0.496875,6.765908241271973,103.5592623869578
104,995000,42.084971444004346,-53.967796,0.0,-425.27762,-0.008163872,3.5856926,0.0,4.020153,5.7964735,11581.027,266.77246,20.438295,89.95603,89.50031,90.283066,89.9599,37.642082,0.7,-94.502914,-4420.7266,3.061985e-05,-16.878433,-5.672146,-3.5529528,-4.172759,-5.810856,5.839963e-05,0.3,0.9236391,52.929432,52.78504,52.98488,52.98288,0.6307907,0.4390625,4.371745824813843,104.10037901004155
105,1000000,42.47781956424135,-53.82325,0.0,-641.3207,-0.004261695,3.784411,0.0,3.540983,7.3561563,4766.4766,68.56186,18.539999,89.801796,89.321075,88.57373,89.39424,19.043848,0.7,-90.913246,-3686.4414,0.00058559014,-25.224312,-7.951496,-4.7996955,-5.4552517,-7.079975,3.7779203e-06,0.3,0.29708585,52.803017,52.678253,52.83786,52.885635,0.4790356,0.4078125,4.518909215927124,104.63875441948572
