Xixo99/comfo/baselines/comfo6_perterbation_actor/20230222_actor_perterbation/hopper-medium-replay-v2/COMFO6_s0_20230222_035909_hopper-medium-replay-v2_93.18.csv
,step,reward,actor_loss,alpha,alpha_loss,critic_loss,max_actor_loss,max_alpha_loss,max_critic_loss,max_mle_prob,max_q1,max_q2,max_target_q,max_v,max_value_loss,max_weight,min_actor_loss,min_alpha_loss,min_critic_loss,min_mle_prob,min_q1,min_q2,min_target_q,min_v,min_value_loss,min_weight,mle_prob,q1,q2,target_q,v,value_loss,weight,eval_time,time
0,0,4.8007091656712815,,,,,,,,,,,,,,,,,,,,,,,,,,,,,,,,,
1,10000,20.022980920162972,-29.520115,0.05750359,-7.706273,4.4823008,0.9229151,10.05297,503.5993,12.579936,56.41357,56.203705,57.87111,55.28479,4.091984,0.7,-54.824257,-23.159765,0.0010001583,-12.732485,-1.9919713,-1.484768,-1.7134008,-1.3337648,1.3495563e-06,0.3,-0.72217983,29.330463,29.27523,29.163986,28.933977,0.118998826,0.453125,1.6137897968292236,1.8245257099469503
2,20000,18.648582539370732,-46.847332,0.00371502,-8.612717,2.1481721,1.8316829,85.825554,62.555332,9.375797,81.26856,81.26087,80.662415,81.19621,5.1624517,0.7,-81.8682,-49.501953,0.0015152865,-8.902367,-3.636193,-4.588988,-2.4909081,-3.0248125,3.5361154e-08,0.3,-1.2752081,46.341698,46.40512,46.23438,46.22467,0.30404365,0.43281248,1.6233396530151367,2.420978518327077
3,30000,21.220144692910782,-56.776775,0.00023370316,-8.80967,9.771382,5.34772,202.03915,1873.6719,9.449465,89.511635,89.50382,90.317024,90.01607,68.56641,0.7,-90.78675,-75.56171,0.004873637,-11.359149,-1.9160168,-1.7087524,-0.49335802,-5.975461,1.6298145e-10,0.3,-1.0282815,55.859467,55.937454,56.172417,56.072998,1.042156,0.44843748,1.7872393131256104,3.0206534544626873
4,40000,28.064171693426452,-62.608192,1.4538156e-05,-7.670623,4.348815,-4.3514037,192.50714,198.72955,15.657419,93.99045,94.353355,94.533485,94.6537,85.98831,0.7,-94.15708,-95.895134,0.006036274,-11.153557,2.356595,0.06493123,3.7323499,3.677167,4.3655748e-10,0.3,-1.7180718,61.106667,61.19305,61.31814,61.58131,1.4005927,0.45468748,2.126464605331421,3.623692309856415
5,50000,35.431285498549116,-65.33297,9.344244e-07,-10.3894825,3.039908,2.0694022,367.26675,51.440346,12.531576,96.75468,97.22684,97.19042,97.832344,70.543335,0.7,-97.04021,-124.04428,0.0015018643,-8.981505,-1.4408534,-1.1691781,0.7889033,-2.241733,2.0368026e-07,0.3,-1.0850406,64.446,64.571014,64.956665,64.69893,0.9467491,0.4921875,2.543360948562622,4.231885612010956
6,60000,33.0363144229228,-67.40225,6.237489e-08,-7.935675,5.8740892,-1.4754766,392.2116,324.11868,8.334758,102.42905,101.88224,100.87699,100.63567,49.049294,0.7,-104.05606,-151.48347,0.0008158956,-9.259562,0.7600243,0.8352046,0.6650455,0.66292787,9.229331e-06,0.3,-1.1627135,66.28526,66.157776,66.49948,66.109314,1.2567251,0.4921875,2.519618272781372,4.842736232280731
7,70000,37.12350800227196,-65.14389,4.2893205e-09,-7.1608205,4.3994713,-0.4063689,262.40704,89.98933,11.547508,98.1035,98.58583,98.92346,98.66866,22.166195,0.7,-98.81705,-149.02324,0.004752694,-13.622614,0.84979403,0.2068739,1.1310048,0.6811859,2.0689895e-05,0.3,-1.2705104,64.29459,64.342384,64.97405,64.73264,0.9043019,0.43124998,2.69707989692688,5.4562853892644245
8,80000,61.925882729242076,-66.853775,3.251089e-10,-9.472359,4.1988955,0.22993612,446.4245,84.576004,10.421812,99.939445,99.28809,98.81993,98.67631,159.28918,0.7,-99.981224,-194.3645,0.00034038164,-11.621517,-0.7006867,-0.13711381,-5.4395947,-0.76109993,1.9794463e-05,0.3,-1.7047578,65.466324,65.50069,65.80333,66.24827,1.7372911,0.4015625,4.398865461349487,6.095927055676778
9,90000,83.93980266797013,-65.7092,2.6312397e-11,-7.7479153,3.5997922,-1.8551071,594.6448,363.19992,19.496918,99.26269,99.42015,99.99393,100.21025,31.13445,0.7,-101.47116,-227.10918,0.0062175007,-13.761876,2.2273583,1.5213034,0.17416108,0.6392627,4.5781488e-07,0.3,-1.1372011,64.50096,64.50166,64.635895,64.945435,1.0316987,0.4421875,6.097926378250122,6.763134793440501
10,100000,94.65660417635566,-68.8934,2.5239249e-12,0.8025589,2.616228,-1.2005149,630.4609,39.604168,7.563015,101.099815,101.064415,99.83326,100.25393,114.08393,0.7,-101.3655,-262.66507,0.0010920473,-18.045918,1.8819635,2.6306958,0.9173508,2.96663,9.305659e-08,0.3,-1.6516953,67.84093,67.86036,67.88652,67.99609,1.7536547,0.390625,6.56018590927124,7.443416305383047
11,110000,101.58222351538726,-66.96622,2.701811e-13,-19.13657,7.0687137,-2.493315,646.44824,1002.5802,7.3949366,101.23508,100.8868,100.629234,100.73042,61.330402,0.7,-100.635994,-249.88531,0.0029466192,-11.720279,2.7008367,2.439614,0.62914675,1.7174228,3.167787e-05,0.3,-1.3660706,65.95044,65.95026,66.07556,66.21567,1.175911,0.41562498,7.107419729232788,8.131531683603923
12,120000,99.1612944138895,-67.93294,3.3290048e-14,-6.879544,2.8920965,9.10779,784.3808,65.31612,19.262133,100.00049,100.251396,99.474846,99.34405,73.29157,0.7,-100.07221,-266.76562,0.0013716877,-9.905903,-10.689906,-11.991718,-10.823686,-11.738135,1.9737705e-05,0.3,-1.2032697,66.620575,66.41889,66.51595,66.705605,1.1539311,0.47656247,7.835937738418579,8.823882869879405
13,130000,92.52167071100548,-66.84456,5.060338e-15,-14.863722,5.1973505,3.5304165,643.2761,321.56955,6.979823,98.09201,98.49628,98.82642,98.978065,229.13612,0.7,-98.82178,-365.67508,0.0050467476,-13.370796,1.965338,0.87182564,-4.6476,0.8617487,4.173692e-05,0.3,-1.4896607,65.33336,65.43417,64.979164,65.66638,2.5882053,0.409375,6.5542261600494385,9.49441956281662
14,140000,74.29243434068512,-68.5155,1.0294318e-15,-24.513565,3.2851725,-0.7078377,650.35364,50.54567,6.516587,99.46172,99.084206,100.12381,99.96764,39.65126,0.7,-100.02438,-335.14407,0.0032387928,-11.695922,0.51325405,0.60421085,1.088426,1.4782555,6.885966e-09,0.3,-1.4518204,67.37677,67.36777,68.064896,68.0202,0.8635887,0.4265625,5.869705438613892,10.15549323161443
15,150000,44.5674653114272,-67.720955,2.450035e-16,-18.928505,3.500825,-1.0625395,853.8471,91.83797,8.856571,100.63091,100.16842,100.10801,100.25271,14.224861,0.7,-100.54158,-383.00412,0.000252788,-9.644447,0.7167134,0.74444884,0.982452,0.017188579,3.1583862e-05,0.3,-0.9359765,66.82162,66.687454,66.73096,66.85089,0.8052025,0.43125,3.186337471008301,10.768466178576151
16,160000,100.63530093804218,-68.99523,6.508635e-17,-14.001463,5.4464717,15.615434,555.9369,588.58203,11.14602,101.89381,101.912384,101.024155,100.93736,60.873394,0.7,-102.90793,-291.0717,0.0022246758,-12.625125,-16.054821,-17.89821,-0.26845244,-16.295872,2.8408685e-05,0.3,-1.7796757,67.66121,67.71067,67.88351,67.920425,1.205538,0.45,7.637439250946045,11.457137660185497
17,170000,65.04681718756677,-70.36044,1.8460628e-17,0.6237831,3.2348814,8.552433,1300.2177,52.4535,13.404293,101.964806,101.74384,102.42901,102.21697,43.887356,0.7,-102.560875,-359.34116,0.0055148364,-9.89861,-5.038498,-8.4720335,-7.1502485,-7.9471545,8.472428e-06,0.3,-1.4584136,69.13089,69.08988,69.393555,69.35441,1.1390264,0.43124998,4.832856178283691,12.09991685549418
18,180000,31.226975498407207,-67.29238,5.865027e-18,-5.388006,2.8203568,2.5947232,1058.8552,71.57754,7.151713,101.73802,102.58834,101.330795,101.10073,26.59248,0.7,-103.16908,-350.934,0.0023269623,-10.267628,-1.7682533,-1.6749036,-1.911261,-3.6011891,3.4030807e-05,0.3,-1.4599273,66.26535,66.24027,66.328445,66.700195,0.82542706,0.421875,2.5352110862731934,12.704803955554961
19,190000,63.85730713985086,-67.141716,2.048782e-18,18.9529,3.5438123,-2.802109,890.74243,71.2611,7.1264415,102.290245,101.65709,102.68092,103.06717,56.951176,0.7,-102.7562,-326.2346,0.007588516,-12.685312,-1.9414579,-1.7363274,-3.4434686,1.2675618,2.562268e-05,0.3,-1.4465616,65.67796,65.543625,65.269005,65.28351,1.4078777,0.5,4.913965940475464,13.350962805747987
20,200000,33.51733867820001,-68.261665,9.38774e-19,-1.7736967,2.6303844,-0.7093972,1188.0004,34.661232,6.4432526,103.73852,103.294815,102.988686,102.451904,66.77545,0.7,-103.54098,-342.01138,0.002632445,-12.637209,-0.103039145,1.0252694,1.3142282,1.857033,6.8859663e-07,0.3,-1.4357653,67.02538,67.014465,67.11548,66.789276,1.378489,0.509375,2.606405735015869,13.957767351468403
21,210000,101.3719383231571,-70.352234,4.6202587e-19,8.391309,1.9920483,-3.7645063,912.31384,27.457287,10.613697,103.180084,103.0138,103.24892,103.58536,108.31903,0.7,-103.169174,-359.05716,0.0038035074,-10.5200815,-1.0896657,-0.36605856,-2.4480982,0.69620967,5.3985973e-06,0.3,-1.469602,68.92122,68.83027,68.95642,69.033875,1.3626214,0.44375,7.972926378250122,14.651256612936656
22,220000,35.47067116061196,-67.21171,2.9689857e-19,-6.1290503,3.24081,-1.5346926,1089.5121,64.92911,8.635092,100.97918,100.92209,100.64238,100.65099,55.91495,0.7,-102.017654,-365.2045,0.00013639894,-12.513548,1.0839449,1.8385451,-1.7374947,-1.2886184,1.2824487e-06,0.3,-1.2438006,65.97136,65.92781,65.59769,65.80876,1.1654644,0.471875,2.761908531188965,15.258440697193146
23,230000,43.24011120557999,-64.92386,2.1994637e-19,7.4288764,4.0005264,-4.2934694,1609.0265,75.505325,12.975716,100.67822,101.05951,100.98749,100.91454,81.14385,0.7,-101.66555,-324.18704,0.0090286555,-10.486673,-1.0414681,-0.46516317,0.49585035,0.88694155,7.862243e-06,0.3,-1.5171068,63.514256,63.40043,63.92656,63.76709,1.2861323,0.484375,3.1053619384765625,15.876232723395029
24,240000,98.35827454534947,-66.21509,1.9082248e-19,16.889616,2.8744183,-6.584733,2512.4993,56.682686,7.981705,103.05593,102.24318,102.4662,102.24932,41.3465,0.7,-103.44737,-360.96976,0.01005638,-8.620529,-3.623461,-5.1034436,0.5869945,-13.375793,6.164366e-07,0.3,-1.1823719,64.66539,64.60251,64.43085,64.323875,1.3556569,0.5,7.266185522079468,16.565029617150625
25,250000,28.15237352704767,-66.78033,2.14871e-19,0.4640913,3.6641655,-2.6049638,1025.7747,116.698135,10.408104,102.12417,102.36698,103.5776,103.27592,69.590996,0.7,-105.82379,-388.11865,0.003575984,-8.803679,0.496579,0.4269102,0.623969,1.495608,4.4750795e-05,0.3,-1.591633,65.13519,65.24728,65.54428,65.82425,1.116479,0.43124998,2.065248727798462,17.167336372534432
26,260000,44.50871536410841,-69.16228,2.5160285e-19,-15.632685,3.5061603,-2.1970599,640.2947,72.7043,7.595619,106.30491,106.1521,104.68154,104.49364,255.37282,0.7,-106.17603,-332.52402,0.00024910376,-12.39572,0.925923,-0.4738301,1.7370343,0.67459893,1.6171834e-05,0.3,-1.6619058,67.81219,67.74457,67.80076,68.01066,2.0803628,0.51093745,3.333838701248169,17.789323874314626
27,270000,31.53379905130233,-69.32064,3.6796028e-19,4.883275,6.0976324,-2.274519,1452.0771,604.682,6.565528,102.58333,102.58389,101.95176,102.20384,78.812935,0.7,-103.20026,-327.9355,0.013811028,-10.7644825,1.0500188,1.6048893,0.17990756,1.5985504,4.450812e-05,0.3,-1.4483428,68.080215,68.114716,67.69589,67.99765,1.3711529,0.4546875,2.3756792545318604,18.394346769650777
28,280000,26.258059123764138,-66.716324,6.931783e-19,8.770076,4.447678,0.12189764,842.9215,114.490585,9.209633,103.53492,103.35552,102.63946,102.71212,51.228077,0.7,-104.23093,-329.21567,0.00010363228,-10.307358,-0.12918374,0.2738676,1.2406783,0.45215207,1.6298145e-08,0.3,-1.231624,64.90768,65.12475,64.65141,65.18594,1.0194898,0.440625,2.003730297088623,18.992900474866232
29,290000,87.42602024676938,-69.89201,1.3516953e-18,32.576706,2.916144,-5.165183,1005.1366,123.640175,8.194825,103.36513,103.56255,103.64489,103.22366,244.7093,0.7,-103.67968,-452.5838,0.0016759643,-12.43434,-5.559776,-5.3134093,-11.426076,-9.384975,0.00012082157,0.3,-1.7104671,68.24051,68.2202,68.34047,68.52408,1.9312824,0.475,6.467461585998535,19.66551181077957
30,300000,31.63800984674157,-67.92149,2.6841912e-18,3.9870663,4.8978586,-2.6587265,1886.5538,43.161476,7.157836,104.661575,104.66737,103.8981,103.509605,74.65224,0.7,-104.606705,-392.65338,0.003276885,-11.536067,0.18331617,-1.727534,-3.6868794,-3.4151573,8.952153e-06,0.3,-1.5328617,66.611755,66.41848,65.57397,65.99405,1.429522,0.5046875,2.3983051776885986,20.265617414315543
31,310000,82.81473042338669,-64.66981,5.355427e-18,27.180708,4.243947,16.097708,1119.5062,138.52803,6.172224,104.20737,104.12118,103.46686,104.41197,14.576455,0.7,-106.151566,-333.18637,0.00034946954,-9.329446,-3.2051969,-6.435099,0.33430418,-7.7882805,5.487952e-06,0.3,-1.4821556,63.07061,63.087555,63.30885,63.33171,1.072142,0.4234375,6.20711874961853,20.92946586608887
32,320000,30.488510043561025,-69.479225,1.17287395e-17,-13.907409,3.6740108,-1.2412357,845.719,148.71805,12.484892,102.78024,102.980675,102.802025,103.00825,306.1255,0.7,-102.9027,-243.92339,0.022618748,-9.480778,-0.35499126,-0.5550955,1.2004505,1.7171159,2.3469328e-08,0.3,-1.088932,68.18996,68.23722,68.613174,68.94885,2.5878572,0.40468746,2.2431604862213135,21.527960658073425
33,330000,28.713837121946767,-67.19085,3.1838268e-17,9.313208,2.7424002,2.4719195,786.7551,37.639603,12.177536,103.520294,103.73143,103.15402,103.1064,52.66606,0.7,-103.735435,-272.67606,0.0012847893,-12.535169,-11.672903,-10.131735,-11.9575205,-6.8261375,9.083915e-08,0.3,-1.4670057,65.52701,65.54762,65.57359,65.90323,1.325614,0.4375,2.2073428630828857,22.121779414017997
34,340000,29.907890551968798,-66.36668,1.00962813e-16,-4.9426723,5.3452296,-1.5428164,794.0241,165.83287,6.8025346,105.90418,105.08163,105.64099,104.58345,125.0024,0.7,-106.68684,-331.03125,0.00021599876,-15.8460045,-3.975051,-8.912058,-12.009368,-6.122112,3.258388e-05,0.3,-1.4705542,65.13843,64.91024,65.63675,65.39196,1.6131189,0.4390625,2.249293804168701,22.71915819644928
35,350000,26.07211197052664,-66.939644,3.168574e-16,-0.7899394,3.7710774,-1.9285376,1495.8079,90.56388,7.0843616,103.06241,103.31036,103.67992,103.4071,21.164896,0.7,-102.930244,-348.71802,0.008487864,-13.4570875,1.2311288,1.2668049,0.64266163,-0.49583116,6.165311e-05,0.3,-1.6706473,65.57583,65.492035,65.8813,65.81952,1.0010248,0.46874997,2.0504555702209473,23.31787491639455
36,360000,33.60155845841732,-67.44822,1.1602416e-15,18.862274,3.1587229,-3.2872128,1489.0973,64.42075,7.853177,104.39456,103.8964,104.640915,104.34918,55.14248,0.7,-104.73673,-236.38742,0.0014603077,-9.704355,3.9714081,3.958473,1.7178352,2.7378004,8.222822e-07,0.3,-1.3120894,65.991516,65.86107,65.953995,65.88945,0.89766324,0.44375,2.5065784454345703,23.92684334119161
37,370000,28.764000844554054,-68.65112,4.1073928e-15,-13.263742,3.8514612,8.290256,956.2761,144.6453,7.1502476,104.64528,105.18443,103.841644,104.777214,58.96333,0.7,-106.4742,-351.44376,0.0035899356,-10.56621,-6.3656325,-9.74388,0.010324419,-4.609526,7.410301e-05,0.3,-1.107435,67.49748,67.53673,67.283554,67.52728,1.2594285,0.434375,2.225794553756714,24.528963617483775
38,380000,27.717946510365298,-66.28966,1.5822645e-14,-5.394081,3.4932203,-4.1432858,877.9541,34.701164,8.18472,104.01039,103.523026,105.00156,104.70226,349.59933,0.7,-104.28796,-289.6954,0.0023215627,-11.19344,-2.2349043,-2.4232087,-0.8300931,-0.42520925,1.0024011e-05,0.3,-1.3392646,65.07309,65.08698,65.49931,65.017525,2.1681268,0.471875,2.1370186805725098,25.128289786974587
39,390000,29.119755665357395,-67.62798,6.367472e-14,-9.283327,5.46782,7.776366,450.16483,325.37808,22.866514,105.19403,105.19806,104.74024,105.23903,112.1466,0.7,-105.06485,-228.41083,0.0007652441,-13.860583,-5.6007714,-8.848387,-0.22703722,-6.487122,4.739984e-06,0.3,-1.3019748,66.204956,66.070786,66.20778,66.557816,1.8429813,0.4359375,2.2078542709350586,25.73100917339325
40,400000,29.61770959251912,-68.70511,2.4553767e-13,-2.6467447,4.949874,0.3012097,618.20795,332.84357,10.343029,102.661736,103.422386,103.385506,103.750175,64.97099,0.7,-103.84249,-248.42436,0.00066737697,-11.455545,-4.2919736,-4.4975185,-1.5533698,-2.6159558,1.3495563e-06,0.3,-1.1338332,66.98801,67.039825,67.13861,67.25944,1.3585324,0.4515625,2.2474355697631836,26.336295715967815
41,410000,47.35886400742434,-66.60732,9.92882e-13,-2.148692,3.4539452,-4.838371,567.0873,71.40538,6.682013,104.67515,104.67556,104.84253,105.052315,45.66732,0.7,-105.637794,-196.12881,0.00045761492,-10.915678,3.772331,2.8060894,1.5633136,3.6456478,8.715688e-06,0.3,-1.7340659,64.92811,65.04755,64.783745,65.13928,1.27194,0.4453125,3.5000486373901367,26.95975817044576
42,420000,31.615756703576064,-67.13824,4.096508e-12,-8.108433,3.802689,-2.6165617,619.66547,173.34964,18.09473,102.70996,102.31842,102.885666,102.836006,103.69169,0.7,-102.82251,-237.73746,0.0008531523,-14.7266655,1.1918168,-0.69003654,-0.23861903,-1.7284348,2.01715e-08,0.3,-1.3107965,65.77527,65.50068,65.90908,66.13031,1.7724668,0.4671875,2.4177029132843018,27.565912159283958
43,430000,31.252556401288743,-67.480835,1.5987548e-11,8.534714,4.7433767,-3.4698715,983.5231,89.55954,9.020027,103.90036,104.037,104.28091,103.75058,371.7275,0.7,-104.34585,-225.27998,0.0029703372,-9.088825,3.1361516,3.4244328,0.9659508,2.4652276,2.7822653e-06,0.3,-1.5616598,65.54587,65.52909,65.20172,65.97246,3.2199209,0.42343748,2.4206087589263916,28.170125671227773
44,440000,29.389749129629827,-67.14117,6.741005e-11,2.8035111,2.3692412,0.44944817,817.5416,56.14,6.955822,105.17,104.459885,104.39879,104.6003,211.95424,0.7,-104.17542,-205.381,0.0004391105,-12.2564,-0.8596553,-0.34045827,-0.5844069,-1.7614712,1.3886719e-06,0.3,-1.3239481,65.71709,65.814384,65.9093,65.914276,1.6226038,0.440625,2.2763679027557373,28.77308279275894
45,450000,32.03915466044368,-68.25523,2.772336e-10,1.1436251,6.4603386,-1.6704137,549.14795,781.5916,22.87265,103.421196,103.31321,102.99927,103.38146,19.518854,0.7,-103.37114,-212.12842,0.00022938021,-8.167574,2.451073,2.3670251,1.1728047,0.90083045,2.0500254e-05,0.3,-0.9903568,66.979225,66.9557,66.89419,66.87208,1.156805,0.4671875,2.3964226245880127,29.379701324303944
46,460000,31.997040133318528,-68.09642,1.1555674e-09,-1.3494813,3.6296394,-2.9220154,918.48114,90.37347,7.0874457,104.959984,104.47871,103.81423,103.79636,163.09732,0.7,-105.70298,-197.87184,0.00013055658,-13.566596,-0.51589143,-0.76361483,-3.0568419,-2.0406187,2.0255027e-05,0.3,-1.2856591,66.53198,66.421394,65.98814,66.219696,1.9503214,0.465625,2.4006004333496094,29.98760067621867
47,470000,60.780813914320255,-66.65768,5.2248814e-09,0.27211046,3.7963004,6.42251,425.439,67.68203,5.376762,102.72827,102.45403,102.00425,102.477165,356.8061,0.7,-102.71293,-126.48236,0.010126336,-11.363587,-2.4427474,-0.62567985,-2.0122907,-0.84357935,5.106151e-07,0.3,-1.9398917,64.96618,64.97564,64.35852,64.82132,3.2996354,0.475,4.600360155105591,30.63012478351593
48,480000,57.73837926068681,-66.30775,2.4468742e-08,8.54221,4.035165,3.7067964,569.54956,91.63706,7.4857273,102.12506,102.54042,102.98278,103.06632,289.68448,0.7,-102.91051,-137.55049,0.005576698,-11.994361,-4.1323056,-4.989279,-0.999475,-1.7706783,9.643554e-07,0.3,-1.2658327,64.26253,64.351974,64.737686,65.20722,2.9217095,0.465625,4.337042570114136,31.27096704641978
49,490000,52.63099289764146,-67.30745,1.12122954e-07,-2.3921318,2.9685152,1.0056772,520.6875,32.397434,8.7589,103.7309,103.16198,103.72742,103.37004,19.414776,0.7,-103.50654,-142.51193,0.003950304,-12.173318,1.0564485,-2.2569807,0.7387931,-4.38194,1.6458042e-06,0.3,-1.3695588,65.795784,65.70832,65.331566,65.451515,0.8499087,0.4953125,3.927262544631958,31.90471424659093
50,500000,32.73854696166531,-65.87966,5.542795e-07,9.044031,2.8569548,1.8758206,394.8606,84.356735,5.361668,103.998405,103.67788,104.10464,104.00428,175.02527,0.7,-104.19845,-105.87549,0.00062544463,-12.929392,-3.1990368,-4.924752,-0.8834905,-1.9068781,1.6429549e-05,0.3,-1.6737969,64.14097,64.2637,64.574005,64.72559,2.2115054,0.4296875,2.5236902236938477,32.51074704329173
51,510000,30.7851275034228,-67.90309,2.7628082e-06,5.962757,4.52796,-1.1767977,338.61496,271.9187,13.485989,104.63705,104.72055,104.6546,105.02774,62.87495,0.7,-106.319374,-121.580574,0.0036225535,-10.147711,-1.0787979,-0.67407185,1.1417763,0.24050567,4.895909e-06,0.3,-1.4217564,66.165726,66.15646,66.20172,66.39557,1.0236137,0.421875,2.371642589569092,33.115123240153
52,520000,35.77438878850044,-65.81294,1.5728794e-05,-2.415855,3.1247065,2.8311603,250.54802,95.710724,7.0629263,102.722404,102.32105,102.1049,102.56213,37.740944,0.7,-103.12503,-88.18625,0.0003397424,-10.782284,-1.5354676,-2.5246992,-5.3061714,1.167614,3.3561548e-06,0.3,-1.1292372,64.07947,63.982437,64.05058,64.3331,1.4471743,0.45,2.779848098754883,33.7282715678215
53,530000,32.423359662657205,-66.34857,8.4123356e-05,3.5841646,4.8333225,-5.2838326,369.83487,58.704357,7.217535,104.78381,104.47584,105.874596,105.25659,81.67383,0.7,-104.911736,-69.15877,0.016963119,-15.638899,0.5877817,2.634451,-0.85781807,2.7093093,3.3303415e-05,0.3,-1.4442394,64.855774,64.88545,64.31316,64.34436,1.4884281,0.51874995,2.509401559829712,34.3376545548439
54,540000,67.16237844942364,-64.12157,0.00043329364,5.812388,3.9063632,1.9710616,223.38069,92.8106,21.319937,104.32209,103.32662,105.75329,104.91565,95.8819,0.7,-105.89783,-72.597015,0.00040203222,-11.130959,-3.2823553,-4.122078,-4.83573,-3.4952588,1.427047e-05,0.3,-1.325855,61.883522,61.708004,62.31993,62.437263,2.409418,0.4640625,5.041884422302246,34.987446614106496
55,550000,80.5338289068788,-67.29186,0.0017808184,-0.8457332,2.5173578,3.7821405,152.03687,34.86114,9.043581,104.59864,104.530266,104.48918,104.75963,17.445505,0.7,-105.75417,-46.9718,0.0036710054,-11.58514,-1.5011896,-2.7430027,0.85931796,-4.3998475,1.8331223e-06,0.3,-1.2806036,65.94188,66.06241,65.87979,65.97403,0.6998651,0.428125,5.839693307876587,35.65105719168981
56,560000,74.26895339895069,-67.15083,0.004059135,0.40695184,3.7914686,-1.3105125,138.83195,82.1364,11.4897585,102.52908,103.58508,104.08802,103.84222,86.19634,0.7,-103.42225,-49.043583,0.007871828,-10.050475,-0.5267221,0.11431587,-0.6171128,-0.15921283,1.1668701e-06,0.3,-1.2513534,65.75948,65.90271,66.011154,65.93467,1.2968876,0.4671875,5.459368467330933,36.30920249223709
57,570000,91.73260822552227,-68.22597,0.004722395,-0.73691106,5.1856565,1.8112317,129.86902,238.36047,6.9654093,105.06666,105.017784,103.5499,103.746506,119.48573,0.7,-105.28953,-38.868748,0.0029923758,-16.366756,-1.7753339,-1.5832379,-2.241974,-1.599199,0.00013157885,0.3,-1.6162734,66.43401,66.42311,66.83964,67.30233,1.6194564,0.415625,6.801300525665283,36.98948144117991
58,580000,91.84654355974774,-68.94009,0.00447588,-0.8596218,2.9549732,-1.0427692,147.8871,74.11142,7.057848,103.9012,103.721924,104.01144,103.51235,168.5967,0.7,-104.60182,-45.32288,0.0030209436,-9.172906,-1.6612074,-1.5270734,-2.4303184,-1.7564434,8.679199e-08,0.3,-1.8497468,67.32688,67.18776,66.90346,66.992386,2.1403034,0.5078125,6.905980587005615,37.669893554846446
59,590000,91.93111302680644,-66.43495,0.0035926602,0.5375309,4.037198,-6.1305084,154.73021,121.22342,6.2016497,105.16066,104.892685,105.16868,104.03939,262.02594,0.7,-105.470985,-59.86148,0.00785384,-15.454393,-4.091934,-1.9082077,0.5688648,-4.5762444,3.9731794e-06,0.3,-1.663249,64.66627,64.690544,64.37836,64.80891,2.215509,0.47031248,6.649810552597046,38.344851871331535
60,600000,96.90129967006747,-66.61798,0.0034543881,-1.0069582,3.700942,-1.906821,164.59274,73.28076,6.9648104,104.77781,104.87892,103.9303,104.317,169.52805,0.7,-105.449715,-52.88844,0.0014202581,-11.618296,2.0149765,1.9143516,0.9849499,1.716284,2.5874936e-06,0.3,-1.5857779,64.921326,64.869484,64.52009,64.77977,1.7457646,0.465625,7.436131477355957,39.03277759949366
61,610000,92.27434069381275,-68.63252,0.0038593458,0.2738062,2.768742,11.878233,120.857315,36.46228,6.864918,103.37076,103.19436,104.59933,104.16155,70.30003,0.7,-103.994484,-42.278053,0.00036015207,-13.465646,0.020359874,-0.1553052,-0.65398556,-0.63279414,8.566713e-09,0.3,-1.3094175,67.66703,67.54079,67.99867,67.8471,1.6570687,0.434375,7.179059982299805,39.71611298720042
62,620000,93.76080123004671,-67.422714,0.0041835885,-2.3832073,4.0697613,-4.2647943,135.25372,63.448776,8.896399,105.121956,105.12693,105.36484,105.4443,214.1209,0.7,-105.29239,-39.54883,0.00014276628,-10.501595,4.6797156,4.550982,6.138518,6.104143,3.5708654e-05,0.3,-1.2721279,65.98431,66.0804,66.564995,66.710396,2.3572211,0.4140625,6.850090980529785,40.39284400939941
63,630000,93.64180720650481,-66.41443,0.0039908756,-0.30166602,3.3901656,-4.927894,199.6505,203.48926,18.121891,104.93222,105.634186,105.63108,104.99161,45.46204,0.7,-105.99311,-46.012875,0.0014126622,-10.352422,-1.7070549,-3.2443748,0.64659,-3.4495356,6.915245e-07,0.3,-1.4085345,64.923096,64.91909,64.86641,65.08424,1.2156594,0.47812498,6.992939710617065,41.07359538475672
64,640000,93.83791351088412,-66.69519,0.004014826,-0.38769573,2.5749295,-1.1697218,103.811874,55.24182,19.023289,103.860825,103.59087,103.227936,103.04362,31.086231,0.7,-104.07,-43.0456,0.0014330214,-9.925875,1.5234749,-0.5643283,-0.6375624,-6.2439938,3.1944364e-06,0.3,-1.4440769,65.14072,65.08559,65.0819,65.18227,1.1044232,0.453125,7.002301216125488,41.75339891513189
65,650000,92.7343340383574,-68.949196,0.0036353488,0.14953989,5.59243,-2.208138,183.04631,70.35988,9.122995,104.540665,104.63346,103.97355,104.00618,24.113583,0.7,-105.45742,-37.365444,0.006458804,-12.875116,-0.25205183,0.36319244,-1.5239513,-1.5225346,1.1064392e-05,0.3,-1.4541609,67.168884,67.20138,66.66996,66.91222,1.1680934,0.48437497,7.1117167472839355,42.4329039533933
66,660000,84.89015908752474,-67.72717,0.0034970865,-0.8478915,2.7822733,-0.4317394,162.16057,44.29486,7.595792,105.210396,105.5536,105.00691,104.78791,214.13048,0.7,-105.09372,-47.21683,0.002771106,-9.588474,1.8442836,1.3191898,0.58043134,0.8938974,3.6062193e-06,0.3,-1.3349692,66.118126,66.03039,66.20863,66.45931,1.9405308,0.4125,6.2340662479400635,43.10020147164663
67,670000,97.23007870497725,-66.79901,0.003517659,0.57964605,2.9752588,4.0851665,176.75914,46.33704,6.871396,105.83252,105.77889,105.63729,105.57236,10.0673065,0.7,-106.464096,-48.81959,0.0058656074,-9.951576,-5.9219356,-3.2097576,-5.5904737,-6.369384,1.6298145e-06,0.3,-1.1128867,65.31591,65.305435,65.70421,65.53241,0.8642181,0.48125,7.255645990371704,43.7869792898496
68,680000,95.99665577856916,-69.04965,0.0036732869,-3.7165565,3.4482064,-3.0470147,156.56412,33.3402,7.0325675,106.488266,106.56316,105.79862,104.92739,46.83501,0.7,-108.85353,-61.65565,0.004138588,-10.634897,-7.497941,-7.4795094,-5.5987587,-2.466683,2.3136847e-06,0.3,-0.97567165,67.905716,67.72722,67.80045,68.04518,0.85068995,0.446875,7.339050531387329,44.47388978004456
69,690000,94.02106961291648,-68.38617,0.0034312722,-1.7416966,2.7975178,-2.222376,116.073875,78.30249,7.410997,106.031166,105.76597,105.934074,106.318474,110.51908,0.7,-107.1445,-44.295753,4.744e-05,-10.84931,2.2783804,2.32343,2.3726053,3.1784837,3.1553208e-07,0.3,-1.1520822,67.0006,66.9708,66.85673,66.8301,1.5310338,0.47656247,7.4981465339660645,45.16256591081619
70,700000,94.91323038444074,-66.535934,0.0032689073,2.4312067,3.2887576,2.8584206,177.5579,98.36972,6.4087887,106.837296,108.07941,108.28384,107.10752,22.559591,0.7,-108.125565,-41.55635,0.0013456605,-12.084034,-4.1093097,-5.212972,-2.6425397,-11.801551,4.014936e-06,0.3,-1.6793234,65.01408,65.050415,64.93141,64.8735,1.0872169,0.5078125,7.4260711669921875,45.851932847499846
71,710000,95.62542652690482,-66.01015,0.0035524266,-0.8533702,4.483055,4.1458545,187.53426,138.84453,9.402845,105.69903,105.65726,105.301796,105.411224,16.80374,0.7,-105.5291,-50.32916,0.013151395,-8.79155,-2.4017885,-0.99051553,-0.663268,0.28712904,9.356719e-06,0.3,-1.2682718,64.717224,64.65968,64.28825,64.346375,0.7357895,0.43906248,7.644358396530151,46.5441925684611
72,720000,92.07091550985032,-64.67772,0.0038140719,1.0712495,3.6517484,0.6033392,81.57117,77.72832,7.5606937,104.95932,104.89782,105.61677,105.04977,11.083581,0.7,-106.19069,-55.472057,0.0011989309,-12.9548235,-1.5954082,-3.5653787,0.45986348,-2.678389,1.0299683e-05,0.3,-1.4888651,63.464607,63.43451,63.16491,63.15261,0.7087177,0.48593748,7.056678056716919,47.226618806521095
73,730000,93.65545831326742,-64.893845,0.0036839624,-1.7955835,5.1235485,9.107382,158.84862,176.03671,7.5845823,105.247986,105.304184,104.66488,105.00586,154.61389,0.7,-105.92632,-52.47735,0.009653082,-11.035707,-4.550143,-7.4606266,-2.1093032,-2.7327595,3.8249418e-05,0.3,-0.96584666,63.404106,63.371964,63.51828,63.59182,2.2315583,0.46249998,7.381980895996094,47.912911689281465
74,740000,88.67315113399641,-65.56503,0.003318625,0.047951818,3.7851489,-4.6935806,237.72186,38.617126,8.971256,104.039024,104.08584,104.27229,103.63374,120.26484,0.7,-105.548134,-45.047073,0.007264184,-11.324654,-1.2588675,-1.161117,-5.062797,-4.4687834,9.74412e-06,0.3,-1.3226794,63.976196,64.135056,63.610287,63.493248,1.7363771,0.47031248,7.099899530410767,48.59558328390121
75,750000,95.29975648180442,-67.78885,0.003284994,-2.181705,3.4335752,-3.1074417,167.73637,49.67522,9.224375,105.05242,105.25728,106.47799,105.418526,47.3302,0.7,-106.09581,-44.343426,0.0012628651,-9.059155,2.4288373,3.0812075,1.5519476,2.2024517,1.3278052e-05,0.3,-1.0231355,66.43573,66.48016,66.696236,66.95099,1.3223307,0.44375,7.176458835601807,49.278780055046084
76,760000,94.73875504105176,-66.26073,0.0029880546,-0.5308387,3.442575,1.2461286,135.68651,64.79037,6.957342,106.44092,106.6013,105.26803,104.80338,93.82775,0.7,-107.13127,-46.14948,0.005022972,-10.44085,-1.0602729,-0.32777125,0.5476211,-1.2342088,1.7127768e-05,0.3,-1.3251488,64.70514,64.67839,64.28447,64.66057,1.6333659,0.47499996,7.518463850021362,49.96708335081736
77,770000,87.09763120146732,-67.73112,0.0029096524,2.1906443,1.9208636,-0.91446847,168.21135,29.65031,9.907565,104.19639,104.253,104.68404,104.46199,101.89951,0.7,-108.51003,-47.646393,0.004758699,-10.549755,-1.3202217,-1.3104682,-2.5270648,-3.1558523,2.3391797e-06,0.3,-1.4458811,66.05435,65.921844,65.9978,66.143364,1.2227222,0.478125,7.094941139221191,50.64686068693797
78,780000,95.25430604006004,-66.93765,0.0033098115,-2.2245996,3.4931362,1.428141,101.452,56.42067,13.635529,105.895454,105.419,104.94387,105.74275,348.68628,0.7,-105.8112,-52.599167,0.0043589748,-12.981886,-3.7231376,-4.471969,-5.7299,-5.7770586,3.7655234e-06,0.3,-1.3660568,65.287476,65.24205,64.78648,65.593796,2.3119736,0.42031246,7.542310953140259,51.33245833317439
79,790000,91.15830212293206,-69.09947,0.0031702938,1.7852877,4.7371454,-1.6507046,219.27477,124.82711,8.344143,105.61047,106.46393,107.854095,106.80212,54.014793,0.7,-105.974884,-47.1436,0.0025897622,-10.335778,0.44269073,0.55477524,-1.6303362,-0.76430744,2.0937732e-05,0.3,-1.3178222,67.40837,67.389046,67.3546,67.62932,1.0976357,0.4390625,7.068643093109131,52.013716757297516
80,800000,93.3193145443227,-66.06375,0.0028046696,2.3648517,4.5887146,-2.0025637,187.77798,99.31169,15.050954,103.06699,103.04163,104.55779,104.81762,55.212074,0.7,-103.36978,-55.349895,0.0050563444,-11.987432,-3.4774482,-1.8123972,-0.075421065,6.2271714,3.486275e-05,0.3,-1.7965865,64.40466,64.32713,65.26371,65.52437,1.1872075,0.38125,7.4178571701049805,52.70334975322088
81,810000,97.12672412450858,-67.49774,0.0027819637,-2.4926567,3.5110266,-4.625389,232.96283,81.48146,10.747899,103.9287,104.49939,104.25199,105.09708,84.485306,0.7,-104.81315,-48.710346,0.0034575427,-13.725493,4.6066775,5.038907,1.2245867,4.347558,7.745508e-06,0.3,-1.2325938,66.17883,66.28665,65.94168,66.46212,1.3071927,0.43906248,7.269185304641724,53.389742934703825
82,820000,95.59731752588525,-66.37918,0.0030794442,-1.269047,3.545711,3.5738764,137.2582,55.497078,7.0153,103.13185,103.29326,104.81907,104.56657,28.695396,0.7,-103.8613,-50.790974,0.0030226652,-12.368363,-3.3859193,-1.2690547,-0.88275343,-4.907338,2.2221797e-05,0.3,-1.1918474,65.20909,65.23835,65.71913,65.65907,1.077703,0.4734375,7.186699151992798,54.072612297534945
83,830000,95.54798637433156,-68.14282,0.0027366232,0.025177091,4.648348,-0.17833719,214.22134,183.49637,16.30716,105.61161,105.419395,105.45051,105.01375,30.260214,0.7,-106.74692,-57.51152,0.00035519298,-11.2425585,0.45984608,-0.33085275,-2.6819386,-1.957122,2.377684e-06,0.3,-1.3287838,66.24828,66.27502,66.31743,66.32388,1.293477,0.4671875,7.3694679737091064,54.759033143520355
84,840000,91.89773691403119,-68.45317,0.0023368178,-0.9743704,3.7447238,-3.1960366,198.22281,119.429634,8.429749,103.971695,104.13308,104.73314,104.13795,304.37448,0.7,-105.01352,-56.71416,0.009340881,-10.59006,2.2771654,2.5284805,0.9191795,0.8890126,3.7550925e-07,0.3,-1.461148,66.99625,66.91509,67.063324,67.051315,2.4353027,0.465625,7.132180213928223,55.44261174201965
85,850000,95.30026002919779,-66.20114,0.002088368,-1.7234211,4.037737,-1.1215024,98.02379,219.0822,7.0549054,104.75023,105.16146,105.02033,105.787254,320.7211,0.7,-106.39119,-59.145252,0.005044109,-12.597143,-0.78452295,-2.1033833,-0.25672776,-0.32424003,7.338531e-09,0.3,-1.1856242,64.49009,64.4731,64.6709,65.47972,3.9559262,0.396875,7.158586502075195,56.1245537519455
86,860000,93.64110569437409,-66.59265,0.0016628118,-1.2466395,3.9766088,-0.9711666,117.42591,72.79732,7.696299,104.95206,104.907326,105.86962,105.684784,38.653675,0.7,-106.31197,-45.808037,0.00028646848,-10.765867,0.33827055,1.1575415,0.36376986,-0.55243295,4.0173295e-06,0.3,-1.5073177,64.86218,64.99116,65.28052,65.219086,1.1419501,0.4421875,6.972138166427612,56.80450596412023
87,870000,94.98270323117542,-67.62453,0.0014810603,-2.8866076,3.373189,-3.3100643,89.61802,60.990997,8.382706,105.04664,104.7215,105.75373,105.44772,64.25432,0.7,-105.22483,-55.75436,0.0065039545,-19.59334,1.8879745,1.4122294,0.87016374,1.0500674,1.7560935e-05,0.3,-1.1301949,65.864365,65.75665,66.20163,66.50314,1.4052073,0.4125,7.346650838851929,57.49295047918955
88,880000,97.00994583457317,-65.92219,0.001277085,1.4621199,3.6637971,0.42673063,237.71631,100.295044,16.269552,104.5186,105.03614,104.37587,104.49987,34.551323,0.7,-104.12785,-47.091484,0.00662757,-10.963573,-1.4146677,-2.4248543,-3.2011313,-1.0864419,2.6390874e-06,0.3,-1.3521632,64.158104,64.13281,63.98159,64.09267,1.2354561,0.46875,7.303839683532715,58.18223075469335
89,890000,88.88731424546312,-66.06764,0.0012728518,-0.8847825,4.656583,-0.59283334,220.13266,107.17461,6.6338954,102.57388,102.68856,104.05424,103.9381,51.875412,0.7,-102.93894,-54.075054,0.0011675183,-11.469581,-2.7272768,-2.7014668,4.0154405,1.50804,2.7969247e-06,0.3,-1.7042654,64.68628,64.654495,65.18919,65.21594,1.253951,0.434375,6.71097207069397,58.85999968449275
90,900000,92.3283047510378,-66.17107,0.0013213248,5.3379974,3.5272255,-1.7752434,222.84216,61.60211,6.5496387,103.3913,103.472374,102.76499,102.53678,142.88176,0.7,-104.16589,-78.694595,0.0021881235,-10.530386,2.6480527,2.2160497,0.4409662,0.63333744,0.00023254687,0.3,-1.573492,64.88389,64.647766,64.36939,64.22385,1.8084393,0.459375,7.140829086303711,59.5470814704895
91,910000,93.46587739345304,-67.85687,0.0012599817,1.1495491,3.7001042,-4.537052,233.22597,201.71407,21.485899,106.39303,105.62667,104.78414,104.90735,166.08705,0.7,-105.489716,-47.477985,0.003630577,-14.355513,3.2788036,1.9048932,-0.20228475,0.9887243,7.4005397e-06,0.3,-1.403198,66.0719,66.05617,65.86798,66.14378,1.7702383,0.44062498,7.087836265563965,60.23408227761586
92,920000,97.03747173455136,-67.413666,0.001235,4.41369,3.3304853,-0.29138458,262.78043,87.87166,23.158688,104.70435,104.40815,104.59151,104.39387,11.600189,0.7,-105.52229,-56.858597,0.0016239915,-11.306876,-1.4490056,-2.3004699,-5.897045,-6.6158004,4.056911e-06,0.3,-1.2501531,66.09284,66.03783,65.94417,65.65553,1.0651051,0.528125,7.380120038986206,60.924747081597644
93,930000,93.15064199441623,-67.36911,0.0011839034,1.72532,4.8326216,0.048035502,184.82706,201.39584,6.1382446,107.1321,108.02413,107.85511,107.8225,187.48805,0.7,-108.080475,-53.055225,0.0025477493,-12.526224,-5.8386784,-8.454897,0.565883,-9.242541,2.2100721e-05,0.3,-1.1472878,65.761116,65.854195,66.05458,66.24067,2.8300824,0.4484375,7.233661651611328,61.61287383238474
94,940000,89.59237649441661,-66.32373,0.0011131102,0.86775196,4.434283,-1.5880806,160.49722,271.7337,6.222112,104.02688,103.98005,105.7933,103.76508,73.49928,0.7,-104.5022,-50.65701,0.005505761,-12.84255,-2.3368633,-2.2500515,-0.6119808,-0.6983969,7.4689046e-06,0.3,-1.4874322,64.604256,64.568016,64.92139,65.09282,1.4301729,0.4390625,6.747836589813232,62.29068975845973
95,950000,95.66438547824661,-65.984505,0.0010096304,1.748544,3.8210125,-0.43116057,276.00922,129.62282,11.516449,104.54381,104.29871,104.00763,104.34365,26.351166,0.7,-105.58525,-66.408485,0.0063685,-10.364629,-3.349778,-4.2978315,-4.6964583,-5.9430704,8.790351e-06,0.3,-0.98177737,64.8456,64.85408,64.812874,64.7392,1.1310536,0.4484375,7.275225400924683,62.97688525517781
96,955000,93.6142808617219,-66.67877,0.0009255123,1.6008477,3.0655184,0.28360367,163.18936,92.352585,11.781022,102.684135,104.17489,104.5737,104.25616,74.718605,0.7,-103.998116,-49.239697,0.0016891323,-12.186571,-5.7402964,-2.2775834,-0.6819896,-2.2523563,3.2212747e-06,0.3,-1.5040683,64.799515,64.856094,65.05572,65.14412,1.5721083,0.4578125,7.125513553619385,63.37687019109726
97,960000,96.35779432049648,-67.7735,0.00092370063,1.4222136,3.3069286,-0.43722808,361.1406,49.614574,7.4325347,103.09636,103.36593,103.63813,104.10544,13.518171,0.7,-104.4033,-73.56073,0.002861788,-9.228125,1.0080948,-0.3934703,0.040501863,0.012007654,2.542918e-07,0.3,-1.5857918,66.418396,66.42243,66.58593,66.82114,0.763306,0.4421875,7.24167013168335,63.77889187733332
98,965000,89.46025790618121,-68.28582,0.00093588355,1.3283548,5.7065983,2.8691065,223.73698,216.56245,10.741575,105.72709,105.2501,106.09933,105.89888,390.08575,0.7,-107.64895,-66.689255,0.0027674395,-11.918455,-3.2350771,-8.337838,-2.6601286,-2.6008484,3.9233596e-06,0.3,-1.0926449,66.663605,66.57803,66.59512,66.68977,2.4817615,0.45624998,6.7184898853302,64.17155095338822
99,970000,90.07930639568586,-67.22818,0.0009753916,-2.5892887,2.8503137,1.0105265,188.96399,23.368412,9.822561,105.71368,105.57959,106.10521,104.98758,137.74292,0.7,-106.2957,-51.84995,0.0008547582,-10.083741,0.29634243,-0.7312253,1.2189146,0.9360127,3.939931e-08,0.3,-1.4109738,65.44484,65.482254,65.669876,65.81468,1.9406315,0.45156246,6.8036909103393555,64.56444025039673
100,975000,89.58976811344486,-68.81376,0.0010031194,-1.4890754,3.6532443,-0.87459123,182.46663,104.784386,8.894331,103.77837,103.38015,103.46599,103.19924,28.094816,0.7,-104.441986,-70.42644,0.0028205272,-11.110063,0.26965642,0.4666161,-1.4336894,1.7280014,2.2736278e-05,0.3,-1.3050667,67.54402,67.42649,67.47308,67.66732,0.87167335,0.42499998,6.770236492156982,64.95982426802317
101,980000,95.24688158648205,-66.94437,0.0009683785,-3.4095848,3.8112512,0.44387248,156.2444,188.35052,6.569649,106.65646,106.3642,106.21669,105.69461,79.351135,0.7,-107.30169,-60.464825,0.009735308,-14.73787,-4.261447,-8.495171,0.63135695,-9.547872,2.1129383e-09,0.3,-1.1347135,65.47707,65.553566,65.65576,65.79729,1.4738017,0.4484375,7.199610233306885,65.36087599198024
102,985000,95.52926517554499,-65.70755,0.0008929063,-0.26294297,2.9751327,-0.7650345,152.52986,73.98692,7.1351776,106.30156,105.86305,106.44211,108.235374,231.04985,0.7,-106.090866,-62.99242,0.0018068736,-14.107136,-1.9171839,-1.7465234,-3.1077821,-3.265634,6.897822e-06,0.3,-1.5020813,64.064064,64.09911,64.16738,64.735,2.2578752,0.39687496,7.216376066207886,65.76530211766561
103,990000,90.03469951321583,-68.38372,0.00085047306,0.75001884,4.693715,-1.2179995,227.43991,73.02328,6.9752793,103.54305,103.12569,104.809364,104.25352,67.43846,0.7,-103.828926,-59.245518,0.0006007212,-15.0314455,1.1640153,-4.095538,0.20457101,1.8544116,1.6461534e-06,0.3,-1.314393,67.10319,66.89699,67.82385,68.05014,1.3040285,0.42343748,6.656301021575928,66.15895477135976
104,995000,96.74260996761836,-64.84645,0.00083622953,0.48847085,2.7840838,-1.0020272,247.27557,54.20141,7.860666,104.79224,105.124374,105.31141,105.06555,447.22617,0.7,-105.16339,-59.900585,0.0036356796,-12.686453,0.044653296,-0.4769398,0.31555843,-1.7600883,0.00019221967,0.3,-1.415723,63.44314,63.565056,63.438572,63.422997,2.9379773,0.45,7.276013135910034,66.5647839307785
105,1000000,95.13779257399932,-65.01221,0.0007976124,2.7916923,3.9204144,-2.6228738,252.26959,69.14548,8.954271,104.06656,104.30419,103.8819,103.81415,311.4543,0.7,-104.65447,-59.51101,0.0062761754,-13.766605,-1.0815333,-0.056578636,0.049527943,-0.45314878,2.2713915e-05,0.3,-1.2521155,62.700058,62.83333,63.16386,63.34939,2.8432817,0.4609375,7.090123414993286,66.96705574591955
