Xixo99/comfo/baselines/comfo7_perterbation_both_actor_and_critic/20230224_alphaQ0.0001/hopper-medium-v2/COMFO7_s0_20230224_004132_hopper-medium-v2_68.90.csv
,step,reward,actor_loss,alpha,alpha_loss,avg_conservative_loss,avg_smooth_loss,conservative_weight,critic_loss,max_actor_loss,max_alpha_loss,max_critic_loss,max_mle_prob,max_q1,max_q2,max_target_q,max_v,max_value_loss,max_weight,min_actor_loss,min_alpha_loss,min_critic_loss,min_mle_prob,min_q1,min_q2,min_target_q,min_v,min_value_loss,min_weight,mle_prob,q1,q2,target_q,v,value_loss,weight,eval_time,time
0,0,4.8183001675023185,,,,,,,,,,,,,,,,,,,,,,,,,,,,,,,,,,,,
1,10000,49.648397030935506,-41.8358,0.066843055,-4.620102,9.7583514e-05,1.9077742,1.0,0.89830935,0.0037144423,10.940122,134.15549,7.652834,58.784294,58.64733,59.806393,56.958874,0.87503046,0.7,-60.66855,-18.761333,0.0002213934,-2.8123002,0.21593872,0.45276707,0.5235466,0.9597909,1.6298145e-10,0.3,1.4438472,40.503323,40.507393,40.65252,39.945076,0.03255883,0.403125,4.378476142883301,2.888024083773295
2,20000,62.350217978188894,-66.66847,0.003739454,-7.7897906,0.0011385547,3.324976,1.0,1.421313,0.39761573,26.870718,173.96475,7.9889402,82.9978,83.25169,82.87103,82.3674,4.2920737,0.7,-88.968,-44.243114,0.00020043377,-6.8524036,-0.22193126,-0.09847811,0.30046785,0.0856106,8.074567e-06,0.3,1.5406694,64.91112,64.93966,64.92206,64.577835,0.13546392,0.4265625,5.368219375610352,3.8831514636675517
3,30000,53.16418513295006,-78.48991,0.00019966313,-12.725952,-0.0041465177,4.813114,1.0,0.911103,2.8964934,42.766945,35.549004,8.435183,96.84277,97.06788,97.830215,97.79568,2.9267416,0.7,-104.723434,-79.39592,0.0021404861,-6.739788,-0.5440497,-0.86266536,-0.75760174,-0.60523653,8.840289e-07,0.3,1.7385684,76.68146,76.67508,76.784164,76.72008,0.12029368,0.41875,4.563183307647705,4.86898744503657
4,40000,56.67553277116348,-87.07739,1.0568255e-05,-9.686243,-0.0010836731,5.735066,1.0,1.6416894,1.608695,66.37273,58.10285,9.196465,105.94842,105.78365,105.70261,105.660385,5.2311544,0.7,-111.19328,-101.61971,0.0012149184,-6.844839,-0.833568,-1.0092018,-0.7773876,-0.18630165,1.6430276e-05,0.3,2.3445818,84.709274,84.67745,84.54713,84.61215,0.12150124,0.465625,4.623123407363892,5.8548852125803625
5,50000,46.209338782651834,-90.521835,5.5429854e-07,-17.950615,-0.005308633,6.722603,1.0,0.7119866,-2.5715284,97.93742,8.708336,9.273022,110.07876,110.18242,110.06799,110.18184,2.386391,0.7,-116.85449,-137.19572,0.0018114983,-3.8377295,3.9476674,3.6129386,3.0225186,3.4112933,1.1827721e-05,0.3,1.814565,88.63139,88.708176,88.64595,88.74086,0.1208901,0.3890625,3.877249240875244,6.826056285699209
6,60000,42.21803009386538,-89.93512,2.8717619e-08,-17.530212,-0.009924351,7.1795487,1.0,0.8540768,-5.876937,161.46521,33.106506,8.42329,111.58371,111.71863,111.197945,110.69493,2.657596,0.7,-118.51106,-121.76485,0.0012511541,-3.2793407,3.2203078,5.009552,1.5588741,2.9723966,3.4486874e-07,0.3,1.8722179,87.817825,87.8481,87.759315,87.74353,0.123643294,0.5234375,3.566742181777954,7.7922028263409935
7,70000,46.332175601222836,-90.88329,1.5122119e-09,-18.55003,0.0033552602,7.3543677,1.0,0.92586565,3.4787138,146.83014,24.78117,9.42822,111.29148,111.21122,110.65988,110.702805,4.6311417,0.7,-116.345314,-224.68472,0.0002983805,-6.3834553,-1.5877655,-1.8757461,1.3497888,-1.9223771,1.6298145e-06,0.3,1.9470463,88.84623,88.90491,88.892166,88.81362,0.1404478,0.5046875,3.7178897857666016,8.761088713010151
8,80000,44.065962196745026,-89.60916,7.8875594e-11,-26.339558,-0.0059533813,7.6742373,1.0,2.0956588,1.2236893,281.7955,25.173103,13.094863,111.6185,111.52987,111.222,113.08748,5.7873073,0.7,-118.786476,-201.94566,0.008697512,-4.701956,1.3376838,1.4429917,1.4478207,3.6020112,1.6907976e-05,0.3,1.6235421,87.79192,87.86009,88.4636,88.5446,0.22492248,0.34687498,3.6032869815826416,9.727938493092855
9,90000,49.160571530761906,-91.39447,4.1257956e-12,-30.001652,-0.015885798,7.839107,1.0,1.0408531,-1.1336018,200.23969,22.33938,9.835392,112.18421,112.30102,113.020905,111.76589,3.5265589,0.7,-121.998,-188.35776,1.4319667e-06,-4.4989386,1.1805431,1.3547617,1.4459338,1.3937083,1.1637283e-06,0.3,1.7342896,89.60332,89.5424,89.3739,89.616104,0.15358442,0.35468748,4.04809308052063,10.705449565251667
10,100000,48.75146733092136,-91.274475,2.1519567e-13,-30.268513,-0.01764553,7.426844,1.0,0.990365,-5.645569,155.67108,16.027166,8.247383,111.916916,112.23796,111.9329,112.00322,4.1947517,0.7,-119.306274,-213.3021,0.005060525,-6.5007153,6.2817616,6.533993,5.690805,6.2322936,1.08982206e-07,0.3,1.7735921,89.44,89.382515,88.98717,89.2358,0.14684808,0.4671875,4.140986680984497,11.68383232752482
11,110000,49.33371191924783,-92.103676,1.1301445e-14,-31.984924,-0.017822647,7.812417,1.0,0.9293243,-0.31914413,299.35803,54.75182,9.232021,111.652626,111.710014,111.510864,111.258995,3.1915681,0.7,-115.266884,-233.93689,0.00057058904,-4.1875772,2.6181817,2.5566144,2.3813055,2.1815856,4.8682095e-06,0.3,1.8588309,90.02548,90.09422,89.852516,89.88098,0.12470919,0.54531246,3.984153985977173,12.656368764241536
12,120000,53.678942834949915,-92.82263,5.924578e-16,-45.312714,-0.003419657,7.6179543,1.0,0.50588244,-3.9764776,223.53574,8.788364,10.022773,113.24591,113.47466,113.14541,113.825874,8.689704,0.7,-122.19199,-361.7635,0.0001572895,-6.44261,5.445892,5.5768948,5.052395,5.3679724,5.0466045e-09,0.3,1.8630619,90.93866,91.023315,91.06708,91.12532,0.15020421,0.37031248,4.281780481338501,13.638204828898113
13,130000,49.656224227942396,-88.009186,3.1009516e-17,-31.512306,-0.0114208255,7.6067963,1.0,1.0311322,-1.3045468,304.19675,16.813091,7.7425156,111.348915,110.91553,111.079834,111.10399,2.8816783,0.7,-115.201836,-271.17334,0.0011432881,-4.63237,4.8367558,3.8740706,3.987369,3.6722572,8.250936e-08,0.3,1.7595431,86.23976,86.08909,85.81437,85.86956,0.119880386,0.47500002,4.122898101806641,14.613390731811524
14,140000,49.75347146105931,-89.10132,1.6260891e-18,-32.119484,-0.033923626,8.301627,1.0,0.54324937,0.23845601,342.15045,12.464439,12.528175,112.76991,112.625755,112.8986,112.77555,3.2931163,0.7,-119.958664,-264.34097,0.0010448087,-4.729225,1.5080252,1.5360892,1.3910714,1.5068245,9.167707e-09,0.3,2.0063188,87.14058,87.05178,87.034355,87.03266,0.11126296,0.47812504,4.085409879684448,15.58823311328888
15,150000,48.53596129669065,-91.80126,8.55249e-20,-38.010185,-0.021858817,7.4977603,1.0,0.74420524,-1.5411811,268.579,45.74183,8.643966,112.08105,111.95617,111.625565,111.3213,2.0100982,0.7,-120.5059,-263.11542,0.0019282617,-5.3649707,1.1726451,0.65549064,0.28698313,0.46912813,2.6077032e-09,0.3,2.0525756,89.77162,89.718765,89.637,89.72344,0.08026188,0.440625,4.066723585128784,16.561422316233315
16,160000,50.73706600610577,-89.10887,4.4635732e-21,-47.074207,-0.008350504,8.457454,1.0,0.6908195,-7.128126,318.60922,22.386017,8.615029,111.47779,111.34249,111.974625,111.740974,2.3521879,0.7,-116.57336,-437.39938,0.00069192686,-6.7313085,3.941914,4.752766,1.0264008,5.03415,4.559773e-06,0.3,2.0031652,87.159225,87.1762,86.927155,87.09334,0.09131185,0.4515625,4.001836061477661,17.53599531253179
17,170000,67.72730477503283,-88.6938,2.3472247e-22,-55.368725,-0.02531138,8.068631,1.0,0.47327593,1.4875143,519.43713,13.349606,9.404697,111.373146,111.37623,111.971054,112.02113,8.186859,0.7,-117.816956,-536.81506,0.0003498114,-4.7470407,-0.45050687,-0.71013814,1.1703721,-0.18113305,9.1677066e-07,0.3,1.9167619,86.846466,86.791245,86.7914,87.123726,0.16641982,0.3640625,5.679524898529053,18.541234823067985
18,180000,57.632661937574916,-88.0981,1.2302037e-23,-50.011124,-0.031940844,8.525012,1.0,1.135513,-0.63944054,297.3957,30.426891,11.6219225,112.09409,112.25818,111.12177,112.727,2.8311667,0.7,-118.797005,-336.15298,0.0020926856,-7.3354855,3.4984167,3.4308472,3.0634847,3.5820463,2.8926124e-06,0.3,1.8506006,86.21362,86.33618,85.81518,86.072876,0.08786082,0.4265625,4.555337190628052,19.524879721800485
19,190000,49.639971904010956,-87.632065,6.479278e-25,-54.879574,-0.037951972,9.149814,1.0,2.131376,-5.2950916,526.66235,368.46637,14.399348,111.16714,111.36308,111.308556,111.305916,0.7548861,0.7,-119.00603,-493.43674,0.0015249699,-3.976418,7.532922,7.305456,1.3674824,6.696859,1.8290594e-07,0.3,1.95476,85.781235,85.79906,85.71683,85.745804,0.05611796,0.53437495,4.088140249252319,20.501626920700073
20,200000,65.65948082456553,-88.850235,3.3908058e-26,-57.873997,-0.034926888,8.72642,1.0,1.0450003,-3.0888457,324.61725,31.292381,9.975771,109.60575,109.60002,109.6503,109.608055,5.4736657,0.7,-114.78247,-371.47366,9.790645e-05,-4.9482265,5.015294,5.025834,3.6805565,4.293542,2.3497269e-07,0.3,1.8987337,86.94882,87.02463,86.64703,86.69571,0.13109499,0.49687502,5.374565362930298,21.49635170698166
21,210000,71.27347606326975,-88.77536,1.7803643e-27,-55.347878,-0.052296508,9.209183,1.0,2.4050198,-0.65957534,612.5135,330.95993,11.916298,110.72062,111.080605,110.84395,110.999916,1.5502536,0.7,-116.12923,-388.47052,0.0011292562,-5.4347343,2.3830013,2.478289,1.3675603,1.8159773,1.1001423e-06,0.3,1.9530687,86.81426,86.78748,86.49252,86.85722,0.100819826,0.371875,6.035123109817505,22.504958589871723
22,220000,83.18215923181552,-89.477325,9.398442e-29,-37.5121,-0.082902275,9.555084,1.0,0.6972171,-2.8706775,706.95026,16.329857,9.789995,110.43225,110.583565,111.240616,110.98893,3.593188,0.7,-117.68327,-448.12518,0.0014142338,-4.5994654,3.9881282,4.2330728,4.543382,4.477261,1.6135571e-06,0.3,2.291399,87.13634,87.17885,87.36006,87.20606,0.07432905,0.4109375,6.941548824310303,23.52733514706294
23,230000,78.28037396283024,-84.86978,4.929651e-30,-59.44381,-0.06440351,8.472959,1.0,0.67956597,4.527578,477.67514,19.146255,7.6731005,111.26918,111.05869,111.04337,111.12186,1.2273544,0.7,-117.514114,-391.77795,0.00051672064,-4.236278,0.18131343,0.3566537,-1.3145062,-1.1395848,1.2824487e-06,0.3,1.9893961,82.892075,82.84739,82.7629,82.94296,0.07712731,0.36874998,6.318203926086426,24.539861126740774
24,240000,96.6514033622332,-89.42974,2.592921e-31,-46.613503,-0.11097814,10.216004,1.0,0.51463217,1.5145953,402.125,6.403944,9.192517,109.79215,109.48043,109.83778,109.41077,2.5754735,0.7,-116.169525,-431.05734,6.470701e-05,-5.3006673,1.5777266,1.9143423,1.9323008,2.0199783,1.2194679e-06,0.3,2.288044,87.21297,87.22284,87.345345,87.33673,0.08666122,0.421875,8.436348915100098,25.5877809882164
25,250000,98.11509806375285,-90.40065,1.3684538e-32,-44.23308,-0.11547058,11.29692,1.0,1.0283729,-3.3690476,819.37054,18.77928,8.956447,111.343056,111.00784,111.48386,111.33807,7.1977873,0.7,-116.33814,-503.44464,0.0057757692,-5.7115335,3.962482,3.9707036,4.510237,4.1353574,5.409122e-07,0.3,2.3745916,88.06224,88.019554,88.49686,88.248276,0.12401268,0.5125,8.23675012588501,26.63288104534149
26,260000,98.42200769642237,-88.55394,7.198571e-34,-69.98675,-0.13712938,10.671799,1.0,0.5536898,-0.7168969,800.19464,21.137691,8.68482,110.28753,110.46106,109.66015,111.19535,0.7068634,0.7,-114.75613,-795.57733,0.00025164598,-5.1132164,0.7020148,0.45914,1.2746663,0.4646805,1.5716069e-10,0.3,1.8846323,86.5762,86.69711,86.62259,86.73506,0.06332861,0.4359375,8.271648168563843,27.67915201584498
27,270000,93.49444436503794,-92.24831,3.782238e-35,-68.67473,-0.18130742,11.151565,1.0,0.5865294,-21.679255,768.9123,10.862334,8.818085,110.12941,110.26281,109.279305,109.57032,2.6123855,0.7,-115.98253,-633.8581,0.0015052268,-3.491544,22.735212,22.634392,22.510643,22.606836,4.0745363e-09,0.3,1.7327509,90.56525,90.59117,90.44415,90.42622,0.09469502,0.4921875,7.624119281768799,28.71593604485194
28,280000,97.70323802074977,-90.26749,2.0005403e-36,-54.8602,-0.25552794,12.831662,1.0,0.78033894,-2.5542164,541.7424,11.603256,8.415423,111.534805,110.61777,110.78434,110.91093,2.2756853,0.7,-114.710335,-486.75656,0.0012362164,-5.039587,2.3623219,3.0029333,1.4782755,1.9510146,2.521556e-08,0.3,2.2945805,87.994774,88.035126,87.82285,87.949326,0.082063794,0.4375,8.083039283752441,29.759123746554057
29,290000,93.99065203392728,-87.04822,1.0527755e-37,-90.94095,-0.330574,14.5310135,1.0,0.8414169,-5.392112,586.66376,26.549595,8.964382,109.51954,110.052704,110.04977,110.05449,1.6188481,0.7,-114.878136,-591.4749,0.00014068541,-4.1017776,6.239013,6.412442,5.6028295,5.2081356,1.5299768e-06,0.3,2.057455,85.013596,85.227295,85.19581,85.08361,0.071505815,0.49374998,7.823483467102051,30.797343695163725
30,300000,97.3594263792729,-86.45715,5.556863e-39,-77.22037,-0.36946896,16.603949,1.0,0.8514585,-3.0915987,592.9955,57.13392,13.41742,109.50982,108.92357,108.995255,109.256226,1.1827226,0.7,-114.175514,-780.0103,0.0015004124,-5.2386246,4.508393,4.6851673,4.654035,4.7845073,2.3905887e-08,0.3,2.0039814,84.42297,84.42098,84.47247,84.4882,0.0920473,0.4296875,8.166015863418579,31.84259885152181
31,310000,96.57912321001673,-83.99104,2.92528e-40,-98.51889,-0.6079802,20.708202,1.0,1.9171066,-0.63060236,646.09985,14.492355,8.9779,109.20736,108.40631,108.28661,108.51856,3.6937294,0.7,-114.46556,-822.21387,0.002303362,-4.1813493,1.6905298,1.4075859,1.4757262,1.7295923,2.861023e-07,0.3,1.8356724,82.159035,82.23545,81.54649,81.743256,0.11685584,0.4640625,8.072124481201172,32.88766011794408
32,320000,95.32880373243103,-81.920334,1.544e-41,-103.35791,-0.8076564,22.845957,1.0,1.1889589,0.737725,853.19714,19.717813,10.273285,108.17796,107.703415,107.86161,107.807724,5.4351244,0.7,-113.70774,-771.1027,0.00049813883,-3.2146075,-0.26655766,0.15683955,1.2835629,0.40306747,3.088906e-07,0.3,2.1837902,79.93817,79.7144,79.77029,79.91043,0.18551731,0.4265625,8.389639139175415,33.93631647030512
33,330000,92.91001867800908,-85.098236,8.17e-43,-106.62376,-1.6543711,34.365013,1.0,1.0547179,-0.050051004,621.8398,22.711796,8.659216,106.94744,107.9205,107.08561,106.95923,2.788285,0.7,-111.66538,-694.413,0.00037220638,-3.6272058,0.20283917,0.3636818,0.62049556,0.30594176,1.1175871e-09,0.3,2.0670295,83.116,83.288506,83.44989,83.36138,0.101178534,0.43281248,8.173678636550903,34.98164574305216
34,340000,91.95839131271684,-82.67871,4.3e-44,-100.28763,-2.4798632,42.56949,1.0,2.0253758,-2.4368916,658.6486,133.0989,9.38191,104.76724,104.86949,105.388466,105.20232,9.3447075,0.7,-112.46205,-665.51746,0.001441484,-3.3768458,2.2309895,2.1292222,2.8783097,2.9774964,7.621674e-08,0.3,1.9452349,80.89284,80.83455,81.30028,81.13376,0.13213232,0.4640625,7.977348566055298,36.02478044827779
35,350000,91.16216807864745,-82.37626,3e-45,-80.74841,-5.207504,59.491066,1.0,1.731703,-1.2841753,743.5655,127.86847,9.468475,105.756676,106.15055,105.73986,105.76588,4.7376003,0.7,-112.05577,-612.2988,0.00317555,-5.7606544,1.5296655,2.5088408,1.463345,2.701483,6.9849196e-11,0.3,1.9188737,80.804825,80.85719,81.19182,81.02532,0.13014802,0.40937498,8.202837228775024,37.074338122208914
36,360000,89.76061721404545,-83.34225,0.0,-83.26521,-9.1382475,87.57743,1.0,10.008266,-1.0924289,763.45886,2035.7167,8.57855,106.20456,105.37506,105.94163,105.692696,422.56305,0.7,-110.14049,-692.71423,0.0006189326,-4.7578626,0.48929355,-2.5591943,1.4716377,0.82117224,1.7813291e-07,0.3,1.9408696,81.64313,81.47441,81.95735,81.80158,1.8071064,0.4421875,8.194950580596924,38.12163999080658
37,370000,70.18416725063528,-84.05386,0.0,-102.58538,-13.675361,96.54763,1.0,1.148082,0.12667346,927.14215,55.852303,10.62507,104.29127,104.36603,103.81002,103.58001,11.205842,0.7,-112.64002,-958.0322,9.2567934e-05,-8.267949,1.7043679,0.5625689,1.315388,0.94233483,1.3331231e-05,0.3,1.8137335,82.40297,82.51245,82.58809,82.40409,0.25555372,0.49843746,6.423274278640747,39.138524468739824
38,380000,59.89581084516502,-82.841866,0.0,-79.81917,-20.516623,136.9237,1.0,2.440619,1.2918665,1532.0569,53.826668,8.439738,104.634476,103.86609,104.45479,103.93156,2.8811102,0.7,-109.79163,-1019.08704,0.0026660927,-4.8312254,2.4754093,1.7826822,3.081842,2.48121,1.6244304e-06,0.3,1.7699307,81.51141,81.34803,81.74417,81.482544,0.16261424,0.4890625,5.387640953063965,40.13702614704768
39,390000,63.79673359200685,-81.73506,0.0,-85.13011,-31.133131,40.464123,1.0,1.6592021,4.778465,1420.7644,18.034681,14.643654,106.46086,105.19785,105.44758,105.50354,3.2091362,0.7,-116.789604,-1103.5054,0.0015276803,-8.9360695,3.0734408,3.201799,2.9376535,2.8158405,8.250936e-08,0.3,1.9393636,80.14755,79.882095,79.96263,79.769394,0.21827933,0.5546875,5.321032762527466,41.13424179553986
40,400000,63.208554848399544,-81.291405,0.0,-104.67385,-37.827953,101.67089,1.0,1.8103321,-2.9862905,2008.1361,81.42964,8.044413,104.46264,104.13981,104.04319,103.94875,3.956654,0.7,-109.17476,-847.9016,0.00020477368,-4.3304567,4.5110493,5.002953,5.470732,5.4458017,7.986091e-09,0.3,1.9337019,79.53465,79.82176,79.402245,79.35945,0.14832692,0.48125,5.6339497566223145,42.135426406065626
41,410000,77.49593925465987,-83.601746,0.0,-74.93878,-52.764904,72.01746,1.0,1.6537732,1.3204986,1527.3948,58.493717,10.876329,106.104256,106.6607,106.356575,105.92091,5.0625157,0.7,-112.148186,-1044.9984,0.0024480745,-4.369145,3.0280726,-0.2614223,3.1322713,3.3194244,2.659082e-05,0.3,2.3272676,81.562485,82.000656,81.91677,81.84237,0.2510172,0.4578125,6.465186357498169,43.15023532708486
42,420000,67.32251333496828,-83.50867,0.0,-87.899994,-73.0806,196.51077,1.0,1.7633481,-1.472517,1384.5725,26.358185,10.14554,107.272995,105.61727,104.99535,105.29138,1.4727352,0.7,-110.153465,-776.0112,0.0007577278,-6.0879583,1.4843817,1.1932979,1.2693337,1.3106425,7.0412357e-06,0.3,2.1251888,81.90939,81.9674,81.6857,81.677155,0.14688814,0.484375,5.340927600860596,44.144908638795215
43,430000,64.19718255632738,-81.612236,0.0,-138.7378,-77.52368,301.0624,1.0,3.6086483,-0.8636354,867.495,517.34985,8.229671,105.41096,105.12777,104.41205,104.398895,13.789771,0.7,-110.87023,-963.42084,0.0014143791,-4.6196074,2.1941247,1.0902052,1.6608726,1.9418552,1.9247645e-06,0.3,1.8510553,80.40514,80.33482,80.469666,80.44705,0.22071704,0.43124998,5.095285177230835,45.13090094725291
44,440000,68.28674504177711,-81.813156,0.0,-148.0882,-75.73353,63.247253,1.0,3.1989572,-0.972425,792.8803,36.305874,9.488509,104.77887,103.9271,104.920906,104.31315,3.0439901,0.7,-110.94844,-900.118,0.0019787943,-5.579705,2.587975,3.5261564,1.2877579,3.1594064,5.9764716e-07,0.3,1.9134666,80.540085,80.30099,80.446,80.30986,0.23762304,0.44062498,5.484882593154907,46.125947733720146
45,450000,62.332590272104106,-80.54295,0.0,-153.74176,-118.30769,447.7859,1.0,2.607433,2.560817,996.48315,79.31576,8.542756,105.110374,107.71624,105.66784,105.675316,3.1592357,0.7,-109.128174,-1017.0109,0.0064767087,-6.174895,0.55446124,-3.0673244,1.1016343,0.18061745,1.5093713e-06,0.3,1.6570262,79.68007,79.27556,79.57639,79.51933,0.15048462,0.4734375,4.906211614608765,47.11089029312134
46,460000,89.24605187703345,-83.21781,0.0,-152.82977,-95.83887,105.94439,1.0,153.3774,-0.927331,887.8211,38056.293,8.279625,104.56784,105.13897,104.56677,105.3811,9508.017,0.7,-110.67874,-1292.3922,0.0008588315,-3.472552,4.3995013,-116.368805,3.8886452,3.746461,3.109756e-06,0.3,2.1770883,81.426636,80.76466,81.64739,81.67326,37.478054,0.4484375,6.67113995552063,48.12378398577372
47,470000,81.72024768669705,-82.31384,0.0,-120.17522,-149.24098,252.93518,1.0,2.746192,1.8341527,920.98816,166.43297,8.65566,104.69067,105.69473,105.93911,105.93459,64.7924,0.7,-111.117294,-908.7663,0.004361044,-3.3904846,1.5707536,-0.5819426,1.1406853,0.6459633,2.4314506e-05,0.3,2.1845455,80.64992,80.67643,80.868164,80.70259,0.48380995,0.4296875,6.319841623306274,49.13505755265554
48,480000,86.12455027505035,-81.57949,0.0,-115.08211,-80.916595,115.97141,1.0,1.8104682,0.32409656,962.9994,47.73193,9.3945055,103.970345,102.92123,102.92117,103.13449,25.834005,0.7,-107.678024,-1134.9952,0.0077380855,-7.840864,1.2000724,1.3735914,1.1940131,0.540215,2.4858339e-06,0.3,2.224933,79.78494,79.7159,79.521736,79.440125,0.28526056,0.484375,6.5613789558410645,50.148457678159076
49,490000,80.6343198578378,-82.253235,0.0,-159.65614,-167.82256,371.87128,1.0,1.8259609,-0.58590925,817.78827,40.118275,9.144744,103.76841,105.71186,103.69663,103.61271,4.562986,0.7,-109.89997,-1237.9052,0.00742922,-4.3384185,-3.744874,-2.0253568,-1.3836113,-3.505355,6.2654904e-06,0.3,2.0004187,80.69832,80.92663,80.80821,80.753174,0.1802554,0.4453125,6.374120235443115,51.15569120645523
50,500000,87.07851785579805,-79.87959,0.0,-176.77649,-111.258255,118.7252,1.0,7.336008,-0.58223104,907.74744,323.70346,8.491897,104.32042,102.45266,103.55627,102.68643,11.780877,0.7,-108.789246,-1222.6198,0.00092764996,-3.8451526,3.4389215,1.3604147,1.4934645,3.1741698,4.8778716e-06,0.3,1.9008319,78.88343,78.46326,79.57909,79.071556,0.4652347,0.45156246,7.194899082183838,52.17888308763504
51,510000,91.16411627599484,-81.280754,0.0,-187.60876,-163.15013,111.5838,1.0,1.5129911,-0.326604,565.55524,18.652029,7.2384973,102.354454,102.92152,102.9819,103.21333,2.4489157,0.7,-106.56936,-1004.1741,0.003288623,-3.628758,-0.5724198,0.50892735,1.3300102,-0.79765964,5.0355857e-06,0.3,1.8138056,79.96219,79.71765,80.02557,79.87307,0.14268658,0.453125,7.142098903656006,53.199073692162834
52,520000,88.42728882831561,-78.97479,0.0,-87.82367,-153.51889,169.33849,1.0,2.444835,1.634674,1489.5837,27.984987,10.094286,101.70885,103.23421,102.33616,102.447395,6.108045,0.7,-109.55143,-1112.2881,0.001011034,-4.6137905,2.1888993,-0.41705024,0.8089999,0.51955295,7.986091e-09,0.3,2.1515093,77.5049,77.07975,77.6893,77.57995,0.27006626,0.403125,7.195809841156006,54.218594972292586
53,530000,95.02874612398179,-79.17717,0.0,-153.6296,-185.69318,194.19592,1.0,1.7868329,271.6696,907.3126,49.6806,9.238627,104.764114,103.14694,104.18548,103.654526,7.335839,0.7,-108.94692,-1143.9258,0.003972498,-4.0811167,0.6620895,1.8188615,1.1033207,-0.9082141,1.7437153e-06,0.3,2.0199113,78.962585,78.77637,78.75831,78.54826,0.23216602,0.51874995,7.2307329177856445,55.23881653547287
54,540000,90.12975415414489,-82.60391,0.0,-155.27313,-232.06335,206.47484,1.0,2.053226,3.1328645,1613.6561,43.526024,10.000473,107.2604,102.6108,102.85396,102.79067,2.839005,0.7,-112.2788,-1017.33276,0.0006373116,-6.6755137,-1.4795206,0.71636194,1.1452827,-0.44031447,6.7494284e-06,0.3,2.0851893,80.8877,81.43828,81.07094,80.97976,0.17770615,0.45625,7.162024736404419,56.26197983423869
55,550000,93.99356067141159,-78.637695,0.0,-102.656525,-212.46992,252.0198,1.0,3.9846127,-2.512072,1238.6809,91.43253,9.068875,102.18175,102.3859,102.50141,102.17773,11.483541,0.7,-110.16342,-1208.3583,0.003842245,-5.22356,1.4252756,4.345332,1.7218583,-0.06634027,8.6852816e-07,0.3,2.006029,77.54784,77.09654,76.81128,76.73846,0.3208563,0.4578125,7.153000593185425,57.28735087712606
56,560000,94.81134591242336,-78.854324,0.0,-146.68735,-333.1589,240.50975,1.0,1.8372035,0.5952685,1209.9176,27.772848,9.215185,103.11931,102.835526,101.78031,101.49585,10.082216,0.7,-107.63682,-1037.7155,0.002531291,-7.1217546,3.2256272,3.848342,1.468129,1.8518635,2.1122396e-07,0.3,1.6678948,77.6457,77.61284,77.6241,77.61832,0.26404753,0.44687498,7.112879037857056,58.310207482179
57,570000,94.43666262153056,-79.16356,0.0,-137.92241,-241.77466,106.36245,1.0,2.0460904,1.6276207,1613.3127,28.81972,8.944696,103.49459,104.164314,103.76139,103.6033,5.986582,0.7,-109.01979,-1111.989,0.0047041597,-3.932264,0.34357166,-1.4712635,-1.064971,-2.5910351,6.041257e-07,0.3,1.8571022,77.79396,77.73643,77.63318,77.45174,0.2612502,0.45937496,7.1099159717559814,59.33296117782593
58,580000,92.26895380789291,-77.82794,0.0,-153.46489,-298.78476,286.04688,1.0,1.9037106,1.9327252,2380.537,32.268208,9.421111,101.59068,101.10574,100.96528,101.26997,27.110281,0.7,-107.55529,-1280.8403,0.00495915,-4.756962,0.6146419,-1.248914,1.2352886,0.905632,4.33072e-06,0.3,1.7953295,76.63602,76.76848,76.64851,76.589935,0.2912287,0.4265625,7.719109535217285,60.364814480145775
59,590000,93.38710295505004,-80.531364,0.0,-137.94417,-322.24704,350.46457,1.0,1.5784534,1.1372495,2539.63,21.496475,8.14467,101.629814,101.91068,101.15281,101.08153,3.6305215,0.7,-109.72975,-1487.969,0.0001983234,-4.321971,0.6742167,-2.6857774,1.2621603,-1.4638938,2.3469328e-08,0.3,1.9626212,79.158905,79.15651,78.98584,78.76253,0.18352142,0.50312495,7.472573757171631,61.39306770563125
60,600000,95.33928253778781,-80.53472,0.0,-144.96681,-354.93988,664.4086,1.0,7.319987,34.308033,1481.6593,119.07033,10.018446,104.49594,105.21524,103.61747,103.64657,8.059609,0.7,-107.392746,-1391.6135,0.030539956,-5.677909,6.3420005,9.239437,7.7240534,7.5660925,1.5916157e-05,0.3,1.7190418,79.54609,79.90437,79.0106,79.12343,0.3682434,0.471875,6.488230228424072,62.401608781019846
61,610000,93.00303122090716,-80.0957,0.0,-136.34183,-413.18262,1212.4203,1.0,715.7057,0.87737787,1698.9985,182259.84,10.00931,103.45766,103.60401,102.16849,101.97845,25825.621,0.7,-106.691055,-1264.2675,0.010693413,-7.922842,-330.01523,-0.16814345,1.2290146,1.2655,5.110883e-06,0.3,1.5860758,77.94052,80.15605,79.400505,79.36717,101.084114,0.49375,7.405144691467285,63.42688162724177
62,620000,94.46858012056089,-76.7744,0.0,-131.12361,-249.74063,35.577686,1.0,2.2375455,-0.7241409,3780.0662,30.014898,8.04204,100.73941,103.17876,101.96206,102.15108,7.686575,0.7,-108.248276,-1446.1307,0.009736431,-6.6962914,0.8703201,0.5783038,1.3046852,1.085807,2.07845e-06,0.3,1.9175704,75.34021,75.35603,75.37836,75.32121,0.2552453,0.440625,7.4747514724731445,64.45305231809616
63,630000,94.96706907703589,-75.73764,0.0,-199.56271,-336.29062,235.0125,1.0,2.3774872,0.4180779,2025.7234,51.657547,8.374756,101.18772,101.22158,100.426796,100.38156,3.0504405,0.7,-108.3689,-1602.0977,0.0012072194,-4.9020452,0.41593963,3.3382902,1.423365,-0.94062304,6.7776245e-06,0.3,1.728117,74.418,74.55742,74.24408,74.23127,0.2011849,0.4671875,7.564267635345459,65.48222577571869
64,640000,87.48878879607312,-80.497406,0.0,-119.93523,-413.50754,405.4487,1.0,2.1375306,-1.3962343,1615.1182,26.752222,9.3728285,102.89321,101.31861,101.192184,101.33116,6.367394,0.7,-106.67504,-1255.5604,0.002776784,-3.768884,1.6079252,1.8971915,1.3587667,0.53534734,1.440104e-06,0.3,1.9883078,79.07277,78.83686,78.89053,78.96153,0.20668039,0.43906248,7.132486343383789,66.50210778713226
65,650000,84.40415884821361,-80.45282,0.0,-124.90433,-333.72577,43.526318,1.0,2.619814,0.39743233,1309.6174,74.62659,9.062504,103.37447,101.80236,101.46983,101.588524,8.352788,0.7,-108.81871,-1550.6661,0.004338702,-3.8387685,0.9649886,1.5595632,1.9249425,2.1889126,6.849295e-08,0.3,2.040268,78.77043,78.58266,78.49703,78.43533,0.3156379,0.484375,6.871206521987915,67.51906839609146
66,660000,90.08257429010447,-79.82598,0.0,-177.1514,-426.8584,340.89133,1.0,1.7961584,-2.5705023,2263.922,63.814327,14.160993,102.5647,101.220695,100.75521,100.55641,10.7010765,0.7,-107.562096,-1390.5452,0.00057267584,-4.1400366,5.7283087,4.8371677,5.5046163,5.03272,1.0058284e-08,0.3,2.05051,78.315186,78.48241,78.43242,78.26655,0.2690145,0.44062498,7.16344141960144,68.53887180884679
67,670000,91.10476534930008,-75.77026,0.0,-144.75662,-428.45947,596.9376,1.0,15.480346,112.934654,1895.8923,2780.9514,9.813962,101.63402,100.66374,101.14661,100.6286,7.459726,0.7,-109.11128,-1624.1067,0.007971394,-4.4372187,2.5772562,1.5625113,4.0658865,3.7168512,3.1355304e-07,0.3,2.081682,75.22275,75.03299,75.653564,75.50108,0.36169347,0.4046875,7.204476356506348,69.56070409218471
68,680000,60.85783152825008,-77.591675,0.0,-183.0015,-715.3146,1360.5707,1.0,2.6001978,-0.5437426,2056.4565,83.69287,10.816345,99.434105,100.20435,100.503456,99.63616,11.453875,0.7,-107.73129,-2049.1462,0.0027302986,-8.881163,0.2912864,0.13561243,1.3529811,0.36118415,1.5307722e-05,0.3,1.585048,76.38814,76.37053,76.70669,76.59099,0.2720035,0.4296875,5.036883592605591,70.53992300828298
69,690000,72.6494177768204,-76.05428,0.0,-195.87686,-433.3278,360.46268,1.0,2.5635078,-1.4417984,1627.43,51.67359,8.170704,100.03403,99.3667,100.657684,99.868805,4.4120483,0.7,-106.928276,-1405.5988,0.0021098591,-4.4034476,1.5294032,4.0327377,3.3440485,2.4154325,4.4146438e-07,0.3,1.6472323,74.74921,74.72226,75.12668,74.875824,0.22006726,0.453125,5.493619441986084,71.52289611498514
70,700000,70.07489836105947,-77.62587,0.0,-208.71326,-533.0422,1330.0219,1.0,2.5513473,-4.1759095,3269.068,38.732376,9.962472,100.14739,102.302704,101.17192,100.23553,5.377119,0.7,-105.82418,-1131.0651,0.004187797,-7.446257,4.358374,4.881747,3.6623058,3.8148742,2.4314505e-07,0.3,1.6051278,76.55359,76.71116,76.91339,76.755875,0.26147395,0.4421875,5.514481067657471,72.4947513103485
71,710000,79.68879789843042,-78.810104,0.0,-193.74258,-612.96234,1072.3475,1.0,1.9254453,2.5142076,1089.3212,15.829708,10.09736,100.207695,101.10808,99.67001,100.0234,6.1268563,0.7,-106.046646,-1489.0905,0.001656539,-6.932693,0.402474,-0.16543752,1.3235188,0.43940574,9.953947e-08,0.3,1.553905,77.68463,77.665405,77.831055,77.67107,0.26531523,0.4328125,6.356210947036743,73.47050584554673
72,720000,65.85415832976685,-77.49426,0.0,-181.87186,-544.55347,506.81772,1.0,1.816926,2.444773,2102.406,14.839653,9.412899,100.962845,100.33514,99.96716,99.82861,3.8330328,0.7,-106.82378,-1561.6603,0.0036849934,-6.2459397,4.5345273,3.093417,3.1677198,3.1906009,1.5184452e-07,0.3,1.7823668,76.16342,76.19136,76.04414,75.90242,0.25144905,0.453125,5.1689982414245605,74.45039024353028
73,730000,58.351106820871,-76.228,0.0,-223.38028,-559.02997,278.2026,1.0,2.9678116,1.9805988,1367.0757,23.45349,9.484411,99.83695,102.44468,101.23552,101.08683,5.998858,0.7,-102.98129,-2111.9883,0.010207823,-5.327282,-1.626699,0.9731226,1.1267005,0.8057729,6.078626e-08,0.3,1.6896409,74.932594,75.262436,75.629,75.48139,0.22360012,0.43906248,4.809817790985107,75.43382856845855
74,740000,77.05146053463172,-76.79228,0.0,-162.07828,-473.3977,407.1666,1.0,1.7468588,2.006204,2485.2754,33.546856,13.599506,100.104004,99.829094,99.93541,99.68259,3.7095435,0.7,-108.52075,-1812.671,0.0013427916,-4.369425,0.15823096,1.4709041,1.1938865,0.0176813,6.476435e-06,0.3,2.2580545,74.93764,74.99657,74.947845,74.812706,0.18872821,0.4546875,6.491788864135742,76.44568959871928
75,750000,62.459794329396644,-77.32606,0.0,-260.77267,-577.5917,68.69148,1.0,2.1069489,-2.0872319,1542.617,26.830544,9.141818,101.63528,100.038345,99.911606,98.93391,2.4307494,0.7,-104.93569,-1562.0231,0.0016781942,-4.177149,3.5631518,3.7386742,3.6858926,3.9354544,5.2823456e-08,0.3,1.6653825,76.071884,76.15776,76.21182,76.05246,0.21242338,0.47187498,4.960007667541504,77.43237117528915
76,760000,79.21952128735558,-77.6274,0.0,-227.97398,-630.43036,238.50407,1.0,2.842112,-1.3589708,1244.3419,65.66078,8.536263,100.475876,99.52325,99.28071,99.59976,14.94357,0.7,-107.45669,-1730.9854,0.0008905401,-8.349137,2.4883907,2.0304794,1.7878184,1.855854,4.4703486e-07,0.3,1.8477552,76.48018,76.07105,76.16011,76.05936,0.28390527,0.4609375,5.909980058670044,78.42572917540868
77,770000,79.77013291385266,-74.80856,0.0,-170.30467,-667.8234,274.33658,1.0,2.4703717,1.26384,2605.8042,53.18687,9.759359,98.954315,99.33522,98.92251,98.92771,8.327977,0.7,-105.24765,-1847.5654,0.00031110563,-7.3750997,0.8382228,3.2011511,1.4228605,1.231315,2.3648145e-06,0.3,1.7607093,73.99951,74.134285,74.2538,74.04544,0.25912848,0.48749998,6.8390655517578125,79.44629568258921
78,780000,78.06832036834886,-75.76845,0.0,-201.50267,-733.5549,2230.8142,1.0,2.8182683,-6.357707,3012.0522,142.60136,8.525801,98.3586,98.01773,97.841286,97.95649,4.0086503,0.7,-103.31541,-1893.09,0.0028141025,-7.930878,5.515477,7.6267705,5.3746853,5.1290107,1.0870325e-06,0.3,1.7729582,74.38669,74.64436,74.42363,74.260574,0.2500382,0.47031248,6.244997262954712,80.45392784674962
79,790000,87.69057468899983,-75.662384,0.0,-195.24785,-606.25745,305.33575,1.0,1.7492995,-6.1602125,1545.8499,22.755693,8.929434,99.67997,98.32289,98.48232,98.41141,3.2312574,0.7,-104.046165,-1501.3357,0.001979405,-6.1439433,7.057391,5.109372,6.7027044,6.951238,1.7707627e-05,0.3,1.9653432,74.34665,74.106735,74.16976,74.00718,0.25620937,0.4296875,6.599028825759888,81.46351087093353
80,800000,65.97136856635764,-78.44322,0.0,-208.24928,-748.43835,264.85446,1.0,2.317487,0.69043565,1476.7076,95.31944,9.143289,97.96957,98.862656,98.30712,99.255745,26.784246,0.7,-107.143875,-1406.0385,0.0061311503,-6.7768755,0.952507,0.12215483,1.3650223,1.16538,1.174165e-07,0.3,1.7702714,77.06819,77.294914,77.10672,76.95058,0.39941156,0.459375,4.933934926986694,82.44921496709188
81,810000,85.09579389935803,-78.07616,0.0,-216.93558,-793.8193,170.12328,1.0,2.2522898,-1.4068432,1366.3859,63.748566,8.285999,97.63355,97.888466,97.58699,97.62453,13.764984,0.7,-103.03791,-1449.6187,0.0034224824,-5.0442467,3.7882085,2.2405035,4.0584173,4.0691657,1.2146007e-05,0.3,1.8621356,76.53174,76.8889,76.744545,76.60605,0.28816614,0.440625,7.189451217651367,83.4722995797793
82,820000,62.01860429287412,-73.41508,0.0,-196.23047,-653.78827,678.7674,1.0,2.7407682,100.13194,2721.2373,61.52862,7.6322823,99.67555,98.668396,98.593994,98.249466,5.266453,0.7,-105.60713,-2030.1151,0.0013996682,-5.6859117,2.6192684,3.4398541,2.528379,2.238246,1.3738795e-05,0.3,1.989953,72.504364,72.71163,72.71582,72.53662,0.30616772,0.4578125,4.48625636100769,84.44702697992325
83,830000,93.96665857712601,-76.910034,0.0,-250.60013,-909.5334,76.246376,1.0,2.0037656,2.2797923,2998.8037,24.539309,9.3033,97.71117,99.178345,98.632484,98.16215,31.878468,0.7,-105.65155,-1620.8474,0.0033868612,-4.484061,0.6251123,-0.028697073,1.1468678,-0.35339445,5.428301e-06,0.3,1.5360384,75.774826,75.93448,76.07309,75.88346,0.36906832,0.45,7.120608806610107,85.46495939890544
84,840000,75.41026561254995,-77.511475,0.0,-206.6609,-986.7868,73.91564,1.0,2.8252645,0.64065194,1976.4446,55.578014,7.8016534,98.50623,97.87489,96.02751,97.14077,5.1909657,0.7,-102.63579,-2389.6565,0.0054467022,-4.547413,1.4145098,2.1661408,3.3200262,2.9679875,3.5708655e-07,0.3,2.0484123,75.959045,75.960785,76.11407,75.93997,0.23828724,0.48749995,6.149669885635376,86.46609341303507
85,850000,64.64167199640065,-76.16083,0.0,-276.41974,-1129.4979,63.543667,1.0,2.858976,-4.6060963,2007.0293,120.18324,10.532374,99.96599,97.44889,99.177284,97.17957,10.167973,0.7,-101.56894,-2157.252,0.0030263476,-6.791232,3.485084,3.4385204,4.686331,4.459669,9.561656e-07,0.3,1.7288923,75.033676,74.96524,75.15654,74.93779,0.30188596,0.48125,5.662019491195679,87.46233274936677
86,860000,83.1993662827374,-73.93419,0.0,-271.36707,-795.5836,50.298782,1.0,3.1334743,-2.0952969,2646.5818,155.01297,9.261373,98.63903,100.21691,98.5774,98.60048,14.533942,0.7,-104.28234,-1870.2668,0.0038911188,-5.0671325,2.7278736,4.7033634,3.661852,3.6830308,5.0920065e-08,0.3,1.7680328,72.776146,72.74199,72.57414,72.545746,0.29603225,0.4375,6.89092230796814,88.4726767261823
87,870000,80.88564612405693,-76.48906,0.0,-188.67336,-656.5445,46.847626,1.0,2.8888206,-0.513679,1981.7961,63.38658,9.889027,98.205956,98.26436,97.672676,97.77681,13.398865,0.7,-103.96446,-1688.0453,0.00052286807,-5.4910207,2.0151172,2.798605,3.1834981,3.097147,3.7655234e-06,0.3,1.9143332,75.15851,75.111206,75.3111,75.14455,0.33386785,0.43125,6.558926343917847,89.4782484571139
88,880000,75.78123322078838,-77.072296,0.0,-287.0713,-1071.8273,552.82855,1.0,5.4708185,-4.586528,2404.121,326.496,8.717851,99.510994,97.96536,97.0522,96.925385,34.083813,0.7,-101.82846,-1920.658,0.0065383352,-4.62687,7.697238,7.5725827,6.607021,6.616604,6.9849193e-07,0.3,1.841548,75.818535,75.961685,75.18367,75.05324,0.3714208,0.48593748,5.637073755264282,90.46916918754577
89,890000,76.72377114458405,-75.765015,0.0,-261.7489,-1462.209,3561.156,1.0,3.4711194,0.3533516,1822.846,56.91356,9.327119,97.72468,100.076546,98.456345,98.475914,3.4754624,0.7,-101.852715,-2168.8328,0.0017644684,-4.6441255,1.668577,2.5606735,0.8559586,1.2950137,0.0,0.3,1.7311382,74.83701,75.393486,74.8667,74.741745,0.27113646,0.46249998,6.24780797958374,91.47404651244481
90,900000,72.18890408581677,-75.55827,0.0,-200.54346,-1057.3998,53.139843,1.0,2.0911162,-5.1154914,1823.4276,23.70456,9.746541,98.10202,97.66984,98.77903,98.76127,3.9943645,0.7,-102.65849,-2415.2354,0.0139974225,-5.3184834,5.870253,6.5194554,7.572626,7.146452,3.6613274e-05,0.3,1.9063356,74.0831,73.980736,74.28082,74.13357,0.28999022,0.421875,5.614944219589233,92.46994839509328
91,910000,75.50260518569249,-73.68849,0.0,-316.62445,-880.6042,45.153168,1.0,2.2846634,-2.0547016,1808.9309,24.569855,9.731015,98.42716,96.49737,96.81586,96.154205,27.016289,0.7,-102.33513,-2332.4397,0.0054391343,-4.8138824,1.8284702,1.7319536,1.3789576,2.049958,3.3545006e-05,0.3,1.7243085,72.50987,72.4115,72.47076,72.28915,0.36996657,0.43593746,6.518409967422485,93.47015087604522
92,920000,85.96912730378686,-74.540565,0.0,-283.90137,-1140.6564,149.87723,1.0,3.8555183,0.0174191,1867.3053,90.67468,11.8613825,97.00856,96.49735,97.43388,96.91655,12.166783,0.7,-103.345825,-2623.165,0.0011894677,-4.9660845,2.4054646,0.9495109,1.3857181,2.1253004,5.1929555e-06,0.3,1.6787661,73.39443,73.53926,73.755264,73.64142,0.5273916,0.4203125,7.203066110610962,94.48771398067474
93,930000,62.98731396480355,-74.818115,0.0,-255.89252,-730.5741,80.34214,1.0,22.88452,-1.082597,2104.0505,5306.07,9.654246,97.510025,96.58983,97.99358,96.94113,5.005735,0.7,-103.58733,-2168.7954,0.0016233064,-3.8024583,-6.506828,1.2983248,1.322701,1.4284923,2.504438e-05,0.3,1.8516073,73.38151,73.5571,73.65837,73.478806,0.28672734,0.43593746,4.92544412612915,95.46691031455994
94,940000,60.99750828119607,-74.42717,0.0,-247.24619,-1751.6266,4144.0874,1.0,3.611847,391.60904,1871.617,148.3469,7.2390504,98.661095,99.30111,97.59981,97.32901,19.947618,0.7,-101.04501,-2053.6345,0.012836564,-3.9774861,3.8484097,3.2065115,3.2710524,3.085323,4.5781488e-07,0.3,1.8379967,74.79674,75.448654,74.88832,74.68593,0.31570318,0.45625,4.689995288848877,96.44077232281367
95,950000,75.37266449367534,-73.73442,0.0,-206.24332,-1321.476,572.4663,1.0,4.250614,2.2209458,2852.221,538.46716,9.246413,97.85639,96.913284,96.79303,96.58408,106.847244,0.7,-101.09099,-3093.9321,0.0022014503,-5.66457,2.563026,3.042258,1.3315618,1.209412,6.712508e-06,0.3,1.678508,72.525116,72.742615,73.01014,72.772446,0.6254141,0.43593746,5.69636607170105,97.43495016892751
96,955000,80.38091303903335,-64.56143,0.0,-282.2119,-1302.0897,990.9137,1.0,2.6462984,1970.8724,1911.3812,66.25797,7.6592655,100.964264,96.69783,96.47198,95.81143,5.5228043,0.7,-102.370445,-1919.7612,0.001342596,-5.1137958,0.58124626,0.20215869,1.3906168,-0.1729582,1.419165e-05,0.3,1.7664759,71.55197,71.59613,71.34576,71.09653,0.25960195,0.5234375,6.474786996841431,97.98859062592189
97,960000,81.93672165732782,-75.160706,0.0,-276.22687,-565.2573,41.044827,1.0,1.964758,-1.6607652,2053.8884,25.463238,8.285549,98.22855,98.01506,96.446754,95.35812,2.2964935,0.7,-100.06044,-2047.3837,0.00295059,-5.0911307,3.1993623,3.2731948,2.4262588,2.189806,7.514656e-06,0.3,1.8484659,73.8217,73.77995,73.67004,73.46926,0.23473838,0.49375,6.7575600147247314,98.5515745083491
98,965000,62.35782735923819,-74.02394,0.0,-248.07495,-1763.5209,1426.9818,1.0,2.0900824,2.8127515,2346.477,79.92137,7.569537,96.436745,96.56375,96.18943,96.03654,11.198248,0.7,-99.78802,-1704.5122,0.00605311,-7.6188045,-1.5566738,-1.3392918,1.2086247,0.20894325,2.7313718e-07,0.3,1.8416922,72.716125,72.64666,72.81811,72.56329,0.33407736,0.4890625,4.8356850147247314,99.07604089577993
99,970000,69.5309716604588,-73.002235,0.0,-287.74496,-1616.616,1449.7411,1.0,3.2937682,-2.69195,2388.3425,49.328865,11.791548,97.23796,96.944786,95.64507,95.51063,37.80129,0.7,-100.47981,-2023.7616,0.007940852,-3.9769154,3.387598,3.6274924,1.4063562,2.1235409,6.885966e-09,0.3,1.9286673,71.74182,71.82237,71.370316,71.22557,0.47128922,0.47031248,5.2551538944244385,99.61486390829086
100,975000,73.91992895940454,-74.07254,0.0,-239.26245,-1197.8141,59.396633,1.0,3.4682755,-4.606299,2114.8948,109.150406,11.156335,97.1751,96.785416,97.51474,96.852715,9.941479,0.7,-106.75815,-2122.0598,0.0030198717,-4.501568,5.4334974,4.9839325,5.2537546,4.9975348,1.0311313e-06,0.3,1.9855999,72.69334,72.9311,72.84527,72.6945,0.3583504,0.4421875,5.331118106842041,100.15339064598083
101,980000,65.3062365524705,-74.27823,0.0,-188.72101,-1278.1318,378.75726,1.0,2.758394,-1.5654418,2292.7202,50.053562,9.370235,95.9929,96.743195,97.41993,95.87962,4.4189444,0.7,-104.17978,-1650.9397,0.001095529,-5.9246492,3.8190825,4.369935,5.5834193,5.3049817,2.3410817e-05,0.3,1.8803539,73.06335,72.992294,73.17627,72.980125,0.27404398,0.4453125,4.897696495056152,100.68701525529225
102,985000,58.556980765866996,-75.334206,0.0,-285.80603,-1193.8676,699.63226,1.0,3.4629946,0.02405858,1905.6289,307.9421,9.911913,96.13574,95.89819,95.069435,95.022285,4.7302866,0.7,-100.090996,-2916.7102,1.3602548e-05,-7.9872828,1.3808383,1.0737952,1.972188,1.9903419,5.409122e-07,0.3,1.9616207,74.11944,74.317604,74.041016,73.854034,0.26773113,0.47812498,4.366039514541626,101.20810961325964
103,990000,74.6644576563617,-75.23566,0.0,-271.20923,-960.35675,607.09906,1.0,2.3862743,-0.2800573,2246.323,58.807396,9.877135,95.61583,95.84933,95.52097,95.263336,7.135759,0.7,-101.078606,-2730.4902,0.0012284475,-4.4242935,1.8325771,2.8091736,1.5314647,1.5473456,1.1804514e-08,0.3,1.9407809,73.665695,73.75635,73.610916,73.4495,0.3108071,0.44687498,5.581713914871216,101.7537572423617
104,995000,57.79075991920545,-75.43906,0.0,-351.35822,-1120.8827,50.34201,1.0,3.5868468,-1.3848872,2191.1582,45.086124,7.7173777,97.561295,96.212585,96.219894,95.78495,5.234378,0.7,-100.50567,-2017.5767,0.0053013694,-3.8882027,2.6939774,0.8411217,1.3313314,-0.36836457,4.181795e-07,0.3,1.6738044,74.26717,74.60564,74.37073,74.311104,0.35271823,0.4140625,4.305237293243408,102.27358606259028
105,1000000,64.56428712129134,-73.7177,0.0,-312.4938,-959.41376,59.44264,1.0,2.4834118,0.65055585,2894.389,37.17787,9.576595,98.56801,98.25185,96.61109,96.46408,7.4597135,0.7,-102.363754,-2179.9302,0.0045572883,-6.908242,0.70629394,-0.20448303,0.42266077,0.41636342,1.9541883e-06,0.3,1.6800954,72.97833,72.78024,72.772705,72.65371,0.33584982,0.459375,4.705411195755005,102.80190411408742
