Xixo99/comfo/baselines/comfo7_perterbation_both_actor_and_critic/20230224_alphaQ0.0001/hopper-medium-v2/COMFO7_s1_20230224_111537_hopper-medium-v2_75.24.csv
,step,reward,actor_loss,alpha,alpha_loss,avg_conservative_loss,avg_smooth_loss,conservative_weight,critic_loss,max_actor_loss,max_alpha_loss,max_critic_loss,max_mle_prob,max_q1,max_q2,max_target_q,max_v,max_value_loss,max_weight,min_actor_loss,min_alpha_loss,min_critic_loss,min_mle_prob,min_q1,min_q2,min_target_q,min_v,min_value_loss,min_weight,mle_prob,q1,q2,target_q,v,value_loss,weight,eval_time,time
0,0,5.07349998583601,,,,,,,,,,,,,,,,,,,,,,,,,,,,,,,,,,,,
1,10000,49.179759687950884,-41.122753,0.066797346,-3.8097835,0.00010055006,2.0047452,1.0,1.1808696,-4.1770267,13.914394,88.09837,8.106125,59.59029,59.07573,60.080593,58.708614,2.5736299,0.7,-58.247467,-21.995218,0.00029241145,-5.9248447,3.9225616,4.0900354,4.3907075,4.044548,1.1457014e-07,0.3,1.4343277,39.772705,39.7641,39.99093,39.38954,0.06671005,0.43281248,3.821686029434204,2.8534958879152934
2,20000,51.131456050918764,-64.95493,0.0037485177,-9.018333,0.0008535756,3.5449696,1.0,0.48881584,2.084688,39.325863,23.556755,8.489207,84.02923,84.18822,83.917336,83.4427,5.5272903,0.7,-90.439674,-42.162163,2.6369526e-05,-8.398712,-0.6009466,-0.80029327,-1.1383321,-0.3710766,1.0653574e-06,0.3,1.3303578,63.35102,63.294384,63.312286,63.26755,0.15509932,0.42499998,4.048211097717285,3.833501998583476
3,30000,57.986894394997414,-76.743,0.00020164867,-10.78131,0.0034941551,4.913945,1.0,1.5718975,2.3815176,67.17691,70.853775,7.614148,97.430374,97.48684,97.878204,97.44923,5.189966,0.7,-102.68751,-57.564575,0.0016643575,-6.5297565,-1.1506836,-0.77120495,1.3989525,-0.7811105,2.60807e-06,0.3,1.4712139,74.90087,74.971695,75.35203,75.18393,0.14043455,0.4453125,4.400298833847046,4.815504054228465
4,40000,51.3062310665556,-81.79465,1.057388e-05,-12.142439,0.0006116652,6.283223,1.0,1.7078676,-1.112871,73.718956,36.44886,7.6815557,104.022125,104.470245,104.506996,104.08521,9.636957,0.7,-111.128815,-85.30391,0.0011817871,-4.447298,1.1386316,1.359082,1.320571,0.72122836,5.2262914e-07,0.3,1.614739,79.9542,79.97483,79.827866,79.794945,0.22032464,0.475,3.941497802734375,5.792518210411072
5,50000,45.18131465581718,-88.09431,5.51302e-07,-17.069147,0.0010993242,7.0185204,1.0,0.8968027,0.9249058,83.234085,13.60936,9.363835,107.77571,108.03193,107.93658,107.95551,23.430614,0.7,-114.86159,-83.1208,0.000499813,-4.281064,1.195791,0.66105574,-0.5797391,0.34140655,5.286886e-07,0.3,1.7914498,86.19823,86.129,86.21199,86.519394,0.2877836,0.4125,3.4585838317871094,6.7634409467379255
6,60000,51.95819201736563,-89.0485,2.8768326e-08,-18.050325,0.010729006,7.736894,1.0,1.0553404,-3.6360083,89.87644,78.69429,8.005527,110.21977,110.294685,110.0066,110.03392,5.9149914,0.7,-115.78693,-142.42885,1.4443882e-05,-3.5145557,4.561257,4.6282353,2.2681773,2.7445645,4.9981463e-06,0.3,1.8279519,87.09559,87.0043,86.96976,87.09454,0.16506742,0.4375,3.930487871170044,7.736563106377919
7,70000,60.07123828784303,-90.745544,1.5109406e-09,-17.70735,-0.0065289997,7.6244655,1.0,1.6902499,-0.81785417,139.56865,101.59173,10.220559,111.801216,112.60788,112.49655,111.5539,22.91303,0.7,-121.793335,-218.19719,0.00038005004,-4.9407387,1.7016685,1.5627153,1.401411,0.93756497,8.298783e-07,0.3,1.9404399,88.70001,88.77683,88.804535,88.494835,0.2545068,0.578125,4.379932641983032,8.720514257748922
8,80000,48.40555104155216,-90.336136,7.92186e-11,-24.83651,-0.0111904545,7.4152093,1.0,1.1205274,4.6419373,194.89136,10.897853,14.897347,112.72876,112.58717,112.87414,112.40027,11.405823,0.7,-119.696815,-216.722,0.00093197386,-6.4012747,1.0864825,1.1162163,1.3519869,-0.18789956,3.824942e-07,0.3,1.7162857,88.58571,88.68776,88.158905,88.23599,0.18356475,0.47812498,3.6385881900787354,9.692017912864685
9,90000,55.65535273110497,-90.320885,4.1539766e-12,-24.26471,-0.013509517,7.6465716,1.0,0.9263335,-4.023792,122.49348,41.12867,8.647685,111.57449,111.65147,112.69561,112.04801,3.044625,0.7,-117.33781,-168.50607,6.569136e-05,-4.825355,4.2573185,4.613504,3.8469548,3.919081,1.1445372e-07,0.3,1.9009655,88.421844,88.34094,88.2912,88.26471,0.102551185,0.459375,4.178189992904663,10.674719846248626
10,100000,53.17853799180732,-89.33782,2.1707343e-13,-32.231754,-0.0113429995,8.06306,1.0,1.0838728,2.2053094,182.78477,22.094904,8.994984,112.26098,112.02189,114.016815,112.78393,3.278815,0.7,-119.96559,-221.55733,0.0005054105,-4.0783243,-0.14408559,-0.5267881,0.62111723,1.1325703,1.0349974e-05,0.3,1.722538,87.478165,87.49425,87.83381,87.86459,0.10197562,0.3734375,4.050528049468994,11.655453209082285
11,110000,47.65411258959233,-88.625,1.1380355e-14,-31.639492,0.004714212,7.353894,1.0,0.83043766,2.1949997,209.40504,50.91519,8.950945,111.1898,111.25442,110.704384,110.8792,1.5086116,0.7,-117.94629,-172.53328,0.00014105113,-4.365418,0.6051446,1.2525216,1.160077,1.0038639,9.692012e-06,0.3,1.91097,86.75966,86.78059,86.63417,86.68227,0.08206163,0.5015625,3.486517906188965,12.623376973470052
12,120000,54.485783874727275,-90.73845,5.973756e-16,-31.608171,-0.003702494,8.29568,1.0,0.6851988,0.8036294,244.25304,32.92475,8.2881775,112.5648,112.44028,112.92348,113.053505,1.8627846,0.7,-118.70764,-308.50674,4.5083056e-05,-3.7981315,0.24565837,0.80714214,1.2170107,0.95327634,5.202775e-07,0.3,2.1363795,88.55052,88.587906,88.76638,88.73245,0.07630649,0.51406246,4.042360305786133,13.60562976996104
13,130000,50.31774862631574,-90.28786,3.1302837e-17,-42.623962,0.0037564144,8.124079,1.0,1.0604757,1.3984941,401.01874,10.387742,7.9304104,112.06432,112.22256,112.675606,112.69425,2.0576215,0.7,-118.1424,-301.36542,0.010333838,-5.2454405,0.4043571,0.70480716,1.2810415,0.3169846,1.5662518e-07,0.3,1.8932827,88.36272,88.29884,87.97328,88.096344,0.08164038,0.4671875,3.7555220127105713,14.580918848514557
14,140000,45.30960204420284,-87.54109,1.6498765e-18,-42.73316,-0.014740186,7.142879,1.0,0.769328,0.9641347,428.20926,77.15684,11.544773,110.778885,110.908134,111.04426,110.77577,2.8132374,0.7,-118.239655,-332.8352,0.0020761488,-4.906728,-0.7370497,-0.5687239,1.3109646,-1.0225382,3.9934528e-07,0.3,1.9291841,85.54686,85.67276,85.74179,85.75171,0.07952731,0.4453125,3.42598032951355,15.545107793807983
15,150000,58.1975332467436,-91.167145,8.6406046e-20,-30.006912,-0.0070251036,7.787864,1.0,0.6439494,-0.45999956,245.65619,36.974937,9.180924,111.584076,112.05814,111.33545,112.549225,5.4566956,0.7,-121.386765,-279.92856,0.00045797438,-9.660259,2.7368164,2.6275635,3.6520092,3.9107928,7.700874e-07,0.3,2.148623,89.00511,89.025635,89.15933,89.395874,0.100010864,0.43281248,4.379126787185669,16.531660199165344
16,160000,47.88674152819083,-89.737144,4.5207904e-21,-51.28738,-0.015919555,7.745051,1.0,0.76063037,-4.501322,335.89136,10.209371,10.360455,112.54931,112.35421,111.72562,111.71316,6.4832563,0.7,-118.47646,-404.42773,0.003951103,-5.9799876,5.66181,6.025131,5.656933,5.916483,2.6980108e-05,0.3,1.9098115,87.82762,87.826866,87.551605,87.668945,0.108838096,0.375,3.645004987716675,17.504971142609914
17,170000,72.98227181706179,-93.14011,2.3805255e-22,-50.12559,-0.02516051,8.029406,1.0,0.7864264,-5.3589907,294.54276,35.86437,9.210654,111.15013,110.92842,110.54526,110.66423,2.2225113,0.7,-117.12913,-412.5619,0.00017380808,-3.3816504,5.6225095,5.0950856,5.587714,5.7399373,6.119907e-06,0.3,2.1174726,90.98727,90.9457,90.79092,90.93692,0.07408404,0.40625,5.399855136871338,18.501598302523295
18,180000,62.84118128675959,-91.033775,1.2450753e-23,-67.58525,-0.017493377,7.777347,1.0,0.40463918,-4.059522,319.68552,7.9588866,8.9343815,110.96624,110.680885,110.97626,110.42526,2.80983,0.7,-116.465256,-440.79373,0.00078127586,-5.206821,5.91947,5.915578,5.7973986,4.981357,6.5718194e-07,0.3,1.8759911,89.18094,89.15882,89.21395,89.02922,0.10504939,0.521875,4.68585467338562,19.49342235724131
19,190000,75.70268039467771,-90.01074,6.538247e-25,-47.27799,-0.021695487,7.5465827,1.0,0.5365355,-2.116647,322.1748,23.369938,8.898506,112.04929,111.81937,111.05804,110.986374,4.489115,0.7,-116.96416,-358.8045,0.0009817092,-2.9369447,4.173351,4.0764875,4.1968336,4.034522,5.673384e-07,0.3,2.0123122,88.12985,88.005806,88.00755,88.008736,0.093247384,0.4359375,5.535764694213867,20.496758011976876
20,200000,59.78695085575916,-89.21741,3.4217572e-26,-69.46323,-0.038231146,8.611354,1.0,0.5784365,-1.4124701,409.9201,21.81654,9.426706,113.6053,113.14168,111.80823,112.91852,3.7185795,0.7,-118.83331,-434.3582,0.00072077295,-4.103516,3.6509125,4.0000362,1.6289226,4.7350173,6.780436e-07,0.3,1.7715415,87.428055,87.52571,87.524,87.581436,0.08825078,0.428125,4.497431039810181,21.485019675890605
21,210000,86.00193861644006,-88.67823,1.8021067e-27,-54.33909,-0.0465863,8.577952,1.0,0.34072012,2.761301,414.22415,4.862957,8.954008,113.353386,113.54548,112.459,113.59098,0.70488375,0.7,-116.93412,-425.04468,9.573769e-05,-4.9482436,1.0966884,0.4303174,1.279087,0.335858,1.0653574e-06,0.3,2.2032778,86.41002,86.451416,86.38191,86.32269,0.04210362,0.434375,6.46353816986084,22.505322289466857
22,220000,98.79529361046643,-85.65665,9.4819875e-29,-75.65918,-0.067378946,9.327795,1.0,0.607097,-1.3628583,333.85526,9.480449,8.853151,113.70432,113.13071,112.24089,113.43882,1.4775652,0.7,-116.78787,-436.70703,0.00011042488,-4.9943533,3.5785136,3.9023347,3.3271074,3.4871292,2.9703369e-08,0.3,1.7212424,83.842125,83.92301,83.970276,83.96335,0.07093883,0.45156252,7.600000381469727,23.540784684816995
23,230000,98.16615002863894,-86.5087,4.973928e-30,-75.865654,-0.050459336,9.931427,1.0,1.4224381,4.1919265,797.3432,210.15721,9.339062,111.18989,111.117584,111.12592,111.4649,6.7838926,0.7,-116.60532,-632.73315,0.0006686022,-5.6611886,1.1172948,1.7149388,1.48587,2.2121918,1.7114799e-07,0.3,1.7433743,84.5899,84.63531,84.78695,84.7155,0.12286241,0.4140625,7.493280410766602,24.578010654449464
24,240000,97.64078859493972,-91.54251,2.6170882e-31,-70.522125,-0.0974674,10.756944,1.0,0.8648445,-8.3603525,548.1908,11.572168,12.697982,111.49892,111.63689,111.125916,111.37314,8.327093,0.7,-117.389984,-430.56027,0.0015073528,-4.8446674,9.774069,10.018767,8.583986,8.800793,1.688971e-06,0.3,2.1151347,89.45793,89.47467,89.14604,89.325935,0.12284757,0.35625,7.457814693450928,25.610558954874673
25,250000,97.44736823753009,-89.31711,1.3762645e-32,-42.08582,-0.11111032,10.741797,1.0,0.42003345,-6.8374186,459.82346,10.904435,8.743438,110.77411,110.83973,111.00038,111.11079,3.6654446,0.7,-116.46186,-512.7471,0.0029629702,-3.9811368,8.502421,8.5272255,8.554565,7.8829374,1.370674e-07,0.3,2.2842143,87.086,87.071045,87.19017,87.19001,0.07210797,0.45624998,7.52615761756897,26.64790080388387
26,260000,97.00200759657261,-87.112755,7.2447425e-34,-56.753876,-0.12736265,11.795398,1.0,0.5108502,0.6122184,629.4148,8.825907,12.414884,111.64647,111.88303,112.316376,111.61027,1.6504823,0.7,-115.69209,-868.00824,3.539311e-05,-6.3149023,1.164511,1.510291,1.2084135,0.779147,4.43717e-06,0.3,1.9226335,85.09863,85.14709,85.005585,84.94535,0.07498069,0.44062498,7.486562728881836,27.682598423957824
27,270000,95.9962156405805,-88.72986,3.8264425e-35,-59.070602,-0.115858845,10.712916,1.0,0.63763523,1.0990071,1226.8569,31.5247,9.327368,110.1952,110.43543,110.608345,110.52387,1.423157,0.7,-115.959564,-518.5277,6.656148e-05,-5.8637633,1.9519963,1.7754421,1.3668727,1.7546979,1.774868e-07,0.3,2.1323342,86.556786,86.67364,86.86508,86.744514,0.07117606,0.459375,7.633700370788574,28.71854286591212
28,280000,95.81366567741838,-87.82858,2.0129571e-36,-87.66756,-0.23280013,13.131531,1.0,0.61750865,1.1082276,556.0221,11.763694,9.609108,108.47646,108.31626,108.717384,108.6343,4.281354,0.7,-116.63504,-655.3848,0.0001454103,-11.136911,0.69715965,0.54714656,1.1889389,0.18485522,9.254739e-06,0.3,2.0694528,85.744865,85.764725,85.804474,85.74331,0.0905664,0.5015625,8.065085887908936,29.757369287808736
29,290000,95.28204932106334,-86.425446,1.0627257e-37,-67.18976,-0.2528629,13.710868,1.0,0.5112299,-4.0245,1212.1293,11.009715,8.450371,109.55409,109.60113,108.907196,108.99231,15.23967,0.7,-114.70694,-532.3559,7.820345e-05,-3.1583307,5.8354554,5.7047014,5.394758,5.6002636,1.7462299e-11,0.3,2.1766899,84.25062,84.32187,84.15404,84.21442,0.11426606,0.4265625,7.9486260414123535,30.7918128490448
30,300000,94.75811803545608,-88.569244,5.623094e-39,-74.57535,-0.55260426,22.600916,1.0,1.2063384,-7.047228,520.58777,55.741356,8.548468,108.06124,108.740814,108.49436,108.40566,1.0064446,0.7,-112.73975,-581.12006,0.0014665828,-8.507257,7.70316,8.001294,8.066174,8.1023,4.5264025e-07,0.3,1.9233279,86.58485,86.660995,86.81434,86.72461,0.08053357,0.4203125,7.934724569320679,31.828301735719045
31,310000,84.20635543703412,-85.62192,2.96037e-40,-68.94229,-0.7169648,17.673439,1.0,1.3625889,-2.039328,1314.1722,33.86418,8.512571,109.8299,109.32448,109.378395,109.36656,29.238552,0.7,-114.32472,-717.2462,0.0023458856,-6.243302,3.5605671,3.7607977,2.8341575,2.9941301,4.69666e-07,0.3,1.8929024,83.6566,83.74504,83.23631,83.38771,0.2185564,0.4828125,7.0513365268707275,32.85064476331075
32,320000,92.81956235668594,-84.35513,1.5721e-41,-101.828125,-1.2695624,29.272816,1.0,0.93292385,1.4722602,657.5933,20.989738,9.098603,107.714554,107.852325,108.662895,108.47388,4.635144,0.7,-111.71875,-652.10425,0.00042121188,-5.6986837,0.31938824,1.0112541,0.7211915,0.21872732,1.290976e-06,0.3,1.7006631,82.642265,82.83393,83.031204,82.85085,0.14457722,0.4859375,7.970548629760742,33.87747463385264
33,330000,86.98550127348057,-86.104195,8.35e-43,-74.083145,-2.7865968,43.13899,1.0,0.8941312,0.10972166,736.7009,15.147694,8.792764,107.43886,107.01099,107.05497,107.053085,1.9223882,0.7,-112.049034,-643.213,0.00045412598,-4.6503277,2.0667443,1.9112135,1.350988,1.7788814,6.9849198e-09,0.3,2.0075326,84.158264,84.001274,83.97539,83.942795,0.10226231,0.453125,7.0990917682647705,34.88081748088201
34,340000,89.29352543785538,-85.63512,4.3e-44,-89.5811,-6.4078608,92.3099,1.0,1.4316969,-2.0831764,1041.57,44.1179,13.409168,106.43636,106.371376,106.56976,106.64136,4.1351066,0.7,-111.82663,-763.96906,0.0034329914,-3.678442,3.4325793,2.701307,1.422554,2.4609165,1.69985e-06,0.3,2.1448188,83.75334,83.82234,83.62993,83.56091,0.15063371,0.46718752,7.102358818054199,35.91547184387843
35,350000,87.8845834319348,-83.42169,3e-45,-94.06038,-7.1905875,67.74349,1.0,1.6644931,-1.8340557,991.05536,38.27546,9.320188,106.55344,106.521965,106.3595,106.476456,4.669268,0.7,-110.89957,-629.7421,0.0024614637,-5.1862016,3.261316,3.94231,1.627044,4.969103,1.5763728e-05,0.3,1.9341397,81.743645,81.743614,81.97471,82.02226,0.24583206,0.3859375,7.024322509765625,36.94864185253779
36,360000,86.63717695262596,-82.868866,0.0,-109.50358,-10.047496,79.225945,1.0,1.2168607,-3.3836155,639.66974,14.357639,8.872861,105.740295,106.39939,107.13194,107.04646,2.787858,0.7,-114.38918,-838.26874,2.6863534e-05,-4.5249853,3.9158072,4.3911934,4.692523,4.289157,1.776981e-06,0.3,2.05079,81.374985,81.1535,81.43115,81.21741,0.14214385,0.5078125,7.020882606506348,37.97904284397761
37,370000,90.76142110968966,-86.08226,0.0,-112.58016,-14.863944,68.53182,1.0,1.5372522,-2.1361125,779.1398,70.43739,7.950743,106.78269,107.08153,107.65312,107.51015,3.5750248,0.7,-113.05135,-695.2207,2.6255206e-05,-4.0666456,4.1018696,4.860504,5.4873095,5.224886,7.1960386e-07,0.3,1.9796398,84.278336,84.29434,84.50073,84.43366,0.118158616,0.4171875,7.190355539321899,39.01718683242798
38,380000,80.75473241405253,-85.17135,0.0,-121.51155,-28.778555,232.82654,1.0,2.6162713,-7.9829903,1149.7075,236.91763,8.53852,108.21174,107.73142,107.10382,107.54055,4.2521524,0.7,-110.81091,-1006.5938,0.011600109,-4.7652416,6.0226154,5.738391,7.3551993,7.284954,1.1513662e-05,0.3,1.8364222,83.83213,83.97623,83.76875,83.78331,0.16206616,0.46093747,6.545247554779053,40.03801427682241
39,390000,81.24811498535018,-85.61049,0.0,-124.271194,-31.952778,52.730133,1.0,1.9077027,-8.946742,906.92944,203.07045,8.757569,110.190544,108.7932,108.46717,108.60899,49.45231,0.7,-112.22336,-1101.2754,0.0004556536,-3.8110833,8.647885,9.3917675,10.019962,9.9564295,1.8167776e-07,0.3,2.1992,83.85904,84.11171,83.97482,83.86902,0.32908946,0.459375,6.671574831008911,41.064398916562396
40,400000,81.05781049883983,-82.17215,0.0,-80.609314,-57.163025,141.68056,1.0,1.449908,2.523085,1532.443,35.478455,8.452831,108.09349,107.4506,108.623085,108.3234,5.36784,0.7,-112.04497,-931.5271,0.0007471137,-5.109572,-0.7621025,1.5696384,1.6010797,1.2889125,6.712508e-08,0.3,2.1000237,80.39728,80.3787,80.56098,80.32684,0.18520314,0.50625,6.762441873550415,42.08724226554235
41,410000,75.45273921971555,-80.702835,0.0,-127.13928,-63.574535,252.80786,1.0,1.7471952,-0.2982216,787.51575,65.49303,9.94665,107.707596,107.3058,107.16688,107.03636,2.6952918,0.7,-116.38621,-996.61426,0.0024314527,-4.6163034,1.0981495,1.3578696,1.2706484,1.4542451,1.4709076e-06,0.3,1.6956513,79.806564,79.55084,79.63824,79.59819,0.15114105,0.4421875,6.358539819717407,43.103839580218
42,420000,72.59250258490033,-84.19423,0.0,-151.04886,-55.998898,242.55801,1.0,2.8960958,-5.89755,670.4122,62.93562,8.497571,106.19757,107.16014,106.10154,106.2127,6.9424305,0.7,-111.28483,-935.81244,0.028599795,-5.413354,6.855129,7.4707046,6.224652,6.3763313,1.9900442e-06,0.3,1.763676,82.85228,83.30722,82.293976,82.36327,0.22046688,0.4953125,5.760720729827881,44.1118152697881
43,430000,92.5949221246134,-84.934364,0.0,-110.088394,-79.541306,510.91452,1.0,6.3696933,33.23677,797.26874,545.7552,8.59358,108.10699,107.63814,107.323845,107.21047,18.581877,0.7,-109.53443,-1095.7418,0.008128118,-5.674442,8.273919,8.549958,8.245221,8.515551,2.0861318e-05,0.3,2.1329432,83.88058,83.82004,84.15167,84.09209,0.29474664,0.39218748,7.471341848373413,45.149634857972465
44,440000,79.77314910694908,-81.51082,0.0,-86.57832,-107.775406,128.10335,1.0,1.7733004,1.4701335,1836.0985,39.63256,8.640822,105.2008,104.89982,104.55464,104.18003,9.389803,0.7,-113.3289,-852.12744,0.001210598,-7.5507846,0.93643343,-0.35656315,1.2254233,0.056227952,8.451753e-09,0.3,1.881082,79.904106,79.95208,79.79569,79.59164,0.26113853,0.5234375,6.765178442001343,46.17561695575714
45,450000,91.38887797343736,-82.00139,0.0,-114.22041,-87.72204,93.56055,1.0,1.6725092,1.5562129,894.31287,61.079487,8.613569,104.974686,105.492004,105.28324,105.11674,17.69989,0.7,-109.99183,-943.6417,0.0054822126,-3.369872,1.1004839,1.3773096,1.3432742,0.8107335,6.3074e-06,0.3,1.8400772,80.54836,80.43678,80.35084,80.302864,0.29940957,0.46406248,7.626875877380371,47.21457140048345
46,460000,92.32072391549883,-82.28328,0.0,-126.191025,-117.57599,108.54909,1.0,2.3644133,-2.8707235,814.0942,191.48079,8.385073,104.92418,103.635056,104.59859,104.85509,11.299931,0.7,-111.03661,-773.9946,0.0023528333,-4.7655277,3.6396146,4.817658,1.5297118,3.4961052,2.4295123e-06,0.3,2.1829073,80.43388,80.533875,80.62046,80.621826,0.29498363,0.4109375,7.521258592605591,48.25685857931773
47,470000,84.6736444169686,-80.84262,0.0,-115.77258,-114.603355,96.66712,1.0,2.266606,-3.0627534,894.3874,43.01106,9.577587,105.301094,106.66358,106.32988,104.79969,13.910078,0.7,-109.628525,-937.70184,0.0019836049,-6.6122894,3.6053004,4.332155,4.347628,3.6718743,2.263114e-08,0.3,1.9910045,79.11563,79.12889,79.21806,78.95002,0.22520073,0.459375,7.5999157428741455,49.29310132662455
48,480000,82.69375519096931,-80.37664,0.0,-131.21527,-143.5779,341.41696,1.0,1.7063415,-0.34837198,1356.1104,26.52909,9.767301,105.0386,104.16165,104.43573,104.6111,4.7486157,0.7,-108.5361,-1748.6317,0.005617883,-3.5910184,3.363295,4.3042793,3.8036122,3.7473755,1.3238169e-07,0.3,1.8574352,79.19444,79.01303,79.331955,79.11052,0.16127211,0.4421875,7.6111791133880615,50.3315106789271
49,490000,91.12315707652513,-79.023384,0.0,-173.38602,-187.2439,240.60686,1.0,2.236076,2.5678203,909.30695,178.64632,8.598955,104.92516,104.17883,103.881004,103.95443,2.6340637,0.7,-109.7146,-972.1949,0.00026724592,-7.4291773,-0.9957089,0.735788,1.1708276,-0.72380507,1.8331223e-06,0.3,1.5963998,78.274,78.5016,78.23964,78.12959,0.19526768,0.5,8.16207504272461,51.377797456582385
50,500000,88.03395138630346,-76.703384,0.0,-146.84009,-176.83646,225.88768,1.0,2.486269,139.94508,881.2832,78.76424,9.804533,104.30012,103.69756,103.6073,103.72421,5.318076,0.7,-107.483185,-932.1624,0.0033656303,-6.1023226,2.7384253,1.2380044,1.3844525,1.9800689,1.004976e-05,0.3,1.74118,76.27388,76.10904,76.27246,76.17612,0.23221149,0.434375,7.870173931121826,52.42061295509338
51,510000,91.9476466261806,-78.88542,0.0,-172.58406,-201.07759,458.90674,1.0,11.827426,125.2004,844.8156,1638.7638,8.459471,106.40297,103.9424,105.443275,105.86946,3.9631898,0.7,-107.29573,-1013.75146,0.014185805,-7.401351,-0.9720297,-1.503616,1.1239867,-0.76692337,7.759547e-07,0.3,1.5828533,78.02786,78.434944,78.57512,78.3938,0.2479818,0.4296875,7.893050909042358,53.459180112679796
52,520000,81.7369437992921,-83.094955,0.0,-172.72052,-265.22296,525.7173,1.0,2.4584718,72.47789,1174.5577,56.074097,8.779608,107.21852,104.14434,104.06883,104.85606,12.483809,0.7,-107.031654,-1309.6887,0.00061055575,-6.4762673,-0.31229663,1.8620721,1.3076768,-0.6914311,2.2006861e-06,0.3,1.733165,82.50929,82.78618,82.35736,82.38951,0.26846555,0.421875,7.48209023475647,54.49218703111013
53,530000,87.32220033624174,-79.93028,0.0,-158.89671,-180.65045,203.34932,1.0,1.7086352,-2.2702165,891.2549,34.234894,8.733953,103.83496,103.35555,103.433914,103.8903,2.78735,0.7,-110.46519,-1090.6139,0.0029304323,-6.2130175,3.810824,3.5323038,4.307765,3.157124,4.353772e-05,0.3,1.8343703,78.51528,78.514984,78.49446,78.388245,0.16404428,0.42343748,7.468167066574097,55.52665329774221
54,540000,85.04196849978726,-79.13226,0.0,-162.78415,-210.88121,58.256203,1.0,3.4881544,0.7613797,1008.4946,37.426914,8.526773,105.1115,104.47977,104.23959,103.961685,46.47279,0.7,-109.14348,-1413.9075,0.023494827,-7.4552917,1.7542021,0.6817577,1.2084135,1.0400859,5.1110983e-05,0.3,1.81354,78.52708,77.44624,77.62767,77.43143,0.5936489,0.51874995,6.589677095413208,56.55004857381185
55,550000,82.57230178804022,-80.69664,0.0,-159.22403,-201.8606,27.55965,1.0,2.9871259,0.57440805,1059.5121,39.884808,9.389572,106.321724,111.10787,106.0671,105.94667,5.403105,0.7,-110.428024,-1182.5518,6.82972e-05,-4.16015,-0.7381746,3.8175206,4.6365767,4.269051,9.002234e-06,0.3,1.9157019,78.841774,79.48979,79.173096,78.93509,0.21129566,0.45,6.554482936859131,57.5685845096906
56,560000,81.4798680504511,-81.111496,0.0,-191.7161,-320.68625,1389.8384,1.0,2.689435,-0.4262504,1175.9355,81.51161,9.117414,104.5691,103.75123,103.61062,104.10491,60.269547,0.7,-109.10934,-1364.7548,0.0013076304,-7.748435,0.73814976,1.153147,1.1142905,0.6054067,1.3831887e-05,0.3,1.6283324,79.75159,79.78381,80.14395,80.09738,0.51309747,0.38124996,7.029415130615234,58.60024579763412
57,570000,89.16834444475775,-81.33501,0.0,-157.79433,-296.4227,381.15543,1.0,1.5923969,1.624238,1671.0574,26.44603,9.559289,104.78319,103.518196,104.20874,103.96509,5.233097,0.7,-108.71444,-1309.792,0.0013076728,-4.626469,-3.6283598,2.5506234,1.3789576,0.56448853,1.4709076e-08,0.3,2.2761738,79.382324,79.49814,79.577255,79.53879,0.20974098,0.434375,7.374495506286621,59.63812095721563
58,580000,92.91091713316389,-81.74318,0.0,-138.83588,-247.04654,36.813873,1.0,1.8447784,-2.5360541,1721.723,35.593594,11.726551,103.55899,104.14945,103.710396,103.68255,7.1642523,0.7,-110.223724,-1680.8617,0.0025823389,-4.859139,2.0834546,1.582567,1.2370691,1.8007419,2.7732312e-07,0.3,2.1068544,79.95311,79.87981,79.77696,79.70599,0.2379033,0.4421875,7.557090520858765,60.679790337880455
59,590000,87.3538008428723,-80.619,0.0,-197.38484,-315.6703,258.89102,1.0,2.0544493,-0.26108587,2098.7712,25.557049,10.49424,103.92649,103.86718,103.40935,103.288025,6.534277,0.7,-111.12321,-1415.7107,0.0011697286,-7.1529465,1.612777,2.5373876,3.1386313,2.7656898,1.6976777e-05,0.3,1.9289804,78.94754,79.15016,79.198135,78.916664,0.2981883,0.465625,7.330333948135376,61.71039793093999
60,600000,66.65655072811624,-82.890625,0.0,-142.63803,-480.67276,520.30237,1.0,7.9808664,2.17566,978.8727,861.4374,8.606997,104.35617,104.26845,103.61309,103.90096,8.343057,0.7,-110.42454,-1278.454,0.00031574076,-4.200403,1.8372538,0.9798959,2.0181632,1.7908254,9.077601e-07,0.3,1.8583288,81.53839,81.14389,81.44919,81.35797,0.27147073,0.4640625,5.188713312149048,62.71063671906789
61,610000,87.18987407948391,-79.34859,0.0,-197.72711,-374.98203,521.4039,1.0,3.0321712,0.63130224,1070.3425,75.91257,8.741046,104.29583,104.47042,103.70701,103.3346,10.28038,0.7,-107.84111,-1666.4023,0.0047113113,-6.47565,1.7943227,0.8063657,1.2881135,1.4081382,6.572111e-07,0.3,1.7257591,78.191696,78.17699,78.07678,78.11262,0.37891704,0.43124998,6.926798582077026,63.73705770572027
62,620000,64.5721914183172,-81.41887,0.0,-137.49025,-387.08475,142.8786,1.0,2.7402701,-2.111751,1134.2146,44.245216,9.869917,104.391014,105.100945,104.91442,104.87499,6.3842654,0.7,-110.57948,-1611.337,0.021874785,-5.1252728,3.8484948,5.082514,5.273239,5.3618097,2.6901762e-06,0.3,1.8902745,80.29701,80.41067,80.50467,80.39995,0.28419137,0.44687498,4.856451511383057,64.72877142429351
63,630000,93.40478907465958,-77.73508,0.0,-208.29019,-304.60803,138.3654,1.0,2.143716,-1.6124146,1557.6246,31.44479,11.764529,104.80148,103.509575,103.56007,103.031586,13.146105,0.7,-109.470924,-1347.4326,0.00093676295,-4.2280707,3.6727247,4.11716,4.9499707,4.466485,1.4991209e-06,0.3,1.5383633,76.56562,76.43326,76.42169,76.31392,0.31904256,0.4734375,7.59351110458374,65.75684709151587
64,640000,72.94942235284968,-79.66459,0.0,-151.99048,-480.63034,747.1343,1.0,6.6471567,-3.2063954,1315.3724,100.16063,9.2071085,105.8405,104.74999,104.82191,104.85109,22.614422,0.7,-108.82975,-1411.1765,5.6536883e-05,-10.429073,1.0041573,4.100722,1.7673157,1.885256,7.044418e-05,0.3,1.7084806,78.52327,78.81567,77.38213,77.47116,0.59161586,0.453125,5.643977642059326,66.76074446439743
65,650000,55.541991726124465,-80.819305,0.0,-155.18332,-448.95035,39.000736,1.0,3.4691563,-5.4726133,1295.3284,47.182507,9.691983,103.41031,103.4814,103.75542,103.61543,4.128968,0.7,-109.406746,-1365.4432,0.02040923,-4.3747635,4.9002047,6.606717,4.764451,4.5368805,1.36460185e-05,0.3,2.089577,78.98656,79.30906,78.566986,78.424866,0.27591437,0.49375,4.197405099868774,67.74332127968471
66,660000,60.06677152534241,-77.3593,0.0,-208.99228,-532.1553,1285.4102,1.0,3.7171419,-0.7417083,983.28064,55.510773,9.541532,107.12068,105.4917,105.29125,105.25318,6.7798443,0.7,-108.77797,-1385.4973,0.00209995,-4.676114,4.143129,5.2999816,1.2296852,2.2002394,9.915791e-07,0.3,1.6379685,76.31421,76.645226,75.86892,75.89989,0.31681323,0.471875,4.548762321472168,68.73070283730824
67,670000,63.02322114173644,-80.30211,0.0,-183.51822,-622.77466,562.86566,1.0,1.939397,10.205687,2114.6067,35.78763,12.696701,104.99095,104.43804,104.76015,104.68538,2.5739334,0.7,-112.375275,-1519.3435,0.0045991596,-4.1738505,-1.7668111,1.2015002,1.3755053,-1.2441971,1.08486975e-05,0.3,1.8630303,79.01921,79.14073,78.911896,78.83705,0.21343246,0.4359375,4.830140113830566,69.71835847298304
68,680000,58.85540958367167,-81.34575,0.0,-181.15004,-504.2421,61.961708,1.0,3.8916864,-2.1877146,1518.873,133.35202,10.088327,104.098755,102.351654,102.623146,103.20733,9.352912,0.7,-109.45513,-1359.0693,0.011034168,-5.2554793,3.7151883,3.8839092,2.8034449,2.8673396,2.9929681e-06,0.3,2.0346427,79.674,79.70891,79.834274,79.686424,0.28678936,0.4375,4.4817657470703125,70.70773310661316
69,690000,72.02837620123964,-78.966644,0.0,-145.46039,-556.66187,190.17474,1.0,3.2705173,0.16243064,1477.6158,85.856964,8.162131,102.27417,102.434235,102.3159,102.27955,11.116725,0.7,-107.12904,-1217.3188,0.0017426331,-7.663344,2.3968275,0.6218609,3.278171,3.0059228,3.3960853e-06,0.3,2.040425,77.66791,77.780975,77.870895,77.653076,0.30364972,0.4609375,5.5876054763793945,71.71160784959793
70,700000,58.37262947417358,-77.60437,0.0,-183.44153,-619.3087,691.6674,1.0,5.3136463,-2.6591353,1403.5068,202.4454,9.099017,103.26355,105.43098,104.16251,104.26567,11.413774,0.7,-107.5557,-1638.2792,0.017132033,-3.693372,3.6426785,3.1972806,6.361414,5.3309174,0.00020371443,0.3,1.8393174,76.257095,76.71834,76.92205,76.80887,0.3547188,0.40937498,4.494486093521118,72.69831606547038
71,710000,57.91131267869516,-75.45508,0.0,-230.09296,-396.55194,914.9391,1.0,2.4615064,2.7282882,1452.1659,75.84275,9.331215,105.178986,107.830414,104.12513,104.03654,24.631155,0.7,-109.89566,-1695.6898,0.00027242908,-6.8646984,0.61222845,0.7067494,1.1661725,0.4473977,1.9252184e-09,0.3,1.6567314,74.374275,74.499695,74.28104,74.13072,0.31973374,0.4734375,4.5740439891815186,73.68767459789912
72,720000,55.83872388965554,-79.40204,0.0,-161.73853,-450.36816,352.15475,1.0,3.4222488,-2.468155,1755.3751,89.060455,7.147797,101.43883,102.295784,101.18782,101.38641,22.035627,0.7,-104.69783,-1939.8219,0.004865197,-3.8151968,2.780476,0.58189714,2.8944886,1.8210361,3.8246626e-06,0.3,2.0439446,77.7917,77.83816,77.97946,77.86186,0.4586758,0.403125,4.293378114700317,74.67246675888697
73,730000,65.59494137246975,-76.74562,0.0,-198.80438,-513.15314,138.0169,1.0,3.9364295,95.45634,2219.8052,409.33298,16.546354,103.69227,102.56149,104.63221,104.28071,32.00876,0.7,-111.69329,-1307.4924,0.00041077205,-4.088647,0.5010336,1.4886718,1.2645403,1.4009359,9.154505e-06,0.3,2.024994,75.8365,75.9411,76.150085,75.99301,0.36555204,0.421875,5.249762296676636,75.66698838472367
74,740000,60.54981751514459,-79.91835,0.0,-228.01562,-487.59332,42.1875,1.0,2.4660735,1.8852925,2532.5127,57.18375,10.782183,104.8358,103.2548,103.364395,103.08593,5.2513313,0.7,-110.87265,-1758.8207,0.0007543236,-5.924036,1.7476649,-0.31755036,1.3999162,0.09285128,9.1677066e-07,0.3,1.9684334,78.5535,78.51752,78.46459,78.35306,0.23991007,0.4515625,5.081579208374023,76.66290239493053
75,750000,58.8444357035121,-80.101814,0.0,-267.87366,-386.83057,52.640606,1.0,3.0865536,0.21375847,1422.4097,131.63132,8.400901,101.06743,101.62793,101.35991,101.52817,35.15075,0.7,-107.574005,-1533.2477,0.0013142475,-4.3672733,2.076692,3.461782,3.3029509,3.3706748,2.4165029e-06,0.3,1.7688075,78.8761,78.7664,78.79407,78.63941,0.45723104,0.496875,5.43459939956665,77.66315789222718
76,760000,59.628787745261214,-77.47647,0.0,-155.36325,-545.5319,100.03623,1.0,4.2036247,-2.1999762,1551.5237,167.16953,9.292122,102.204216,102.25763,101.05168,100.85511,6.9668045,0.7,-106.4496,-1930.161,0.02019075,-4.0137815,4.0953465,2.11228,1.5814292,1.499783,5.4580855e-06,0.3,1.8882875,76.18137,75.91589,76.02593,75.96686,0.2967194,0.42343748,4.712657690048218,78.6526339173317
77,770000,53.78500405725064,-75.438065,0.0,-259.91296,-926.6915,1289.2341,1.0,8.576324,3.4404793,2355.5989,1530.4031,14.2077055,101.60123,103.90351,102.09704,102.15203,6.192173,0.7,-103.8709,-1559.0378,0.016881809,-6.209346,0.5093926,0.30772364,1.2677505,-2.0629911,2.4035282e-06,0.3,1.6545751,74.32612,74.38295,74.55112,74.34099,0.352151,0.459375,4.224897861480713,79.6317310889562
78,780000,72.91205551146996,-74.84961,0.0,-260.00726,-888.4134,772.8424,1.0,9.668032,4.2163877,2713.4534,134.85236,12.205135,101.96771,105.67254,101.08769,101.09395,5.781578,0.7,-106.51628,-2429.4805,0.007127974,-8.174827,1.2639141,-2.7094982,0.49263638,0.9656791,4.742593e-05,0.3,1.8571781,74.51827,73.785034,74.16444,74.19023,0.35661107,0.42343748,5.8367109298706055,80.63955514033636
79,790000,74.80900628473142,-76.63199,0.0,-255.32922,-832.84766,749.061,1.0,3.5696487,-0.10447729,1151.7086,194.3965,9.508715,101.005684,102.714485,103.5259,104.071884,45.16079,0.7,-105.500626,-1513.498,0.00479403,-6.268173,2.0484765,2.5941653,1.3038453,1.4413393,5.3497893e-06,0.3,1.7876058,75.18995,75.33436,75.22139,75.050316,0.55446196,0.49062496,6.335720062255859,81.65359546343485
80,800000,59.769487399073284,-76.62437,0.0,-247.16087,-843.30664,220.70622,1.0,2.6148014,5.459233,1507.6215,45.59939,8.697022,104.31049,103.05128,104.1923,104.334366,6.532301,0.7,-107.522736,-1852.5446,0.01203793,-5.5037794,-1.0319492,-1.322288,1.217558,-0.9218277,1.5959424e-05,0.3,1.8970804,75.236206,75.11183,75.29419,75.08757,0.31928426,0.475,4.592480421066284,82.63943305015565
81,810000,54.89350382640319,-76.70664,0.0,-145.78397,-831.34686,302.55923,1.0,3.4930983,3.8428028,1951.7614,150.6086,10.756924,103.52078,102.11254,102.80498,102.571526,23.924168,0.7,-110.73268,-1611.6317,0.0020717178,-4.4441457,0.021343112,-0.73265773,1.1230572,0.5508835,1.0391086e-07,0.3,2.047801,75.15936,75.139206,75.297424,75.15694,0.42317545,0.4609375,4.3255767822265625,83.62512237628302
82,820000,58.6314051955503,-76.65893,0.0,-268.8188,-995.48193,830.2999,1.0,3.3225393,-1.4714093,1439.6416,71.83298,8.429466,102.260796,101.91819,101.308784,101.23519,13.535223,0.7,-107.53218,-1828.9143,0.00037257292,-4.9757433,5.2187576,3.5275064,4.182309,3.9228797,3.149586e-05,0.3,1.7550099,75.77252,75.644684,75.57637,75.427315,0.4324307,0.4859375,4.576440811157227,84.61780729691188
83,830000,51.75304005410931,-76.12761,0.0,-255.76129,-921.1919,65.93276,1.0,2.9234037,2.2906785,1776.48,82.2697,8.560546,100.78843,100.62136,101.13704,100.92061,16.289822,0.7,-108.58892,-1660.0756,0.0073289517,-4.220554,0.40376502,-0.21830595,1.1830101,0.81720227,1.0653574e-06,0.3,1.7866446,74.89777,74.72408,74.94292,74.70887,0.38215375,0.465625,4.075901508331299,85.60155956745147
84,840000,71.77941213998362,-75.25116,0.0,-191.82213,-534.02655,59.816418,1.0,38.078934,7.479421,1515.3229,254.68045,8.706961,98.67254,98.99415,102.55676,100.96686,7.551748,0.7,-104.99493,-1961.8458,0.010653552,-5.7706156,-5.2019424,-6.5046353,4.5833855,3.3171976,0.00046990876,0.3,1.8544081,74.028244,74.21375,77.68965,77.13301,0.6486604,0.453125,5.6938841342926025,86.60575483242671
85,850000,52.220844440720334,-76.16058,0.0,-197.5564,-467.26862,63.950787,1.0,2.8643818,-1.0966147,2074.6985,66.650276,9.731174,99.08032,99.82734,99.1448,98.81876,10.655331,0.7,-105.78197,-1822.5854,0.002546159,-5.0578384,1.7438195,1.8950077,1.3455375,1.1197865,3.5240663e-07,0.3,2.0315742,74.83235,74.55816,74.48134,74.4057,0.32699347,0.465625,3.984170436859131,87.58414146900176
86,860000,51.31924720410722,-76.34773,0.0,-146.26259,-1160.7737,1776.1683,1.0,3.6173563,2.0632703,3184.1492,144.81276,13.799601,99.70253,99.19698,98.826904,98.53961,20.379211,0.7,-105.276276,-1956.711,0.00070474495,-6.7044473,-1.5563706,0.15518951,1.2629267,0.558845,1.9620639e-07,0.3,1.995209,75.10691,75.27869,75.130875,74.96023,0.3622657,0.496875,3.928091049194336,88.55819548765818
87,870000,50.874847148448275,-74.42624,0.0,-214.36108,-596.08844,35.725636,1.0,3.2169912,1.5559223,3244.6865,74.522835,12.679669,99.134544,100.40617,99.4369,99.258804,3.2104743,0.7,-104.41224,-2430.3174,0.0014108284,-6.9311104,2.6199691,2.0041854,1.3723752,1.6967258,3.4979487e-06,0.3,1.9027125,73.014755,72.83344,72.72197,72.62687,0.27025747,0.4421875,3.8619208335876465,89.53591498931249
88,880000,72.3368956529426,-75.35721,0.0,-297.6986,-750.9109,975.0513,1.0,5.1834116,-3.6970615,1372.7313,46.77078,7.742464,98.54015,99.31386,98.10989,97.8427,9.849102,0.7,-103.988686,-1966.3535,0.019350268,-8.237466,3.9658747,4.7982826,3.4501717,2.797823,4.739984e-06,0.3,1.8158342,74.61864,74.02711,73.82551,73.73601,0.4190995,0.46718746,5.627774000167847,90.538511912028
89,890000,75.72543970660071,-74.48596,0.0,-224.14108,-881.90247,44.21749,1.0,2.1333506,-1.5858012,1994.6156,24.36788,10.424443,98.40424,98.74538,99.65274,98.506065,5.0411296,0.7,-105.33862,-2374.0642,3.758876e-05,-5.217331,2.0534477,1.9795467,2.1846776,2.0234096,9.167707e-09,0.3,2.1341553,72.951515,72.77983,72.93384,72.74347,0.26450324,0.4578125,6.037466526031494,91.55238281091054
90,900000,70.2152531705995,-75.30611,0.0,-197.29437,-1186.1948,1285.2031,1.0,3.675839,-2.9252546,3034.6719,76.97658,15.418316,99.02223,100.15318,98.39,98.378586,26.65309,0.7,-103.51531,-2206.7725,0.0061534536,-5.958462,3.0108678,4.7901473,5.505945,4.9599743,1.149997e-06,0.3,2.2927766,73.87716,73.85744,73.89687,73.68563,0.57489324,0.4515625,5.4841978549957275,92.55385698874791
91,910000,68.80151221250908,-75.030365,0.0,-242.27676,-1175.4686,98.08451,1.0,8.089115,-0.6561456,1660.8009,122.2156,8.887756,98.28195,104.08367,98.383766,98.34324,77.70433,0.7,-103.984276,-2098.9358,0.0034427943,-6.6838975,1.4273646,2.703875,1.3224615,2.1770985,6.519258e-08,0.3,1.8575695,73.66132,74.71127,73.77248,73.61771,0.54856384,0.459375,5.412552356719971,93.5511616786321
92,920000,72.66773352003243,-77.02132,0.0,-209.20676,-1215.8451,597.2715,1.0,3.1955657,-0.22442603,1619.0818,68.63981,10.215842,98.96658,98.98401,98.92829,98.914024,12.8292055,0.7,-104.30778,-1812.8632,0.005924017,-5.1587343,2.7367175,1.8917542,1.3095435,1.2944815,5.1060456e-06,0.3,1.9496022,75.62649,75.391754,75.28572,75.17041,0.272851,0.45468748,5.797619104385376,94.5569142460823
93,930000,80.97754686292839,-73.73092,0.0,-240.64005,-1437.4121,2973.9026,1.0,9.009296,-5.968626,3945.5515,977.9249,10.134948,98.81844,98.95653,98.40239,97.92634,6.7884645,0.7,-103.75,-2268.2864,0.005425198,-7.673342,6.9036074,7.3271127,8.870709,8.392976,4.6824975e-06,0.3,1.6613948,73.13678,72.536995,72.826416,72.69311,0.3862594,0.4578125,6.573482990264893,95.5781856417656
94,940000,59.346874003316216,-75.036224,0.0,-272.35074,-961.86145,45.660645,1.0,2.7581854,1.5790923,1574.7828,49.094807,10.051685,99.03724,99.0428,99.48109,99.11798,6.060034,0.7,-103.097885,-2171.716,0.003194295,-6.465782,2.9866328,1.4398081,1.8858001,1.8694947,4.316981e-06,0.3,1.6975121,73.77976,73.75579,73.765945,73.59892,0.36907673,0.453125,4.781708240509033,96.57004732290903
95,950000,69.14760673037217,-72.75227,0.0,-273.14297,-1008.5084,1186.1527,1.0,10.134658,3.234188,1721.7936,1296.7524,8.227377,97.89023,97.641815,97.27875,97.15506,94.31549,0.7,-102.65897,-1657.4875,0.014355864,-5.8889775,0.91393554,-1.2051605,-0.31627858,-0.24488163,2.2258162e-05,0.3,1.792458,71.85426,71.472496,71.86601,71.67119,0.8619001,0.47031248,5.626492023468018,97.57445114850998
96,955000,82.64401692145417,-73.676414,0.0,-225.10387,-1331.3918,3975.4126,1.0,6.821866,1.4291472,2016.76,808.478,7.6810713,98.71321,98.322876,97.988884,97.35576,5.8873544,0.7,-102.26503,-2247.0803,0.01707333,-6.527751,2.29487,1.5319564,1.1657854,0.33050346,8.250936e-08,0.3,1.799045,72.4519,72.323,72.40196,72.32264,0.34191978,0.44843748,6.763593912124634,98.1413674791654
97,960000,73.86477468799076,-73.53996,0.0,-251.96878,-855.9428,2141.3748,1.0,3.8159628,1.7198392,2564.5093,243.9352,9.024022,99.2521,99.40999,96.75296,97.20747,8.146949,0.7,-104.12673,-2472.6436,0.012377359,-6.225177,1.3666134,2.1953087,2.4557297,2.0339038,4.411257e-05,0.3,1.6471279,72.3441,72.38425,72.39698,72.280174,0.33386528,0.43124998,6.067750692367554,98.69701743920645
98,965000,66.06012814004318,-74.12393,0.0,-277.42184,-640.33154,38.314106,1.0,3.2917984,-1.659246,1751.5219,129.814,8.999452,97.10405,98.29979,97.328415,96.69781,10.268217,0.7,-104.59797,-2265.502,0.0072054304,-5.361318,2.3466594,1.5295324,1.902873,1.7853446,2.3665314e-06,0.3,1.5534867,72.98472,73.03201,73.13483,72.98821,0.38145083,0.428125,5.321449279785156,99.24038260777792
99,970000,73.51335255169278,-72.041794,0.0,-296.22772,-1331.4536,239.42003,1.0,3.8533118,0.80003303,1600.4839,178.69829,8.663826,99.08483,96.997925,97.2592,98.81343,35.073296,0.7,-103.883575,-2235.5933,0.0033785966,-5.7707553,-0.3537802,0.67446804,1.3050425,-0.09926194,4.1153834e-07,0.3,1.6619828,71.2011,71.49367,71.47548,71.25087,0.4226797,0.4640625,6.244997501373291,99.8009461959203
100,975000,74.57914163795925,-71.344444,0.0,-320.58527,-1639.349,4452.275,1.0,16.020836,42.28875,1924.4471,1258.5383,8.906009,98.610214,98.99959,98.94349,98.85095,55.882893,0.7,-103.93869,-1789.1016,0.0043775765,-5.7046146,0.5385319,0.72138846,1.3052474,0.80417347,1.0596839e-05,0.3,1.5650036,70.963585,70.77597,71.5625,71.36087,0.5913012,0.4328125,5.863980054855347,100.35258102416992
101,980000,70.24083016656016,-69.378845,0.0,-226.23811,-1771.8768,4358.813,1.0,8.988121,1347.8458,1776.525,1074.868,10.462558,99.666565,101.64487,98.067665,97.671,30.767483,0.7,-104.03333,-2044.4706,0.011845661,-4.6300826,-0.20146513,0.6835196,1.2007418,0.26600313,2.8360346e-06,0.3,2.0520587,73.85612,73.845726,74.11902,73.915,0.48677647,0.4515625,6.122631072998047,100.91134975751241
102,985000,65.998186829758,-73.36657,0.0,-287.64026,-1364.5114,653.09845,1.0,3.760623,-4.179488,1592.8827,65.17178,8.495592,97.07194,98.65879,96.39412,96.750275,9.689983,0.7,-101.97108,-1997.2305,0.0007797464,-7.262824,6.5373025,5.313682,4.7952805,4.6252546,9.280182e-06,0.3,1.8262205,72.225845,71.99085,72.04494,71.92438,0.37892032,0.446875,5.389143943786621,101.45751864115397
103,990000,84.5713171964899,-71.1302,0.0,-340.4898,-1013.30286,54.56783,1.0,3.2360468,-0.2661674,2118.2832,55.879505,10.435125,97.30246,97.5729,96.94621,96.87452,7.170071,0.7,-101.72591,-2691.5886,0.00013285184,-4.2982926,1.6639047,2.2934747,1.6503696,2.8032184,1.0705943e-05,0.3,1.6531892,69.98652,70.064865,70.06529,69.75781,0.36656994,0.45937502,7.036773204803467,102.0304663181305
104,995000,85.60744673992394,-72.71091,0.0,-257.71027,-1016.4645,58.825405,1.0,2.843309,3.6223826,1781.527,77.10756,9.034921,97.38233,99.189674,98.58571,97.72328,13.312931,0.7,-104.118965,-2671.3247,0.0037648082,-5.4320946,-1.807868,-0.40695846,0.077418566,-0.45650083,1.9252185e-07,0.3,1.9145143,71.55679,71.53139,71.621445,71.360146,0.3524832,0.44062498,6.738553285598755,102.58813413381577
105,1000000,75.31502792147589,-77.22371,0.0,-196.74191,-1536.9739,130.33386,1.0,7.81918,-2.1507874,2310.6292,171.86461,10.029006,96.54882,106.10279,97.122086,97.616684,6.899798,0.7,-101.6985,-2164.0076,0.013431309,-6.0068145,1.5468012,1.6807265,4.881783,4.017184,1.0033208e-05,0.3,1.852587,75.82611,76.647606,76.80011,76.469574,0.35066217,0.47031248,6.088355779647827,103.13586117426554
