Xixo99/comfo/baselines/comfo7_perterbation_both_actor_and_critic/20230224_alphaQ0.0001/hopper-medium-v2/COMFO7_s2_20230224_125854_hopper-medium-v2_65.50.csv
,step,reward,actor_loss,alpha,alpha_loss,avg_conservative_loss,avg_smooth_loss,conservative_weight,critic_loss,max_actor_loss,max_alpha_loss,max_critic_loss,max_mle_prob,max_q1,max_q2,max_target_q,max_v,max_value_loss,max_weight,min_actor_loss,min_alpha_loss,min_critic_loss,min_mle_prob,min_q1,min_q2,min_target_q,min_v,min_value_loss,min_weight,mle_prob,q1,q2,target_q,v,value_loss,weight,eval_time,time
0,0,5.720677332400641,,,,,,,,,,,,,,,,,,,,,,,,,,,,,,,,,,,,
1,10000,42.87484168787761,-42.374596,0.06701456,-4.245105,-0.001769151,1.8389803,1.0,0.21073098,0.61320853,12.938349,4.3502774,7.744882,58.914,58.929897,59.021355,58.411263,0.5802385,0.7,-59.827496,-23.537954,0.0004815614,-3.4831793,3.1066976,2.933744,3.6278648,3.373831,5.0655655e-07,0.3,1.6886489,40.796646,40.79567,40.885742,40.21067,0.038221247,0.42343748,3.375736713409424,2.817814270655314
2,20000,62.329743931690096,-64.60701,0.003752572,-7.317398,-0.0058242227,3.6504784,1.0,2.5639558,1.3787134,27.358938,323.9203,9.261255,85.66225,85.77799,84.516754,84.58302,11.174039,0.7,-89.1183,-36.369232,0.006864085,-4.474935,-0.41258153,-0.52150655,-1.111006,0.31692192,5.347829e-09,0.3,1.6542904,62.759308,62.79087,62.27727,61.86756,0.23845363,0.58906245,4.846128940582275,3.802558942635854
3,30000,56.21041525470206,-77.33055,0.00020043313,-12.705051,-0.003710055,4.7868133,1.0,0.8565509,-2.1804872,75.11323,20.734741,7.6511083,99.14926,99.06774,98.53552,98.22946,7.5848184,0.7,-104.3622,-79.282135,0.00023572729,-4.361966,4.5578876,3.5510333,3.3718123,3.5871682,3.7550925e-07,0.3,1.6741999,75.67047,75.68428,75.38782,75.27586,0.11815435,0.50625,4.248006820678711,4.780020070075989
4,40000,44.69826555966977,-86.08295,1.0575705e-05,-11.761358,-0.0030514938,5.9861026,1.0,1.566346,-4.3465595,65.56131,28.997654,8.32096,104.39185,104.24966,105.444305,105.067924,1.809847,0.7,-111.805565,-73.30152,0.0021776718,-5.6027756,3.0540237,4.1862774,2.9648104,3.3721356,7.5362624e-07,0.3,1.7170002,84.126274,84.06395,84.49736,84.3212,0.1046457,0.44843748,3.46718430519104,5.74073623418808
5,50000,48.5098725886439,-85.882675,5.5087634e-07,-13.935151,-0.007267167,6.9441085,1.0,1.374598,0.13941634,109.32921,30.689793,8.499258,109.39515,109.37983,109.223785,108.95316,15.327855,0.7,-113.67139,-108.711655,0.00078633014,-6.396005,3.1130505,3.615624,1.2454926,1.3977518,1.9398867e-07,0.3,1.5112735,84.05123,83.946686,83.81641,83.75998,0.22032093,0.4453125,3.6727099418640137,6.705911950270335
6,60000,40.89644485655308,-90.58348,2.8883237e-08,-15.236127,-0.0055282568,6.9930353,1.0,2.4681203,0.52235866,218.21524,127.031715,13.374616,110.97817,111.0513,112.25819,111.47166,2.1795359,0.7,-117.03207,-113.52444,0.0026172856,-4.120121,2.7505364,1.6475945,2.4005208,3.9163153,9.045878e-07,0.3,2.0209088,88.57383,88.54797,89.29238,89.095436,0.11322352,0.3875,3.155062675476074,7.661435564359029
7,70000,41.64470876947583,-92.530655,1.5110904e-09,-14.335637,-0.015507949,7.255609,1.0,1.0502666,-1.9969381,191.41959,71.42017,10.797112,112.63539,112.58391,112.04878,111.994896,2.2818136,0.7,-117.278625,-149.1069,0.0044814725,-5.1773753,3.66141,3.6226437,2.7575824,3.1090593,5.6577846e-07,0.3,1.7624412,90.43065,90.56101,90.15129,90.26584,0.11551163,0.52500004,3.298847198486328,8.621975386142731
8,80000,49.83350823411172,-90.95508,7.9282844e-11,-19.41837,-0.021760806,7.981239,1.0,0.83528125,1.3111494,196.54955,34.249268,8.522298,112.904366,112.63358,113.28064,113.18433,10.932597,0.7,-118.456955,-189.68436,3.4724188e-05,-8.905701,0.68165964,0.1669846,1.2506351,1.3279566,3.315059e-05,0.3,1.8944194,88.871864,88.87073,88.72885,88.912994,0.15715158,0.41718748,3.8247880935668945,9.591182327270507
9,90000,49.141523703337256,-90.7094,4.152329e-12,-29.727047,-0.005382491,7.8720775,1.0,1.4317707,-0.68098235,260.03165,77.11685,9.183172,112.62298,112.286316,112.652245,112.63672,5.1661963,0.7,-119.348076,-236.7076,0.00018972444,-5.3732667,2.9475107,2.9574194,1.3270546,2.5970564,5.657785e-09,0.3,1.6679239,88.864365,88.78732,88.57174,88.71337,0.14153394,0.45468748,3.8010454177856445,10.556705729166667
10,100000,50.680642335858764,-90.93457,2.1742855e-13,-23.518595,-0.016418688,7.6353364,1.0,0.57330346,1.50928,183.66808,22.491444,8.018873,110.89177,111.07225,111.355034,111.0969,2.5606005,0.7,-117.346855,-214.77565,0.00046876224,-9.476304,0.38124955,0.10415901,1.3608145,0.795761,1.0825635e-06,0.3,1.953974,88.89636,88.901985,88.86549,89.007385,0.09967697,0.36249995,3.904862403869629,11.524686483542125
11,110000,51.88452466604523,-91.07376,1.1390344e-14,-22.01205,-0.012870747,8.717344,1.0,1.3846555,-5.0743275,296.0588,201.36914,13.675615,113.05651,112.92673,113.21626,113.15268,1.3291335,0.7,-121.68449,-213.83961,0.00017063797,-5.034317,5.5660486,5.70617,5.976696,6.000044,1.6430276e-05,0.3,2.102026,88.80954,88.80513,88.58308,88.84193,0.08046128,0.440625,3.94879412651062,12.49249359369278
12,120000,45.14836923691894,-90.018936,5.966491e-16,-26.010181,-0.02746723,7.943476,1.0,0.8815055,-2.4532604,383.91147,11.933401,9.885519,112.45841,112.33337,111.90059,112.10615,1.6440902,0.7,-116.06342,-286.04636,0.0005199833,-4.5124335,3.5617445,3.0722525,2.5508454,2.973762,9.3989075e-07,0.3,2.1003504,87.89555,87.86056,88.14082,88.11385,0.09107048,0.47031248,3.466549873352051,13.451608415444692
13,130000,52.35095489149841,-90.61567,3.1186036e-17,-35.893265,-0.03977022,8.681666,1.0,1.250478,1.0465602,248.21234,25.334166,8.994025,110.86102,111.11606,110.969284,110.495285,4.319382,0.7,-118.62403,-343.8589,0.0006374098,-8.091303,0.7295073,0.54476506,1.4000299,0.43353134,2.9068442e-06,0.3,1.8376007,88.75009,88.70477,89.16135,88.837265,0.123960964,0.515625,4.045206785202026,14.420679712295533
14,140000,46.18177939948949,-88.05748,1.6306983e-18,-48.42211,-0.015686203,7.9907813,1.0,0.7988341,-0.36863184,295.68164,27.688505,8.463316,112.60719,113.28332,112.500984,111.751,1.2620853,0.7,-118.58431,-365.05276,0.00021123589,-4.6544,3.8304315,3.466138,2.933563,3.5518909,7.852487e-06,0.3,1.8683436,86.29526,86.21008,86.03854,86.14619,0.07826124,0.38437498,3.5035481452941895,15.371051474412281
15,150000,50.5741052951438,-90.716064,8.510734e-20,-49.104076,-0.036755633,8.973075,1.0,0.5726034,-4.349985,295.3803,16.386658,9.297159,111.70778,111.57118,111.822105,111.33013,2.0105011,0.7,-118.19955,-404.50952,0.0007117097,-8.09117,5.6601443,5.198643,5.588052,5.7431645,5.6577846e-07,0.3,2.0624368,88.710464,88.66142,88.73243,88.69206,0.08835103,0.4421875,4.234220504760742,16.343095378081003
16,160000,67.54904628100672,-90.20972,4.444238e-21,-42.949997,-0.02740549,8.540904,1.0,0.71536314,0.42803657,576.962,14.728094,11.836112,112.50534,111.59046,112.42131,110.714745,1.5928102,0.7,-116.247635,-344.89926,0.0010315767,-4.251681,0.13741338,0.38666674,1.4377005,0.23631108,3.042631e-07,0.3,2.166628,87.98825,87.9827,88.25771,88.164764,0.08359578,0.428125,5.393631458282471,17.330811750888824
17,170000,99.36833868381892,-88.46953,2.3150076e-22,-38.925873,-0.041898027,8.644953,1.0,0.86010605,1.2293069,391.4068,45.445824,14.996871,109.653305,109.64985,109.96073,109.657196,3.7705095,0.7,-115.407394,-359.04935,0.00019235094,-5.9905796,0.28363198,0.2685592,1.1300842,0.053500727,1.5429687e-07,0.3,1.9245396,86.54526,86.55954,86.7531,86.79378,0.14978692,0.39375,7.84949517250061,18.359245550632476
18,180000,92.42266021683751,-89.94158,1.2135082e-23,-46.59472,-0.07466431,8.704722,1.0,1.5603894,-1.2469923,352.8027,58.020844,8.411825,110.29094,110.40171,109.740204,110.04726,5.6231475,0.7,-116.248634,-418.40295,0.000838229,-4.8192883,1.8048589,1.5589623,1.4396088,1.8008977,1.7968705e-06,0.3,1.9861369,87.867294,87.8654,87.2849,87.69,0.14080012,0.35468748,7.250005483627319,19.377764840920765
19,190000,97.16180599195489,-89.16417,6.349039e-25,-78.845695,-0.054712694,8.227487,1.0,0.6283717,1.6441414,274.47083,16.853065,8.670643,110.16712,109.83288,110.64396,110.74354,1.2805943,0.7,-114.93962,-461.39224,0.0012998106,-4.483798,0.025714248,0.7110007,1.1239867,0.5706487,3.6469837e-06,0.3,1.7182207,87.45707,87.405075,87.51456,87.61223,0.076727845,0.4390625,8.06696343421936,20.409433098634086
20,200000,93.90555688238732,-86.70285,3.321013e-26,-63.495777,-0.0776359,9.080052,1.0,0.77765816,1.5347632,370.47177,6.8721967,8.614347,109.42327,109.48337,110.77695,110.93062,1.1954359,0.7,-115.21153,-478.11932,0.00010029372,-4.293888,-0.1581153,-0.012536883,1.3663375,0.7977356,1.4483929e-06,0.3,1.8206342,84.72837,84.75949,85.156746,85.10705,0.05415134,0.4328125,7.317496299743652,21.43141819636027
21,210000,96.23866461997362,-87.46011,1.745696e-27,-56.659187,-0.06310653,9.141284,1.0,0.64119554,1.4062933,552.1115,22.319714,13.586654,112.14538,112.55118,111.34171,112.67717,1.2172829,0.7,-118.534065,-618.36914,0.0005540467,-3.5815883,0.80541,0.7130027,1.1582923,1.1229377,1.9511486e-05,0.3,2.09604,85.30333,85.38226,85.614044,85.56373,0.081473544,0.38906252,7.475095748901367,22.45588910182317
22,220000,96.66414066773896,-90.110054,9.177505e-29,-61.88417,-0.097496144,9.099906,1.0,0.3813841,0.7179885,502.12897,6.2114596,9.275976,111.54882,111.19304,111.53444,111.58278,1.6662172,0.7,-115.59857,-485.17838,0.0013544366,-4.907355,1.5468062,1.5134292,1.2877579,2.1085663,2.3093891e-09,0.3,1.9600971,88.08383,88.089714,88.2468,88.339005,0.08579262,0.34687498,7.48451828956604,23.482913478215536
23,230000,95.74215597398961,-87.484955,4.8362215e-30,-62.60109,-0.07562455,10.081499,1.0,0.65352345,0.7005367,804.4517,13.456488,13.459261,110.53215,110.96348,110.140076,109.75616,2.1987207,0.7,-117.19983,-419.4397,0.0014764809,-5.7441406,1.2277248,1.205498,1.2627865,0.64484966,1.261651e-07,0.3,2.0887115,85.33147,85.345375,85.26798,85.22175,0.08745457,0.4359375,7.757957935333252,24.51380085547765
24,240000,95.97791515434687,-90.053406,2.5597812e-31,-55.251236,-0.11238422,10.674067,1.0,0.6557701,-1.2757518,976.8711,14.072117,8.888208,109.71176,110.07465,110.17674,110.81667,1.0717187,0.7,-114.499054,-775.2432,0.001007618,-4.918996,2.2631497,2.3232627,3.0039272,3.2276535,1.7968704e-08,0.3,2.1590748,87.95255,87.8696,88.12505,88.227325,0.06728819,0.38281247,7.744530200958252,25.54925466775894
25,250000,94.49008687381738,-89.556015,1.3500057e-32,-65.81058,-0.13651417,10.494669,1.0,0.68344957,-1.498846,527.1513,16.38037,8.983294,111.00311,111.19463,111.06473,110.9158,2.2482672,0.7,-117.795,-638.62866,0.0010564897,-3.9876037,3.5187526,3.7743468,3.982657,3.6779716,4.69666e-07,0.3,2.0520523,87.3365,87.37666,87.179,87.2532,0.07474728,0.45625,7.520383358001709,26.574949006239574
26,260000,93.6186274373992,-89.39078,7.132423e-34,-68.44592,-0.18041478,11.618736,1.0,1.1777222,0.016056597,548.82666,117.2784,9.530903,110.23301,110.18668,110.084625,110.09359,0.8061664,0.7,-119.7478,-497.61414,0.001310867,-5.2612906,0.64588284,0.780328,1.2910259,0.8619201,3.042631e-07,0.3,2.0475762,87.38656,87.387634,87.19304,87.34778,0.057629935,0.4984375,7.675676584243774,27.608856292565665
27,270000,91.13618723843155,-90.11258,3.7975628e-35,-77.72394,-0.29803455,13.578755,1.0,0.57154286,-9.325737,561.3467,11.701262,8.73679,109.64363,109.96585,109.601,109.77741,14.7897415,0.7,-116.20657,-604.16766,0.0003452138,-6.315448,8.416394,8.286822,7.657634,7.8412576,1.3006938e-07,0.3,1.946145,88.03002,88.11583,87.91046,87.94711,0.13110608,0.4734375,8.354224681854248,28.65140767097473
28,280000,92.81510904217079,-88.67398,2.0187551e-36,-61.282097,-0.33197638,14.863098,1.0,0.8055357,-6.151959,734.3989,43.435623,8.651992,109.734245,109.97289,110.33098,110.141106,6.692585,0.7,-115.61855,-608.2275,0.00035507983,-4.1118703,7.608557,7.5381417,7.6298676,7.664753,2.2255526e-06,0.3,2.0382385,86.6286,86.64347,86.56806,86.44415,0.11093101,0.4484375,7.746495485305786,29.685955250263213
29,290000,90.4866463949652,-87.576004,1.0741131e-37,-67.19127,-0.63847363,19.9744,1.0,0.7049269,0.976763,1341.3386,7.880316,8.924519,110.1755,108.922844,109.55336,109.17272,0.9486456,0.7,-117.03073,-556.53625,0.00035911804,-5.5385313,1.0906327,1.6651237,0.750757,1.2452223,3.3043037e-08,0.3,2.0970001,85.60312,85.46353,85.59989,85.52805,0.07682271,0.4375,7.625643968582153,30.715308332443236
30,300000,90.82445477563235,-89.36466,5.723728e-39,-68.67382,-0.75474143,22.765005,1.0,0.97884095,-2.7841787,1344.3147,43.818222,10.531357,106.233444,106.1028,105.63373,105.91019,3.7893417,0.7,-110.826904,-596.59576,0.0013507076,-4.2963037,4.7096252,4.3118353,4.1552243,4.760744,4.4921762e-07,0.3,2.0041323,87.35929,87.429504,87.09204,87.22567,0.10314821,0.4921875,7.569913148880005,31.746293675899505
31,310000,93.34218522465363,-84.70459,3.04146e-40,-67.96158,-1.6054413,32.907494,1.0,1.0807517,1.2653632,787.81256,23.385115,8.430272,108.17637,107.78739,108.07883,108.303085,5.4063425,0.7,-115.40449,-670.565,0.0015477831,-5.8398027,1.610894,1.7897547,1.2497389,1.2672689,1.370674e-07,0.3,2.1000524,82.64347,82.592804,82.709,82.6669,0.11293657,0.47031248,7.599607706069946,32.77366869052251
32,320000,93.81033133834035,-85.70168,1.6177e-41,-63.915077,-3.7379677,30.565687,1.0,1.5516242,-0.41959405,1331.3931,63.554775,9.272104,107.72798,107.69097,107.196945,106.931694,20.80711,0.7,-112.40959,-528.4826,0.00016191631,-4.5509176,0.5563297,0.9707042,1.2906284,0.8409393,3.6310405e-06,0.3,2.0776477,83.69133,83.56948,83.54928,83.38592,0.24508527,0.553125,7.612175226211548,33.80643645922343
33,330000,96.8435538419304,-83.06394,8.58e-43,-72.423546,-6.5402193,61.802917,1.0,2.2771606,-3.5870783,953.77716,42.72146,11.758226,108.1404,108.55586,106.66261,106.72561,11.2634945,0.7,-111.942696,-711.6734,0.0041829846,-3.8423493,5.1886277,5.014939,4.6345572,4.452764,4.0745363e-09,0.3,2.105507,81.08859,81.17581,80.55995,80.625916,0.1902252,0.5421875,7.6886560916900635,34.83565154870351
34,340000,97.34344819057438,-84.88695,4.6e-44,-66.578316,-13.179618,143.43259,1.0,2.901849,-1.710401,1085.1198,219.97366,9.932911,108.15963,107.3776,107.59522,107.37926,18.023115,0.7,-112.113014,-683.4572,0.0005789385,-4.6975155,2.7007155,2.8885515,3.6495872,3.254069,1.2542122e-06,0.3,2.0418355,82.93576,83.052765,83.083595,83.05874,0.29176828,0.45156252,7.607561349868774,35.869660059611
35,350000,91.11218633299978,-87.760895,3e-45,-83.54033,-16.709564,154.46431,1.0,0.98873305,-1.5736873,2098.2102,45.03624,9.076601,107.36357,106.66135,106.493645,106.61214,25.879416,0.7,-112.904205,-768.9325,0.00079495116,-5.4421897,2.8799496,2.2974262,3.538699,3.5445135,3.6670825e-10,0.3,1.9997667,86.11732,86.10368,86.15408,86.24162,0.23705259,0.37343746,7.610417127609253,36.90193122625351
36,360000,90.94147868047335,-84.073105,0.0,-98.116005,-25.148458,189.94978,1.0,1.5119015,-4.8784556,2734.0564,19.181515,8.240995,107.52879,107.058846,107.00167,106.68679,3.5071397,0.7,-110.37839,-804.33765,0.0050346483,-6.0775723,6.440068,6.4797487,5.239437,4.9747787,3.6209823e-07,0.3,1.7118961,82.80266,83.04851,82.52992,82.49762,0.15122887,0.5296875,7.589364290237427,37.9352686325709
37,370000,74.50052450106193,-84.37315,0.0,-102.02736,-41.074768,209.73096,1.0,1.2205169,2.652885,883.4947,34.400406,11.501994,107.253174,106.8841,107.102486,106.576546,1.3860927,0.7,-113.87388,-794.16174,0.0005334753,-6.713796,4.3111577,2.3591285,2.264218,1.9767615,1.7437153e-06,0.3,1.9486597,83.40541,83.085915,83.01543,82.86171,0.13595918,0.46718746,6.225724935531616,38.94044676621755
38,380000,82.9376036233628,-83.157486,0.0,-106.45438,-41.177372,157.17198,1.0,2.150099,1.3461442,678.3127,137.90242,8.699725,108.61317,107.877785,107.68265,107.89487,66.32597,0.7,-110.5646,-763.56445,0.0059251646,-4.5816574,0.794009,0.41511744,1.4771569,1.1383555,5.7534085e-06,0.3,1.8913445,81.44257,82.07384,81.8461,81.88185,0.52597743,0.40781248,7.027911901473999,39.961619941393536
39,390000,73.30596514268363,-86.379845,0.0,-81.24036,-64.13195,277.71997,1.0,1.3972561,-2.256864,799.15125,49.854893,8.918334,108.21934,107.16269,107.26253,107.26808,4.7883067,0.7,-113.77991,-723.31116,0.0021318574,-3.6861362,3.6054213,3.4093823,4.0804515,3.9181294,4.33072e-06,0.3,2.228211,84.57242,84.643814,84.56877,84.46677,0.14397527,0.44375,6.266735792160034,40.96773832241694
40,400000,74.48791329197311,-83.844505,0.0,-86.62996,-73.61143,133.34602,1.0,1.9895129,1.3521769,1437.1119,112.390564,10.975684,106.67242,106.07894,106.68935,106.46412,12.772863,0.7,-117.02001,-792.8503,0.009225907,-5.113599,-0.35293004,-0.5572912,-0.2270801,-0.7698162,4.3655748e-10,0.3,1.9256759,82.35127,82.403885,82.55112,82.29098,0.22543538,0.5078125,6.1354169845581055,41.97380470434825
41,410000,70.39218373248445,-81.39465,0.0,-143.32623,-74.07552,271.90686,1.0,1.5388387,-1.4253988,769.2116,21.742773,13.991413,107.37817,106.73261,107.099945,107.092606,34.94927,0.7,-114.53144,-1081.8678,0.0015711442,-6.1871147,3.359748,3.062848,2.36347,2.1019452,2.3905886e-06,0.3,1.5006638,80.60556,80.67934,80.26551,80.230804,0.30118564,0.5078125,5.796917915344238,42.97053957780202
42,420000,74.55781428557636,-82.20122,0.0,-118.409836,-47.97203,64.720566,1.0,1.9386101,0.7403867,1606.2974,38.81096,15.045268,106.48333,106.98373,106.457726,106.42363,3.0230448,0.7,-111.72882,-805.7083,0.00064081285,-4.43363,0.963006,1.9063461,1.2103255,0.51561207,1.678127e-06,0.3,1.968886,80.85594,80.97601,80.701645,80.70121,0.17128462,0.51093745,6.354392051696777,43.98062059879303
43,430000,82.40034980890347,-81.41108,0.0,-106.735306,-109.91376,92.349335,1.0,1.143872,1.5790195,1491.6533,15.037283,12.999346,107.116646,106.65845,106.70074,106.60414,2.4288218,0.7,-112.54329,-869.69495,0.0035885305,-5.5579977,2.5891864,0.38995337,1.2028105,-0.3889403,3.824942e-07,0.3,2.0345993,79.74369,79.595535,79.55554,79.54891,0.1445325,0.44843748,7.3251953125,45.00244959592819
44,440000,63.66872382154227,-82.26709,0.0,-114.10188,-122.03178,199.26225,1.0,2.8143377,4.239732,2379.8022,290.23126,8.778842,107.169495,108.27428,107.77979,107.78432,51.74081,0.7,-111.20916,-774.3961,0.0014474713,-7.689952,2.6743958,1.9190953,0.8677267,1.0995306,1.878664e-06,0.3,1.9071105,80.917564,80.94148,80.97566,80.83701,0.55252206,0.49531245,4.968834400177002,45.98695497115453
45,450000,61.91720254432956,-81.95196,0.0,-146.64441,-151.73235,193.24426,1.0,4.1100416,1.9157629,891.8408,92.08017,8.828989,107.66371,106.69632,107.37541,107.13803,4.754627,0.7,-114.85996,-959.4901,0.058191776,-4.9121833,1.811965,2.1230292,1.5814292,1.1839341,1.3956498e-05,0.3,1.9647629,80.66398,80.644775,81.38876,80.97395,0.26734293,0.53125,4.785614728927612,46.96805724302928
46,460000,61.81147624222786,-82.63081,0.0,-115.19041,-134.5542,231.4915,1.0,1.5547094,-10.265766,2585.8489,22.966778,9.673917,106.96463,106.71231,106.01203,106.21844,3.1814382,0.7,-110.72721,-894.2738,0.0001246907,-5.196225,9.890632,10.223985,8.721383,8.949185,2.673303e-07,0.3,1.9905852,81.27254,80.99243,80.78113,80.6986,0.15323693,0.4984375,4.7901105880737305,47.94972853660583
47,470000,56.817618089464396,-82.0943,0.0,-163.71252,-170.67078,282.4523,1.0,1.761594,-0.7087598,975.07886,74.73834,10.523666,105.91106,105.62235,106.01216,105.76458,3.7618809,0.7,-111.00394,-867.53326,0.0022905823,-5.11059,3.8576787,3.8349886,4.0793962,3.8042407,3.1541279e-06,0.3,1.8866132,81.09566,81.043045,80.94159,80.8792,0.1764225,0.48749998,4.473690986633301,48.93108148972193
48,480000,80.45318418098356,-80.87523,0.0,-121.11917,-203.24806,295.18466,1.0,43.811134,237.92064,2006.8798,10765.267,9.518115,105.5591,107.70607,106.88233,105.99344,15.746158,0.7,-112.438324,-1058.8887,0.001031399,-5.5146966,4.3383527,-45.421043,2.5708873,2.3284507,4.754111e-07,0.3,1.7721249,80.35107,80.072334,80.21948,80.177826,0.27512097,0.4671875,6.189610242843628,49.93216662804286
49,490000,64.65507318108054,-82.36865,0.0,-145.01123,-231.48643,173.50783,1.0,1.7978191,-1.6200061,1500.2745,19.209364,8.654152,108.24494,108.028786,108.40552,109.155464,2.1436079,0.7,-112.505005,-1384.0345,0.0012513399,-7.4671955,3.955004,3.7571704,4.1440573,3.9491286,2.1713204e-07,0.3,1.5822564,81.18631,81.0179,80.956955,80.93124,0.12334647,0.46875,4.931032180786133,50.91426164706548
50,500000,89.39722773507108,-80.562,0.0,-144.94888,-236.76099,54.51654,1.0,1.505589,-0.16214871,1642.8484,28.45821,9.157787,105.16448,105.26988,105.10003,104.925766,6.4235835,0.7,-112.96048,-1402.9128,0.0014983348,-4.101186,1.8575966,2.198076,1.3571492,1.6517125,1.8387844e-06,0.3,1.9958458,78.837105,78.80582,78.512314,78.51546,0.15278119,0.5234375,6.749116659164429,51.92583680550258
51,510000,60.953456872324665,-80.55374,0.0,-103.98912,-151.47734,267.2535,1.0,5.20765,11.502499,1092.6951,726.36273,9.139842,104.27218,104.1719,103.92938,104.03657,2.2264752,0.7,-109.920235,-1159.2471,0.017158898,-5.8729763,4.9570518,2.6260576,2.0056214,2.332561,3.5620613e-07,0.3,2.091903,79.45966,79.31683,79.44039,79.36597,0.2344696,0.51093745,4.698312997817993,52.90399432182312
52,520000,94.72469038952731,-81.84232,0.0,-98.95506,-178.49635,323.71112,1.0,1.7123635,46.623024,1232.4779,18.869251,9.466781,108.06303,106.42661,106.336044,106.29936,8.390318,0.7,-111.17111,-1278.9501,0.00053518685,-6.1440425,-1.7240486,0.15604657,1.4109591,-1.247829,6.30389e-09,0.3,1.9464968,80.92008,80.869,80.51449,80.38902,0.27877808,0.56562495,7.627155780792236,53.93036722342173
53,530000,96.51639850517101,-80.62496,0.0,-130.68846,-329.33017,1047.703,1.0,2.0648625,-0.29867458,1181.2485,97.7607,11.266526,103.65482,103.95386,104.212654,104.79342,6.886018,0.7,-114.71195,-1081.4951,0.0010365881,-3.7495265,2.6005788,2.9562404,1.4318371,3.2073157,3.2891287e-06,0.3,1.9928805,79.15271,79.22574,79.357834,79.24742,0.18324599,0.4359375,7.416595935821533,54.95832968552907
54,540000,78.94549414747078,-83.976074,0.0,-160.53397,-228.83804,30.021576,1.0,1.3104529,-5.2503233,1915.6306,28.465277,9.8211975,105.37287,106.48363,106.034004,106.042595,8.716329,0.7,-113.55617,-1084.1761,0.00072278694,-4.9751015,6.2267127,4.7691755,6.033141,5.922936,1.8525753e-07,0.3,1.6825986,82.60563,82.42931,82.61888,82.506714,0.151588,0.45,6.042021036148071,55.96258716185888
55,550000,87.98284030213549,-82.3348,0.0,-146.65503,-207.71484,246.74316,1.0,1.8197787,31.939228,1390.1221,44.688133,8.211247,106.126945,105.50916,105.12153,104.35851,3.1930163,0.7,-111.06925,-1163.1321,0.001718271,-4.6841125,5.633782,5.0474176,5.2068624,5.253436,1.7114799e-05,0.3,1.5907423,81.95296,81.65462,81.514084,81.31668,0.21670854,0.5234375,6.797248363494873,56.97559612592061
56,560000,92.06508107474336,-76.35907,0.0,-193.39041,-204.71858,33.36424,1.0,24.12062,7.09223,954.6077,381.70718,10.412603,102.54087,103.93224,104.03889,104.32559,20.828999,0.7,-106.84478,-1097.0546,0.04299618,-4.1100397,-9.555396,-6.401533,5.746217,4.689991,6.886851e-06,0.3,1.788659,74.91516,75.159775,77.47081,77.674355,1.5536859,0.33124998,7.490492343902588,58.00226266384125
57,570000,85.11559226011366,-80.90308,0.0,-114.1882,-411.8693,563.94244,1.0,1.3247666,-2.895725,1790.4763,20.496597,7.955759,103.164474,102.69869,103.42073,102.62356,3.1541278,0.7,-110.58604,-1161.3881,0.00011085358,-4.6536546,4.865353,4.967612,6.0675755,5.9957933,1.8444554e-06,0.3,2.0445638,79.295654,79.12358,79.395676,79.37336,0.17403331,0.4375,6.6292314529418945,59.01164579788844
58,580000,90.40191524712776,-81.51178,0.0,-91.72218,-464.90527,2061.1921,1.0,20.556341,7.6646385,2068.5444,4686.917,9.697775,105.47557,105.23756,104.468124,104.22335,22.240088,0.7,-110.19031,-1275.6965,0.00045041204,-8.912812,8.309793,7.6423273,8.100895,7.736161,9.193172e-06,0.3,1.8058293,80.05228,80.26873,80.26593,80.15053,0.29555398,0.453125,7.145148992538452,60.0340221007665
59,590000,94.2499498912573,-80.4139,0.0,-196.13095,-341.60025,225.25127,1.0,1.50349,1.8018113,1676.9237,27.351141,7.800332,103.03748,102.68654,103.4017,103.178276,3.6739106,0.7,-108.85505,-1361.1666,0.0011707578,-3.9306252,0.5234912,0.31265175,1.2583809,-1.2469318,4.214248e-05,0.3,1.8964106,78.833984,78.752464,78.61879,78.557495,0.17120303,0.4515625,8.062252283096313,61.06759921709696
60,600000,94.61476101614853,-81.46004,0.0,-130.30298,-421.71613,98.28414,1.0,1.6449163,-2.2119591,1396.1597,23.120352,11.354934,104.24366,104.090866,103.91049,103.89174,5.656376,0.7,-110.26326,-1296.3263,0.007708816,-12.302716,4.3776217,3.3561077,3.694666,2.027729,3.3003744e-07,0.3,1.8395021,80.394585,79.876816,79.8338,79.752655,0.20238225,0.50312495,7.540897846221924,62.09782497485479
61,610000,61.529927300958434,-81.98274,0.0,-139.27756,-404.59534,769.1938,1.0,1.5968144,2.6196053,2288.8757,28.047287,9.21137,103.00814,104.613495,104.58372,104.36575,4.361734,0.7,-108.20667,-1176.6803,0.00030406401,-5.1792603,2.0852509,1.0170766,1.3101885,1.0868865,3.6670826e-08,0.3,1.6447299,80.64991,80.7245,80.60895,80.43841,0.17493333,0.5,4.643667936325073,63.07682875792185
62,620000,89.33152470605465,-80.545975,0.0,-178.85089,-303.71652,409.43594,1.0,1.548245,0.01416254,2209.3909,34.01989,8.7225685,104.260475,102.71478,103.28597,103.13587,4.896982,0.7,-110.846664,-1176.8905,0.00067889655,-5.9851284,1.7114706,1.6231065,2.4468951,2.121723,6.939037e-07,0.3,1.6571393,79.2847,79.395645,79.42108,79.292496,0.24311571,0.4421875,7.052156686782837,64.10014897187551
63,630000,94.85509662265632,-82.06698,0.0,-133.61884,-316.35855,39.954185,1.0,1.940917,-0.11478156,1337.9407,105.57884,9.875622,103.52794,103.42381,103.1711,102.87863,6.1779766,0.7,-112.151566,-1095.2734,0.002086474,-3.851641,2.03694,0.963243,1.2882732,1.2874004,1.0186341e-07,0.3,2.13968,80.32556,80.19331,80.27919,80.17092,0.191729,0.43906248,8.17385482788086,65.13258688847223
64,640000,96.20323413488595,-79.796326,0.0,-173.18579,-434.6411,38.037304,1.0,1.7728536,0.6821486,1592.6123,56.39142,9.566118,104.43233,104.76152,104.368645,104.231445,2.4239273,0.7,-107.661575,-1355.979,0.00715659,-5.261342,2.5892105,4.260437,3.2496657,3.4583662,3.4115046e-06,0.3,1.9301921,77.99407,78.41913,78.11757,78.03061,0.16103779,0.4734375,8.22487187385559,66.17115586201349
65,650000,92.6128856090503,-78.76041,0.0,-195.61578,-618.19476,715.2434,1.0,6.112867,-3.878019,1192.2911,1005.50183,9.511116,102.966255,102.70558,103.09441,103.05208,4.8079686,0.7,-109.024284,-1335.5845,0.004202008,-5.100658,5.2065325,4.975279,4.5057645,4.295878,1.1399433e-06,0.3,1.9130366,76.96556,77.0041,77.178375,77.07239,0.2538878,0.43593746,8.122931003570557,67.2027907093366
66,660000,70.01884144585317,-79.836136,0.0,-243.79367,-452.83536,173.38521,1.0,1.5653894,0.24759722,1135.457,39.41548,7.2739153,101.65929,101.790855,101.48198,101.29953,7.3992214,0.7,-105.20753,-1402.8181,0.00028011558,-6.4243526,3.859748,3.6546626,1.5036713,4.449362,2.724555e-06,0.3,1.578916,78.62987,78.50086,78.70062,78.70999,0.26833534,0.4046875,6.945775985717773,68.21711467504501
67,670000,94.60278302198202,-78.39501,0.0,-243.4997,-427.92334,544.5991,1.0,5.385434,-2.3753924,2533.7234,41.642242,8.109336,101.46906,102.67404,102.098694,101.85294,19.994272,0.7,-108.117455,-1301.9698,0.014217423,-4.3006544,1.6623716,1.9521842,5.054645,4.630511,8.810166e-06,0.3,1.7414825,77.150406,77.148605,78.08467,77.79974,0.53089833,0.40468746,7.700212478637695,69.24102309942245
68,680000,94.8014551198365,-79.462296,0.0,-194.07558,-508.11417,491.5898,1.0,2.6402688,119.84315,1922.3326,105.453354,10.867645,102.62052,105.67599,104.54631,104.82244,11.11931,0.7,-109.68179,-1497.0046,0.0018621658,-5.8006277,3.1712165,2.730231,0.72304726,0.88232166,5.428301e-06,0.3,1.8065435,79.14158,79.22014,78.906296,78.85193,0.24468675,0.50312495,7.86260461807251,70.25847733815512
69,690000,97.29609299459946,-78.30072,0.0,-250.22566,-425.15707,82.35825,1.0,1.5563028,-1.0791893,1178.3832,14.345179,8.84441,100.885284,100.46636,100.17792,100.314285,1.6401639,0.7,-105.39657,-1984.8568,0.0006246936,-3.9782267,3.7558618,3.6146288,1.5728923,2.760843,6.640039e-07,0.3,1.6896777,77.25322,76.9725,76.86415,76.79813,0.16033976,0.484375,7.825504302978516,71.26857899427414
70,700000,77.75248170200425,-77.90507,0.0,-220.5288,-540.966,840.41565,1.0,2.2999792,-1.4197552,3722.133,56.31791,9.389467,102.09365,101.65722,101.773636,101.88013,30.659655,0.7,-107.6888,-1357.2437,0.0027877456,-3.9076984,0.86352205,2.1854339,1.2932032,1.8562698,2.0186418e-08,0.3,1.663029,76.280556,76.43517,76.44423,76.30787,0.34274858,0.421875,6.593447208404541,72.28581586281459
71,710000,89.08006739223299,-78.46831,0.0,-160.83984,-544.3108,718.4803,1.0,2.3516297,104.278656,1936.2561,26.547504,8.739586,102.299324,101.911896,101.903175,101.55445,5.08927,0.7,-107.4209,-1530.1035,0.006012949,-4.8255744,-0.457739,1.9513786,1.4503639,1.3438231,5.521649e-06,0.3,1.8897849,77.971176,78.216354,78.23599,78.13748,0.28514284,0.45,7.440078020095825,73.31575564543407
72,720000,97.1670012438023,-78.17428,0.0,-190.14362,-520.49005,651.7466,1.0,3.6014574,-0.06287199,1357.6138,437.59363,9.810821,101.42692,101.53453,101.485825,101.3543,11.7838125,0.7,-110.84685,-1420.0225,0.0020796277,-3.9243827,1.2198031,1.0376081,2.0406365,1.2735486,7.960177e-06,0.3,1.9062198,76.50403,76.65011,76.56406,76.404236,0.28426144,0.4734375,7.5216896533966064,74.34522171417872
73,730000,81.36790531507499,-80.94301,0.0,-211.6311,-354.30054,32.465652,1.0,1.7342494,1.2448506,1438.0669,22.218056,8.776814,102.264755,103.218124,102.155556,101.761925,6.89408,0.7,-109.90034,-1692.4846,0.0011765078,-5.66046,4.4560275,2.101462,1.6373205,1.4957463,1.2355624e-06,0.3,2.067624,79.11221,79.21412,78.97052,78.922104,0.24023104,0.47031248,6.8043131828308105,75.36488004922867
74,740000,90.5878978496326,-80.05757,0.0,-293.15454,-588.4123,171.33131,1.0,2.7189083,-9.662944,1066.721,74.491135,9.370106,100.26714,100.32485,100.210754,100.184975,22.626251,0.7,-104.772354,-2150.5698,0.0015865325,-4.724024,7.073077,1.6290431,6.3156886,5.6602135,1.7964467e-05,0.3,1.5837691,78.94919,78.754974,78.748474,78.69075,0.48172924,0.4765625,7.20908260345459,76.39363864660262
75,750000,93.22987906474832,-78.60696,0.0,-225.00937,-684.0627,982.29913,1.0,2.3750763,-0.48694724,1743.906,59.326706,9.31572,100.63085,101.495834,100.483864,100.24034,4.55988,0.7,-106.995995,-1778.0175,0.001756316,-5.7713456,2.2839127,1.764203,2.8259497,2.4604669,1.2262899e-06,0.3,1.8566655,77.09955,77.28869,77.11505,76.99833,0.25004545,0.453125,7.540173053741455,77.4239624897639
76,760000,87.67382111224347,-78.50601,0.0,-213.82986,-416.4659,75.33423,1.0,1.6680428,0.88136053,1368.542,22.070644,8.71961,100.28626,100.45712,100.80919,100.32256,1.2085938,0.7,-106.525154,-1657.9807,0.0068104784,-3.9904077,1.4387968,2.211063,1.7381488,1.2735301,2.2725535e-06,0.3,1.9945428,76.89012,76.77997,76.87039,76.62946,0.16893873,0.49687496,7.143163204193115,78.44999443292618
77,770000,95.09196952442332,-77.1707,0.0,-257.7818,-682.03204,58.37992,1.0,3.2841475,0.4680364,1471.5283,186.04968,9.179221,99.79558,100.589455,100.76335,100.74372,41.06007,0.7,-106.6018,-1673.9835,0.0004628853,-4.228033,0.53261304,0.4096921,2.2329526,2.3570604,1.0145636e-05,0.3,1.7733777,75.67798,75.62721,75.60253,75.51549,0.40076923,0.4671875,7.551825046539307,79.47681528329849
78,780000,81.76599232105424,-75.55771,0.0,-252.81195,-570.89734,240.69286,1.0,1.6044121,-0.3239038,1674.044,31.587374,9.645731,98.39284,99.57445,99.306885,98.658005,2.61246,0.7,-105.37506,-1632.5052,0.0009017009,-8.428852,1.3530498,1.9715945,2.2260654,2.0094285,2.9967052e-07,0.3,1.9519753,73.71943,74.13768,73.8891,73.875534,0.1995349,0.3953125,6.927345037460327,80.49512275854747
79,790000,97.82103228527276,-77.6456,0.0,-128.76201,-646.10126,60.691833,1.0,1.8167592,-3.66738,1409.1392,30.529078,8.988159,101.83734,102.51802,101.23469,101.019424,5.0745063,0.7,-106.55219,-1560.6624,0.0009893818,-4.848757,5.818396,4.9057045,5.38873,5.138533,1.66893e-07,0.3,2.333425,75.73631,75.73155,75.45572,75.276405,0.2703731,0.4515625,7.490848779678345,81.52400194009145
80,800000,93.81464519945627,-74.800156,0.0,-270.74432,-667.1822,81.698746,1.0,2.8130193,1.3081062,1190.9602,38.619976,9.000515,99.54314,98.7507,98.59183,98.22104,4.254678,0.7,-106.20737,-1564.2072,0.009634401,-5.384686,2.516393,2.7961988,1.4156353,1.86119,1.8077507e-06,0.3,1.8277744,73.54556,73.250435,73.0603,72.96376,0.29541558,0.48906252,7.606902837753296,82.55488109191259
81,810000,88.27185351646429,-74.5034,0.0,-260.28406,-1115.5146,786.992,1.0,2.2512968,-0.4528365,1806.7083,44.883682,8.832233,99.29535,98.97549,99.18826,99.11837,7.9352174,0.7,-103.03789,-1716.3381,0.0021808757,-5.5687866,2.1008186,0.92298084,2.2892942,1.9603448,3.088906e-05,0.3,2.0618782,73.08528,73.161316,73.20384,72.93834,0.2382595,0.48593748,7.54491925239563,83.57965218226114
82,820000,63.512877805558645,-77.20766,0.0,-216.83107,-620.37787,74.32833,1.0,2.251347,-2.4672718,1629.6858,39.500233,9.040535,99.72106,99.56354,98.96391,98.7017,2.783341,0.7,-104.90961,-1909.3252,0.001559116,-5.0823803,3.4747772,3.0670006,1.6301922,3.5074697,5.6337567e-06,0.3,1.863041,75.77347,75.78229,75.55678,75.43226,0.21857116,0.4671875,4.742681264877319,84.55466611385346
83,830000,96.95936035098869,-77.02212,0.0,-235.61678,-700.30115,41.07098,1.0,2.2127533,-2.2834737,1950.7618,38.92715,9.789425,99.72013,100.26674,99.00318,98.91655,3.0599477,0.7,-103.71986,-1785.2374,0.005760369,-3.5402603,2.9340641,2.937097,1.3383522,2.1755018,1.6770792e-07,0.3,2.0318358,75.493744,75.39754,74.97326,74.91574,0.23343483,0.4671875,7.526023864746094,85.58519231081009
84,840000,98.11134407878626,-80.06833,0.0,-226.5029,-961.6004,421.13403,1.0,2.4520252,-1.6868739,1795.0375,35.90696,11.192929,100.62334,100.89997,99.7191,99.31385,6.6969156,0.7,-106.44249,-1952.7668,0.007699302,-6.7114525,2.2100809,2.2521589,2.8511052,2.536303,1.4889055e-06,0.3,1.9367031,78.82668,78.607056,78.6587,78.631836,0.25343862,0.4296875,7.442959547042847,86.61167610486349
85,850000,66.16281423039624,-78.610504,0.0,-229.38522,-805.1512,40.231228,1.0,1.8605698,-2.4584858,1195.2452,36.677856,7.900884,104.311195,102.81419,103.510124,103.27833,18.372648,0.7,-105.43286,-1542.1543,0.00030309532,-4.502822,4.6467495,4.287384,3.7977967,3.8263679,9.782962e-06,0.3,1.9991722,77.27048,77.46881,77.304535,77.18158,0.30794382,0.47968748,5.427302598953247,87.60179264545441
86,860000,64.44537184819842,-77.58075,0.0,-205.11812,-824.1925,68.73199,1.0,1.9508988,-3.576579,1588.4683,24.266453,8.619726,102.36813,100.269325,100.10519,100.455154,10.850018,0.7,-105.48274,-1693.6752,0.0058697835,-2.8128119,5.3709903,5.0805297,4.943835,4.96693,5.7910975e-06,0.3,2.1275725,75.93439,75.78667,75.724365,75.61136,0.28242674,0.47187498,4.860002040863037,88.5788298090299
87,870000,73.24623402393759,-77.92569,0.0,-274.7891,-682.3129,42.581997,1.0,6.032239,-0.8306056,1373.3765,48.810986,8.003596,101.384544,101.63064,101.73885,100.9947,16.62058,0.7,-106.986534,-2879.4424,0.083535545,-5.048063,4.436733,2.2294455,1.2637874,4.877844,4.4424525e-07,0.3,1.8918055,76.75479,76.35965,77.69578,77.17282,0.49433964,0.396875,5.641871929168701,89.57596730788549
88,880000,94.21886264166966,-78.67584,0.0,-244.33371,-439.7507,35.82176,1.0,2.0634687,-2.886347,1744.0886,40.377384,8.0508995,99.963196,99.732666,100.76586,100.41199,5.5764422,0.7,-104.83673,-2180.3335,0.0019180705,-4.145315,5.36667,4.9676213,5.7106295,5.664773,3.792043e-06,0.3,2.0702362,77.05031,76.80812,76.88488,76.84558,0.20980936,0.42499998,7.413130521774292,90.60220253070196
89,890000,65.10831579288693,-73.328514,0.0,-337.95795,-607.5214,31.541859,1.0,2.3403645,0.37571526,1584.545,43.577705,9.031366,98.78289,98.53503,98.36196,98.17362,16.607128,0.7,-105.71811,-2193.9856,0.0015093102,-5.2800913,0.9872788,1.2952507,1.1631786,1.2749636,7.08517e-06,0.3,1.5576,72.22532,72.14424,72.07439,71.965576,0.37781414,0.43749997,4.999482870101929,91.59371811946234
90,900000,94.0154530427684,-75.94791,0.0,-277.25772,-1111.4933,2518.4343,1.0,3.1593456,15.296169,1325.7118,293.88495,11.392817,99.83737,99.76119,99.93324,99.480064,5.942565,0.7,-106.17347,-2486.6123,0.00667901,-4.459182,1.7267585,2.4816394,0.9655009,0.93983567,2.7543864e-08,0.3,1.7142009,75.34293,75.24072,75.36948,75.13996,0.2908575,0.4953125,7.473423957824707,92.62462172905605
91,910000,94.27512111788083,-77.49315,0.0,-254.7222,-596.5316,59.477516,1.0,2.1512246,0.67736506,2995.7217,109.94448,13.215491,100.45042,101.70192,100.095505,100.14875,9.156176,0.7,-106.73492,-2021.4213,0.0009718007,-7.041956,0.9915422,-0.086806,1.1546394,-0.47505766,4.9981466e-08,0.3,2.137071,75.827576,75.81271,75.7393,75.66789,0.255584,0.44687498,7.102723598480225,93.64915136496226
92,920000,63.39959165932534,-76.09425,0.0,-267.49554,-800.18744,44.564426,1.0,2.607195,1.6966994,4511.2725,34.549835,9.7617855,100.5345,99.76762,99.92631,99.25899,7.7914557,0.7,-106.627686,-3312.6526,0.0026262498,-5.0463157,-4.5138397,0.11715108,0.97827566,1.2273822,3.8574217e-06,0.3,1.9679962,74.444214,74.64467,74.98435,74.71919,0.3350142,0.43124998,4.741901397705078,94.62937526305517
93,930000,62.21387829356415,-79.533585,0.0,-215.97183,-1013.8005,57.202217,1.0,2.0542462,-9.885385,3346.1562,26.398304,14.21409,98.358574,99.29896,98.02715,98.2885,2.0041888,0.7,-104.44849,-2462.2979,0.0014130268,-4.1325207,11.510019,10.507256,11.260792,10.8695135,4.0065675e-06,0.3,2.0896938,78.00006,77.88095,77.9425,77.85224,0.1650685,0.459375,4.746497392654419,95.61149714390437
94,940000,96.80074016884008,-76.72123,0.0,-300.54047,-816.2726,48.10751,1.0,2.2371628,1.3738078,2678.5767,29.556923,8.209967,97.00462,98.592865,98.169266,98.199455,2.928329,0.7,-103.36352,-2003.2738,0.0091981925,-6.5378976,-0.3646816,1.8680096,1.0080196,1.085655,2.4165029e-06,0.3,2.020896,74.97383,75.073364,75.29669,75.146866,0.24702391,0.4421875,7.354644060134888,96.63916200399399
95,950000,83.56566300975732,-75.292046,0.0,-316.90063,-1246.132,570.4258,1.0,2.5008302,23.983517,1538.8561,82.68439,8.319169,98.75412,101.71888,98.78705,98.52287,4.365819,0.7,-106.16873,-2512.5498,0.0024529123,-4.196216,-0.13675535,2.1835575,1.2978413,1.1624732,1.4317867e-05,0.3,1.9457152,74.54642,74.39734,74.27608,74.14187,0.20290945,0.4609375,6.455429553985596,97.64287063280742
96,955000,61.32193173568824,-77.063126,0.0,-169.58652,-582.2194,60.991756,1.0,2.0976543,0.18638635,1873.8423,25.605434,11.158357,97.74011,97.94426,97.53184,97.24095,4.574499,0.7,-104.71627,-2468.9414,0.001982924,-7.230917,1.0846846,0.21286172,1.4740015,0.87263197,8.754062e-05,0.3,2.2107205,75.365715,75.29303,75.480255,75.337944,0.25801176,0.4296875,4.523316860198975,98.17359648942947
97,960000,63.817739755592925,-78.24018,0.0,-253.48737,-706.6414,47.149506,1.0,2.0489924,-2.6872544,1988.3556,38.22361,9.755036,97.90019,97.579056,97.665405,97.79951,2.0122583,0.7,-103.64181,-2062.8057,0.0014095523,-4.9738035,3.109288,2.812766,2.900091,2.7468843,1.50058595e-05,0.3,2.0410783,76.49437,76.36763,76.34375,76.25721,0.21487845,0.453125,4.883434295654297,98.71007052659988
98,965000,55.04424377356302,-75.39371,0.0,-339.24542,-1425.3326,187.11931,1.0,2.064774,201.78085,2092.7961,41.819717,8.349003,100.69377,100.12897,99.48698,99.460915,4.0051703,0.7,-105.85977,-1947.1218,0.0048787757,-3.6058042,3.6426315,3.2102957,3.1218185,3.5636926,9.038992e-06,0.3,2.1495175,74.82123,74.75316,74.65959,74.50937,0.2147419,0.4609375,4.190454483032227,99.23074203332266
99,970000,66.15281348987119,-77.96652,0.0,-236.85693,-1685.35,124.57556,1.0,1.6527305,-0.8396821,1541.1022,24.026964,8.119459,99.18774,98.43546,97.94492,97.416275,3.514398,0.7,-103.05562,-1743.7922,0.004307921,-2.897653,2.4494967,2.9581609,2.9248924,2.731111,1.0740013e-06,0.3,2.1237078,76.36597,76.3495,76.40721,76.21146,0.22392875,0.47968748,5.015748739242554,99.76703645785649
100,975000,64.08725006390956,-74.74977,0.0,-249.13022,-840.68207,40.573452,1.0,3.202714,-1.2764304,2206.513,96.78369,9.1888485,98.338554,99.3852,98.22634,98.04005,5.1008835,0.7,-102.46655,-1984.289,0.0011757952,-4.627734,3.0077567,3.1424153,1.3421512,2.6285114,2.021743e-05,0.3,1.9135458,73.0736,73.60341,73.46901,73.30469,0.24809048,0.4203125,4.922854661941528,100.30235222578048
101,980000,57.5191923910389,-77.04611,0.0,-228.00818,-934.361,44.234085,1.0,2.0264277,-0.77237606,2432.3232,56.20562,9.019785,100.78915,99.12056,98.49755,98.185974,5.6125717,0.7,-105.167145,-1990.5431,0.005701251,-4.3194375,1.7123449,3.419694,2.8620071,2.6131918,7.6065776e-06,0.3,2.007277,75.49997,75.5291,75.44852,75.25393,0.23642565,0.50625,4.495057582855225,100.8313088575999
102,985000,70.21555784681043,-76.083336,0.0,-271.4792,-535.1969,29.872751,1.0,2.6860752,-2.6863332,2772.562,54.275925,13.06592,100.07546,98.80318,99.122246,99.602646,6.39149,0.7,-104.86273,-2257.3467,0.001382282,-6.5557346,3.4663496,3.3073268,1.7860847,3.9658208,1.7123239e-06,0.3,1.8208883,74.76535,74.5547,74.76462,74.65446,0.2479846,0.4453125,5.591914892196655,101.37377200524013
103,990000,72.74976222041867,-78.18645,0.0,-265.3739,-1147.5184,1920.4287,1.0,1.7743788,-2.5424163,2078.7234,25.609154,8.952658,98.236565,98.18981,97.781685,98.05689,12.739023,0.7,-103.91975,-2528.246,0.0037684585,-4.951552,3.4398851,3.7856057,3.542699,3.4386675,2.4789477e-07,0.3,2.2217193,76.822136,76.87279,76.76496,76.68271,0.26369146,0.44375,5.560861825942993,101.91546886364618
104,995000,69.738159021375,-74.94475,0.0,-357.77655,-849.46985,40.10728,1.0,2.3126965,0.98644686,1597.3174,95.40083,8.452016,98.105545,98.82506,97.823685,97.58625,3.4023986,0.7,-103.64561,-3113.8533,0.013239853,-3.8814979,4.8954034,3.7472467,2.986005,2.3324466,3.1245117e-06,0.3,1.9225507,73.41942,73.342834,73.13732,72.99695,0.24435443,0.484375,5.58647346496582,102.45839074055354
105,1000000,74.39882178767779,-72.723885,0.0,-284.87305,-1701.623,2851.5486,1.0,14.942836,575.3181,1894.8926,3097.6306,9.636589,97.87913,97.46598,97.429504,97.56164,8.327866,0.7,-102.92445,-1924.6211,0.0008817288,-5.1742887,3.1101284,3.6528208,4.027439,3.9587083,1.5716069e-10,0.3,2.0436468,76.471985,76.11658,76.35666,76.25898,0.2544076,0.4671875,5.761219501495361,103.00744723876318
