Xixo99/comfo/baselines/comfo6_perterbation_actor/20230309/check_hopper/hopper-medium-v2/COMFO6_s3_20230308_181414_hopper-medium-v2_55.86.csv
,step,reward,actor_loss,alpha,alpha_loss,critic_loss,max_actor_loss,max_alpha_loss,max_critic_loss,max_mle_prob,max_q1,max_q2,max_target_q,max_v,max_value_loss,max_weight,min_actor_loss,min_alpha_loss,min_critic_loss,min_mle_prob,min_q1,min_q2,min_target_q,min_v,min_value_loss,min_weight,mle_prob,q1,q2,target_q,v,value_loss,weight,eval_time,time
0,0,4.493663474890944,,,,,,,,,,,,,,,,,,,,,,,,,,,,,,,,,
1,10000,57.67076161124164,-40.419968,0.06694732,-4.473673,0.3770621,-0.96589243,15.175821,28.414684,8.15476,60.842113,60.765026,61.114933,60.582275,5.8790483,0.7,-65.54772,-26.067616,0.00035244424,-5.5948873,2.202587,1.766526,1.9541478,1.7745917,5.202775e-07,0.3,1.3771939,39.061493,39.039066,39.12005,38.496025,0.06431367,0.45156246,4.38661003112793,1.9796157558759053
2,20000,56.63836070911983,-63.886036,0.0037459375,-7.661017,1.6368473,-2.013239,74.86887,64.88968,8.398569,84.92636,85.435905,84.781525,83.65635,5.7891626,0.7,-90.14009,-41.053375,0.0015323707,-6.444634,4.237449,4.483058,3.2973776,4.40912,8.250936e-10,0.3,1.3976283,62.241173,62.311615,62.015278,61.714725,0.11724022,0.44843748,4.322099447250366,2.5981712698936463
3,30000,55.19746206549089,-76.95291,0.00019977246,-9.369006,1.5701448,2.4007018,51.572937,29.214108,7.4601564,96.52871,96.63263,98.39403,98.25563,3.6200445,0.7,-103.48648,-62.89829,0.0008157615,-3.9838097,1.1022223,0.015206948,1.331898,0.95558274,1.5103143e-07,0.3,1.7078125,75.04777,75.0325,75.4364,75.27944,0.103166565,0.3734375,4.169172286987305,3.214294731616974
4,40000,43.8089635498996,-85.433205,1.0549103e-05,-14.018601,0.7610818,-3.3962035,67.3549,12.390474,9.423579,105.69876,105.517075,105.48569,105.34886,22.943779,0.7,-111.840004,-94.415764,6.949273e-05,-5.3724055,3.8934052,3.5770109,4.494595,3.9852903,3.71614e-06,0.3,1.6407379,83.7467,83.760254,83.71614,83.442566,0.20086065,0.509375,3.2646396160125732,3.813950530687968
5,50000,45.4088683557498,-88.652054,5.469549e-07,-9.013339,1.3110489,1.6770608,124.31451,67.95437,10.951475,108.60267,108.93012,108.94318,108.93951,5.5257597,0.7,-114.99292,-108.052,0.00091793045,-4.791982,-0.06891473,-0.24411418,1.3846864,1.406117,1.4248245e-06,0.3,1.986028,86.250534,86.26343,86.665054,86.708374,0.18421072,0.45156246,3.6812944412231445,4.4204729755719505
6,60000,53.12659453653188,-91.00505,2.8592293e-08,-20.242794,1.3673866,-9.777189,145.99054,30.521465,8.946051,111.224144,111.22831,111.05409,111.197136,3.4317565,0.7,-117.74772,-125.29334,0.00021851831,-4.616168,9.624013,9.582824,9.1675625,9.7768,4.6824975e-06,0.3,1.6045555,89.02003,89.00686,88.54318,88.810295,0.13664377,0.396875,4.190467834472656,5.036956528822581
7,70000,52.93937133930328,-93.694855,1.4987992e-09,-16.800217,1.6636709,-3.8091526,243.63765,57.076656,16.92722,111.18304,111.51602,111.173935,111.15259,2.5060656,0.7,-119.2543,-163.0251,0.00036725332,-9.774057,3.4682014,3.5209641,3.8295388,4.0695853,3.9156293e-06,0.3,2.0775688,91.47996,91.29384,91.41572,91.419716,0.101868026,0.48593748,3.9454426765441895,5.651119673252106
8,80000,45.71987096630053,-90.58077,7.838353e-11,-19.887224,1.8090304,3.6658318,183.75606,22.574646,9.461934,113.27978,113.649254,114.71706,113.62281,2.5752585,0.7,-118.99218,-168.41257,0.000719905,-5.895443,-1.5538089,-1.0653502,1.4258951,-0.8670354,8.3750933e-07,0.3,2.1367564,88.26909,88.30632,88.86926,88.57175,0.09324121,0.47031248,3.431161642074585,6.255154371261597
9,90000,53.10566981597994,-89.180695,4.112667e-12,-33.64008,0.64817786,-0.41566873,198.1384,37.455353,8.900126,112.05735,112.243385,112.27852,112.46228,1.7490624,0.7,-121.506294,-163.10207,4.0403684e-05,-6.232233,1.5629741,1.2782618,1.3946273,1.5452743,3.5941077e-06,0.3,1.6599709,87.38951,87.44061,87.405136,87.38793,0.11263889,0.5546875,3.903381586074829,6.8682119409243265
10,100000,50.619248253349646,-91.900894,2.1437673e-13,-30.271484,0.56337094,2.767878,169.06032,19.262022,9.055325,112.79509,112.920944,112.66118,112.071236,4.7133646,0.7,-119.73447,-232.44981,0.0003851863,-5.7707043,0.21903864,0.20185855,1.3696493,0.047272637,4.304282e-07,0.3,1.6719959,90.12916,90.16586,90.273926,90.39342,0.14838144,0.46249998,3.786247968673706,7.480243702729543
11,110000,51.07714467984661,-88.46343,1.1217776e-14,-38.30181,0.7021454,-1.5544603,171.03654,52.432846,7.725028,110.77542,111.05925,110.096016,110.332695,3.0438566,0.7,-118.13955,-276.95627,0.00042980048,-4.2882977,3.2244961,2.6411803,1.7358677,1.9330353,2.263114e-08,0.3,1.7496052,86.60789,86.625275,86.552444,86.70361,0.09845593,0.49843752,3.798865556716919,8.089824680487315
12,120000,50.70616945775921,-89.058556,5.887943e-16,-29.630594,2.640112,-6.2650375,296.45566,97.85008,12.253123,109.618805,110.28334,111.57078,110.85515,3.3376582,0.7,-116.40987,-394.41696,0.0008792391,-6.225848,6.824346,6.6981277,7.1923523,7.7060375,4.821643e-06,0.3,2.1064925,86.89072,86.88025,87.59624,87.865295,0.22564368,0.33906248,3.769253730773926,8.698759857813517
13,130000,49.869247487029014,-89.56144,3.0907008e-17,-31.536081,1.5640168,-5.551158,450.24805,192.33182,9.326775,112.072205,112.174255,112.130905,111.811874,9.525072,0.7,-117.9607,-253.5458,0.0002070053,-3.3346086,6.1746063,6.714156,5.9566483,5.990569,6.9280363e-06,0.3,1.893328,87.55167,87.65822,87.28229,87.60895,0.14735578,0.39062497,3.7283685207366943,9.30789696375529
14,140000,50.48592351013473,-90.06202,1.6144691e-18,-42.201897,1.1212089,0.05000782,255.64223,115.94683,7.9551277,111.05896,111.44542,111.45374,111.366425,1.4987934,0.7,-117.53691,-312.64355,0.0010447521,-5.2808385,2.2316716,2.0465147,1.435959,2.9796588,1.4383521e-06,0.3,1.7631364,88.28177,88.38046,88.26077,88.39507,0.09003276,0.3796875,3.8015527725219727,9.91802485783895
15,150000,49.976711874806426,-91.026146,8.4668236e-20,-28.297901,0.5718467,-10.811902,421.72787,14.258456,9.389075,111.56341,111.47338,111.39521,110.90443,3.1321774,0.7,-117.82949,-341.57516,0.0003931803,-5.22406,11.74634,11.968237,11.840148,11.803698,3.2172945e-06,0.3,2.0512724,88.77829,88.88103,88.686295,88.693054,0.119224355,0.46875,3.737805128097534,10.5281241218249
16,160000,54.20961433878622,-89.36838,4.4316084e-21,-34.856647,1.0579071,0.14357543,279.6626,84.804596,8.5319805,110.37787,110.16856,111.304924,110.712326,0.97515947,0.7,-116.54656,-382.6478,0.0004310243,-7.805068,1.8111346,1.6248616,1.0210842,1.0866866,1.2029778e-07,0.3,1.9545441,87.404915,87.365265,87.37039,87.46784,0.06774005,0.4296875,4.01428747177124,11.142647989590962
17,170000,46.85693836259193,-92.27515,2.3307447e-22,-53.464283,1.4680966,-6.640991,300.99927,38.312347,9.203478,112.272,112.48046,112.48662,112.173386,1.94394,0.7,-120.43037,-362.608,0.0006640349,-4.216417,8.9658785,8.578703,9.351282,8.293057,7.6065774e-08,0.3,1.8048424,90.41676,90.447464,90.78701,90.54957,0.13950187,0.51874995,3.544769525527954,11.750992302099863
18,180000,52.44665079343985,-89.296265,1.2253375e-23,-56.460274,0.8953993,-2.5040822,301.5136,40.327522,8.694979,110.26008,110.18485,110.05415,110.23308,2.2612162,0.7,-117.17656,-342.7665,0.00049512554,-3.8535635,3.942079,4.3307705,4.024173,4.603364,1.2194679e-06,0.3,1.9512033,87.29014,87.27173,87.25154,87.424164,0.103919394,0.4125,3.932272434234619,12.365635859966279
19,190000,55.182435576875065,-91.05592,6.4441283e-25,-40.370472,2.296717,1.8910134,390.3347,401.44537,10.940239,112.592834,112.681145,113.18946,112.60706,28.807577,0.7,-118.119415,-371.29013,0.00045412465,-4.221443,-0.43563348,-1.181184,1.0817641,-0.6019652,1.9965227e-09,0.3,2.0501466,88.90028,88.871704,88.79907,88.87678,0.2794297,0.51093745,4.1548449993133545,12.982363200187683
20,200000,63.59815273913657,-90.93728,3.392229e-26,-54.29822,1.3183585,1.7523603,348.7722,136.69531,9.71126,110.625725,111.14741,110.47006,110.782684,3.4573655,0.7,-117.33779,-541.59576,0.00036972115,-5.606247,0.32120317,0.31775662,1.3670168,0.9099152,8.1005857e-07,0.3,1.9095702,88.95674,89.02768,88.941,89.00511,0.080102906,0.48125,4.7881410121917725,13.607650740941365
21,210000,80.14869648598358,-91.24762,1.7737277e-27,-59.5367,0.46763736,0.6547921,476.8576,8.621641,9.8842945,111.92894,111.5767,111.613304,111.03493,1.9229225,0.7,-121.5297,-585.6028,0.00033502496,-7.5544114,2.389343,2.2721772,1.3562919,1.2255917,1.8834544e-06,0.3,2.0267491,89.09559,89.13582,88.90103,88.848495,0.08491816,0.484375,5.9372453689575195,14.2552885333697
22,220000,97.22843981082411,-88.31853,9.28349e-29,-62.170918,0.7962006,1.5123572,597.63153,39.796104,15.732997,111.28515,111.27382,111.65856,111.531525,2.4511065,0.7,-117.62069,-419.12952,0.0012304676,-4.3791065,-0.42418835,0.15669543,1.4117537,-1.1568158,8.5565266e-10,0.3,1.798455,86.27971,86.32499,86.566025,86.40474,0.10593158,0.5125,7.497676849365234,14.92851193745931
23,230000,97.15430973156644,-90.748566,4.866201e-30,-50.807484,1.310713,0.35537422,446.5404,166.14493,11.108065,114.61009,114.45903,113.70654,114.385796,1.5177004,0.7,-119.74748,-768.16815,0.0012272964,-3.4322045,0.84513545,0.53427386,1.4287918,1.2205594,3.228779e-08,0.3,2.0323608,88.65909,88.62599,88.53636,88.61791,0.059586372,0.43906248,7.442932844161987,15.600446363290152
24,240000,95.121008392578,-92.072845,2.5399967e-31,-69.83538,0.4716022,-2.5697527,419.7453,10.319049,9.206091,112.78217,112.68289,112.202065,112.02488,5.1919665,0.7,-117.48408,-564.1682,1.1046708e-05,-4.4443483,4.219034,3.3585773,4.1953197,3.9797945,9.3989075e-07,0.3,1.8799827,90.1588,90.28236,90.13718,90.090355,0.070729256,0.5015625,7.507436752319336,16.269217026233672
25,250000,95.2462446935265,-90.45165,1.3392342e-32,-74.77605,0.81582034,1.7479227,426.1334,37.105476,9.378986,112.74976,112.50188,112.54001,112.46013,1.6451609,0.7,-117.187,-527.5022,0.00037204084,-3.0465164,0.07325068,-0.36844733,1.213171,0.052337617,2.0186418e-08,0.3,2.16076,88.327545,88.2657,88.22524,88.27869,0.10431486,0.4828125,7.369346380233765,16.94021873474121
26,260000,94.307779780955,-90.60765,7.0251133e-34,-70.81097,0.74906456,1.8393672,808.1975,43.852158,10.241538,111.99046,111.7701,111.83181,111.91402,1.3484886,0.7,-121.3179,-575.2779,0.0044929218,-5.025563,-0.54823565,-0.61192447,1.4520106,-0.045856267,3.2287792e-06,0.3,2.0115232,88.51635,88.481766,88.71338,88.817024,0.10306263,0.33906248,7.905919790267944,17.62044903039932
27,270000,90.97625647163144,-88.82657,3.6842923e-35,-78.39926,0.4298849,2.575348,1166.9081,10.555605,9.729265,113.646866,113.6031,113.46113,113.4831,3.605152,0.7,-118.97206,-530.4547,0.00033455552,-5.6568136,1.9232134,1.8514948,1.286947,2.1183343,3.5941077e-06,0.3,2.0248084,86.77396,86.74028,86.71156,86.81894,0.09799378,0.4296875,7.25563383102417,18.291182629267375
28,280000,86.29871753427163,-92.17489,1.9371125e-36,-69.92614,0.5132793,0.8478594,553.5537,7.3001194,9.501625,110.673965,110.85107,110.86484,110.82489,0.6651554,0.7,-117.9323,-526.81104,0.0010210082,-2.6058345,0.17996791,-0.2680459,1.401634,-0.32136458,8.451753e-07,0.3,2.075892,90.061455,90.085266,90.35269,90.25852,0.04987378,0.409375,6.909016132354736,18.953043607870736
29,290000,82.35378027720317,-90.93489,1.0186505e-37,-88.18764,1.3826321,0.73430765,1118.8251,160.00253,9.10298,111.94086,112.08109,112.2024,112.09938,3.0210912,0.7,-119.87971,-683.36804,0.00070753886,-2.68831,1.7970767,1.7159091,2.4014678,2.4635663,1.8312595e-06,0.3,2.048408,88.76285,88.76958,89.04358,88.97066,0.08573133,0.453125,6.974189519882202,19.61479796965917
30,300000,85.56249126557043,-90.24088,5.353858e-39,-80.7263,0.3907057,-3.0850692,671.14044,4.965351,9.12515,112.477936,112.42196,112.16874,112.168274,1.729167,0.7,-117.93757,-603.5121,0.00053288974,-3.787932,4.6070557,4.492649,4.1820283,4.5171824,7.163738e-06,0.3,2.040412,88.13591,88.09471,87.89479,88.11619,0.078611925,0.371875,6.9010303020477295,20.276735031604765
31,310000,81.23537137770947,-89.04961,2.8225e-40,-81.21452,0.47692335,0.23531151,707.88617,7.5782065,9.398791,112.36594,112.83348,112.52795,112.858376,1.54861,0.7,-119.050255,-724.7518,0.0013167036,-7.1626616,2.4061198,2.3182478,3.0320969,2.9826803,1.3985381e-06,0.3,1.9595973,86.99303,87.039665,87.0672,87.092186,0.08122277,0.35625,6.666666269302368,20.935063640276592
32,320000,85.16967787872747,-86.642876,1.4899e-41,-90.68045,0.68592834,-0.21345377,511.0755,13.2130375,9.455881,112.50546,112.62652,112.7907,112.89235,1.9702474,0.7,-116.94337,-730.85815,0.0011124171,-5.782394,1.8890561,2.1974683,1.6234256,2.6158602,2.3469328e-08,0.3,1.9205619,84.71196,84.73108,84.94378,85.00027,0.08312333,0.39218748,6.81209659576416,21.593854824701946
33,330000,65.6977597521376,-93.531265,7.88e-43,-71.119705,0.82434165,-3.073504,953.22876,105.16985,14.671773,113.103645,112.98129,112.67361,112.793015,2.5181637,0.7,-119.685234,-549.39075,0.0026021386,-4.0451593,3.71961,3.9406993,3.4621944,3.425449,4.9874075e-07,0.3,2.1149745,91.38211,91.35721,91.05665,91.16298,0.07416195,0.42499998,5.328372001647949,22.225752500693
34,340000,75.42129576953073,-91.44628,4.2e-44,-115.35617,0.8762486,-14.992573,557.1222,14.301584,11.163113,112.7872,113.04346,112.95094,113.13361,5.6727443,0.7,-117.50317,-824.8097,0.0025238842,-6.017524,14.862451,14.649002,15.46398,15.52515,1.7462299e-11,0.3,1.8798168,89.39316,89.39003,89.774315,89.7864,0.08884634,0.43906248,6.4130754470825195,22.87399349610011
35,350000,82.42983530095354,-90.89781,3e-45,-72.715,0.5057036,-3.324718,1336.4425,26.126463,11.050257,111.31564,111.26002,111.70479,111.85023,9.532967,0.7,-116.07861,-898.64056,0.0003247899,-3.3811758,2.4787989,2.3821762,1.0476593,2.4675734,2.861023e-07,0.3,2.0436313,88.79642,88.856155,89.01544,89.13313,0.10415408,0.42031246,6.811446666717529,23.530203751722972
36,360000,57.123794612444634,-89.70299,0.0,-97.06531,0.74539065,-5.4293613,946.4742,38.8403,8.291496,111.46193,111.46451,111.05583,111.04488,5.4516306,0.7,-116.3958,-732.594,9.653444e-05,-4.4621315,8.58792,8.49602,8.717813,8.643868,5.4707635e-07,0.3,1.9020269,87.74302,87.77023,88.061615,87.92425,0.11706749,0.41875,4.992485761642456,24.157419772942863
37,370000,66.10262250720767,-90.21687,0.0,-101.30839,0.4343261,0.68451303,641.2627,8.26613,8.890907,112.5884,112.427086,113.14841,112.97528,2.6145542,0.7,-116.406364,-815.51965,0.00050824514,-4.8164415,0.23310006,0.52462834,1.3170846,0.9261005,1.05978685e-07,0.3,2.01325,88.15974,88.16707,88.24753,88.12973,0.0895589,0.49531248,5.838902473449707,24.800495664278667
38,380000,52.61231152620805,-90.857864,0.0,-107.03877,0.64222205,-2.6207218,1207.4639,27.922981,10.072052,111.54587,112.13748,111.609406,111.84519,1.6414006,0.7,-118.502045,-820.8857,0.0001036984,-4.3661733,4.309915,4.2295823,4.058503,3.951364,8.7345425e-06,0.3,1.8505428,88.860664,88.90837,88.9668,89.01076,0.08345017,0.3984375,4.473137855529785,25.41739862759908
39,390000,61.631149581105184,-91.64458,0.0,-69.06154,0.7309656,-3.4081373,962.22925,74.98308,11.323939,111.23181,111.15117,112.23467,111.14306,1.6028258,0.7,-122.43197,-930.63837,0.00020761706,-4.041857,3.9175003,4.442252,3.5830507,3.9526908,8.071948e-07,0.3,2.246633,89.31569,89.33573,89.35286,89.47106,0.07652733,0.38125,4.954500675201416,26.043801510334013
40,400000,62.207931928053085,-89.07315,0.0,-137.02194,1.0418168,0.45443106,513.8745,7.920977,8.48263,112.24702,112.232216,111.78674,112.094826,3.3423002,0.7,-116.75003,-868.46155,0.008129997,-3.3659124,2.1648235,2.1744876,1.2519473,0.78959936,3.7542006e-07,0.3,1.9546242,87.08928,87.06977,86.56508,86.79031,0.09390053,0.47187498,5.187507152557373,26.674010733763378
41,410000,47.41304955147614,-90.03332,0.0,-80.73299,0.38467777,-0.20287871,908.88,7.768612,9.0635605,110.60758,110.901825,110.89721,111.10131,4.8076754,0.7,-116.77789,-802.4497,0.00045294903,-5.4664783,2.5286975,2.2059336,2.0580392,1.9887619,8.977176e-06,0.3,2.2117982,87.763504,87.72746,87.78332,87.756065,0.098871306,0.55156255,3.893320083618164,27.285795438289643
42,420000,51.714981165329256,-91.478004,0.0,-95.50162,0.443778,-1.6040547,1426.2604,13.240494,12.159159,111.62608,111.540306,112.03691,111.74293,2.2978287,0.7,-117.52209,-743.8771,0.00013963156,-6.49813,4.17222,3.891213,3.589262,3.7515244,8.5287616e-07,0.3,2.1283212,89.30826,89.29158,89.30896,89.42621,0.0730514,0.428125,4.2779459953308105,27.90334089199702
43,430000,57.18752237624797,-91.75951,0.0,-80.83772,0.56804204,-1.0560248,921.72015,8.116322,10.424093,111.45994,111.23719,111.10429,111.08319,8.413965,0.7,-117.639404,-1004.8569,0.0005017413,-4.0370026,2.99368,2.7064323,1.2346793,2.3891332,8.5565266e-10,0.3,2.2542677,89.50554,89.444084,89.23108,89.237595,0.09925122,0.51874995,4.759711503982544,28.52810354232788
44,440000,43.92231708250338,-89.04257,0.0,-152.56836,0.37996936,1.6014576,1290.3704,2.7956846,8.633183,111.15803,110.979935,111.266335,111.00529,9.359455,0.7,-117.27125,-930.9357,0.0024255407,-6.5963755,2.1274328,2.0335703,1.6964397,1.629569,7.9970346e-07,0.3,1.9200368,87.11519,87.12703,86.95558,87.10116,0.10472726,0.45156246,3.6268205642700195,29.13454182545344
45,450000,49.23894957217704,-87.3684,0.0,-132.17018,0.80953455,-0.75690055,699.1399,20.99163,8.698781,110.928154,110.5531,111.25933,110.71226,3.812071,0.7,-117.31814,-940.89954,3.4862504e-05,-6.3874626,1.7034428,1.5997481,1.4159327,0.36340618,3.677269e-07,0.3,1.9137962,85.33687,85.353355,85.579384,85.381836,0.12779804,0.53125,4.087538719177246,29.75635939836502
46,460000,54.01009985688474,-89.63237,0.0,-115.83345,0.7905015,1.1905739,2141.3982,79.82254,12.032239,110.82425,110.741486,110.67115,110.74854,6.5651736,0.7,-118.573746,-897.979,0.001099077,-3.796004,1.3255292,0.8969178,1.2909894,0.84053135,4.192698e-08,0.3,2.0894113,87.465225,87.4017,87.52892,87.5258,0.108254656,0.4609375,4.335796594619751,30.388804272810617
47,470000,49.79196913499714,-88.79711,0.0,-121.86475,0.6247219,-2.3851833,896.5564,49.88698,8.447652,111.228004,111.32485,111.100716,111.30849,1.1280352,0.7,-117.25861,-859.7517,6.863626e-05,-5.5416484,3.4473572,3.7850747,1.5588741,2.9553635,3.2638054e-05,0.3,1.9609061,86.72827,86.865875,86.764786,86.88141,0.081768975,0.3734375,4.096818923950195,31.01208610534668
48,480000,46.08655275062697,-89.9118,0.0,-101.53491,0.49957085,-0.27530217,1044.6514,19.54637,10.283602,111.52352,111.35931,111.23353,110.6608,5.1518426,0.7,-118.90735,-1305.5153,0.00022073521,-4.5875254,1.6544881,1.6132025,1.2202992,1.7428992,8.5287616e-07,0.3,2.2443123,87.69719,87.706604,87.62818,87.5043,0.08744764,0.47812498,3.826007127761841,31.634167699019113
49,490000,43.04770081527524,-88.33902,0.0,-166.62292,0.78396344,1.5317879,945.3179,25.046566,10.701843,110.77383,111.06668,111.064804,110.9845,2.9929683,0.7,-116.91689,-976.94464,0.00022375077,-5.107854,0.38166684,0.6210445,1.3599157,1.8208175,1.7813291e-07,0.3,1.9840037,86.26352,86.37004,86.59714,86.60081,0.10871021,0.39218748,3.654578447341919,32.251813296477
50,500000,61.77908076745167,-87.2574,0.0,-169.23473,0.51409256,-0.28660536,1676.8905,8.990136,11.884555,111.34374,111.571304,111.76284,111.59333,1.2408447,0.7,-117.411606,-1133.774,0.001791924,-4.929204,1.3765982,2.3295212,1.5290287,0.87012786,1.1444092e-06,0.3,1.9162214,85.17915,85.29768,85.16505,85.21707,0.086380325,0.44374996,4.939073324203491,32.89203769763311
51,510000,45.9166543598872,-91.75037,0.0,-111.63445,0.3121853,0.67552567,1953.5664,2.319165,8.791472,110.89169,110.77894,110.75747,110.82574,2.2544544,0.7,-119.51576,-1000.639,0.00047686626,-6.5122166,3.1368463,3.3614197,3.897751,3.876927,2.7969247e-06,0.3,2.3580594,89.35022,89.40123,89.22708,89.24335,0.07025016,0.41562498,3.7915735244750977,33.51301253239314
52,520000,48.665863938371345,-87.20605,0.0,-161.18747,0.6176125,-4.1598125,1049.0619,42.00772,9.442633,111.39187,111.186134,111.44893,111.40117,2.0047371,0.7,-116.35895,-1043.8721,9.877293e-05,-4.7796674,5.2232723,5.628877,5.5723224,5.8151217,2.8397887e-06,0.3,1.804765,85.23997,85.25316,85.38726,85.41023,0.09119035,0.3859375,4.001338243484497,34.13857309023539
53,530000,58.42349557988911,-86.93695,0.0,-166.34082,0.28790283,-1.5679615,1332.2968,7.8012094,9.81835,111.00141,111.13659,111.17778,111.19378,3.1549737,0.7,-117.08995,-1384.2117,0.00010653777,-4.888047,3.2983427,3.3062894,3.7459888,3.4149277,2.6077032e-09,0.3,1.9612136,84.94281,84.99527,84.9276,84.83074,0.0663924,0.5671875,4.924294710159302,34.77865348656972
54,540000,46.34583253206939,-88.48404,0.0,-140.4073,0.8504653,0.43409568,889.68396,20.313547,7.607545,110.88057,110.88886,110.79079,110.97748,5.472999,0.7,-116.510216,-1510.5618,0.0008261074,-7.0214634,1.0301433,1.0517089,1.4548126,1.0360316,3.3741233e-07,0.3,2.105057,86.33655,86.32581,86.10228,86.25319,0.10629498,0.48593748,3.8281545639038086,35.399826494852704
55,550000,50.08856066024895,-87.383995,0.0,-146.79222,0.7135219,-5.4899387,1491.7676,10.865612,9.082609,111.43328,111.41093,110.85272,110.789795,10.794836,0.7,-119.76933,-1383.6368,0.00079076004,-3.6568975,5.1730614,5.359461,4.432849,4.894413,1.7214916e-07,0.3,1.9943495,85.272675,85.32167,85.0922,85.031166,0.101505734,0.55625,4.042794227600098,36.025179676214854
56,560000,44.38521727572892,-92.25369,0.0,-161.33344,0.7439214,-0.83252573,1047.9176,13.904157,8.805347,111.764114,111.7005,111.56478,111.5994,1.0030224,0.7,-118.39732,-1203.829,0.00066238875,-6.2711287,2.2347238,2.3273664,3.1117067,3.547258,2.1515298e-07,0.3,2.100905,90.015854,90.0002,90.32307,90.42502,0.08558251,0.346875,3.6609997749328613,36.642291100819904
57,570000,64.80479564886473,-89.047226,0.0,-126.484886,0.5222555,-1.7853179,2162.6023,15.587749,12.595528,111.560585,110.92614,111.39988,111.272064,1.1681706,0.7,-116.35747,-1099.0641,0.0001820557,-4.018635,2.1525156,1.926178,1.926352,2.092459,9.037831e-09,0.3,2.0758991,86.98338,86.8937,86.91794,86.80223,0.072961226,0.4421875,5.192507028579712,37.285678517818454
58,580000,53.28306311776194,-93.31254,0.0,-144.10387,0.70379716,-1.0590851,1189.2773,29.000816,9.429988,111.460655,111.67632,111.4918,111.58036,2.056413,0.7,-118.588295,-1290.916,1.9224419e-05,-3.8454838,1.3673339,1.8043875,1.3943315,1.5616282,4.906108e-06,0.3,2.3007374,90.96016,90.98424,90.649765,90.86372,0.098303996,0.36875,4.430866479873657,37.916873665650684
59,590000,48.94236100868324,-89.32006,0.0,-135.45244,0.4243129,-5.6396866,2461.9705,6.7870083,8.692858,111.06719,111.21386,111.039185,111.269165,1.3632466,0.7,-118.14839,-1259.0925,0.00067139143,-5.2673945,7.1065893,7.231039,6.80436,7.3517523,1.8840656e-07,0.3,2.0895653,87.179955,87.29223,87.27025,87.458786,0.089668974,0.35625,3.9898767471313477,38.540198079744975
60,600000,44.96516997109066,-91.53447,0.0,-96.29462,0.6542213,-2.518497,1550.9563,48.011208,9.247752,111.35359,111.04395,111.0422,111.41555,1.7450068,0.7,-119.60005,-1025.1393,0.0006206479,-3.7406094,4.2113543,4.3209324,4.254553,4.50176,1.37540455e-05,0.3,2.170167,89.22167,89.245926,89.02269,89.26183,0.08171948,0.3671875,2.9136855602264404,39.148376015822095
61,610000,57.81350302253249,-90.9389,0.0,-130.82784,0.37974042,-2.0322902,2526.8508,29.333649,16.221033,111.5681,111.77062,111.38448,111.496056,1.7577484,0.7,-121.00996,-1178.162,0.0005369003,-7.8135605,3.267745,3.6902208,1.4723048,3.3959727,3.824942e-07,0.3,2.0557318,88.825836,88.815956,88.64668,88.64836,0.076999605,0.4921875,4.716792821884155,39.784420756498974
62,620000,50.18147873588789,-87.25026,0.0,-134.68256,0.45847124,0.22473729,990.9516,18.434174,9.105574,110.86963,110.95652,111.48818,110.94282,2.833375,0.7,-116.61771,-1120.0197,0.0001342619,-5.8419333,1.7993023,1.2995764,1.2426366,1.9046549,3.6950226e-08,0.3,2.0467787,85.13634,85.14368,85.16131,85.236916,0.08326459,0.4578125,4.205601930618286,40.412185561656955
63,630000,48.718650648147275,-91.92493,0.0,-166.76227,0.6739084,-2.157003,1073.1167,7.8009496,9.969485,111.098885,110.80821,110.957664,111.01241,1.0541126,0.7,-116.938515,-1551.8823,0.00035898492,-3.9922357,1.643182,1.2657242,0.98883235,1.306989,2.7939678e-10,0.3,2.134878,89.827194,89.742004,90.07284,89.99553,0.07305485,0.48749998,4.178588151931763,41.039601250489554
64,640000,60.481530321784994,-88.68231,0.0,-145.59802,0.52893525,-4.82958,1652.8558,11.736917,9.386638,111.11508,111.34999,111.33072,110.9959,0.67258346,0.7,-119.73457,-1316.1786,0.0014672782,-6.713146,4.9519305,4.9331846,4.7743115,5.029524,1.583985e-05,0.3,1.983624,86.61986,86.67189,86.461174,86.75807,0.079162546,0.34687498,4.917465925216675,41.676532955964404
65,650000,46.19752344400342,-91.31076,0.0,-121.55572,0.7315663,-1.0617558,2923.6099,54.13089,13.009098,110.67752,111.0905,110.97746,110.86443,1.5261852,0.7,-122.85892,-1425.7024,0.0012905165,-4.7046742,1.761436,2.7227178,1.5188031,1.9305109,2.7939679e-08,0.3,2.0298572,89.318794,89.30372,89.364426,89.435196,0.06453267,0.4265625,3.787414789199829,42.29413642485937
66,660000,46.39021285707294,-88.460396,0.0,-139.64297,0.39340222,-0.47043514,2093.346,6.8283157,9.193782,110.50653,110.32412,110.258965,110.69825,2.0610476,0.7,-118.45601,-1366.3956,0.00019191002,-2.637366,2.2412179,2.2511625,2.698823,2.5283954,1.18813475e-07,0.3,2.3074365,86.1104,86.066696,86.095184,86.088394,0.06996744,0.5203125,4.0909929275512695,42.91903731028239
67,670000,60.76865264382562,-89.46489,0.0,-158.92032,0.61153936,-0.31251168,1509.9811,14.438276,9.639412,111.672516,111.48949,111.586296,111.24175,1.5010761,0.7,-120.21424,-1497.3136,0.00044448685,-3.6835794,3.460628,3.301422,2.5019817,3.1485078,1.4991209e-06,0.3,2.017481,87.29006,87.36464,87.18515,87.17794,0.08269405,0.5515625,5.398316383361816,43.569182825088504
68,680000,41.34532254847573,-90.2054,0.0,-128.11768,0.33545193,0.87682545,2566.0056,4.564319,12.44801,111.77155,111.18946,111.29521,111.12421,1.8824346,0.7,-117.28288,-1391.382,0.00047627848,-5.3615026,1.3194777,1.4207253,1.3157133,1.5333457,2.1554296e-08,0.3,1.9750359,88.14914,88.15343,88.09688,88.06503,0.07831527,0.43593746,3.6353282928466797,44.187901922067006
69,690000,58.94976746517209,-91.21155,0.0,-141.00276,0.31944206,-3.0208063,1280.1101,5.979536,8.038048,112.06514,111.74017,111.80851,111.66881,1.5707164,0.7,-118.92417,-1185.0009,0.000261936,-5.1710005,4.880505,4.6971507,4.4932203,4.7012877,1.1895493e-06,0.3,2.006462,89.09888,89.13908,89.19132,89.30472,0.10079321,0.3828125,4.898692846298218,44.828469681739804
70,700000,47.20398917901434,-92.80861,0.0,-157.42929,0.8380481,-3.3351412,1346.6372,96.618195,9.543018,111.46191,111.47609,110.996056,111.17417,1.0506312,0.7,-119.719,-1450.9785,7.057993e-05,-3.6834617,3.2407646,3.215909,2.3789492,2.8155723,8.621719e-06,0.3,2.0382628,90.69594,90.82104,90.5333,90.64676,0.06854298,0.48125,3.9405441284179688,45.449258100986484
71,710000,51.71170608983072,-92.88114,0.0,-120.9559,0.55622315,-0.776093,2681.818,8.367043,9.558437,111.5316,111.30696,111.346466,111.24044,3.0263085,0.7,-117.82056,-2267.8862,0.00018633157,-4.683868,1.7047994,1.7855697,1.9249475,2.0901625,1.466833e-07,0.3,2.233952,90.43051,90.50128,90.71951,90.675934,0.07216866,0.3828125,4.325119972229004,46.080666303634644
72,720000,51.85301406885716,-89.37509,0.0,-143.93898,0.67427474,-4.2939615,2836.2883,35.351364,15.149722,111.31751,111.35074,111.29031,110.89059,1.1389618,0.7,-125.48884,-1478.5846,0.0008738624,-7.3802505,5.2214317,4.803136,5.0175858,5.3599734,2.861023e-07,0.3,1.9493595,87.39403,87.334885,87.52634,87.47925,0.06781042,0.43281248,4.2785868644714355,46.708834711710615
73,730000,45.038236805395684,-86.840996,0.0,-171.34497,0.9021926,-0.64726186,2779.6118,102.69551,9.702617,110.5452,110.73985,110.81635,110.85968,16.79262,0.7,-117.35062,-1965.3926,0.0025937199,-3.0826216,2.0169923,2.0378444,2.3651075,2.7026649,4.0238796e-05,0.3,2.1284792,84.619705,84.585335,84.91557,84.89612,0.1211229,0.3671875,3.797895908355713,47.330420450369516
74,740000,45.470361668617834,-92.98442,0.0,-112.96445,0.5518477,-3.005312,2710.393,15.03437,11.171165,111.4399,111.59179,111.23893,110.91616,14.498963,0.7,-117.99308,-2049.4993,0.00023049547,-3.6488442,2.0648355,2.3234432,1.5467454,1.4361761,2.7522156e-06,0.3,2.0752168,90.8504,90.778145,90.754715,90.6718,0.1936699,0.5390625,3.800476551055908,47.95200409889221
75,750000,54.45194842190253,-90.87044,0.0,-216.48712,0.35743737,1.026603,2380.3276,6.3821263,8.7756605,111.21043,111.21551,110.834,110.87501,0.7393753,0.7,-116.99207,-1615.91,0.0010188208,-7.0871587,0.79918855,0.23258048,1.2978061,0.40374678,2.6077032e-07,0.3,1.8567891,88.92893,88.92197,88.89443,88.97719,0.06697789,0.3953125,4.571826457977295,48.58413124481837
76,760000,43.03415864515063,-90.826096,0.0,-155.3089,0.70375407,-1.1684327,2852.78,45.783943,12.65447,111.074814,110.85143,111.279236,111.14108,6.265187,0.7,-119.18061,-2053.5222,0.0020902595,-3.5239627,1.2578976,1.9815202,1.3633461,-0.2238492,3.256516e-05,0.3,2.3415089,88.4596,88.45352,88.65052,88.66464,0.106873766,0.4359375,3.6597726345062256,49.19973468383153
77,770000,52.29829026333661,-85.87016,0.0,-195.30536,0.5493038,0.24123383,1490.4886,12.355059,9.271861,111.16818,111.03095,111.16926,111.22782,1.9226779,0.7,-116.62127,-1660.595,0.00027580519,-4.6072536,1.5957867,1.6801178,1.3085241,1.9454464,1.913187e-06,0.3,2.0022855,83.846146,83.78848,83.84782,83.9983,0.080663726,0.40625,4.42508602142334,49.83069194157918
78,780000,53.08535109265268,-89.01828,0.0,-186.11923,0.4225424,0.32653272,2933.233,11.9260845,9.312372,111.27037,110.933395,111.0161,110.91546,2.4756594,0.7,-117.96415,-1668.1052,0.00057985756,-5.152909,1.2478219,1.3018882,1.2054503,0.57578266,1.9435976e-07,0.3,1.9784756,86.84886,86.8416,86.84375,86.7545,0.06335516,0.4671875,4.399089097976685,50.46150040229161
79,790000,65.17161683050135,-92.07829,0.0,-153.0037,0.3576533,-3.1606755,2189.0642,15.041773,9.752864,111.72699,111.69619,111.65343,111.92803,10.484776,0.7,-118.41671,-1406.8683,0.00043270114,-6.1188865,3.3184304,3.790968,3.9153223,4.1124325,4.3226754e-07,0.3,2.1550877,89.80469,89.81498,89.852516,89.800415,0.10598701,0.51093745,5.3434388637542725,51.108069189389546
80,800000,55.09017315844345,-89.38951,0.0,-190.3689,0.71338665,0.5180845,1400.7211,52.069595,15.359459,110.808014,111.16108,110.54217,110.90347,2.1918304,0.7,-124.74494,-1595.6234,8.2317565e-05,-4.0947237,2.7883801,2.9365778,1.6219738,2.3736653,1.5461072e-05,0.3,2.1343946,87.160904,87.16502,86.903564,87.17701,0.09242742,0.4015625,4.473913669586182,51.74150398572286
81,810000,50.854505979209684,-87.41184,0.0,-206.93153,0.29150474,2.5999305,2483.1775,2.8419533,15.045057,111.45041,111.57327,111.72348,111.74852,2.1304495,0.7,-117.72341,-2193.8892,0.0001775609,-4.868348,1.1111832,1.0806057,1.2508092,0.9117727,6.519258e-10,0.3,1.9988996,85.36882,85.37719,85.27808,85.33422,0.08941752,0.453125,4.239622354507446,52.36879429022471
82,820000,50.865987746520055,-87.98334,0.0,-210.33896,0.6433313,-3.1617656,2712.4656,41.033356,9.010192,110.77858,111.14141,111.59317,111.38832,6.145737,0.7,-116.487465,-1672.4863,1.807604e-05,-4.41827,3.0638437,3.357753,3.6791513,3.6221128,8.802745e-08,0.3,2.0753937,85.74456,85.76065,85.92951,85.79339,0.12358842,0.50468755,4.1978278160095215,52.99516088167827
83,830000,44.442136041615484,-90.70785,0.0,-169.46278,0.4720413,-0.22835243,2653.167,5.604711,8.574333,111.19336,111.28148,111.0346,111.02106,2.4955254,0.7,-116.35369,-1670.9119,0.0013431167,-5.7783866,1.7706804,1.855624,1.4259317,1.3535359,2.1554296e-08,0.3,1.9770899,88.57376,88.55,88.35125,88.46776,0.08538129,0.4734375,3.7440357208251953,53.615607635180154
84,840000,50.13446475896626,-89.84484,0.0,-171.68681,0.691155,-5.1770573,1780.415,8.989194,9.280222,110.75466,110.78491,110.95999,110.8344,1.0861701,0.7,-118.78758,-2305.6567,0.00010780437,-4.401045,3.6264398,2.0891387,3.053145,2.354259,7.986091e-07,0.3,2.237342,87.53836,87.53577,87.82074,87.63243,0.04513845,0.4828125,4.093558073043823,54.24011384646098
85,850000,51.938284273525504,-91.20048,0.0,-165.90108,0.7281821,-1.8530681,3215.4792,11.327618,12.92721,111.18688,111.13963,111.154625,111.30501,3.1598933,0.7,-117.852554,-2732.0115,0.00011876115,-3.914661,3.4672365,3.4428003,3.1245775,2.722959,1.2635894e-06,0.3,2.1836052,88.9424,88.988594,89.31929,89.251724,0.08207799,0.4640625,4.715019941329956,54.87386581103007
86,860000,51.710389247855574,-88.72789,0.0,-217.8047,0.41294727,-1.2489219,4257.087,7.192403,10.108617,111.0586,111.26362,111.116104,111.14777,2.275281,0.7,-116.06909,-1802.8712,2.9311515e-05,-5.351585,2.1356285,2.2995818,2.7322862,3.1110778,8.027139e-06,0.3,1.8179924,86.76159,86.74983,86.86213,86.9313,0.067477,0.4109375,4.504243850708008,55.50630158185959
87,870000,52.93713028343413,-90.82153,0.0,-244.51175,0.35230598,-2.7139373,1297.5271,4.672248,7.353757,111.21097,111.24048,111.0989,111.207466,3.3629987,0.7,-116.72036,-1603.8325,0.00123346,-3.697781,4.6190734,4.7015615,4.473698,4.63279,1.9010156e-06,0.3,1.950974,88.77298,88.74512,88.612625,88.81415,0.095413,0.465625,4.427318572998047,56.134805564085646
88,880000,51.37587733752854,-88.77535,0.0,-270.04108,0.82979107,-0.36367452,2439.6614,59.572655,9.557054,111.51968,111.54718,111.04068,111.097374,2.2742028,0.7,-118.135345,-2517.5105,7.850706e-05,-4.9624634,2.2297144,2.4389615,1.6979172,1.9957182,7.647497e-07,0.3,1.9277694,86.767746,86.78099,86.420906,86.54979,0.09231674,0.484375,4.438745975494385,56.761383986473085
89,890000,60.54186952593069,-91.74773,0.0,-153.876,0.4056462,-1.07008,3014.3047,8.312235,9.991386,111.74046,111.84029,112.2977,112.229996,2.4716034,0.7,-120.9443,-2221.9253,0.00048699905,-5.834876,1.9921837,2.1886885,2.194671,2.2233968,5.046604e-07,0.3,2.3883598,89.30739,89.254715,89.463806,89.45027,0.076418586,0.44218752,5.099843978881836,57.4015065630277
90,900000,63.51764103190264,-91.83246,0.0,-179.6052,0.297899,-6.8149757,2061.6182,5.66171,9.738876,111.154045,111.193726,111.000824,111.00557,17.94602,0.7,-118.517525,-1895.9508,0.0005416191,-5.625725,7.8230166,7.725341,7.3694463,7.590628,8.451753e-09,0.3,2.1056585,89.58523,89.54427,89.47835,89.54958,0.13303885,0.43906248,5.395367622375488,58.04827134609222
91,910000,57.769561575155095,-92.45,0.0,-89.97124,0.7217318,-5.2591224,2987.8623,8.460332,9.631584,111.02143,111.09428,111.4132,111.39184,5.4349957,0.7,-118.8441,-1764.8788,0.00077953376,-3.7817888,6.640228,6.436,6.2405663,6.330548,7.174927e-06,0.3,2.3722239,89.90072,89.90905,89.95308,89.99835,0.0900741,0.45624998,4.777543544769287,58.6850439508756
92,920000,53.47584770325579,-91.33685,0.0,-231.3157,0.62686664,-7.4494076,1491.0701,6.846483,8.469525,112.32956,111.64969,110.95371,111.35924,1.3739626,0.7,-116.87017,-1659.6824,9.596074e-05,-5.8123956,11.080141,11.495241,10.26186,10.819215,1.0058284e-08,0.3,2.015012,89.26091,89.32244,88.97005,89.28079,0.0809032,0.390625,4.472772598266602,59.315107095241544
93,930000,43.18003918992884,-88.556435,0.0,-162.86862,0.4569094,0.7112111,1626.7069,13.660026,9.301493,110.784355,110.90829,110.56002,110.7002,4.1642704,0.7,-116.692474,-1831.2649,0.00022398226,-4.5784597,1.6952847,2.0848994,1.333233,1.7600795,2.5990886e-07,0.3,2.3164313,86.150665,86.219475,86.1818,86.257996,0.10488464,0.38593748,3.864318609237671,59.93557318846385
94,940000,51.74166735714408,-90.09218,0.0,-73.23794,0.44880483,0.46567494,2866.2063,8.780001,11.989521,111.303215,111.52772,111.30844,111.42522,9.379485,0.7,-121.64517,-2478.8923,0.00109662,-4.6863832,0.8906073,1.4410503,1.3885684,0.7229905,1.66893e-07,0.3,2.6752267,87.25516,87.313995,87.21713,87.37057,0.14260411,0.4359375,4.546480417251587,60.56714245875676
95,950000,55.29307175948867,-89.77222,0.0,-212.89291,1.2044177,-2.5300555,2754.4182,64.698364,9.893129,111.60561,111.64413,111.00712,110.910126,5.381407,0.7,-121.31828,-2078.2908,0.006904045,-4.946422,4.1352925,4.601924,4.0409718,4.0475707,7.377821e-08,0.3,2.3650317,87.32258,87.3918,86.83022,86.94966,0.09451003,0.4765625,4.781180381774902,61.20398234128952
96,955000,60.91277493610069,-90.58127,0.0,-208.52197,0.4541172,-4.2706556,2251.098,4.8894644,9.977652,110.70866,110.8585,111.24643,111.01251,1.958256,0.7,-115.95433,-2214.588,0.0004037848,-4.355275,5.392727,5.5578613,5.985682,5.7517185,5.409122e-07,0.3,2.2851574,88.240234,88.15827,88.37286,88.29009,0.06497784,0.421875,5.0097033977508545,61.564658459027605
97,960000,62.61352691531289,-91.52677,0.0,-187.68074,0.5991736,0.24279296,4987.7363,34.7868,8.785105,110.85241,110.68125,110.50237,110.76777,2.1341345,0.7,-117.00702,-2076.377,0.00012595789,-7.0005493,1.2670426,1.197619,1.3726953,1.3829658,4.710164e-08,0.3,2.1245732,89.27594,89.21241,89.13722,89.18114,0.07418103,0.45468748,5.191619873046875,61.93024572928746
98,965000,50.41414474834271,-89.09366,0.0,-274.28967,0.8078341,1.1427623,1540.053,89.599304,8.912039,110.94686,110.9024,111.10425,111.01868,7.974517,0.7,-117.42411,-2669.8376,0.002149312,-4.19988,1.1160954,0.8552526,1.4090034,1.3355868,7.554889e-07,0.3,1.9055269,87.21527,87.18367,87.20423,87.17198,0.12534204,0.5171875,4.238914489746094,62.279251416524254
99,970000,52.12419762660547,-90.36652,0.0,-142.61346,0.4075286,0.1349504,3245.098,5.2147036,9.71445,110.71354,110.8962,111.043724,110.89688,1.7231716,0.7,-118.59587,-1964.1061,0.0014552313,-3.7975836,3.6062953,3.5215476,4.346738,4.2950096,9.538081e-07,0.3,2.198985,88.07587,88.10551,88.12648,88.22509,0.058416873,0.44687498,4.380629539489746,62.63075650930405
100,975000,55.73628800827672,-89.307144,0.0,-230.28955,0.5348372,-6.102239,1711.9592,39.750206,8.566743,111.07797,111.09229,111.04313,111.13615,2.7701302,0.7,-117.3625,-2135.2434,8.286501e-05,-4.9262834,8.119425,8.1972,8.045871,8.266784,2.5215559e-06,0.3,2.0158963,87.24027,87.24865,87.36828,87.38957,0.07446969,0.42812496,4.660025119781494,62.98709149360657
101,980000,53.39793648610588,-88.1544,0.0,-226.49118,0.40999985,0.66602373,3337.4268,10.908705,9.552191,109.03729,109.21401,108.93945,108.89702,1.2317072,0.7,-115.48409,-2038.3762,0.0007100479,-3.5795338,2.3690624,2.0010374,2.1098838,2.2572465,2.5465852e-08,0.3,2.1204543,86.000465,85.94168,85.77278,85.94961,0.06361481,0.51406246,4.348704099655151,63.33964606523514
102,985000,65.92019482202112,-91.14703,0.0,-215.19885,0.5809368,-1.7615197,2165.562,12.692201,8.738832,112.157005,111.79023,112.19615,111.84119,1.5292534,0.7,-119.04911,-1841.3789,0.000499013,-4.020859,3.3832254,3.5574603,3.6635444,3.8106306,1.0913936e-08,0.3,2.1867123,88.92013,88.79639,88.792145,88.76413,0.07739077,0.4734375,5.507082462310791,63.71094626585643
103,990000,60.971011350436335,-90.09369,0.0,-244.78268,0.61644447,-0.51469994,3838.333,10.854679,17.145359,110.99033,110.91927,111.17195,111.18916,2.1812782,0.7,-119.2607,-2753.272,0.00086387334,-4.018598,2.1462011,1.6679673,1.3902781,1.3985975,3.4486874e-07,0.3,2.1572046,87.80734,87.73089,87.82771,87.68591,0.07356353,0.5546875,5.077116250991821,64.07595181067785
104,995000,49.75891002061059,-91.47423,0.0,-204.24124,1.0573465,-3.7370968,1908.9215,16.806396,10.653807,112.19041,112.26228,111.48136,111.59471,2.2981963,0.7,-121.502785,-1848.747,0.0019030776,-4.0321684,7.3917184,7.808018,7.9151716,8.005775,7.207447e-07,0.3,2.321367,89.063736,89.02973,88.54837,88.732635,0.09151977,0.44374996,4.211140871047974,64.42521988550821
105,1000000,46.71473139425507,-89.4718,0.0,-244.42592,0.74447626,2.4146976,1795.9664,21.089424,9.222202,111.13219,111.06434,110.93632,110.89529,4.6547594,0.7,-117.43226,-2915.8591,0.0004863119,-5.4516335,0.006244123,-0.25679392,1.2393025,0.9085504,1.1623605e-06,0.3,2.0416825,87.34769,87.40373,87.52253,87.5316,0.080288656,0.44375,3.9745616912841797,64.77132999102274
