Xixo99/comfo/baselines/comfo6_perterbation_actor/20230309/check_hopper/hopper-medium-v2/COMFO6_s8_20230308_234922_hopper-medium-v2_93.14.csv
,step,reward,actor_loss,alpha,alpha_loss,critic_loss,max_actor_loss,max_alpha_loss,max_critic_loss,max_mle_prob,max_q1,max_q2,max_target_q,max_v,max_value_loss,max_weight,min_actor_loss,min_alpha_loss,min_critic_loss,min_mle_prob,min_q1,min_q2,min_target_q,min_v,min_value_loss,min_weight,mle_prob,q1,q2,target_q,v,value_loss,weight,eval_time,time
0,0,4.525220005683125,,,,,,,,,,,,,,,,,,,,,,,,,,,,,,,,,
1,10000,48.91882336854688,-40.52612,0.066735126,-4.818448,0.4371388,2.4327474,16.051428,14.804197,8.76485,63.892353,63.976013,63.72312,62.265816,4.96323,0.7,-66.5155,-21.074045,0.00023210685,-5.482734,-1.9316585,-1.8130207,-1.8111361,-1.6123132,5.409122e-07,0.3,1.6064416,38.916206,38.957176,39.108833,38.50374,0.06493312,0.4140625,3.5899767875671387,1.9319850564002992
2,20000,61.806226104300244,-66.39281,0.0037359323,-6.893881,0.79450977,0.07537675,37.543915,34.811325,8.845273,84.5184,84.27782,84.33444,84.20903,10.744413,0.7,-88.78582,-37.99384,0.002232378,-3.4763703,0.8467109,0.949911,1.3224615,1.0909759,2.1416781e-07,0.3,1.8173561,64.3789,64.46054,64.29953,64.021324,0.16910946,0.3953125,4.582530498504639,2.5634135166803995
3,30000,64.93430427218829,-76.484924,0.00020047864,-8.3443985,1.438639,6.067107,53.932808,24.366398,10.114336,97.37043,96.90203,97.33898,97.12316,4.0546813,0.7,-104.79558,-59.10151,0.0038248333,-6.4266257,-5.16411,-3.0463314,-4.139651,-5.099277,7.700874e-09,0.3,1.650029,74.668015,74.73808,74.97175,74.93706,0.14269435,0.37656248,4.6827569007873535,3.193705137570699
4,40000,54.8910953644984,-83.84496,1.0592663e-05,-14.951268,1.4042227,-0.28417706,65.43543,137.38275,8.234335,105.23552,105.588005,105.32602,105.07127,16.056732,0.7,-111.015045,-81.97539,0.000222856,-4.784725,2.2507951,2.9773617,1.2441397,1.8708448,2.6633936e-07,0.3,1.4525759,82.318245,82.36726,82.051346,82.03729,0.22182828,0.49062496,3.933959484100342,3.8101613680521647
5,50000,59.3601594024404,-91.47841,5.509488e-07,-13.592243,0.76661813,-2.030022,126.54212,12.501223,9.972479,109.5929,110.09006,109.14252,108.73064,5.173101,0.7,-114.211975,-135.28789,0.001792491,-7.935869,2.403389,2.5280104,4.3447347,4.125448,1.7968705e-06,0.3,1.5121421,89.85817,89.82648,89.61626,89.57059,0.105187505,0.4578125,4.243125915527344,4.432024200757344
6,60000,53.78394759325077,-86.58449,2.8507344e-08,-18.760735,1.086169,2.2113879,107.079956,25.728909,7.812289,110.97521,111.52525,112.25476,112.25691,3.4768078,0.7,-116.3486,-156.88194,9.22897e-05,-5.077835,-0.44818452,0.014973491,1.2872156,0.927897,1.4144462e-09,0.3,1.6225325,84.64225,84.71819,84.723404,84.70162,0.15045339,0.4890625,3.846827983856201,5.048213160037994
7,70000,43.78128867575832,-91.83177,1.4918485e-09,-19.494316,1.1108255,1.2209773,135.50386,21.252293,9.533787,111.891335,111.94574,112.64935,112.78183,6.3060737,0.7,-117.038315,-156.08887,0.009152137,-4.5967546,1.7395117,1.2063174,1.6874312,1.4370658,2.390414e-07,0.3,1.9818972,89.726944,89.78571,90.24817,90.101295,0.1343494,0.4296875,3.226740837097168,5.655221688747406
8,80000,45.75566269744529,-87.77102,7.765467e-11,-28.426815,0.59190184,-1.1912613,172.16116,9.069928,8.683891,112.02158,111.918465,112.68436,112.46583,3.4633358,0.7,-119.07682,-212.2108,0.00057258375,-5.6115365,2.0577517,2.2750528,1.3043512,1.695627,3.342393e-10,0.3,1.9375508,85.766266,85.824524,85.58348,85.69885,0.0939676,0.44687498,3.3346331119537354,6.263864441712697
9,90000,47.70210372069841,-91.90517,4.063047e-12,-30.535742,0.47691804,-1.1896585,144.41534,6.3982916,7.8166676,110.29702,110.29206,110.14703,110.148224,1.4465529,0.7,-114.85007,-225.64116,0.0018152464,-7.28277,3.0609174,2.7814078,3.3988342,3.6260715,6.915245e-07,0.3,1.6030486,90.26682,90.275635,90.12141,90.257706,0.07431408,0.3953125,3.744645118713379,6.876514740784963
10,100000,51.114213573418475,-93.33919,2.1292519e-13,-22.720533,1.0561544,-1.075759,157.0021,26.585495,8.962819,112.43959,112.28389,111.976326,112.08849,2.0033755,0.7,-118.70316,-174.25627,0.0009258131,-3.3160017,2.7146769,2.399838,1.2804619,2.9688036,6.171875e-07,0.3,1.9724107,91.249435,91.188705,90.9657,91.0433,0.086479105,0.4921875,3.715024948120117,7.491113404432933
11,110000,50.269518976553016,-90.463974,1.11351485e-14,-24.205978,0.93600976,-3.2058249,272.43857,77.07818,10.562673,110.51453,110.32501,111.14568,110.261795,4.493011,0.7,-119.598625,-225.32664,0.00053429196,-2.6775608,4.864973,4.73243,4.6088047,4.0639205,5.111098e-07,0.3,2.1471539,88.28311,88.226974,88.32459,88.07356,0.16818362,0.6078125,3.7006425857543945,8.105950220425923
12,120000,53.502867395128284,-91.35871,5.8264326e-16,-29.050484,1.3459804,-7.139659,218.23465,159.21915,8.8912735,112.257355,112.37996,111.820114,111.71916,2.727797,0.7,-120.89698,-341.605,0.0043645995,-8.2268505,6.26194,6.5316525,5.59129,5.968782,1.9480242e-06,0.3,1.90186,89.32214,89.351135,88.95036,89.07075,0.08204339,0.475,3.8743975162506104,8.716988531748454
13,130000,52.26079854032102,-87.89365,3.054087e-17,-34.110237,0.8146227,-3.086674,346.31412,25.814404,12.179883,109.97232,109.8746,110.38524,109.20209,1.0466093,0.7,-120.86203,-259.35562,0.0022946417,-7.322961,3.8291166,4.0578103,4.5036535,4.192146,1.0309744e-05,0.3,2.1039224,85.78765,85.75028,85.838905,85.56555,0.085750245,0.5703125,3.760607957839966,9.332726585865021
14,140000,63.457051444877536,-91.524155,1.5885723e-18,-31.497627,1.1978631,-10.902208,235.209,40.445187,9.450846,111.77839,111.50726,111.79669,111.380486,2.3583477,0.7,-118.98983,-267.99484,0.0017142033,-5.2806478,12.771826,12.552034,12.841432,12.960729,9.538081e-07,0.3,2.02161,89.53345,89.41835,89.51152,89.522385,0.081239276,0.43906248,4.472927093505859,9.958407640457153
15,150000,86.92499612898307,-87.92832,8.289547e-20,-40.059505,0.6861919,1.0452371,468.53198,15.766278,10.3354225,111.13049,110.51762,110.71328,110.543175,2.5739167,0.7,-117.279106,-247.03183,0.0004765336,-5.491526,2.5430613,2.7204065,1.4854825,1.4423869,1.8226317e-06,0.3,1.9782448,85.90248,85.95885,85.838646,85.81143,0.10354313,0.49375,6.2130796909332275,10.616235772768656
16,160000,69.77289444732381,-90.426216,4.3283397e-21,-45.355724,0.7365632,0.8769764,314.25595,11.121264,8.017652,110.33674,110.76202,110.93338,110.78201,1.6630182,0.7,-117.12727,-370.3075,0.0007982194,-4.3929687,-0.30052486,-0.29750377,1.2999766,-0.6254416,3.6670825e-10,0.3,1.9240896,88.44179,88.441475,88.47684,88.345215,0.094370745,0.515625,4.994546175003052,11.25430425008138
17,170000,71.58968599473165,-90.75722,2.2660955e-22,-42.680267,0.8379286,-1.4070956,257.00583,19.800133,8.977844,111.184616,111.02609,111.06585,111.09037,15.018392,0.7,-119.564545,-446.77527,0.00021249411,-5.056324,2.4689884,2.2139256,1.8791547,2.2841063,6.4977215e-08,0.3,2.1605108,88.50831,88.55189,88.19536,88.45421,0.13169187,0.39999998,5.124914884567261,11.892889567216237
18,180000,99.18067182394157,-89.972534,1.1859899e-23,-59.632835,0.9853601,-0.8028929,329.4425,16.41555,10.385724,112.008446,111.99347,112.82883,111.507965,3.9538784,0.7,-118.80562,-373.87964,0.0077270893,-7.666062,2.208313,2.5977392,2.5964417,2.6422122,3.3255202e-07,0.3,2.0648544,87.86169,87.941864,87.50369,87.64357,0.101435,0.45468748,7.263829946517944,12.566156935691833
19,190000,96.84365355219894,-89.34543,6.26285e-25,-63.339455,1.2851473,-0.60704434,375.6011,61.771286,8.686569,111.9566,111.68335,111.61303,111.962814,5.778333,0.7,-119.29779,-363.80173,0.0008264412,-5.883356,1.8430947,2.1706753,1.7436739,1.8637142,1.1895493e-06,0.3,1.8867439,87.405426,87.431114,87.035324,87.333725,0.118295506,0.4375,6.990627288818359,13.23657599290212
20,200000,90.31094791538405,-91.05321,3.2765547e-26,-58.593857,0.4700342,-2.317499,414.0108,12.251151,8.611848,112.9188,113.08371,112.297844,113.663185,4.202458,0.7,-120.16563,-356.77567,0.001277654,-6.8962717,3.7901,3.8277998,4.434288,4.196878,7.2872967e-06,0.3,1.7705386,89.19066,89.19063,89.23017,89.12938,0.09376869,0.50625,6.6065428256988525,13.902050105730693
21,210000,93.7337593255393,-89.19946,1.7216828e-27,-44.018356,1.4414732,-4.160574,652.20624,132.619,8.135524,111.56242,111.92304,111.80222,111.72659,4.0341673,0.7,-120.00008,-637.45935,0.00078566605,-3.965681,5.1016064,5.103322,1.4144609,5.4574056,1.6171835e-07,0.3,2.043661,86.97379,86.9736,87.002975,87.02687,0.13137656,0.49999997,6.701900005340576,14.567886471748352
22,220000,90.92634154083822,-90.398636,9.053162e-29,-64.83757,1.2173421,-5.028446,667.6086,36.452984,8.681503,112.91516,113.34029,113.14701,113.16654,3.5693858,0.7,-119.06675,-558.7505,0.001234136,-3.0895705,5.200337,4.39777,5.1992826,5.294742,2.521556e-08,0.3,2.2815344,88.10185,88.04254,88.41747,88.42673,0.09695166,0.4265625,6.454285383224487,15.22927592198054
23,230000,83.615915887292,-92.61995,4.7625505e-30,-40.85598,0.551495,0.9456305,428.56635,21.00327,8.671445,111.548485,111.785484,111.95282,112.05298,0.758555,0.7,-117.33675,-381.66486,0.00034911773,-3.8269153,0.19792992,0.38972974,1.306316,1.2010872,9.167707e-09,0.3,2.2790704,90.28966,90.31619,90.46304,90.54568,0.05702973,0.43906248,5.986393690109253,15.880543498198191
24,240000,98.6474912903064,-91.48946,2.5011327e-31,-68.694756,0.7795061,0.11477071,579.7473,28.992937,10.528839,112.2275,112.94206,112.225716,112.32917,1.3247449,0.7,-117.25362,-544.8744,0.00021597795,-4.798495,0.30958265,0.31121904,1.3170466,0.45431578,5.6337567e-06,0.3,1.9919946,89.437225,89.43796,89.35431,89.35243,0.06725147,0.42343748,7.120950937271118,16.548891981442768
25,250000,77.5681582454364,-92.804886,1.3167322e-32,-69.73978,0.71891594,0.11081469,826.4136,19.712963,9.683537,112.63806,112.333176,112.63582,112.435585,1.7369457,0.7,-118.54118,-648.5036,0.001152988,-3.758666,0.7565888,1.0658981,1.3080981,0.28509924,2.229761e-07,0.3,2.2193477,90.49046,90.56381,90.49283,90.51163,0.08605528,0.434375,5.50775408744812,17.194809595743816
26,260000,83.27915103583244,-87.7081,6.953924e-34,-61.983475,0.6564126,-0.3966806,482.55515,21.735065,12.995584,113.34129,112.63035,112.74296,112.68242,1.8700595,0.7,-118.46969,-626.62756,0.0001239602,-4.182931,1.7180732,1.500025,1.286295,0.8610674,1.4889055e-06,0.3,1.9221832,85.646706,85.68973,85.678406,85.598495,0.09570995,0.46249998,6.097110271453857,17.848672842979433
27,270000,90.64951425154815,-91.51868,3.66506e-35,-61.48012,0.5765619,-5.8247385,1336.2653,7.2830343,9.656704,112.15415,112.18538,112.36988,112.21049,11.78114,0.7,-116.98749,-629.6579,0.0014793279,-3.5353675,6.2238,6.252835,6.118538,5.4153314,1.0043324e-06,0.3,2.160615,89.358444,89.354324,89.27857,89.17134,0.14940791,0.4921875,6.773362159729004,18.512387800216676
28,280000,92.42192389929852,-90.27995,1.9375263e-36,-73.67741,0.5640679,-1.2610134,545.87195,19.831745,9.3998785,111.58755,111.51529,111.64183,111.65309,1.4686168,0.7,-118.37161,-695.7716,0.00023136893,-4.487582,3.3552036,3.3839078,3.645393,3.631989,2.0305336e-06,0.3,2.2676172,88.007416,87.96704,88.25808,88.24909,0.06457083,0.43281248,6.80979585647583,19.174941607316335
29,290000,85.73223040685484,-88.60407,1.0191869e-37,-61.64246,0.5475112,-0.07383919,1170.4866,6.9560633,8.802351,111.7517,111.8698,111.97571,112.40066,5.285323,0.7,-119.342064,-649.95526,0.00019999646,-2.9159846,1.9733746,1.421756,1.3152003,1.7819911,6.078626e-08,0.3,2.1497684,86.32065,86.34097,86.62236,86.61635,0.0922699,0.4359375,7.021771669387817,19.841977624098458
30,300000,89.39663804495962,-89.2114,5.409287e-39,-117.981224,0.5478673,-1.2474692,414.7245,19.422352,7.3101034,112.436745,112.178696,111.96804,111.91312,1.9186496,0.7,-118.17734,-713.5759,0.0010057697,-4.4587784,1.8136288,1.6760793,1.3271483,1.8931469,1.3659516e-05,0.3,1.8197355,87.374855,87.367805,87.30307,87.1935,0.08815534,0.5703125,6.94456934928894,20.50695411761602
31,310000,87.16643566896273,-89.9868,2.86233e-40,-90.82625,0.9513605,0.6637478,625.64606,51.379383,8.17268,111.8172,111.69458,112.15684,111.74834,9.334883,0.7,-116.04649,-786.2723,0.0008495297,-3.9016447,2.0738983,2.7163424,2.7822745,2.9717839,3.9156294e-08,0.3,1.8148851,88.15875,88.12477,88.0932,88.1398,0.10285601,0.41562498,7.208497762680054,21.17748115460078
32,320000,84.8378483385984,-84.48443,1.5099e-41,-92.43609,0.56863636,-3.560132,892.32,15.8696375,9.5259495,111.40387,111.379776,111.983,112.02726,1.2403581,0.7,-117.42707,-705.03613,0.00012868004,-3.655167,2.5934696,2.6302974,2.5432625,3.0876255,3.3255202e-07,0.3,1.8023108,82.64348,82.66994,82.90608,82.92844,0.07355541,0.39999998,6.346931219100952,21.831876889864603
33,330000,86.15781203573259,-89.99304,8.03e-43,-69.61785,1.1552091,-1.5140553,876.13824,210.55396,10.52574,111.377945,111.48139,111.6556,111.42048,3.1690686,0.7,-117.507,-633.1993,0.00059636554,-6.6029058,2.3649077,1.5367329,1.3438989,1.3420252,1.4709076e-08,0.3,2.0395863,87.92279,87.90539,87.80603,87.73285,0.08716903,0.50625,6.613302946090698,22.487946343421935
34,340000,91.27219924265096,-90.27687,4.2e-44,-66.787094,0.8798965,0.4695156,1057.5195,83.905106,9.930335,110.499916,110.84415,110.90104,110.60225,2.7032695,0.7,-116.845,-654.84467,0.0005865205,-5.0444403,0.4214596,0.48925582,1.4407824,0.3152004,8.659245e-06,0.3,2.0450277,88.08928,88.1314,88.1883,88.275055,0.08031416,0.396875,7.367481708526611,23.162379161516824
35,350000,89.59535012112376,-92.113144,3e-45,-69.32849,0.44586092,-2.1529381,1234.3342,12.500677,8.997334,110.45273,110.42478,110.41661,110.66388,8.249359,0.7,-117.36009,-703.1955,0.00011914619,-5.204579,4.0308924,4.879653,4.3295736,4.366444,4.9422497e-06,0.3,2.111566,89.797485,89.896805,89.911285,89.93888,0.13502511,0.3828125,6.995121955871582,23.82687865495682
36,360000,93.05607902070308,-90.04462,0.0,-91.422745,1.3107119,-3.227314,698.1511,172.89963,9.588256,111.82722,111.44259,111.63946,111.7343,0.9740314,0.7,-117.012566,-819.09753,0.0012842887,-3.0658891,3.6580725,3.2535424,4.521282,4.4705586,7.3162374e-07,0.3,2.0382326,87.86901,87.889854,88.09311,88.093315,0.06095294,0.4265625,7.123318433761597,24.493376684188842
37,370000,89.44914270645582,-86.914566,0.0,-88.74002,0.60834986,-0.9795861,1114.6453,6.724067,13.758707,112.714775,111.945045,111.40606,111.5242,1.6074815,0.7,-120.63567,-730.4193,0.00028699223,-5.1471477,1.0602958,1.2792375,1.2899777,1.0578547,2.5749207e-06,0.3,2.171801,84.80404,84.76906,84.612686,84.68538,0.07813367,0.48125,7.18396520614624,25.16354795694351
38,380000,88.5263023907392,-89.03246,0.0,-87.77028,0.71543884,-1.7734294,670.16974,16.052795,8.974253,111.07397,111.19526,111.116104,111.09782,2.4440067,0.7,-116.45839,-946.3824,0.0010971832,-3.628735,3.5943391,3.3353379,3.4898448,3.1134427,7.700874e-07,0.3,2.2767112,86.67097,86.63382,86.618256,86.4388,0.088171825,0.5203125,7.320558071136475,25.835015920797982
39,390000,94.83870587788343,-87.56001,0.0,-106.48801,0.9553074,-3.4745748,897.3997,61.092293,9.457703,111.616905,111.82302,110.54311,110.650826,1.3828207,0.7,-117.23997,-1013.9978,0.0015829621,-3.9673977,4.5063796,4.4949665,3.9095857,3.8585367,1.0058284e-08,0.3,2.176547,85.265,85.30886,84.8905,84.80842,0.093782924,0.54531246,7.1633758544921875,26.50173876285553
40,400000,90.73794398072526,-87.675446,0.0,-96.59983,0.85492873,2.7284045,1466.3826,10.598436,8.86253,112.09597,112.18072,112.65906,112.38265,1.3244308,0.7,-117.427895,-847.73456,0.00024521007,-4.794923,-0.593647,-0.46108755,1.4039251,-0.095314145,3.426685e-06,0.3,2.080092,85.584885,85.555405,85.9619,85.813156,0.06636856,0.44687498,6.940132141113281,27.173510018984476
41,410000,93.34218489737839,-86.489456,0.0,-129.81839,1.0434551,-1.4021771,569.5888,78.96437,7.787736,112.78717,111.855354,112.370255,112.365166,11.0713005,0.7,-115.836555,-927.3007,0.00090066093,-4.3361874,2.321514,2.3108633,1.4893112,1.545881,3.6670826e-08,0.3,1.7644184,84.706696,84.77622,84.80739,84.74191,0.13142432,0.47031248,7.0111401081085205,27.841591358184814
42,420000,80.4781524095103,-89.536125,0.0,-73.54118,0.6510287,-2.1841931,1213.1989,13.076937,8.964145,112.179245,112.474464,112.39711,112.36783,2.8680847,0.7,-117.97528,-866.5547,0.00016315107,-5.0703664,3.8894942,3.960712,3.5684648,3.7908876,3.9156293e-06,0.3,2.2233303,87.21314,87.19235,87.19604,87.25145,0.08338551,0.4078125,6.152657508850098,28.491204170385995
43,430000,91.97358752429575,-88.50715,0.0,-123.20456,0.6199295,-0.55304635,758.6419,27.047306,9.793987,111.560165,111.39403,111.57996,111.259636,1.7639146,0.7,-117.55999,-897.0461,0.00068360224,-7.2267942,2.0329015,1.4593608,1.4521184,2.1000888,1.177541e-06,0.3,2.0766647,86.423195,86.4499,86.558685,86.63813,0.08254544,0.39687496,7.036988973617554,29.159998861948647
44,440000,94.20851644424927,-89.327545,0.0,-114.68031,0.6850491,1.8507857,959.0084,14.104536,8.010775,110.31251,110.361824,110.38205,110.6491,1.6430928,0.7,-117.23404,-1096.961,0.0002579057,-3.7520308,1.3689353,1.2110229,1.9048414,2.1235983,2.9511285e-09,0.3,2.0990744,87.2623,87.21361,87.22777,87.31489,0.073093355,0.3875,7.08923077583313,29.82917269070943
45,450000,84.77283253906602,-90.267075,0.0,-106.68358,1.3022714,0.92468727,2529.5308,11.826141,10.660643,111.249275,111.5087,112.077484,112.428314,7.473268,0.7,-114.924324,-1181.1099,8.160074e-05,-6.0316825,0.18764603,0.24001375,1.2038838,1.6610605,1.0430813e-08,0.3,2.0937657,88.02422,88.058105,88.604645,88.58743,0.15002754,0.4046875,6.5032453536987305,30.48292184670766
46,460000,92.75911825957827,-91.34287,0.0,-89.311584,0.37945738,0.67677486,2404.24,12.215832,9.212082,111.18368,111.5656,111.61099,111.55447,1.0203114,0.7,-116.5995,-1224.0887,7.273187e-05,-5.3791065,0.62825555,0.55458057,1.3080981,0.8545072,1.7968704e-08,0.3,2.2139316,89.09401,89.10779,89.12058,89.25297,0.061304767,0.4109375,7.027829170227051,31.152467115720114
47,470000,95.4405337768091,-89.462234,0.0,-130.51431,0.4301423,-3.1831698,857.7015,23.540213,8.917567,111.757164,111.48108,111.08047,111.356476,2.193761,0.7,-117.4787,-963.8169,0.0006706669,-3.0555856,4.502178,4.227706,4.207331,4.215073,7.264753e-08,0.3,2.1083093,87.33151,87.29925,87.1514,87.23075,0.08656471,0.50625,6.986449956893921,31.817761596043905
48,480000,90.64933399295504,-88.5618,0.0,-97.8283,0.46661192,-1.0248947,858.1611,14.172142,9.022662,110.99586,110.93608,110.93181,111.02308,0.94022304,0.7,-117.50909,-1331.4535,0.00042115297,-4.0743155,2.0987768,1.854666,1.3040239,1.4891654,1.7968705e-06,0.3,2.4136581,86.11446,86.031784,85.91584,85.85814,0.073373415,0.46718746,6.701423645019531,32.48362214962641
49,490000,93.19644469863026,-85.57957,0.0,-154.8128,0.58796096,-0.2431221,1449.6177,5.83622,8.537562,111.071754,111.25149,111.61857,111.790565,3.961826,0.7,-118.508804,-1133.7832,0.0003866444,-6.000384,1.7984377,2.278521,1.3570929,1.3296708,3.4540874e-06,0.3,1.9068706,83.596085,83.62918,83.61453,83.71229,0.109292746,0.49218747,7.213562965393066,33.15638769865036
50,500000,81.91194974245661,-89.06143,0.0,-145.09616,0.69009733,-1.7462554,935.3855,9.234983,9.952026,110.94728,111.298775,111.49726,111.3211,1.1522024,0.7,-115.57884,-1284.2594,0.0023358334,-3.6135073,2.3965864,2.5409293,3.0070496,2.741956,1.5926315e-06,0.3,1.8779523,87.13775,87.11232,87.42839,87.31366,0.080105275,0.478125,6.441035509109497,33.816629127661386
51,510000,90.04775174478674,-92.15997,0.0,-106.6297,0.52702874,-0.9794879,1701.5321,25.094986,9.765152,111.07395,110.9861,111.01428,110.9985,1.0233045,0.7,-119.1529,-1076.3789,0.0003217446,-4.349546,1.6199603,1.2601463,1.3186605,2.0107038,2.3136847e-06,0.3,2.304324,89.81033,89.85916,89.74221,89.8548,0.08397367,0.39374998,6.827392339706421,34.48612400690715
52,520000,94.2026436279715,-91.826065,0.0,-71.40689,0.504719,-5.948482,3552.576,8.094137,9.94483,112.47853,112.28118,112.0069,112.04288,2.2374256,0.7,-120.2309,-1039.7067,0.001116388,-4.1034017,6.4165382,6.4493594,5.913225,6.240614,1.878664e-06,0.3,2.3111806,89.38793,89.40386,89.495834,89.574036,0.09265214,0.39374995,7.034298658370972,35.15579702059428
53,530000,93.0532733956116,-88.3315,0.0,-135.28961,0.44202578,2.6200109,1736.6674,11.031224,9.235866,110.84951,111.0038,111.98369,111.02406,11.149173,0.7,-117.22006,-998.94635,0.0024506731,-6.238676,-0.6058988,-0.68752176,1.3361553,-0.4209639,1.3293334e-06,0.3,2.0062263,86.1869,86.22653,86.24646,86.30097,0.13266726,0.4515625,7.1802191734313965,35.82575396299362
54,540000,94.35135494464812,-90.727264,0.0,-123.534515,1.2169118,-0.750298,1485.0872,133.71121,8.779103,112.16104,111.915085,111.36941,111.71972,4.9202013,0.7,-119.84973,-1566.5967,0.00053509657,-7.585964,3.2966228,3.2028615,3.0882611,3.446517,1.6031962e-06,0.3,2.1643791,88.39058,88.41668,88.14688,88.20891,0.10987782,0.5078125,7.205564260482788,36.49729450543722
55,550000,87.58318673304171,-90.406235,0.0,-99.946014,0.58626485,0.8929422,1189.6617,9.608732,9.393633,111.28411,111.0015,111.08723,111.21831,6.5669026,0.7,-120.38055,-989.37366,0.00046324846,-4.7295856,0.6427276,1.0214784,1.1582923,0.7711916,1.1445372e-07,0.3,2.2934713,88.06181,88.09516,88.27123,88.03812,0.12631467,0.5125,6.621806383132935,37.16129496494929
56,560000,91.13490930804059,-89.62344,0.0,-121.38031,0.5624664,0.16393495,1699.2822,11.28539,10.745044,111.389595,111.648796,111.748146,111.789566,4.967085,0.7,-116.56479,-1446.1335,0.00020618463,-4.119928,0.75772977,0.9065473,1.3039217,1.6838768,2.6287278e-06,0.3,2.1004353,87.334625,87.410034,87.4804,87.442474,0.12830502,0.44687498,6.819214582443237,37.82670234441757
57,570000,92.45914486001678,-92.10784,0.0,-160.41974,0.3664696,-5.5558014,2308.9666,8.233501,8.131432,111.64116,111.7937,111.79901,111.80187,2.4723887,0.7,-118.203255,-1429.0593,6.0197897e-05,-3.9164715,4.359025,4.2378974,4.2773976,4.078372,8.509628e-06,0.3,2.0274189,90.07448,90.14165,90.0901,90.12578,0.08437153,0.453125,7.057392358779907,38.495013026396435
58,580000,84.03601414032924,-90.796455,0.0,-148.1311,0.4887127,-4.929328,2556.3052,6.195363,9.12227,112.34563,113.15025,111.3139,112.11518,1.1748102,0.7,-117.00509,-1148.5863,0.0031679245,-3.935964,5.6094084,5.727607,5.530446,5.7548003,3.3043036e-06,0.3,2.0357547,88.7325,88.62959,88.65059,88.680336,0.07341101,0.4296875,6.419710636138916,39.15320800940196
59,590000,86.15961283087069,-89.68807,0.0,-153.23367,0.56353873,0.9533689,1311.274,27.649242,9.085708,111.509964,111.29028,110.96304,111.07762,14.695098,0.7,-115.518654,-1162.117,8.4874744e-05,-5.1556835,1.01296,1.0011523,1.3172588,0.06857106,1.0353397e-07,0.3,1.8462505,87.755806,87.73409,87.729706,87.731064,0.13659178,0.47499996,6.6140124797821045,39.81172459522883
60,600000,88.72260092393674,-91.83878,0.0,-144.94849,0.35326695,-13.259784,2696.8303,5.0486603,8.3747225,110.99711,111.12218,110.89406,110.88854,8.49738,0.7,-118.12224,-1300.0063,5.7322497e-05,-6.6158676,13.693663,13.689652,14.01683,14.0591755,5.867332e-09,0.3,2.0384176,89.80354,89.76996,89.71642,89.76207,0.094165556,0.3875,6.73539924621582,40.475920462608336
61,610000,88.69740449182348,-91.346756,0.0,-154.3776,0.48146576,-6.3192368,2975.1985,11.539579,8.865134,111.16789,111.48993,111.495575,111.34005,1.9348303,0.7,-116.97312,-1110.8927,0.00018568197,-5.8176184,8.215425,8.019514,7.894556,7.9144163,7.377821e-08,0.3,1.795851,89.36735,89.39531,89.42563,89.43614,0.0749725,0.4734375,6.750779151916504,41.13903987805049
62,620000,95.32533458706796,-90.464165,0.0,-104.73452,0.64699185,0.6489539,1601.8262,18.102036,9.393492,111.8997,111.680405,111.59968,111.41111,12.194347,0.7,-117.491295,-1221.106,0.0014635664,-3.4579668,1.4163599,1.4269881,1.3583736,0.92248523,2.3497269e-07,0.3,2.289834,88.03624,88.01383,88.02802,87.89473,0.1510188,0.5125,7.121207237243652,41.8111039241155
63,630000,80.35893683526102,-88.82835,0.0,-93.224304,0.4697101,0.14805353,1978.343,6.1688743,15.816557,111.309,111.476654,111.72598,111.39197,1.8164322,0.7,-122.50983,-1608.3364,0.002855924,-3.641441,0.9901079,0.85071003,1.3016733,0.9860995,2.8829788e-06,0.3,2.3800175,86.415504,86.408936,86.65685,86.566284,0.08274378,0.4203125,6.027534246444702,42.46104536056519
64,640000,83.14037060739393,-90.07829,0.0,-122.04568,0.49791119,-0.69799757,1794.2281,3.8844094,9.513736,111.20304,111.46633,111.50462,111.22079,1.2704895,0.7,-117.397835,-1443.1606,0.0005603853,-3.7649937,2.34074,2.3982627,1.2881395,1.3183413,7.01737e-08,0.3,2.1960747,87.76278,87.71781,87.89218,87.765625,0.055088162,0.47812498,6.984062433242798,43.12747714519501
65,650000,82.97117182198342,-90.58383,0.0,-137.92886,0.4558133,1.4535642,1704.081,14.852591,8.388068,112.00879,112.16615,111.92976,111.84646,1.0792043,0.7,-116.081184,-1606.5621,0.00060263276,-4.9376745,3.2697377,3.8138876,3.2141037,3.4233916,2.9059012e-07,0.3,2.0919151,88.40478,88.40283,88.26575,88.16584,0.081452176,0.546875,6.601989984512329,43.78214075565338
66,660000,84.67477657776428,-91.562416,0.0,-162.51198,0.43753383,-3.551662,2404.631,5.1567802,9.984803,111.06506,111.190735,111.03822,111.23383,1.3965127,0.7,-120.96475,-2071.4307,0.00013222743,-7.518665,6.9254055,7.0578127,6.0891976,6.67851,9.203959e-06,0.3,2.104503,89.40576,89.40231,89.186386,89.46705,0.07292996,0.41249996,7.008630275726318,44.44658002456029
67,670000,91.39096414403734,-92.5926,0.0,-170.66286,0.5270182,-5.185181,1436.8115,9.10131,10.108487,111.27187,111.31554,110.958954,111.03716,10.390551,0.7,-116.478806,-1850.9615,0.0008124959,-3.515929,5.404289,5.3681264,5.621542,5.56165,5.8743176e-06,0.3,2.212121,90.44997,90.42084,90.53349,90.58623,0.14522606,0.428125,7.134164571762085,45.11289358139038
68,680000,93.92850400401613,-91.39588,0.0,-162.90479,0.36305124,-10.395154,2564.677,5.315464,9.582578,111.98684,111.82329,112.0108,112.099144,3.5402658,0.7,-117.9498,-1421.0687,7.6128694e-05,-4.4219213,11.174245,10.7341,10.071146,10.690996,5.720824e-07,0.3,2.1792192,89.11801,89.17078,89.0798,89.14211,0.10260917,0.4140625,7.54913592338562,45.788114476203916
69,690000,89.9460138181441,-87.73814,0.0,-193.83755,0.48360693,-2.637434,1113.8949,13.506882,8.456331,111.735794,111.78564,111.6724,111.876915,1.2800174,0.7,-117.77091,-1563.0062,0.0021889377,-2.5476055,4.2603683,4.458847,4.031762,4.9241886,2.9929681e-06,0.3,2.1319222,85.68936,85.66261,85.52104,85.70271,0.077615224,0.3890625,7.04802393913269,46.454948381582895
70,700000,91.40065950848017,-91.738144,0.0,-171.70273,0.48714915,-7.099054,1955.4667,47.328064,11.445175,110.33023,110.09763,109.83591,110.52619,5.5695987,0.7,-118.379906,-1263.7827,0.0005912768,-3.3667417,6.631331,6.509998,6.4609323,6.679229,1.1713029e-05,0.3,2.0963588,89.548965,89.527824,89.53198,89.752,0.11681822,0.37812498,7.197394847869873,47.124517039457956
71,710000,94.78268579172587,-88.89422,0.0,-191.07603,0.45001972,0.88454425,1331.5293,3.712041,9.783398,111.621826,111.67893,111.57269,111.67364,10.223697,0.7,-116.502846,-2404.2163,0.0003395272,-6.5553365,1.9609668,1.4345237,1.2674397,1.4077387,1.0086224e-07,0.3,2.0627103,86.711685,86.70222,86.786934,86.84578,0.16647334,0.3890625,7.388692378997803,47.794293562571205
72,720000,89.58043493948962,-89.43364,0.0,-156.17944,0.6020242,-3.8379085,2163.4424,13.114134,9.118092,111.4937,111.624146,111.19756,111.2315,4.9544964,0.7,-118.04335,-1615.3607,9.003328e-05,-5.1437407,5.096846,5.3877606,5.136383,5.2225995,1.0624063e-07,0.3,1.9589388,87.30061,87.262726,87.24045,87.314064,0.10651084,0.4625,7.140443325042725,48.464835941791534
73,730000,83.17801209587702,-89.28951,0.0,-159.93631,0.65005934,-3.3771663,2405.1438,13.651123,10.643153,112.40101,111.56047,112.01898,112.053894,1.821734,0.7,-121.968475,-1415.653,0.0014574537,-4.1410456,4.9020586,5.0287175,4.6938257,4.624202,8.074567e-08,0.3,2.2657871,87.006935,87.03151,87.26895,87.187614,0.07319391,0.4125,6.938265085220337,49.12950455347697
74,740000,93.88009521968557,-90.925385,0.0,-97.045265,0.6983937,-1.8873888,2517.7747,9.1667795,9.271501,111.626205,111.715,111.103806,111.139046,2.5241444,0.7,-118.290596,-1988.8064,0.00015126355,-4.542971,3.9599204,3.8581624,3.8517818,4.112466,1.2325472e-07,0.3,2.2830005,88.52051,88.604004,88.35612,88.46242,0.08625988,0.403125,7.178759813308716,49.79779399236043
75,750000,91.80156319938084,-89.66765,0.0,-160.8277,0.9073303,-5.548009,3171.6199,24.134464,8.449381,111.826744,111.64776,112.03242,111.83508,2.113576,0.7,-116.86486,-1513.9785,0.00094981235,-5.719416,5.6249347,5.4461904,5.100577,5.1501017,1.0086224e-07,0.3,2.3014073,87.35542,87.35033,87.702286,87.434555,0.07875696,0.49374998,6.871890068054199,50.467617058753966
76,760000,93.42921298960638,-91.83935,0.0,-126.9025,0.4154341,-3.734067,1720.4149,7.4447765,8.679163,111.630264,111.652565,111.52942,111.52082,2.132658,0.7,-119.21244,-1772.3744,0.0006551226,-4.554586,2.533442,2.6478298,3.5445042,2.7340817,4.0233136e-08,0.3,2.4373212,89.40041,89.35739,89.54711,89.58694,0.06126679,0.38593748,7.141475439071655,51.13729068438212
77,770000,92.63060277024003,-91.57518,0.0,-93.51844,0.51250684,-4.0185084,4077.462,27.22174,7.4019837,110.8285,110.73314,111.236694,110.828995,4.30774,0.7,-116.560455,-1575.8225,0.00028940034,-2.5559916,5.2493973,5.5882306,4.6255646,4.5681133,1.1265977e-06,0.3,2.1589508,89.30516,89.276566,89.184875,89.26907,0.08247045,0.44687498,7.212799310684204,51.8072758158048
78,780000,93.45334740543973,-89.46563,0.0,-183.15514,0.34398472,-1.2420471,1751.9327,3.0955515,8.96944,111.34308,111.27881,111.5799,111.56068,3.077537,0.7,-117.73961,-1889.7567,0.0011354885,-4.005372,2.2419212,2.0658786,2.1496189,2.204965,2.4818992e-06,0.3,2.0869508,87.263626,87.21529,87.31824,87.285614,0.08884009,0.440625,7.251871347427368,52.479748821258546
79,790000,84.66571083428083,-89.26288,0.0,-220.491,0.38916415,-1.7363713,2813.034,5.6351027,15.043968,111.72431,111.651634,111.61904,111.6851,1.3098434,0.7,-124.40042,-1773.3107,0.00050790247,-3.1743352,4.2760777,4.2390757,4.1176653,3.6163578,1.0186341e-07,0.3,1.9957983,87.26924,87.24301,87.104675,87.138626,0.077210315,0.48593748,6.397946357727051,53.14186158180237
80,800000,86.32779123212192,-90.32729,0.0,-215.77177,0.3869399,-3.6195798,1331.3082,12.585269,7.589968,112.15839,112.12359,111.96266,112.04701,4.74874,0.7,-117.62715,-1467.9756,3.5271107e-05,-4.424075,4.7911944,4.7307262,5.578128,5.167555,4.541944e-08,0.3,1.9926779,88.150375,88.150955,88.185,88.283806,0.09367292,0.4171875,6.69814395904541,53.80642940203349
81,810000,91.77759386564695,-90.957985,0.0,-196.8122,0.5168892,-1.3274866,2612.0398,23.598186,12.017784,111.63937,111.74281,111.458206,111.68881,1.4596094,0.7,-118.63878,-1578.2643,0.00060583116,-5.018984,1.9509298,1.916617,1.3991865,2.2163765,3.22744e-07,0.3,1.9665993,88.9638,88.965546,89.00285,89.05459,0.08612274,0.4296875,7.101450443267822,54.47466090122859
82,820000,94.66007660755292,-90.34721,0.0,-223.08551,0.41542107,0.45469135,1337.024,9.108822,8.476393,112.140335,112.16239,111.322876,111.557205,2.6004379,0.7,-118.08592,-1817.4026,0.00080538035,-6.034952,0.9212041,0.95945007,1.2093415,0.76490885,8.1472103e-07,0.3,1.9215469,88.4689,88.42256,88.28256,88.40129,0.06973041,0.3796875,7.244558572769165,55.151293981075284
83,830000,93.71981722213525,-88.022,0.0,-234.20874,0.472535,4.0033183,2603.914,19.402098,9.0339,111.93465,111.74985,111.89918,111.86643,2.0426395,0.7,-117.30745,-1653.5216,8.487335e-05,-4.715392,0.1091969,0.5735842,1.2508092,0.99907935,5.57804e-08,0.3,2.0083475,85.951096,85.97824,85.94451,86.046814,0.07490069,0.39999998,7.130677223205566,55.818689767519636
84,840000,95.15638244891137,-93.12908,0.0,-171.7539,0.43040037,-0.48821163,4022.246,6.5799317,10.047029,112.1371,112.055305,111.56201,111.52961,1.6816738,0.7,-119.98384,-2020.9966,0.0007551795,-8.842012,2.5851982,2.4951901,2.1933258,2.1856968,1.936377e-06,0.3,2.2064302,90.82809,90.83008,90.61438,90.47955,0.08390754,0.5171875,5.8958494663238525,56.46780031124751
85,850000,91.7928909138738,-90.6472,0.0,-191.94977,0.4050623,0.50670624,2590.2349,6.5959415,9.246565,112.41224,111.998634,111.913124,111.833115,0.80245847,0.7,-116.22793,-2165.0164,6.0267746e-05,-4.971942,2.2604954,2.7858076,2.1126919,2.5743692,6.265007e-07,0.3,2.120278,88.578606,88.53932,88.46389,88.45116,0.051577598,0.5,6.956282138824463,57.13380159934362
86,860000,89.35118420550631,-89.50795,0.0,-192.30057,0.453637,-0.50851774,1944.7721,6.6036963,9.131575,111.14235,111.338974,111.53923,111.17473,1.8328838,0.7,-116.747345,-2358.013,5.8789738e-05,-4.0353417,2.385415,2.1757584,0.73863816,0.72732955,1.9720756e-06,0.3,2.1512277,87.36309,87.37048,87.46825,87.506004,0.08081232,0.42499998,6.858941078186035,57.79957582950592
87,870000,94.3667826532463,-89.400604,0.0,-181.56793,0.47127,-7.353667,3120.2498,7.1539755,9.211488,111.57814,111.43122,111.163185,111.29136,1.4322443,0.7,-117.887634,-1939.6185,0.00034618104,-2.8009014,8.2571535,8.376045,7.464843,7.708732,1.0339955e-05,0.3,2.170002,87.182816,87.02687,87.020615,87.08154,0.07167083,0.37343746,7.108360290527344,58.471546256542204
88,880000,94.113090557417,-88.23733,0.0,-236.95236,0.50005573,-1.1678613,3747.2258,16.901163,10.017253,111.60353,111.6045,111.76237,111.64316,5.8940434,0.7,-118.30514,-1987.8495,4.5684224e-05,-5.638627,2.220148,2.1416135,1.3224615,2.6781158,3.3347578e-06,0.3,1.9389515,86.16159,86.17993,85.98018,86.05698,0.08611198,0.48593748,7.144733190536499,59.14306955337524
89,890000,93.9918364023327,-85.80357,0.0,-264.2182,0.24994627,-0.8923135,1691.5054,3.5368068,10.637201,111.4091,111.38577,111.80243,111.42037,1.4831569,0.7,-118.000206,-1816.9552,0.00039772555,-3.730785,3.0631242,2.407599,2.29559,2.2836547,5.359459e-06,0.3,1.7589319,83.97356,83.92291,83.978615,84.01483,0.060381003,0.4453125,7.262541770935059,59.81175490617752
90,900000,93.37017483904772,-89.97121,0.0,-216.77591,0.49006754,-3.1324558,3323.639,6.1283035,9.321441,111.383125,111.27614,111.73024,111.65749,2.3236,0.7,-120.59233,-1915.7018,0.00032901653,-3.5259728,3.810065,3.7911286,3.0042787,3.1236181,6.885966e-09,0.3,2.142583,87.657745,87.74861,87.70987,87.669815,0.08684435,0.50312495,7.2779221534729,60.48358480532964
91,910000,89.74386740309926,-86.2781,0.0,-242.34955,0.33804688,-0.9266813,2196.6506,5.65666,8.833269,111.37163,111.87966,111.652504,112.26368,1.4517845,0.7,-116.83186,-2847.6921,0.00031973614,-5.1049232,1.6450828,1.5021605,1.3310262,1.0879216,8.556526e-08,0.3,1.944385,84.27555,84.32432,84.33565,84.27916,0.066501185,0.45625,6.880533695220947,61.14792660872141
92,920000,94.90314230526363,-91.12331,0.0,-233.32698,0.7181282,-3.93969,2959.4988,33.43464,10.5552635,111.43628,111.55325,111.68545,111.63607,5.6969957,0.7,-120.41948,-2406.8452,0.0003075351,-4.054721,7.391822,7.47974,7.473604,8.053566,5.2823452e-06,0.3,2.183371,88.81499,88.82904,88.99694,89.10641,0.1257423,0.40156248,7.164012670516968,61.81815106868744
93,930000,93.20052402236225,-90.02809,0.0,-135.99922,0.34637928,-1.602896,5633.6357,9.980927,14.500849,111.42353,111.45416,111.454025,111.36962,12.260032,0.7,-117.651726,-1602.9927,1.8688443e-05,-2.9937377,3.2334104,3.359944,3.6166117,2.9415708,7.3385314e-07,0.3,2.274024,87.60776,87.58537,87.62101,87.48903,0.12133026,0.496875,7.101809501647949,62.48518425623576
94,940000,88.8293332280354,-92.90679,0.0,-189.19177,0.5032919,-5.450388,2122.4854,5.197673,11.142069,111.15923,111.15928,110.99857,111.08082,0.5128728,0.7,-118.87306,-1628.4797,7.574103e-05,-4.477606,7.0625973,7.00246,7.201926,6.8602786,7.377821e-08,0.3,2.3488896,90.51337,90.546715,90.54326,90.433334,0.05583246,0.5078125,6.907696008682251,63.153497469425204
95,950000,90.14380910360347,-91.09639,0.0,-184.8108,1.0094389,1.7064608,1835.2231,72.85175,9.331576,111.78821,111.71114,111.977425,111.96488,1.9217012,0.7,-117.8046,-3238.9534,0.00084494246,-4.1947546,1.2422589,0.97723496,1.3435259,0.9693841,5.5776326e-07,0.3,2.3980575,88.64871,88.614914,88.66733,88.52789,0.073425025,0.49374998,6.915494680404663,63.81498734951019
96,955000,93.23487448526487,-92.21585,0.0,-254.80876,0.5331228,-1.5864644,1692.4153,17.35044,7.7122874,111.81509,111.71674,111.86245,111.55874,4.7729206,0.7,-117.00107,-1926.4874,0.0007743549,-4.0868196,3.5839949,3.8419688,3.6122265,3.2519045,1.5196566e-08,0.3,2.035431,90.126205,90.08763,90.10065,89.94072,0.10209295,0.5296875,7.286368131637573,64.21511047283808
97,960000,93.9167077458212,-89.650925,0.0,-273.30554,0.6890403,-2.8916821,2054.457,15.471271,8.242537,110.52036,110.875885,111.051765,110.930336,12.562244,0.7,-114.36528,-2000.0334,4.8504444e-05,-4.3409224,2.5955226,2.1495938,1.4239125,2.3549142,7.986091e-07,0.3,2.2143307,87.49626,87.46768,87.778915,87.70451,0.099492565,0.43124998,7.288492918014526,64.6128285686175
98,965000,90.04387816013774,-92.15996,0.0,-184.35968,0.4389494,-0.2189765,5203.5845,11.896632,9.586576,111.6349,111.72412,111.81652,111.70924,11.553212,0.7,-117.68614,-2151.1484,0.00033648917,-3.3741407,1.9647298,1.8644736,1.38364,1.762583,1.2478267e-06,0.3,2.2059245,89.81245,89.832054,89.763245,89.76033,0.14525132,0.47968748,6.8921284675598145,65.0020459095637
99,970000,93.36087122885014,-90.026276,0.0,-188.05972,0.3998812,-2.6084828,5772.619,4.365122,8.602678,111.673386,111.36936,111.66687,111.06319,8.192312,0.7,-117.88012,-1955.466,0.00081356085,-3.7097547,4.5979476,4.2886386,4.039812,3.1867235,1.6673177e-06,0.3,2.1877701,87.768326,87.7091,87.629326,87.34855,0.17205693,0.653125,7.205003023147583,65.3985967318217
100,975000,93.87466532424999,-90.022606,0.0,-203.23946,0.35428926,-1.1632211,1961.4684,4.1126966,9.502755,111.59256,111.6726,111.60412,111.63419,3.456775,0.7,-117.28249,-3389.9302,0.002211192,-3.6987672,2.7579958,2.874643,1.4228667,1.876041,2.1904708e-07,0.3,2.3704038,87.60037,87.57866,87.51886,87.65677,0.07866811,0.42499998,7.2458531856536865,65.79162001609802
101,980000,94.0672940524749,-89.80011,0.0,-211.92288,0.43386734,-0.6934849,3584.6536,11.093368,8.081494,111.33314,111.20233,111.234085,111.21299,2.1206717,0.7,-117.71863,-1980.1353,0.00048610737,-3.9664946,2.4217649,1.943416,1.5846714,2.2070277,7.885695e-06,0.3,2.1548567,87.60695,87.57573,87.74992,87.58745,0.06506473,0.4515625,7.442975282669067,66.19080885648728
102,985000,93.82551282904981,-89.88916,0.0,-151.61385,0.5877959,0.5188246,2781.7563,42.803062,13.480682,112.10683,112.291725,112.13244,111.842766,7.8295627,0.7,-123.61131,-1985.5947,0.0008538303,-4.2097187,0.38241553,0.31266272,1.4497565,0.30013776,9.2375565e-09,0.3,2.3822334,87.51167,87.42717,87.5659,87.614136,0.11828324,0.4109375,7.256134748458862,66.58917773564657
103,990000,89.61590788185816,-89.45105,0.0,-252.1911,0.3943988,-1.7530427,1572.2662,5.7594533,10.019861,111.23747,111.35432,111.54998,111.63339,0.63929874,0.7,-116.77744,-1852.5717,0.00029585615,-5.1228876,3.2603922,3.0550528,2.4617834,2.4543924,7.986091e-07,0.3,2.045062,87.460236,87.46974,87.46514,87.55112,0.04657159,0.42031246,6.883928537368774,66.98105938434601
104,995000,94.74193783145488,-89.58951,0.0,-222.55461,0.6988579,1.5868689,3502.4326,32.878754,8.350606,111.46608,111.400894,110.765915,110.990486,7.1845565,0.7,-117.80992,-2129.4902,0.0014397469,-7.3408327,1.4924536,1.3847283,1.4220934,1.2840316,4.1564343e-07,0.3,1.8748808,87.50802,87.53746,87.251236,87.276535,0.120397404,0.51406246,7.244629383087158,67.37608164946238
105,1000000,94.74285922288847,-90.31115,0.0,-184.62224,0.59995663,-0.20715559,3220.8525,35.527493,10.326127,111.63942,112.214096,112.24933,111.41626,9.075151,0.7,-118.52288,-2014.9152,0.0007969912,-4.440635,1.585973,1.8089807,1.2255653,1.1379611,5.657785e-09,0.3,2.159832,88.06846,88.0681,87.93129,87.94159,0.09846921,0.4671875,7.356012344360352,67.77616658210755
