Xixo99/comfo/baselines/comfo6_perterbation_actor/20230309/check_hopper/hopper-medium-v2/COMFO6_s4_20230308_191910_hopper-medium-v2_55.81.csv
,step,reward,actor_loss,alpha,alpha_loss,critic_loss,max_actor_loss,max_alpha_loss,max_critic_loss,max_mle_prob,max_q1,max_q2,max_target_q,max_v,max_value_loss,max_weight,min_actor_loss,min_alpha_loss,min_critic_loss,min_mle_prob,min_q1,min_q2,min_target_q,min_v,min_value_loss,min_weight,mle_prob,q1,q2,target_q,v,value_loss,weight,eval_time,time
0,0,4.312438159955305,,,,,,,,,,,,,,,,,,,,,,,,,,,,,,,,,
1,10000,49.41250049086371,-41.293488,0.066752054,-4.615985,0.48738614,1.5326626,13.5464735,14.285614,8.804445,59.392307,59.2952,58.690754,61.407707,4.0083327,0.7,-65.60701,-23.55909,0.0009770631,-8.255347,-0.09782856,0.2524941,1.3547695,1.0177969,9.167707e-09,0.3,1.4220874,39.951904,39.967457,39.749207,39.223835,0.05563952,0.5078125,3.967869281768799,2.0956928094228107
2,20000,58.15779530946386,-64.26403,0.0037371295,-6.3818855,0.67803013,-1.0437449,29.529125,13.4662,8.7512455,82.44045,82.98689,82.678474,82.5072,2.2270122,0.7,-87.70851,-47.71171,0.00032452832,-5.230936,2.1490908,1.3754363,1.4075822,2.4400077,1.5716068e-08,0.3,1.4915143,62.596657,62.560753,62.6225,62.328373,0.1113044,0.453125,4.8273842334747314,2.744792894522349
3,30000,57.34226895875659,-81.421875,0.00019929845,-6.834588,1.4708747,0.3650193,63.912853,68.1454,9.584443,98.75168,98.82576,98.38284,98.36654,27.882942,0.7,-106.02938,-59.118443,0.0020776822,-5.7884064,0.29272574,-0.5553142,0.13994932,1.3313235,2.3665314e-06,0.3,1.8387642,79.43254,79.47252,79.08237,78.682785,0.30074692,0.5546875,4.975327014923096,3.392763841152191
4,40000,54.63552778954852,-83.91268,1.0542766e-05,-15.103521,0.99511945,2.2252529,75.91632,23.711502,8.169535,105.21083,105.3748,105.40554,105.27417,3.3253324,0.7,-111.9324,-74.90171,0.0004506503,-4.414481,0.027150631,0.92110693,1.1253258,2.079092,3.865268e-06,0.3,1.4892615,82.46817,82.46554,82.66315,82.62254,0.16616139,0.4171875,4.400090456008911,4.032185769081115
5,50000,51.14236979715129,-88.11624,5.4741776e-07,-18.601364,1.0951099,25.346579,154.59193,24.281103,9.331642,109.20517,109.42592,110.098274,109.043396,12.110808,0.7,-114.26046,-132.77356,0.0011133314,-4.97134,-19.506332,-20.77997,-18.612627,-24.518377,6.3704215e-07,0.3,1.7038889,86.38745,86.36043,86.65947,86.164375,0.22765031,0.5453125,4.073437452316284,4.666970066229502
6,60000,44.88661069773816,-90.83696,2.8577844e-08,-12.773074,0.758462,-2.421955,170.60036,24.191177,8.986038,112.1848,112.42804,111.60748,111.145134,3.0442252,0.7,-117.10099,-121.84272,0.00011320907,-3.2997143,3.1620095,4.068066,2.8755007,4.1609273,7.152558e-08,0.3,1.9094181,88.76883,88.77899,88.45413,88.55896,0.110913165,0.4671875,3.527684450149536,5.2943534771601355
7,70000,56.62541701690612,-93.00183,1.4994281e-09,-19.6359,0.78821564,-7.441182,163.12283,18.761017,9.949531,112.48968,112.39632,113.031624,112.46433,1.5876745,0.7,-119.51627,-142.79843,0.001510666,-3.5533423,8.040466,8.767293,9.584386,9.200133,1.5926315e-06,0.3,1.9759045,90.91126,90.92182,91.136566,91.096115,0.1201666,0.3890625,4.442452430725098,5.9364100376764934
8,80000,44.699153618616855,-89.74081,7.800069e-11,-25.590736,0.8097172,-0.84258914,143.57564,11.594189,8.537748,110.61382,110.63225,111.193565,111.99008,1.8729743,0.7,-117.43183,-210.95914,0.00014627824,-3.8265786,1.1534503,1.7919054,1.3341024,0.46770012,2.8397887e-06,0.3,1.9229475,87.71287,87.749374,87.77907,87.68012,0.13698721,0.5078125,3.4474172592163086,6.563167786598205
9,90000,47.726285545084224,-91.31326,4.0839554e-12,-25.290611,0.8260088,1.1310697,250.59406,68.99031,7.7438884,110.813705,111.11606,111.6693,111.23172,2.881692,0.7,-117.247696,-223.6718,0.00029197254,-6.1176796,1.2198653,1.5928999,1.3103501,1.2122546,9.1677066e-07,0.3,1.8826137,89.235275,89.275955,89.35655,89.46665,0.12490896,0.44531247,3.7946953773498535,7.194687263170878
10,100000,45.27280777158475,-91.13296,2.1334921e-13,-31.550507,1.0960782,-7.8070083,183.43721,58.671295,9.011575,111.49913,112.02872,111.987,111.43224,2.066476,0.7,-117.8829,-213.54233,0.00059917715,-5.1579995,8.966388,7.918804,10.219633,9.481344,1.5716069e-10,0.3,1.8776972,89.09979,89.20206,89.1105,89.056725,0.0968962,0.46718746,3.636674404144287,7.825884628295898
11,110000,49.68968408426521,-89.680374,1.11861534e-14,-25.558264,0.7675997,-5.8889356,183.00507,14.746029,8.293352,111.14124,111.21344,111.44895,110.52356,2.9728677,0.7,-118.65672,-253.48517,0.0018384228,-4.7528963,6.4591107,7.0660954,6.977679,6.4522934,3.5361154e-08,0.3,2.044022,87.478516,87.48058,87.18073,87.20339,0.12620534,0.5375,3.886305809020996,8.458951950073242
12,120000,47.03888497401732,-88.444244,5.8427025e-16,-44.198174,1.0789216,-7.989358,196.65623,12.650326,9.168234,112.58202,112.40268,113.07251,112.06791,1.3286048,0.7,-119.215485,-248.79716,0.002996631,-5.5332627,8.257225,8.106952,7.726107,7.944588,1.3592828e-06,0.3,1.9207544,86.458466,86.3701,86.04372,86.25148,0.08454771,0.4109375,3.7996623516082764,9.09041889111201
13,130000,50.49319933294396,-92.18559,3.0623235e-17,-31.293066,1.3316239,-2.7616017,370.9512,42.82341,15.796473,112.81182,112.24175,111.661674,111.894455,1.8952879,0.7,-119.4633,-301.45453,0.0014769589,-5.7918863,3.5586514,3.5970287,3.034221,3.264269,8.298783e-07,0.3,1.9423648,90.18767,90.20944,89.83067,90.15646,0.113694,0.38124996,3.953937530517578,9.72758826414744
14,140000,50.79152259978687,-91.08235,1.6050125e-18,-43.75362,1.0324641,-1.2153599,258.06265,12.222159,9.520861,111.80326,112.20131,111.43194,111.92349,4.084044,0.7,-117.977776,-304.80136,0.0025081206,-4.8690176,2.0479681,2.3356547,1.2528101,0.46406943,2.1391315e-08,0.3,2.0044367,88.97397,89.1066,88.66554,88.76332,0.08971433,0.48281246,4.012609004974365,10.364719406763713
15,150000,54.96139787729455,-91.955765,8.389853e-20,-43.105522,1.1018896,-2.9557176,354.17514,55.965942,8.986851,112.08937,111.902275,111.51823,111.147026,1.2144965,0.7,-121.99861,-317.2884,0.0028199246,-4.895401,3.7616448,3.2875776,2.8373482,3.0109274,5.4580855e-06,0.3,2.0218368,89.886024,89.893295,89.492645,89.56344,0.08052278,0.5234375,4.234760761260986,11.009232318401336
16,160000,45.622772138754144,-88.96397,4.3950085e-21,-47.823666,0.46507335,0.6072972,332.05652,7.8144145,8.037371,112.54471,112.62554,112.779655,112.64004,1.4385326,0.7,-117.42734,-353.3837,9.900541e-06,-5.196434,1.9416113,1.5567708,1.2310123,1.6336025,4.930189e-07,0.3,2.0046625,86.927986,87.008644,86.95482,87.123,0.09044126,0.36874998,3.5743250846862793,11.637991793950398
17,170000,54.42505993472794,-91.16548,2.3032305e-22,-32.163353,0.36635527,0.47723222,299.537,3.5803995,11.209402,111.22265,111.072845,110.859955,110.987114,2.7931895,0.7,-118.43712,-459.02695,0.000121394,-5.128773,1.8346726,1.251734,1.1274589,1.866791,5.388574e-07,0.3,2.40353,88.77835,88.80965,88.92052,88.94698,0.08244119,0.44062498,4.274567604064941,12.278484928607941
18,180000,82.00220311972247,-90.58263,1.2005881e-23,-44.3518,0.57254374,-1.9632615,269.94257,15.6302185,10.509461,111.28408,110.91758,110.86401,110.89716,3.6423593,0.7,-117.11587,-409.0585,8.424802e-06,-4.6426077,3.773963,3.191773,3.3602183,3.2288005,1.4365342e-05,0.3,2.0637295,88.42961,88.382965,88.44446,88.3235,0.11104899,0.51874995,6.578423976898193,12.95792136589686
19,190000,77.21198234524523,-91.02812,6.2579547e-25,-36.082134,0.5575347,1.7244625,776.7772,9.438873,12.310814,110.22234,110.10135,111.6742,110.22993,4.7604465,0.7,-115.86934,-413.0402,0.0005749543,-5.1011076,0.40232944,0.18475726,1.3656545,0.29927093,8.654595e-06,0.3,2.1083033,88.85178,88.83709,88.84634,88.69909,0.09526425,0.509375,6.125383615493774,13.62807073990504
20,200000,93.94205993463451,-89.780525,3.2818336e-26,-55.612938,0.62751603,-2.9070687,346.89468,17.544374,8.320754,111.41898,111.3565,111.9729,111.42108,1.6440247,0.7,-119.37582,-398.8919,0.0007910787,-3.2209215,5.5407705,6.00504,5.7182784,5.549592,1.1175871e-09,0.3,2.1617532,87.64525,87.63592,87.860756,87.6826,0.08873435,0.5203125,7.8265461921691895,14.327024205525715
21,210000,90.31187780030876,-88.67782,1.7160373e-27,-55.68975,0.7867639,1.2146002,646.41254,19.066772,8.571475,111.29258,111.39213,111.401405,111.14943,1.7432297,0.7,-115.53613,-514.77527,0.00088252925,-4.573089,-0.9749901,-1.3783693,1.3836391,-0.7160102,8.6838264e-07,0.3,1.9087125,86.63875,86.51039,86.771805,86.80697,0.08662932,0.4328125,7.346358060836792,15.019106539090474
22,220000,89.57409310610453,-87.759605,8.9604637e-29,-76.02221,1.1736798,-0.60925436,350.38046,112.74609,7.8344455,112.3427,112.13748,112.264656,112.03725,1.1165112,0.7,-116.6067,-412.417,0.00078811136,-3.171437,2.262355,3.0601048,2.427909,2.0427566,3.3807012e-06,0.3,1.8702407,85.72061,85.78012,85.94125,85.79352,0.07200947,0.4984375,7.37117600440979,15.710543151696523
23,230000,76.13397634467131,-88.54213,4.6834226e-30,-48.361546,0.5164039,0.23721826,512.04175,30.074394,11.895166,111.301155,111.19363,111.10802,111.67015,2.1571012,0.7,-118.943016,-476.90198,0.00012495817,-3.1601138,0.32029048,0.077976584,1.4569931,0.007729739,4.928559e-07,0.3,2.32842,86.15387,86.07717,86.17691,86.300125,0.0888793,0.3953125,6.095805406570435,16.379622836907703
24,240000,91.92577977052437,-88.712105,2.467528e-31,-59.667847,0.822034,-6.012407,583.77734,30.594557,9.788576,113.10715,112.88173,112.82936,112.64293,10.473348,0.7,-118.16628,-497.73682,0.00081453077,-5.085981,5.3618755,5.3748817,5.549842,5.227,1.6839314e-05,0.3,2.1717844,86.43198,86.42915,86.58019,86.40243,0.15037599,0.5,8.027198076248169,17.080000122388203
25,250000,89.66763580005258,-88.68153,1.2978125e-32,-73.47376,0.66058004,-0.42144442,499.71686,20.025688,8.242377,110.489174,110.41516,110.29757,110.77734,2.4972353,0.7,-115.93148,-554.1937,0.00085105404,-6.6668663,3.4334223,3.283066,2.8449438,3.2912054,8.864663e-07,0.3,2.0691671,86.54437,86.51387,86.39017,86.670746,0.10879786,0.359375,7.39304256439209,17.77180488904317
26,260000,86.62846908539186,-90.415215,6.7947026e-34,-79.2591,0.7464146,-1.3563819,463.2936,24.666227,8.193693,113.25441,113.30507,112.599144,112.47397,5.296952,0.7,-117.762886,-636.57446,0.00021177257,-5.247521,2.7520933,2.4122217,2.2986524,2.3738632,1.7462298e-07,0.3,1.8189249,88.41342,88.41069,88.5051,88.32434,0.121883824,0.5328125,7.363327741622925,18.464794743061066
27,270000,69.88455452726987,-91.855484,3.567834e-35,-54.0131,0.37635732,-0.24943817,636.5762,5.4236865,10.233434,111.875694,112.04134,111.884125,111.72658,4.111161,0.7,-118.72485,-649.62036,6.5247645e-05,-4.0614038,2.1641753,1.7576623,1.5327835,1.9116788,1.5093713e-06,0.3,2.26543,89.48635,89.55487,89.42441,89.42433,0.08287214,0.5078125,5.8333899974823,19.129020857810975
28,280000,77.78673868176375,-90.10896,1.8737503e-36,-81.3176,0.7166712,-7.656966,581.8679,57.142426,12.099521,111.1965,111.06698,111.23303,110.85346,1.4908085,0.7,-122.73285,-491.0434,0.00012126111,-5.0375524,9.505817,9.636523,9.145541,9.02842,2.6077032e-09,0.3,2.150802,87.85695,87.872025,87.95685,87.86545,0.076722965,0.44687498,6.711442708969116,19.808310067653657
29,290000,83.62674312706257,-91.48039,9.87679e-38,-87.06445,0.6132395,-5.9425316,1183.8534,26.00184,12.323228,112.999794,112.40767,112.48068,112.56783,1.9374005,0.7,-116.4495,-529.9845,0.00027869083,-8.7505,7.279625,7.8948927,6.903483,6.5700617,7.0412355e-08,0.3,1.999047,89.36854,89.378204,89.2203,89.30847,0.086145215,0.4734375,7.362405061721802,20.497259720166525
30,300000,60.75763553927027,-89.98498,5.189217e-39,-95.97124,0.8687121,-2.9643369,522.7851,74.190216,9.156598,111.26886,111.374535,110.83349,111.25745,2.1244032,0.7,-117.14124,-602.58765,0.00028222392,-4.223771,4.7902956,4.6983323,4.4442425,5.090397,1.4283462e-06,0.3,1.7139914,88.11954,88.14072,87.92314,88.12755,0.07407941,0.3953125,5.231093645095825,21.15174904266993
31,310000,66.8261411233932,-91.313,2.74045e-40,-82.71845,0.63992107,-1.5320342,959.6797,15.092775,14.442339,112.273544,112.62417,112.00081,112.31886,3.6782372,0.7,-117.23524,-586.4653,0.0008600506,-4.527309,2.3449259,2.3349931,1.512061,2.4796522,2.9511285e-09,0.3,1.8846004,89.27704,89.295044,89.03174,89.22103,0.10206264,0.35156247,5.629695653915405,21.81252442598343
32,320000,59.61323373048574,-90.39974,1.4482e-41,-83.80776,0.524459,-1.81301,713.03625,9.774461,9.940413,112.011116,111.70988,111.54238,111.7155,2.767252,0.7,-117.78593,-944.2857,0.00051580893,-5.5672708,3.5743046,3.232264,2.5395708,2.7229662,1.7462298e-07,0.3,2.1732783,88.13851,88.21098,88.16752,88.23568,0.077022895,0.45,4.839772939682007,22.459263642628986
33,330000,63.542839495129485,-91.177505,7.64e-43,-66.84152,0.5936938,-3.4508889,883.4032,14.0766735,8.90738,111.17691,111.74028,111.55279,111.80125,2.3770914,0.7,-119.574776,-967.42706,0.0031501316,-4.745866,4.127167,3.6023924,3.573915,3.9008975,2.9703369e-08,0.3,2.276406,88.70093,88.75347,88.57791,88.82405,0.08256264,0.4109375,5.2643046379089355,23.111084504922232
34,340000,56.05006449003723,-92.41428,4e-44,-90.783936,0.4896864,-4.8768697,1006.4896,5.5667524,8.817845,112.06652,112.22694,112.07555,112.08411,1.4686098,0.7,-117.6357,-905.99805,6.216043e-05,-3.0322685,4.3240156,4.3144593,5.046217,4.775592,5.2823452e-06,0.3,2.2456908,89.990654,89.99912,90.22165,90.216064,0.071968645,0.39843747,4.619154691696167,23.75446275075277
35,350000,62.42252296881028,-90.21217,3e-45,-85.86075,0.56650674,-2.3846648,1175.1273,10.893291,11.605791,111.63156,112.37075,111.279785,111.58614,1.1198997,0.7,-116.66169,-796.17267,0.0013464942,-4.6276255,5.451872,4.9907136,5.2715096,5.209402,9.643554e-09,0.3,1.8897792,88.24289,88.20889,87.97804,88.102264,0.06008905,0.4265625,5.338296413421631,24.40779483715693
36,360000,70.62937677357588,-89.638374,0.0,-99.789375,0.7658019,-2.857148,896.47125,19.99781,8.944998,112.549225,112.283775,112.645905,112.44085,4.641858,0.7,-118.7834,-676.6283,0.00074434705,-7.7888045,2.9956481,2.9279795,3.1193433,2.779752,1.0043324e-06,0.3,2.0334802,87.452576,87.52868,87.61451,87.56944,0.099708825,0.4921875,5.7669079303741455,25.068703162670136
37,370000,62.84398056266948,-89.82362,0.0,-80.93432,0.5557231,-2.6463497,1311.3632,8.475533,9.587565,111.87525,111.564,111.73011,112.145004,0.8308089,0.7,-115.86765,-693.8641,0.0035172785,-10.046028,3.694014,3.978213,3.7553992,4.299438,1.0043324e-06,0.3,2.2349734,87.56041,87.50653,87.281845,87.45892,0.06863486,0.42812496,5.355253219604492,25.72453437248866
38,380000,50.47343371881918,-88.26373,0.0,-104.73955,1.0173827,-2.6010115,656.8658,20.866886,7.963944,111.50464,111.08424,111.03351,111.13335,1.2583162,0.7,-115.55526,-828.643,0.0008492294,-4.543328,4.856103,4.1949873,3.7622352,4.012557,2.3274158e-06,0.3,1.9990517,86.13491,86.13719,85.92302,86.08808,0.06847636,0.40468746,4.150914907455444,26.361637949943542
39,390000,57.02147957827196,-89.70842,0.0,-74.53337,0.5123625,-3.7283678,834.3468,12.526821,9.51454,111.91325,111.66113,111.53017,111.693405,1.6658504,0.7,-118.008606,-746.4621,0.0003679435,-2.8894346,5.784621,5.833848,5.028156,5.046281,6.9849196e-11,0.3,2.2593007,87.427505,87.40834,87.55136,87.56213,0.09717256,0.428125,4.707311153411865,27.005212199687957
40,400000,48.73174326242089,-91.38838,0.0,-53.970356,0.3451231,1.6892325,1709.331,10.520794,16.969534,110.84689,110.80036,110.655014,110.27128,3.3400948,0.7,-117.99412,-834.69336,2.984528e-05,-7.033327,0.068983495,-0.4335548,1.5523754,1.409155,7.815444e-06,0.3,2.3022356,88.87507,88.92975,88.87662,88.51834,0.12369493,0.5796875,4.179574012756348,27.64565230210622
41,410000,51.96749611736193,-88.794525,0.0,-116.13814,0.7637644,0.69812536,1529.86,47.187546,8.63262,112.345695,112.55509,112.671196,112.80288,1.0517542,0.7,-116.88896,-758.337,0.0007141405,-6.9360166,0.3920693,0.9958057,1.3583626,0.7493887,1.0186341e-07,0.3,1.8828455,86.70868,86.73848,86.78673,86.88451,0.07960875,0.39999998,4.521721124649048,28.290692718823752
42,420000,60.92255647123468,-91.20626,0.0,-104.925735,0.6284006,-3.9199648,701.95526,12.736782,8.369089,111.65152,111.72159,111.904755,111.85813,24.765032,0.7,-117.655235,-901.6996,0.0004423086,-3.3590195,4.5407963,3.951388,3.924861,4.2274694,1.4584687e-06,0.3,2.0036297,89.031296,88.953384,88.76768,88.96826,0.24809493,0.3890625,5.2598795890808105,28.946422533194223
43,430000,52.256096123329435,-89.63071,0.0,-91.30467,1.1740155,1.7000034,1159.1786,173.54391,8.172003,110.68918,110.955086,110.92508,110.68286,2.7607908,0.7,-118.69779,-1021.49335,0.0020759827,-3.596015,1.188755,0.69691926,1.3564771,1.4736694,1.6031962e-06,0.3,2.0031085,87.43837,87.42932,87.4104,87.41808,0.08998825,0.421875,4.474790334701538,29.58986029227575
44,440000,52.575952080109076,-89.571144,0.0,-107.07022,0.53587335,0.17525578,1625.5029,14.212116,10.323003,111.32572,111.03789,111.288216,111.22132,4.132497,0.7,-118.32867,-965.4526,3.2060314e-05,-3.8309898,2.5810003,2.282435,2.900959,2.924358,2.8749926e-07,0.3,1.9230804,87.393906,87.370964,87.22942,87.2271,0.07890238,0.475,4.4740071296691895,30.234031224250792
45,450000,39.20300677233894,-87.96613,0.0,-135.6542,0.95154065,2.3210502,1122.2123,120.00923,8.747402,111.62954,111.67926,111.67454,111.6631,3.1744657,0.7,-119.11251,-988.67175,0.0007716236,-4.68383,-0.08574167,0.070141226,1.1723245,-0.24861223,1.10175456e-07,0.3,1.7452633,86.09271,86.12625,86.13044,86.04799,0.05964847,0.50625,3.426530361175537,30.857780027389527
46,460000,61.72317211331445,-91.371445,0.0,-104.13358,0.8972216,-0.684096,2598.9749,62.88833,9.208357,111.37669,111.862724,111.8346,111.66623,0.8773231,0.7,-117.74652,-955.2168,0.00023271312,-7.6871333,0.8605615,0.95045096,1.3706737,1.3290094,3.876805e-07,0.3,2.1764743,88.998886,89.07154,89.24052,89.157425,0.059220865,0.41718748,5.006608247756958,31.51164333820343
47,470000,51.49030087567272,-90.92587,0.0,-139.43253,0.3873941,-7.7106214,1557.9199,8.799325,10.863066,110.52686,110.416664,110.05805,110.03718,0.8674458,0.7,-117.22798,-884.2054,5.942775e-05,-4.299661,8.648724,8.708736,8.161144,8.571376,1.5716068e-08,0.3,1.8699315,88.99095,88.933784,88.875626,89.01898,0.0710513,0.3953125,4.217813968658447,32.1517613530159
48,480000,44.61596236429827,-90.76991,0.0,-122.23271,0.5329461,0.70926404,1640.4475,8.784584,9.362873,112.06888,112.03876,111.82219,111.7617,6.0309772,0.7,-117.26374,-1231.0833,3.524183e-05,-4.679985,0.80050087,1.3563777,1.3273691,1.1988306,0.0,0.3,2.1380634,88.55356,88.53077,88.53053,88.61686,0.11784914,0.44375,3.6939520835876465,32.78349421819051
49,490000,46.494456035785895,-89.30156,0.0,-83.24213,0.37150055,-0.17035961,2825.868,4.0947566,9.489872,112.16007,111.885994,112.040504,112.06661,2.534073,0.7,-116.44963,-1238.8545,0.0005924465,-4.3355384,1.678656,1.9056094,1.9975288,2.021911,8.579461e-08,0.3,1.9926944,87.17688,87.191216,87.41037,87.411095,0.06752614,0.375,3.8745272159576416,33.41757774750392
50,500000,52.180819472949025,-90.37432,0.0,-141.08865,0.66433704,-3.4898825,2166.0212,28.885614,8.451421,112.08936,112.07471,112.00951,112.26454,8.923943,0.7,-117.39982,-1468.524,0.00063174183,-4.35266,4.85704,4.6055107,3.6978545,4.5230036,2.861023e-07,0.3,1.7672577,88.41226,88.34749,88.39207,88.64966,0.14214458,0.36249998,4.3290855884552,34.05788482030233
51,510000,48.09812367651767,-88.25994,0.0,-110.68674,0.58174014,-0.3828379,1074.4496,5.136741,10.301803,111.750854,112.01915,111.48033,111.512405,1.9542954,0.7,-116.91266,-1304.6783,0.0004379517,-3.953545,1.1399502,1.0917814,1.1342667,0.4618256,1.4810227e-07,0.3,2.1892118,85.95747,86.051956,86.1387,86.189644,0.08974405,0.403125,3.960379123687744,34.6924978574117
52,520000,45.03964279691916,-92.71936,0.0,-119.48544,0.4669201,-1.4444394,1307.312,7.0092697,9.079463,111.20293,111.22916,111.74916,112.45342,0.94723636,0.7,-117.03763,-1021.5219,0.00023992453,-6.198574,3.360755,3.1236997,2.2274256,2.6590517,1.5161349e-07,0.3,2.2741606,90.43769,90.42531,90.47849,90.40707,0.05359079,0.453125,3.8783559799194336,35.32741327683131
53,530000,48.46966825118676,-92.09394,0.0,-117.36713,0.39061892,-4.2125344,1004.4251,3.6882348,9.010704,111.810974,111.62923,112.324356,112.1883,1.2466719,0.7,-118.2255,-1232.9801,0.0001089193,-3.5821958,4.5479717,4.8144755,4.5017924,4.6076965,1.9252184e-05,0.3,2.1872127,89.64925,89.64603,89.8049,89.76842,0.06748227,0.40156248,4.09532904624939,35.96663540999095
54,540000,51.993065814612,-93.64029,0.0,-84.70891,0.61629146,-15.940313,1957.4045,44.581352,10.11303,112.18366,112.37534,111.70026,111.730255,1.4430012,0.7,-119.89941,-1243.127,0.00042880536,-6.4935384,14.969397,15.497589,15.324631,15.772952,7.5362624e-07,0.3,2.218274,91.292564,91.36208,91.19714,91.36913,0.08637135,0.43906248,4.258750915527344,36.60876126289368
55,550000,42.62769245225799,-91.00311,0.0,-166.9709,0.63413364,2.478386,1025.1713,29.202862,8.929684,111.52184,111.523224,111.81332,111.72631,2.9293785,0.7,-116.741806,-1038.7333,1.8453517e-05,-9.440038,1.3831239,1.7136788,1.2533464,1.1996552,4.4146438e-07,0.3,1.912426,89.05345,89.049164,89.24221,89.1393,0.06276573,0.434375,3.5343801975250244,37.24035692214966
56,560000,39.88051114894452,-90.17257,0.0,-114.25122,0.50100946,-2.8587775,1010.6684,33.503242,8.812112,111.66764,111.60183,111.767044,111.73193,2.9878328,0.7,-117.27682,-1286.2264,0.0015031607,-3.8389273,4.9590716,4.5007105,4.4406953,4.143696,5.286886e-07,0.3,2.250305,87.86511,87.91576,88.01797,88.015625,0.07340044,0.4171875,3.383801221847534,37.864987977345784
57,570000,63.89855164335838,-92.25615,0.0,-95.85826,0.8380923,-1.0987282,1065.1595,8.769284,8.499988,112.38703,111.8254,112.0787,112.15729,19.73538,0.7,-118.791626,-1286.1263,0.00039273326,-4.588968,1.2689013,1.0616791,1.5153648,1.9332256,1.1804514e-08,0.3,2.349658,89.80679,89.80061,89.47731,89.66314,0.15776297,0.41875,5.201678514480591,38.5205555677414
58,580000,44.108177462117325,-90.09761,0.0,-109.36287,0.30708766,-4.514084,3281.291,4.6031985,8.84149,111.73939,111.93124,111.43977,111.406555,1.3833312,0.7,-116.18281,-1224.4204,0.00044466724,-4.4237013,5.331218,5.551658,5.0947666,4.9719653,5.867332e-09,0.3,1.874687,87.95377,87.9875,87.91719,87.85329,0.054454546,0.48593748,3.5813417434692383,39.149279646078746
59,590000,51.57314666835118,-92.875114,0.0,-151.08267,0.2962544,-4.157999,1166.6586,3.3290462,9.632776,112.28364,112.028,112.2423,112.01214,2.0113575,0.7,-120.17621,-1324.2443,0.00067522004,-3.8307247,5.426146,5.9036927,5.258011,4.94019,2.1122396e-07,0.3,1.9662246,90.84537,90.92247,90.94057,90.839134,0.06965207,0.5015625,4.21156120300293,39.78971498807271
60,600000,49.159907773622884,-91.49509,0.0,-107.181114,0.3413629,-6.0133247,3089.5881,6.2951865,9.8732195,110.9961,111.13617,111.163025,111.23593,8.812791,0.7,-117.11549,-1501.9557,0.0011149595,-3.0610125,6.4590015,6.5462575,6.8014503,6.940925,7.6065776e-06,0.3,2.102196,89.215225,89.20441,89.24002,89.27919,0.08570378,0.44062498,4.10411810874939,40.42672613064448
61,610000,47.06942067221124,-92.526535,0.0,-79.45828,0.53235114,-0.055652022,1749.9276,7.7300053,12.231555,111.34966,111.36022,111.24564,111.02121,1.0065871,0.7,-118.014885,-964.76996,0.00027128804,-3.3974814,1.7919737,1.5660601,1.2630674,1.5360781,1.6430278e-07,0.3,2.2812467,90.084564,90.08169,89.93258,89.841415,0.079240516,0.51875,3.7350575923919678,41.057153177261355
62,620000,42.425981990854325,-90.8459,0.0,-124.14431,0.42703354,-1.3891535,1346.2471,10.562304,9.4511595,111.03844,111.24534,111.29997,111.187996,3.440533,0.7,-117.55798,-1352.9341,0.0011981251,-6.120989,2.9752042,2.6982727,2.8441415,3.2282164,7.1874815e-08,0.3,2.394445,88.46096,88.336044,88.23302,88.36072,0.0800011,0.465625,3.5935463905334473,41.68654711643855
63,630000,54.2973177847488,-92.66377,0.0,-135.61191,0.3561859,-1.3588238,1089.4142,9.916805,8.980555,111.84078,111.89643,111.76379,112.03001,3.5447593,0.7,-117.2103,-1081.8151,0.00045552873,-4.0134645,5.603577,5.877656,5.881452,6.0345016,4.991307e-08,0.3,2.1213381,90.52057,90.45392,90.3832,90.40646,0.076129675,0.4859375,4.319232940673828,42.325796111424765
64,640000,45.97069047288899,-88.08985,0.0,-157.9621,0.9211502,-1.5448835,1087.9639,37.774254,8.992291,111.52441,111.65421,111.399376,111.61896,8.476868,0.7,-117.56796,-1365.286,0.001059887,-4.1326494,2.4030867,2.7433505,1.2656803,2.3047931,1.6770792e-07,0.3,2.1368277,85.70886,85.82637,85.55267,85.821976,0.1514875,0.37031248,3.8764350414276123,42.95647162993749
65,650000,54.336210303758584,-90.28044,0.0,-122.48893,0.5415795,-3.02915,2031.2251,35.104626,9.2396965,111.1583,111.192215,111.42366,111.25506,3.0598774,0.7,-119.3443,-1522.7516,0.0012790705,-5.052121,3.4236367,3.3058195,3.916987,3.3589764,1.9965227e-09,0.3,2.1291258,87.99031,88.02757,88.15842,88.03573,0.08933386,0.525,4.493746280670166,43.59894998868307
66,660000,44.22432643892084,-90.33325,0.0,-46.278313,0.49144462,-3.5068276,1837.9373,7.4258614,10.138273,110.7182,110.12961,110.61503,110.8789,1.3736491,0.7,-117.55128,-1416.3942,0.0006060501,-3.6307414,4.368218,4.5894938,4.4074793,4.3023715,3.088906e-07,0.3,2.691271,87.456665,87.47414,87.54996,87.4785,0.0726007,0.46406248,3.787567615509033,44.233574783802034
67,670000,48.754716640836314,-92.19844,0.0,-167.366,0.64804256,-2.7308455,1414.4415,53.93865,10.056674,111.32804,111.16028,111.659294,111.802376,17.939157,0.7,-116.9048,-1318.7804,0.0008582797,-4.47418,2.271797,2.1479478,2.2946377,2.2003207,5.784212e-07,0.3,2.141534,90.10814,90.04247,90.10554,90.25725,0.13131611,0.4453125,4.0331597328186035,44.868590827782945
68,680000,53.3060933105078,-88.81219,0.0,-169.70663,0.9501717,-0.92858815,1780.4386,83.55722,9.119154,111.70343,111.54828,111.59082,111.88291,7.0308385,0.7,-118.90372,-1580.2021,0.00043432717,-3.9983802,2.96476,3.2393346,3.4437754,3.3456852,8.606119e-07,0.3,2.0779898,86.68445,86.65587,86.69931,86.82527,0.15167303,0.36562496,4.416185140609741,45.51157742341359
69,690000,55.19565881874941,-91.200615,0.0,-134.71469,0.47276774,-6.249076,1846.65,17.564402,10.948988,111.35259,111.29811,111.20779,111.11105,8.691934,0.7,-119.84319,-1697.7942,0.002398742,-3.6622424,5.9915643,6.2125506,5.4620504,5.726341,2.5566553e-07,0.3,2.2355986,88.79941,88.747055,88.773026,88.70216,0.096548714,0.4625,4.7568981647491455,46.158960497379304
70,700000,42.667114139052046,-91.56882,0.0,-153.0854,0.6559562,-3.3897996,2428.4,27.556774,8.670051,110.27441,110.55676,110.34625,110.124176,0.5817663,0.7,-114.82685,-1992.7703,0.00014955767,-3.6524308,4.315616,4.434342,4.2125225,4.3463163,7.554889e-07,0.3,2.292428,89.1602,89.19359,89.140884,89.0417,0.061338052,0.4453125,3.5604209899902344,46.786378014087674
71,710000,40.225688317832095,-91.680786,0.0,-184.4771,0.5200108,-1.3711364,1371.889,24.444855,8.4982195,111.68282,111.59187,111.46862,111.47824,2.0616155,0.7,-118.57237,-1713.4431,0.0005663652,-3.0670624,1.1647978,1.221155,0.94817865,0.91310716,1.0100238e-06,0.3,2.0591905,89.51082,89.46308,89.35452,89.3202,0.07455692,0.44687498,3.415532112121582,47.41225264072418
72,720000,39.954060613009375,-88.602356,0.0,-108.50107,0.41042292,-0.0053845644,2164.614,12.902398,14.468914,111.101845,111.06065,111.19763,111.06121,2.1838996,0.7,-118.48623,-1379.4412,0.00016457879,-6.0154533,1.3737833,1.4189942,1.2677505,1.3449113,1.8672262e-06,0.3,2.2531867,86.33508,86.3434,86.33262,86.26295,0.062492035,0.48593748,3.535128116607666,48.0407301624616
73,730000,36.06923475812719,-89.96549,0.0,-195.20224,0.3772626,-2.645863,2135.7449,7.090467,9.781746,111.39802,111.412384,111.28573,111.693924,2.139733,0.7,-117.30301,-1437.0723,0.0009179242,-4.3541255,4.60984,4.920013,4.443596,4.1778364,6.849295e-08,0.3,1.9752581,87.89052,87.826225,88.00021,87.914246,0.059481494,0.475,3.053429126739502,48.659476192792255
74,740000,48.13865789889767,-91.234146,0.0,-187.60983,0.43605292,-5.3424277,2556.0415,9.223158,8.336532,111.89882,111.59726,111.298065,111.54791,1.7367585,0.7,-116.50721,-1669.3112,0.001757883,-4.628218,7.278923,7.252561,7.4753103,7.5060225,4.991307e-06,0.3,2.2708704,88.93004,88.896164,89.08358,89.150955,0.07159584,0.425,3.9664835929870605,49.29360960721969
75,750000,54.33749645740799,-90.89868,0.0,-185.45801,0.61635625,-4.4966435,1801.4963,9.655891,8.622458,110.95097,110.612686,111.02008,111.0712,9.551684,0.7,-115.984955,-1513.9059,0.00013788609,-4.577553,5.76684,5.9240794,6.483231,6.208677,1.3690443e-08,0.3,2.134815,88.58583,88.60541,88.87276,88.91887,0.10726729,0.434375,4.37518835067749,49.93494613170624
76,760000,56.153645712495134,-92.42302,0.0,-121.45583,0.538296,-0.8928946,2552.602,32.094475,15.078199,111.65162,111.10832,111.27197,111.39718,1.8932288,0.7,-117.5998,-1682.8303,0.0005298721,-4.507608,1.4355602,1.2782567,1.4075822,1.5199943,1.418346e-07,0.3,2.0969133,90.070755,90.03639,90.07472,90.226746,0.09763743,0.38437498,4.09007453918457,50.56743181546529
77,770000,45.69583625369372,-90.956085,0.0,-161.60025,0.54858613,1.9270164,1380.8036,14.093031,9.214542,111.615555,111.49347,111.01204,111.35479,6.937415,0.7,-117.80127,-1397.2811,0.00048369565,-3.9482133,1.1096882,2.2143753,1.2212548,0.5013576,1.11758716e-07,0.3,2.1455379,88.7125,88.731,88.64079,88.839096,0.10632604,0.4375,3.941009283065796,51.203106852372485
78,780000,58.67180420840996,-91.58306,0.0,-197.48227,1.3194506,-7.618664,2126.0254,20.416903,9.192558,111.23456,111.061584,111.664734,111.31638,7.5177073,0.7,-116.78091,-1804.4167,0.0016571274,-3.4998624,7.839563,7.8095627,9.551325,8.848422,3.4486874e-07,0.3,2.0689921,89.445885,89.39805,90.04348,89.74892,0.10036065,0.48125,4.850478172302246,51.85390660762787
79,790000,62.467791271789594,-90.60913,0.0,-140.51227,0.70443046,-3.8463087,2608.7766,56.880096,13.29808,111.92335,111.51013,111.54271,111.71501,5.489034,0.7,-121.78288,-1810.1322,0.00063892297,-4.9061327,7.0767393,6.1910815,1.3674824,7.1697454,5.1440015e-06,0.3,2.291428,88.25819,88.2834,88.084785,88.260544,0.089878045,0.375,5.1282172203063965,52.50470300515493
80,800000,40.57935245622939,-90.24063,0.0,-165.35254,0.59916854,-1.1513579,2114.5518,16.482983,9.516578,111.431656,111.61958,111.643684,112.11812,1.0032966,0.7,-118.90967,-2345.013,0.00020693336,-5.854227,1.6147262,1.6970081,1.3260236,1.6414354,7.888302e-06,0.3,2.1985724,87.98807,88.03061,88.00232,88.209564,0.08055487,0.36562496,3.427995204925537,53.13063889344533
81,810000,59.002899320557134,-89.640366,0.0,-167.62756,0.706079,0.004507065,1725.0249,51.337643,9.105041,111.14305,111.36457,111.688934,111.636604,9.333244,0.7,-117.01229,-1389.8497,0.0011002647,-4.8629274,3.0297499,2.8313367,3.5390317,3.2137747,3.6950226e-08,0.3,2.085095,87.48303,87.48775,87.48174,87.41732,0.110240065,0.515625,5.18501091003418,53.78260771830877
82,820000,49.47928825279472,-90.47407,0.0,-194.80493,0.36529475,2.3819754,2016.8772,6.7108054,9.566741,111.76845,111.80021,111.8289,112.01738,4.0961437,0.7,-116.41892,-1649.9617,0.00019302603,-6.5755997,0.6818375,0.6397536,1.2758756,0.9674722,4.304282e-07,0.3,1.9482803,88.448044,88.4711,88.54577,88.650055,0.070503995,0.41562498,4.361126184463501,54.41968026955922
83,830000,60.232443015276814,-90.205826,0.0,-146.40009,0.6242066,-0.09904468,2594.0781,9.225399,9.785631,111.92421,112.025986,111.34344,111.25626,11.995019,0.7,-120.326,-1925.3765,0.0059150313,-3.226158,1.4433124,1.2179396,1.2728368,1.2690359,6.254906e-05,0.3,2.2785172,87.9071,87.88676,87.711395,87.660095,0.12291582,0.48125,5.141987085342407,55.07109663486481
84,840000,55.50779602367019,-90.30745,0.0,-121.61702,0.47852963,-3.053426,1977.6183,6.0575614,10.767709,111.72758,111.774994,111.94959,112.21947,3.1706102,0.7,-121.45091,-1782.6298,0.0041605355,-3.5403337,3.817119,3.2455058,4.285828,4.3421082,2.670288e-06,0.3,2.5182245,87.824524,87.77665,87.61018,87.925156,0.10432814,0.34218746,4.961693525314331,55.72014990647634
85,850000,56.976511564350055,-88.36695,0.0,-223.57907,0.6882004,-3.4096909,1517.6901,12.944523,9.067514,110.82372,110.9352,111.21164,110.83146,2.6340232,0.7,-118.38401,-1695.1085,0.00026409153,-3.4659915,5.2224774,5.2326818,4.5738935,4.763998,9.74412e-06,0.3,2.2286701,86.06224,86.05693,86.09437,86.03082,0.091251045,0.5203125,4.798851013183594,56.367836844921115
86,860000,46.44101679666293,-93.14236,0.0,-153.06651,0.71398103,-4.159397,2634.1135,22.648739,8.656746,111.47999,111.26744,111.078094,111.180954,4.8271747,0.7,-117.25821,-2056.0303,0.0005476741,-4.803034,5.065891,5.08731,4.872085,4.9899096,4.2391474e-07,0.3,2.1767251,90.768906,90.82527,90.51709,90.721596,0.07736681,0.3828125,3.895761013031006,57.00081332127253
87,870000,55.39803361084413,-89.67922,0.0,-175.49257,0.3252064,-1.755717,2032.9916,3.111596,9.569173,111.81493,111.51702,111.3152,111.27321,2.264894,0.7,-120.61674,-1788.2166,9.244686e-05,-7.8633375,2.8332548,2.643705,1.5188031,2.8270326,2.6018126e-06,0.3,2.0300922,87.56053,87.52522,87.55682,87.52956,0.08627472,0.48125,4.973058223724365,57.652118893464404
88,880000,46.73095472223894,-92.35626,0.0,-157.24661,0.2301048,-0.965868,1696.5642,3.1936395,8.7177515,111.65638,111.39669,111.40856,111.53886,2.5357497,0.7,-118.52601,-1609.5542,0.00020315521,-4.6106563,3.7902348,3.5657601,3.8498218,4.019735,1.25128245e-05,0.3,2.1842675,90.18167,90.14404,90.13695,90.195274,0.06580999,0.42031246,3.955381393432617,58.2828329483668
89,890000,48.277393821461025,-92.386826,0.0,-160.26111,0.36567748,-0.6746119,3299.1838,8.535286,8.938277,111.825615,112.066864,111.40401,111.72809,2.2902136,0.7,-120.30631,-1647.36,0.00089914177,-6.8031,2.9010634,2.6662574,2.715521,2.6331358,1.7813291e-07,0.3,2.0454934,90.10205,90.123405,90.212814,90.23163,0.07976282,0.49374998,4.115630388259888,58.91852920055389
90,900000,51.54532770476352,-92.169174,0.0,-180.11697,0.55643576,-0.35625768,3586.4834,19.056456,8.513464,112.33068,111.983635,111.87373,112.19882,4.9442716,0.7,-117.87669,-2005.0824,0.00093474577,-3.0981493,1.9412899,1.9090662,1.1972973,0.8057322,1.5821017e-06,0.3,2.1696281,89.87712,89.91135,89.81789,89.83261,0.09788248,0.44687498,4.5597875118255615,59.562748531500496
91,910000,58.13202052214565,-92.486885,0.0,-213.05153,0.3600979,-0.31690788,3860.6848,8.849442,10.091358,111.50084,111.44698,111.69798,111.3804,1.4822129,0.7,-117.87843,-1885.6868,0.00053522043,-3.338875,1.414568,1.7245756,1.312037,1.4779885,1.3831887e-07,0.3,2.1622682,90.20756,90.14841,90.35625,90.16676,0.062350288,0.5390625,4.8535683155059814,60.21402268012365
92,920000,51.68441363545868,-90.374756,0.0,-208.6481,0.23517612,-0.14322543,1746.2902,6.8662586,10.382298,111.017914,111.02896,111.2437,111.46621,7.088663,0.7,-117.85811,-2119.6868,0.0005885829,-4.0735273,1.2469366,1.1930424,1.2569851,1.168961,4.541944e-08,0.3,2.2664266,88.00708,88.039894,88.002945,88.00887,0.087286554,0.49843746,4.523402214050293,60.85784673293431
93,930000,44.552781189323525,-91.18664,0.0,-230.42255,0.5941827,-1.9310426,2810.0645,32.10141,9.986313,111.865944,111.85279,111.73427,111.75876,3.8103218,0.7,-117.22201,-1913.998,0.002751927,-2.9476762,3.3905542,3.1313934,2.8289986,2.8274899,2.3469328e-08,0.3,2.1012807,89.00728,88.97844,88.986374,88.91113,0.101351134,0.5265625,3.7475509643554688,61.488195061683655
94,940000,48.19458084756299,-92.29821,0.0,-182.80551,0.53348446,1.1656139,4007.74,57.03135,11.794719,111.26235,111.14575,111.067604,111.07932,0.81729543,0.7,-119.54796,-2135.1016,0.00033881166,-2.714759,1.5975492,1.5722623,1.3914505,1.5050901,1.9541883e-06,0.3,2.081552,90.15529,90.11347,90.1705,90.11584,0.04694382,0.5,3.8947296142578125,62.12255512873332
95,950000,62.28704685873989,-90.54372,0.0,-224.63586,0.41528955,0.56100297,1328.0824,13.081783,9.351715,111.129524,111.34351,110.92105,110.920135,1.7243129,0.7,-115.78119,-1849.7692,0.00016502407,-3.5886977,0.06896776,-0.035679698,1.3818996,0.78002155,1.678127e-06,0.3,2.1215787,88.332245,88.32622,88.418304,88.41601,0.055643667,0.4515625,5.149585962295532,62.77366265058517
96,955000,55.84860886553372,-88.762405,0.0,-228.8691,0.5336217,-2.243424,2685.3625,8.37797,9.0849905,111.06949,110.96127,111.47375,111.35377,1.610241,0.7,-116.40823,-2639.9395,0.00058718893,-5.413784,3.9258785,3.7410934,3.336679,3.7191188,1.0481745e-06,0.3,1.9012916,86.75959,86.75975,86.71527,86.83494,0.074633285,0.41562498,4.372536659240723,63.130491292476655
97,960000,51.75665190510457,-91.633255,0.0,-207.42117,0.57593167,-3.50777,6488.671,11.355694,8.540493,111.50686,111.19141,111.6471,111.30655,2.205081,0.7,-117.671326,-2454.591,0.0001932052,-5.336022,6.886996,6.968652,6.5877047,6.343398,1.8834544e-06,0.3,2.0058575,89.475,89.48793,89.47513,89.39003,0.075462595,0.4828125,4.043218612670898,63.47892274856567
98,965000,64.66095725396718,-89.7531,0.0,-220.45656,0.7129896,0.23111749,3785.7446,60.34559,9.766166,111.70761,111.76012,111.830505,111.54625,6.808794,0.7,-117.256966,-1986.6206,7.4823445e-05,-3.0783467,1.5127419,1.4225731,1.4897327,0.909686,6.519258e-08,0.3,2.050043,87.61171,87.65051,87.562485,87.563416,0.09136067,0.4640625,5.002109527587891,63.84408680597941
99,970000,57.572237177438424,-88.29177,0.0,-114.36277,0.510244,0.40350515,6825.5835,24.015953,8.23435,111.444954,111.61278,111.55477,111.48794,0.52871895,0.7,-118.3239,-1892.614,0.00028547348,-3.439194,0.7410478,0.46414775,1.3123815,1.1330118,1.18813475e-07,0.3,2.4412966,85.85376,85.84378,86.058914,85.94881,0.04543551,0.46249998,4.440912961959839,64.2011323650678
100,975000,49.114804526310614,-90.07977,0.0,-182.23335,0.32764983,-3.3740568,3649.736,9.139671,8.470758,111.62981,111.252205,112.13729,111.28169,2.8264859,0.7,-117.23166,-2324.7048,1.1618555e-05,-3.0994642,4.3854012,4.30866,3.654806,3.6738765,7.986091e-09,0.3,2.1332822,87.906296,87.907394,87.91832,87.94271,0.062249467,0.4609375,3.8375425338745117,64.54422531922658
101,980000,56.48900969533667,-90.520294,0.0,-239.61678,0.43946257,-1.7898408,5531.452,6.459115,8.966508,110.27837,110.2832,110.29588,110.29472,9.846273,0.7,-116.28476,-2366.6846,4.8291055e-05,-4.193648,2.89782,2.6231897,2.9491243,2.9272957,7.8482554e-07,0.3,1.9141378,88.54144,88.524734,88.742645,88.57216,0.09807693,0.42812496,4.409081220626831,64.89958895842234
102,985000,56.26810903546807,-90.52054,0.0,-243.30466,0.6718413,-1.9100599,3950.3135,9.379887,9.296751,110.866516,111.48165,110.80398,110.698456,4.1309657,0.7,-117.28464,-1785.7357,0.00086118595,-5.2735147,4.525665,4.313612,3.978348,3.7068202,3.1355304e-07,0.3,2.0016477,88.35467,88.38396,88.19609,88.14488,0.08828771,0.521875,4.342106580734253,65.25258946418762
103,990000,54.17681762098224,-89.429565,0.0,-171.09381,0.3536668,-1.4296613,1894.142,6.0844393,9.874461,112.069176,112.16349,112.114944,112.013,1.9209863,0.7,-118.15816,-2236.0588,0.00081472937,-4.4239793,0.39333606,0.63716227,1.4659855,0.5908488,2.118107e-06,0.3,2.3585734,86.976456,87.01065,87.03436,87.142296,0.07061812,0.375,4.150298595428467,65.60397854248683
104,995000,53.718310846453285,-89.95528,0.0,-137.4295,0.33351022,-2.9273922,4294.3677,6.3822746,10.440219,111.141205,111.152466,111.13322,111.12428,2.026953,0.7,-117.31731,-2058.9944,0.00015169766,-3.912601,5.024473,5.1557984,5.424753,5.351212,7.4824203e-07,0.3,2.5123584,87.481575,87.499985,87.566696,87.53563,0.06583874,0.434375,4.201226472854614,65.95681832631429
105,1000000,58.509016456416774,-91.67088,0.0,-143.56534,0.3275662,-1.219614,3184.1335,5.4397345,9.170182,111.24461,111.063995,111.12272,111.04596,2.2213955,0.7,-117.810036,-2059.982,0.0003715817,-7.4121513,2.1308196,2.0765939,2.1900942,2.062971,1.5716068e-08,0.3,2.2593699,89.39777,89.30541,89.28171,89.195274,0.0734925,0.54843754,4.479538917541504,66.3118615269661
