Xixo99/comfo/baselines/comfo6_perterbation_actor/20230309/check_hopper/hopper-medium-v2/COMFO6_s7_20230308_224100_hopper-medium-v2_93.01.csv
,step,reward,actor_loss,alpha,alpha_loss,critic_loss,max_actor_loss,max_alpha_loss,max_critic_loss,max_mle_prob,max_q1,max_q2,max_target_q,max_v,max_value_loss,max_weight,min_actor_loss,min_alpha_loss,min_critic_loss,min_mle_prob,min_q1,min_q2,min_target_q,min_v,min_value_loss,min_weight,mle_prob,q1,q2,target_q,v,value_loss,weight,eval_time,time
0,0,6.4645945998517735,,,,,,,,,,,,,,,,,,,,,,,,,,,,,,,,,
1,10000,52.01696606820136,-41.301647,0.06706473,-4.695757,1.2524292,-4.350281,12.713868,99.91225,8.769729,58.494076,58.766315,60.219788,59.365337,12.009946,0.7,-60.73416,-18.121962,0.00029299234,-5.1363344,5.393127,5.561935,5.822177,5.9322195,1.9893987e-07,0.3,1.528326,39.77447,39.83605,40.182594,39.346855,0.12651561,0.53437495,3.9168949127197266,1.9908087690671286
2,20000,50.85249347950197,-64.87842,0.0037607513,-6.101628,1.1497908,-1.4052289,30.571695,47.08673,7.4955907,85.87406,86.28698,85.93096,86.096565,7.791075,0.7,-89.09509,-33.668877,0.0020521977,-4.9196043,3.4952588,3.8857188,1.1420931,3.9191644,2.3905887e-08,0.3,1.6664127,63.1214,63.182243,63.15992,62.77394,0.1352319,0.465625,3.7814035415649414,2.609429621696472
3,30000,54.14862249462979,-77.74634,0.00020220906,-10.7606125,0.96588284,2.4744995,57.539337,12.980423,8.649219,98.40865,98.39047,98.03065,98.14065,3.989355,0.7,-104.14146,-55.232765,0.0007158782,-4.4492555,-0.7382779,-0.8764361,-0.9678844,-0.23411717,5.3208323e-06,0.3,1.6226007,76.009705,76.01004,75.865585,75.930984,0.15265,0.47187498,3.8657596111297607,3.22809556722641
4,40000,49.09704767323477,-85.79655,1.0667915e-05,-10.345747,2.8285751,-2.6201792,114.75088,48.65543,12.949616,104.935486,104.71005,104.95942,105.335526,1.810516,0.7,-116.18071,-85.699715,0.003041332,-3.9848518,3.6342046,4.689538,5.344457,3.696604,2.2255526e-06,0.3,1.6538846,84.12779,84.0972,84.999596,84.89427,0.16211794,0.3640625,3.560051679611206,3.8401098052660623
5,50000,45.36246188085448,-90.624344,5.5562117e-07,-10.095088,1.7680997,1.6647668,103.50361,45.383682,9.747753,109.63939,109.62187,108.87412,108.86848,3.1296136,0.7,-115.044205,-128.71118,0.00079223944,-6.1399302,-0.2570027,-0.20693499,1.3275834,0.21796708,7.8724116e-07,0.3,1.873447,88.55758,88.566895,88.33223,88.551,0.12119548,0.41875,3.359614610671997,4.454185398419698
6,60000,44.658650439619194,-87.69075,2.897942e-08,-22.080616,1.1213734,1.66136,83.16732,26.04974,9.338679,111.23165,111.33202,111.00943,111.18678,10.1886835,0.7,-116.91514,-154.81279,6.230571e-05,-5.297608,0.14022109,-0.5203476,1.2172658,0.35507497,8.074567e-08,0.3,1.7460694,86.00389,86.01647,86.36355,86.21887,0.17943646,0.4375,3.314769744873047,5.065298350652059
7,70000,49.58950039727898,-90.62497,1.5211536e-09,-17.191746,1.271894,3.9766474,128.5387,47.83438,8.140778,112.32917,112.10243,113.21514,112.420616,7.9828,0.7,-118.41363,-166.06415,0.00024991232,-4.127579,-3.226873,-1.2357162,1.3174722,0.74673957,8.6217185e-08,0.3,1.9722548,88.453125,88.44797,88.642006,88.600876,0.15814939,0.40781248,3.5517919063568115,5.678757592042287
8,80000,42.80660154688528,-94.787735,7.9954814e-11,-25.171986,1.1939607,-1.1041999,262.49893,38.50992,9.160673,113.362,112.83001,113.46912,113.8195,5.714669,0.7,-119.09727,-249.11722,0.0013873437,-6.3862767,3.3208232,3.5541508,4.2802877,4.44121,6.008148e-06,0.3,1.9174991,92.81712,92.772156,92.998825,93.1427,0.13338217,0.37031248,3.170982599258423,6.28383436203003
9,90000,54.177363928885846,-94.7061,4.1984315e-12,-19.524845,0.8931842,-0.233289,150.35707,19.296362,8.413797,111.86984,111.592,111.59944,111.98286,2.8239124,0.7,-117.53346,-204.19872,0.0015421179,-4.9344945,0.9271221,1.7311623,1.3617015,1.243984,5.020236e-07,0.3,2.095409,92.61323,92.560455,92.89916,92.7945,0.10463352,0.38593748,3.8984999656677246,6.904601951440175
10,100000,48.57514096797602,-90.85319,2.1941493e-13,-22.423769,0.6760843,-1.1576059,365.3581,13.029192,9.237577,110.5152,111.01434,112.20417,111.43029,8.918089,0.7,-116.00702,-246.7906,0.0005480559,-6.0634885,1.6502516,2.3131626,1.3606563,1.2000505,1.2777745e-07,0.3,1.9651966,88.505875,88.5711,88.63858,88.63347,0.13998088,0.37499997,3.5240085124969482,7.519154262542725
11,110000,47.34126930724653,-87.49306,1.1469612e-14,-40.510254,0.6791698,2.5386953,185.53314,15.175085,9.726509,112.38818,112.69832,112.29372,112.99505,2.1451147,0.7,-117.34907,-297.00632,0.0001870871,-6.3561544,-1.516014,-1.0804508,1.4040684,-0.69598526,2.673303e-07,0.3,1.705492,85.712845,85.72836,85.854126,85.90228,0.09585185,0.453125,3.3841066360473633,8.132798353830973
12,120000,53.71803179943867,-93.42221,6.0076696e-16,-29.049957,1.5144601,-2.4069226,234.31581,55.42483,11.36623,111.75285,111.20408,111.475586,112.29891,4.1139746,0.7,-119.99518,-235.8892,0.0012764558,-5.4369383,3.421622,3.8081887,1.815794,2.5200715,2.8749926e-07,0.3,2.0831008,91.30989,91.323715,90.89377,91.02793,0.13282444,0.47031248,3.8682847023010254,8.755361104011536
13,130000,56.091784246617415,-92.0258,3.1498085e-17,-33.012695,0.7478759,-3.2752402,243.23428,27.336498,9.43715,111.95992,112.07842,112.829895,113.43111,1.5374156,0.7,-117.899666,-264.20554,0.0012197114,-7.1644807,3.3727355,3.328631,3.3915071,3.700001,1.5429687e-07,0.3,2.0343094,89.97879,90.04385,90.21541,90.258484,0.090621755,0.4265625,4.01638650894165,9.379150068759918
14,140000,48.573154622933465,-89.85573,1.6474802e-18,-44.200516,0.6590868,1.6527892,258.98016,16.6713,9.241102,111.70744,111.5671,111.725845,112.09786,4.0335293,0.7,-120.41699,-412.4442,0.0035510994,-8.046043,0.3377367,-0.1301373,1.3495877,0.95280933,2.4157924e-07,0.3,1.741297,88.00138,88.018936,87.77283,87.85463,0.10695939,0.509375,3.444796323776245,9.986434729894002
15,150000,50.60199785948516,-91.64793,8.638791e-20,-49.230824,1.3215266,-1.9617671,459.5782,21.867807,9.353636,113.70352,113.71318,113.70777,113.740486,3.9643843,0.7,-119.55092,-389.44345,4.7318754e-05,-3.572483,2.4961255,2.0130684,1.357887,1.4630116,2.1129382e-07,0.3,2.1207774,89.46109,89.42743,89.21518,89.19906,0.11408699,0.48125,3.630589008331299,10.605846770604451
16,160000,57.29740542892531,-90.07323,4.5399388e-21,-48.477356,0.57331514,-4.9331675,287.4876,18.300076,9.8696995,111.375946,111.351135,111.53628,112.00983,1.8583004,0.7,-119.200645,-380.24075,0.00018834817,-4.767794,3.6717582,3.5154476,2.5004997,3.3549504,2.8784154e-06,0.3,1.9095774,88.14958,88.16646,88.14968,88.2769,0.09593246,0.45468748,4.033636569976807,11.23020425637563
17,170000,61.66900011214926,-91.370544,2.3800714e-22,-52.44524,0.6032065,-1.8711519,244.9832,22.687923,8.015575,111.76517,111.551796,111.17513,111.511444,1.1165112,0.7,-116.92912,-363.97513,0.0014133963,-4.176111,3.8060956,3.6517918,3.4935095,3.8535662,6.9849193e-07,0.3,2.067216,89.345825,89.322,89.18549,89.418976,0.07212964,0.3875,4.34728741645813,11.857398124535878
18,180000,61.07308981690998,-89.74295,1.24784274e-23,-52.472923,0.7934855,0.5168959,279.10397,46.15773,8.712199,111.31489,111.88072,111.676315,112.47576,7.564615,0.7,-119.01896,-345.03152,2.1144864e-05,-4.5922294,1.551207,1.6346253,1.3334211,1.9462196,8.215895e-07,0.3,2.0806665,87.65013,87.75053,87.67799,87.76318,0.13357303,0.42343748,4.300969362258911,12.483335375785828
19,190000,81.52641861275232,-89.02226,6.533509e-25,-38.01686,0.61376715,-0.07062745,331.6149,20.875954,9.124189,111.72133,112.023315,111.84494,112.019035,3.0486453,0.7,-117.69905,-422.03992,0.00033047172,-5.044197,0.9801872,0.9040189,1.3797779,1.270479,2.5060028e-06,0.3,2.048996,86.89404,86.86476,86.98427,87.030876,0.081038535,0.36874998,5.810721397399902,13.133588361740113
20,200000,97.36771797033927,-90.63837,3.4305398e-26,-54.28383,0.5288249,-3.9582212,305.67566,15.12023,9.621868,112.11915,112.300476,112.035324,111.89044,1.0201565,0.7,-116.4357,-432.59653,0.00020651153,-3.61303,5.6566267,5.526126,4.9385386,4.747753,3.273989e-06,0.3,2.155404,88.4715,88.51489,88.56401,88.42183,0.07870284,0.5140625,7.070933818817139,13.80389730532964
21,210000,88.82448092034218,-88.80002,1.7937669e-27,-53.358974,0.55617887,-3.135604,437.0234,28.380396,8.709032,112.41317,112.81821,112.95455,112.86204,4.244871,0.7,-119.72296,-414.7221,0.00083847,-4.610842,2.1354601,2.6013882,2.4292731,2.4100888,1.08486975e-05,0.3,1.8267008,86.87167,86.999626,86.90691,86.74904,0.102555096,0.59375,6.343087196350098,14.46837420463562
22,220000,95.42478452415568,-90.62997,9.379602e-29,-74.38727,0.6202898,-1.4325202,392.08298,12.476883,7.4689918,112.90392,112.84571,112.76228,112.84827,3.2951121,0.7,-117.948044,-472.03528,0.0009745425,-4.2341228,2.519277,3.3296785,1.9870234,2.8430614,1.66893e-07,0.3,1.805447,88.776596,88.76239,88.706665,88.8353,0.12379205,0.396875,7.2141273021698,15.143046220143637
23,230000,89.88168961808215,-91.52611,4.9227356e-30,-65.03966,0.50029266,-0.03999138,466.6622,16.582512,9.120394,111.09399,111.051315,111.63735,111.19019,1.7174824,0.7,-116.99382,-586.98206,0.0024843607,-4.9631777,2.2876794,2.3537502,1.2894613,2.2888756,1.1177443e-06,0.3,1.756856,89.698715,89.67524,89.46443,89.53232,0.05883863,0.49374998,6.7784106731414795,15.812761080265044
24,240000,92.91515262138445,-88.95543,2.5860652e-31,-66.17059,0.5459513,0.19751084,543.44037,11.090124,15.048735,110.81118,110.791626,110.56625,110.566635,1.4287741,0.7,-123.63805,-580.168,0.0010095589,-8.34483,0.7305466,0.9276427,0.46678,1.2297536,1.9252185e-07,0.3,2.1819842,86.70994,86.68779,86.82469,86.90291,0.0878501,0.4453125,6.928396224975586,16.479579253991446
25,250000,81.44588520066812,-90.997986,1.3563033e-32,-82.03081,0.41611737,-4.6830926,411.07196,18.44381,8.376064,111.80644,111.894226,111.79888,111.683846,7.844654,0.7,-115.54139,-642.0201,2.3592846e-05,-5.9846864,6.831283,6.522858,6.9357896,6.997547,4.4146438e-07,0.3,1.6149074,89.34563,89.355644,89.27827,89.33327,0.07861182,0.4171875,6.405984401702881,17.14250044822693
26,260000,84.03620152708989,-88.387825,7.1131854e-34,-48.48625,0.7197296,-2.1418283,438.59467,48.029133,9.8878,111.723045,111.76099,111.70426,111.4207,5.2815,0.7,-116.638855,-771.1168,0.0003835748,-5.5754013,2.8470354,3.091509,1.5916322,2.2218604,4.991307e-08,0.3,1.8648834,86.47296,86.472496,86.39447,86.31096,0.10876887,0.465625,6.543141603469849,17.80411425828934
27,270000,93.64156426807591,-89.68031,3.7566142e-35,-71.27652,0.8476838,-4.4301047,404.18948,16.260572,10.280282,112.47993,112.20407,112.15289,112.06455,3.6374638,0.7,-117.63979,-579.23267,0.0016012532,-4.7290273,3.8690934,3.1941652,3.3072317,3.2683692,1.2885099e-05,0.3,2.090621,87.61627,87.56805,87.312126,87.09694,0.11674429,0.58437496,7.145756006240845,18.47945014635722
28,280000,86.42233467991339,-90.30271,1.9697953e-36,-76.617676,0.8990617,-0.40626574,471.36334,12.451791,9.620202,112.81634,112.84514,112.61741,112.634705,2.8548412,0.7,-116.59841,-627.0928,0.00036933192,-3.8684335,2.6937451,2.4566927,0.79117894,1.302261,1.174165e-07,0.3,2.0535867,88.1443,88.13768,87.978615,87.98429,0.10009721,0.5234375,6.371128797531128,19.143767317136128
29,290000,89.8948130514881,-90.45351,1.0356553e-37,-55.05625,0.6154612,1.8250601,608.883,32.25061,11.875334,112.43671,111.85928,112.11559,111.75157,3.362853,0.7,-116.8102,-647.35657,0.00044791133,-4.4107065,0.24212903,0.4580104,1.3254774,0.42239153,4.0745363e-09,0.3,2.1339962,88.25155,88.19749,88.2923,88.16235,0.10372786,0.496875,6.812705755233765,19.813454755147298
30,300000,83.47565260209258,-88.38329,5.432075e-39,-69.37767,0.60464746,-2.1945016,927.09906,15.417114,16.933712,110.594185,110.83139,111.17664,111.41666,1.4759111,0.7,-126.09543,-766.9786,0.000597287,-3.8668838,1.5548286,0.8086898,1.421483,0.84127367,3.182504e-07,0.3,2.1242828,86.23863,86.25228,86.24173,86.32356,0.062313437,0.4421875,6.328795671463013,20.477361520131428
31,310000,84.76024263488176,-91.36981,2.87095e-40,-85.19894,0.8758153,-0.019807696,533.87524,73.079094,8.488155,112.998535,112.83928,112.59858,112.684715,2.2445319,0.7,-117.88322,-591.77655,0.0010562309,-4.333522,1.2102673,1.4134263,1.3902781,1.8186786,1.01863405e-11,0.3,2.0833948,89.23632,89.17659,89.11688,89.140564,0.087970994,0.46249998,6.506584882736206,21.143278193473815
32,320000,76.58519936430594,-89.29784,1.5112e-41,-98.92375,0.40441912,-0.7201656,456.90945,5.371913,7.4780154,110.679,110.65501,110.63149,110.50503,2.7143424,0.7,-115.49233,-621.35736,4.1392923e-05,-3.3422022,3.1330035,1.4537538,1.3900038,1.6815369,3.60026e-07,0.3,1.799167,87.45395,87.45521,87.483246,87.59463,0.087125696,0.40625,5.925760746002197,21.793338267008462
33,330000,78.53596404538288,-89.923744,7.99e-43,-86.29632,0.55731964,-1.3578112,989.1372,13.669582,9.572893,111.41787,111.0546,111.30959,111.23303,2.4735453,0.7,-116.99682,-628.4772,0.0012037323,-6.3002005,2.226693,3.0958025,2.4703283,2.7775862,9.510736e-06,0.3,1.9632607,87.82448,87.95354,88.03877,88.23512,0.10704165,0.3984375,6.099207401275635,22.45490622917811
34,340000,83.52111340544933,-88.08282,4.2e-44,-115.82407,0.5727525,-0.0577569,852.1926,20.01273,9.212506,112.69955,112.99398,112.84959,112.93459,0.8962412,0.7,-118.32897,-653.6885,0.0010627261,-3.7602558,2.1323373,2.0259197,1.5117595,1.5362793,2.0368026e-07,0.3,1.8404429,86.13274,86.16847,85.94174,85.98907,0.054190688,0.471875,6.540403604507446,23.120568931102753
35,350000,87.36760389917589,-88.70674,3e-45,-101.22845,0.42534718,-4.6138515,909.4894,13.399969,8.238654,113.14466,113.34744,113.03343,113.25012,2.5568676,0.7,-115.865326,-645.7516,0.00066631666,-2.7340736,6.798667,6.691688,6.7805405,6.936474,3.6209823e-07,0.3,1.7817291,86.905846,86.87703,86.84047,87.030914,0.08087453,0.371875,6.836838245391846,23.79242168267568
36,360000,74.9028512349744,-89.61783,0.0,-81.48848,0.5788348,-4.053861,672.2451,8.498379,8.735022,110.886536,111.13814,111.67595,111.61555,2.168458,0.7,-118.36161,-1023.38385,0.0010271156,-6.3033986,4.461295,4.207715,3.9060118,3.8107061,7.77439e-07,0.3,2.1875353,87.38481,87.42641,87.42393,87.395874,0.07591126,0.48125,5.801724672317505,24.446972648302715
37,370000,87.37783543218703,-89.807236,0.0,-76.12071,0.8163063,-4.314601,616.9725,19.419277,8.574485,112.5633,112.54403,113.09947,113.063095,4.8210545,0.7,-118.29982,-782.41565,0.0011261378,-6.265321,5.3558087,5.339351,5.8851256,5.666975,1.4685793e-08,0.3,2.1957533,87.56361,87.54957,87.841415,87.64003,0.091488406,0.50312495,6.840324401855469,25.120385320981345
38,380000,87.30498247750788,-92.5038,0.0,-82.46024,0.4054433,-2.345201,705.72327,3.7615383,9.206862,113.20888,113.41499,113.11275,113.570305,1.4105427,0.7,-116.55528,-792.7118,0.00059488055,-3.9687214,3.7561045,3.4466555,3.7437932,3.8609324,3.945194e-05,0.3,2.0586104,90.48425,90.45627,90.60099,90.78874,0.075052075,0.3640625,6.906710386276245,25.785589786370597
39,390000,77.15963938761512,-88.602264,0.0,-93.775246,0.77835184,-1.7939079,813.1699,10.260947,9.034319,112.52795,112.41584,112.39535,112.76996,1.8407564,0.7,-116.040565,-771.34534,0.00022393139,-3.9543655,2.3114555,2.76319,3.5326014,3.3122318,1.2170524e-06,0.3,2.18158,86.425476,86.38624,86.74334,86.56084,0.09096067,0.490625,5.8942787647247314,26.44484068552653
40,400000,79.45913988966164,-91.1857,0.0,-127.92748,0.68173015,-7.2604904,701.1307,24.000755,8.698515,111.435555,111.64455,111.452126,111.39193,1.9650362,0.7,-119.74648,-808.7578,0.0004005843,-5.3872094,6.667188,7.001755,6.452808,6.549193,7.8482554e-07,0.3,1.8519666,89.20795,89.296555,89.06946,89.25959,0.07601154,0.434375,6.451613903045654,27.10959595044454
41,410000,87.57882702130306,-89.78449,0.0,-111.75029,0.47409672,-0.81560874,860.4382,34.348904,11.47398,111.75732,111.71208,112.06301,111.54828,1.1719109,0.7,-117.19449,-764.8949,0.000939068,-3.106895,2.0326579,1.4571048,1.1169926,1.6758001,3.3807012e-08,0.3,1.9254072,87.77871,87.71859,87.662,87.759895,0.0703184,0.4109375,6.944295167922974,27.781469702720642
42,420000,87.95360953977843,-91.00263,0.0,-78.3806,0.6464904,0.38350475,1226.2656,23.597912,12.401606,111.78392,112.07274,111.692986,111.61313,1.6574254,0.7,-119.57514,-798.7661,0.00043978944,-4.309372,0.699774,0.8932257,1.3037875,1.2345195,5.196125e-07,0.3,2.2745032,88.68733,88.74402,88.65086,88.68561,0.06364648,0.42343748,6.892991542816162,28.45217293103536
43,430000,86.54382263704872,-89.23202,0.0,-117.99564,0.61638725,1.4370532,778.16833,16.182936,8.4989805,111.45404,111.33826,111.54825,111.51387,7.8382554,0.7,-118.96557,-942.7318,0.00031516864,-3.6927896,0.46048123,0.11589661,1.321749,0.5170965,1.0825635e-06,0.3,2.084774,87.13176,87.09217,87.39549,87.28349,0.100996554,0.478125,6.902578115463257,29.12421369155248
44,440000,86.17436909289748,-88.83144,0.0,-88.174774,1.0970964,-0.34495735,1127.186,50.694336,10.105867,111.7393,111.89741,112.14229,112.177986,2.9425251,0.7,-122.07063,-847.128,0.005403786,-3.4855187,0.91894716,0.983021,1.4863603,1.1006107,5.347829e-07,0.3,2.3649719,86.47011,86.46295,86.2101,86.19315,0.086367205,0.4953125,6.736486911773682,29.791341749827065
45,450000,90.22437323444045,-90.76133,0.0,-104.39636,0.74516165,-9.588498,980.9615,9.494797,8.985116,111.949196,112.11729,112.58069,112.11404,2.3795145,0.7,-117.3549,-760.37085,0.0009154124,-5.384899,9.255082,9.648031,9.309793,8.735789,1.1533674e-06,0.3,1.9186132,88.69179,88.711655,88.96489,88.70263,0.108293876,0.4828125,7.201028108596802,30.468601218859355
46,460000,92.09464341432569,-88.74847,0.0,-121.07913,0.69024634,-2.6878407,708.28326,53.253265,8.796538,112.57956,112.77344,112.656105,112.613144,4.672929,0.7,-118.08859,-998.15686,0.00040186505,-4.4453926,3.671402,3.6317356,4.1546907,3.6433587,2.0995678e-06,0.3,2.1041815,86.78008,86.75804,86.722244,86.67926,0.1055154,0.465625,7.1773765087127686,31.143627826372782
47,470000,86.28830379672617,-90.38814,0.0,-97.85868,0.3658451,-2.9967237,937.68787,6.6754727,10.303762,111.81413,111.64588,111.93037,111.868904,1.3053325,0.7,-121.850716,-977.8397,0.0018564744,-5.644808,3.8340862,3.690424,3.6984017,3.9322135,1.8659746e-06,0.3,2.1106827,88.234764,88.289215,88.37514,88.32867,0.06574886,0.4578125,7.417825937271118,31.82116972208023
48,480000,92.34915680243438,-88.029144,0.0,-155.96747,0.49957544,-6.320648,786.757,9.037903,8.348224,111.564445,111.63797,112.53579,112.45277,1.9030737,0.7,-118.82486,-1020.7738,0.0027915873,-3.4590652,6.5012074,7.048291,6.6049194,6.8091946,3.521098e-07,0.3,1.7677264,86.26755,86.251274,86.46597,86.59979,0.08488577,0.39687496,7.216711759567261,32.49469451109568
49,490000,89.99862423849575,-88.45135,0.0,-122.51716,0.5311047,-2.950716,896.7566,13.389917,9.471942,111.53002,111.53096,111.66537,111.32318,1.6426337,0.7,-118.40006,-1168.1124,0.0002993311,-7.100289,4.3983316,4.384769,5.102052,4.83944,5.9655287e-07,0.3,2.0559025,86.369385,86.26645,86.354706,86.19481,0.06772228,0.496875,7.549769401550293,33.173558207352954
50,500000,93.00660606417436,-91.04356,0.0,-79.3431,0.67612016,-5.2805247,1925.3456,58.56585,16.062757,111.89084,112.45439,112.61689,112.298805,4.6889377,0.7,-119.2093,-1034.5527,0.00031267718,-6.6604366,6.549082,6.2807755,6.4650693,6.6552577,2.263114e-08,0.3,2.278986,88.752,88.75132,88.6418,88.67552,0.1230544,0.4109375,7.155620098114014,33.8455629269282
51,510000,89.35167291612227,-90.42599,0.0,-96.145966,0.48595244,-0.6969553,1699.449,11.32175,16.088661,109.74465,109.66223,109.8707,110.05148,1.1645195,0.7,-116.262344,-1367.4547,0.0004985962,-6.639761,1.8407841,1.6885743,1.2984835,0.8717192,5.6735008e-08,0.3,2.3155243,88.00813,87.97486,88.1239,88.000046,0.05149334,0.43906248,7.424187898635864,34.52203589677811
52,520000,89.76544682541416,-91.566864,0.0,-119.9117,0.59515166,-2.7656357,1123.4724,45.191025,9.631199,111.32054,111.21095,111.30851,111.190216,1.0565596,0.7,-116.6601,-1211.9136,0.00037858845,-5.1709585,3.7888849,3.9292622,4.225704,4.448058,2.542918e-07,0.3,1.9548514,89.56712,89.57477,89.6643,89.62244,0.058935285,0.46249998,7.335042476654053,35.201198518276215
53,530000,92.13687120418695,-92.32469,0.0,-124.46028,0.5547457,0.18458652,916.52875,34.957973,8.840097,111.74118,111.344475,111.774635,111.833595,1.5542939,0.7,-117.13524,-874.3791,3.211462e-05,-6.4386077,1.4655331,1.9006833,1.1085261,0.6825392,1.205802e-05,0.3,1.9617934,90.26622,90.26833,90.23668,90.30033,0.05949632,0.403125,7.469350099563599,35.879779398441315
54,540000,89.73404862458477,-88.42032,0.0,-156.71661,0.6740763,-0.33896685,2070.4124,14.474066,12.283044,112.10245,112.553,111.494644,111.34305,6.955383,0.7,-123.6191,-1891.6396,0.0004293049,-5.0944366,1.0432205,0.92860156,1.4289049,0.30344114,3.1215066e-05,0.3,1.8828518,86.43443,86.5459,86.178116,86.29911,0.07452161,0.39218748,6.8928916454315186,36.54937250216802
55,550000,91.30057931892988,-87.92576,0.0,-139.478,0.48131257,3.1481411,1930.8824,7.439042,9.2921915,112.30932,112.309746,112.694664,112.56409,8.460893,0.7,-118.33001,-1188.5118,0.0021314085,-3.5549927,0.24600953,0.2688297,0.22138226,1.1271824,1.1445372e-07,0.3,1.932361,85.95381,86.00888,85.83811,86.05558,0.12178754,0.40625,7.50555682182312,37.229129656155905
56,560000,91.47492949554996,-87.025024,0.0,-120.368034,0.57791877,-0.06262481,2027.1736,9.31362,8.274762,112.750786,112.16479,112.216324,112.73473,2.1898844,0.7,-117.42522,-1184.2898,2.4955953e-05,-5.0708623,1.4922186,1.6156548,1.265834,1.4390323,3.6670826e-08,0.3,1.9434577,84.96425,85.05975,85.19945,85.192474,0.082517534,0.46249998,7.713949918746948,37.90880796114604
57,570000,90.74136441608171,-91.076645,0.0,-80.7068,1.0437123,1.7498331,1007.28906,13.541817,9.186365,111.696785,111.42677,110.926186,110.777466,4.0566587,0.7,-118.20771,-888.52014,0.00058429857,-4.7666388,0.14733046,0.51737654,1.4316728,0.4462537,3.042631e-07,0.3,2.2686043,88.71759,88.760895,88.71025,88.50843,0.116047844,0.553125,7.052268028259277,38.5832021355629
58,580000,92.30716217309268,-89.34184,0.0,-147.69513,0.43190205,-2.7771173,1363.2367,14.049515,10.968473,111.779945,111.89672,111.69527,111.47676,1.5401868,0.7,-119.1588,-1257.6788,0.0001977199,-8.233968,3.9471443,3.5778856,3.1149764,3.4328492,2.504994e-08,0.3,2.04387,87.337616,87.318405,87.268456,87.28201,0.07358931,0.48125,7.228877067565918,39.2616879383723
59,590000,88.71045509466369,-92.13592,0.0,-152.40912,0.50424683,-5.379947,988.28394,19.652338,9.760595,111.3121,110.9674,110.53749,110.61093,1.1757433,0.7,-117.80947,-1386.9502,0.0004113029,-4.6221046,8.131176,8.144681,8.063751,8.129003,1.3238169e-07,0.3,2.0044813,90.14964,90.080734,89.82874,89.910095,0.06862483,0.515625,6.8824005126953125,39.93309905926387
60,600000,92.38204745289119,-93.30399,0.0,-178.15382,0.9747548,1.6496856,1248.1334,69.70918,9.4939,111.44918,111.59118,111.01271,111.13196,1.9267129,0.7,-119.17845,-1254.5709,0.00032738782,-5.720143,1.2900491,1.087889,1.3910683,1.940378,2.2694003e-07,0.3,1.8284156,91.42606,91.489044,91.21699,91.37036,0.06751551,0.39218748,7.172111749649048,40.60723772446315
61,610000,88.4560868944796,-91.05282,0.0,-131.86307,0.3146756,-1.0290544,1176.6534,4.2104607,10.877918,111.16635,111.367676,111.13138,111.67064,0.912584,0.7,-116.96715,-1306.2219,9.5158175e-05,-3.5503542,3.394988,3.628383,4.2914066,4.2926817,1.1457014e-07,0.3,2.3954847,88.67325,88.5858,88.53868,88.63386,0.057558157,0.4609375,6.850129127502441,41.27669713497162
62,620000,93.66107016273753,-89.67724,0.0,-107.23008,0.50797737,-0.97501445,1866.2008,39.83252,9.813354,110.604,110.74549,110.762474,110.891594,2.3826087,0.7,-116.94645,-1107.2609,0.00026485242,-5.1807775,2.2402396,2.9580054,2.809866,3.5017343,1.02193735e-05,0.3,2.051531,87.608826,87.59913,87.726654,87.79077,0.077242024,0.359375,7.15186333656311,41.95101574261983
63,630000,92.40405427856788,-89.53789,0.0,-152.73976,0.6081302,-2.9495268,1615.1864,4.6459756,10.469994,110.79999,110.63517,110.62827,110.668,36.377186,0.7,-117.40312,-1259.9337,0.00904559,-3.7316837,3.9511743,3.2169688,3.091986,3.656446,4.813046e-06,0.3,1.9645786,87.637924,87.52255,87.591995,87.76515,0.20852223,0.428125,7.215902805328369,42.6268013437589
64,640000,92.86725841959016,-89.66335,0.0,-120.37439,0.3636375,1.1675713,1353.1377,7.457476,9.231976,111.00924,110.706215,110.94526,111.03863,1.008823,0.7,-118.13023,-1425.2737,0.0003264966,-4.0289974,0.3852681,0.24238831,1.2804582,0.5083914,1.4709076e-08,0.3,2.1883368,87.46826,87.46626,87.51834,87.49477,0.06347633,0.525,7.043014764785767,43.293194691340126
65,650000,92.56131753691528,-88.718155,0.0,-131.61981,0.8982247,0.5760538,1295.284,26.69516,8.498767,111.66661,111.815994,112.428085,112.31849,2.6824918,0.7,-117.02028,-1320.5623,0.0006092974,-2.978403,0.47285408,0.21247369,1.3892549,1.5362885,1.0627307e-06,0.3,2.072866,86.62385,86.617294,86.996826,86.845474,0.09910059,0.40937498,7.324798107147217,43.97194664875666
66,660000,93.45386055127133,-92.278915,0.0,-179.35895,0.7223451,1.4759319,1478.6682,34.721817,8.359875,110.96362,110.845314,111.50854,111.22121,16.843458,0.7,-118.64812,-1514.5399,0.00078948966,-4.8428173,-0.22868031,0.34911507,1.1417886,0.21306574,7.700874e-09,0.3,2.1270618,90.16061,90.157715,90.356804,90.1602,0.15413916,0.5078125,7.1489927768707275,44.65115397771199
67,670000,92.84052941545058,-90.128235,0.0,-168.40375,0.3171813,0.13521695,2060.8416,3.65045,8.077784,111.155525,111.6241,111.45986,111.3537,1.7612991,0.7,-117.64304,-1650.7283,0.00019771804,-4.4275045,1.5887172,1.7835379,1.3960212,1.806894,2.8749926e-07,0.3,2.040362,88.06424,88.085365,88.19836,88.06055,0.065637946,0.4671875,7.103973865509033,45.32436993122101
68,680000,92.19580422234534,-89.09206,0.0,-185.29416,0.4359729,0.04128623,1661.3767,44.07531,8.548946,111.110825,111.155464,110.8631,110.985,1.7058649,0.7,-118.661964,-1753.4988,0.00018558663,-5.296474,3.0507896,3.0721703,3.30832,3.1747103,2.6424125e-06,0.3,2.0167992,87.03774,87.07036,86.98761,86.87058,0.08262901,0.6109375,7.171234607696533,46.001351312796274
69,690000,88.97069776819426,-91.495895,0.0,-69.98711,0.67300475,-0.271744,2077.6567,14.389778,14.829362,111.519806,111.67831,112.01184,111.61967,6.337804,0.7,-124.79087,-1266.3231,0.00023260014,-4.0659857,1.9000859,1.8863897,1.3899792,1.0051024,1.1175871e-09,0.3,2.5314777,88.853714,88.87952,88.73743,88.6175,0.10190472,0.5328125,6.8533830642700195,46.6674853682518
70,700000,92.87415318275109,-91.538635,0.0,-232.0438,0.32056862,-2.7414432,1462.309,4.263213,7.966125,111.403366,111.2668,111.02365,111.20263,1.6997083,0.7,-116.701385,-2056.926,0.0004192919,-5.198284,4.761748,4.6089196,4.5971656,4.289571,3.1944364e-08,0.3,1.886037,89.629395,89.58468,89.46008,89.564606,0.06375536,0.41249996,7.208134174346924,47.34594810009003
71,710000,92.74919729652312,-90.06548,0.0,-137.59514,0.72306764,-1.6906495,1624.2013,13.140845,10.754308,111.504074,111.322784,112.046524,111.74971,2.2381713,0.7,-119.78615,-1937.3871,0.0013305489,-2.731164,1.3762381,1.6765827,1.2673477,2.3862917,2.263114e-08,0.3,2.4425764,87.54708,87.48782,87.852615,87.686356,0.08580137,0.4734375,5.016996622085571,47.98531308174133
72,720000,92.51483892476465,-90.31224,0.0,-161.43695,0.3491026,-2.6497035,1348.958,7.304227,9.602352,111.443535,111.62395,112.188156,112.06267,2.4126976,0.7,-119.45872,-1469.6466,0.00056961697,-9.249523,2.7211988,2.5403278,3.1639342,3.0716658,2.2757042e-06,0.3,2.0382996,88.186386,88.21724,88.39145,88.32657,0.072767794,0.46874997,7.141083240509033,48.660919292767844
73,730000,92.42722221724763,-91.07097,0.0,-168.60538,0.6218301,-1.4716353,2899.789,21.727554,13.958335,111.29052,111.098404,111.81878,111.41812,1.7856369,0.7,-119.768875,-1576.1257,0.0037738185,-4.402037,3.0162773,3.1063468,2.8966103,3.0605333,8.924864e-07,0.3,2.2332354,88.815735,88.752815,88.84531,88.82957,0.08821365,0.425,7.162045478820801,49.33775103886922
74,740000,93.01824772645949,-90.46318,0.0,-112.76731,0.3613873,-4.183216,2609.9104,6.46755,15.578446,110.82156,111.000694,111.437164,111.21358,0.9738866,0.7,-119.402824,-1303.1866,0.00010456168,-4.176746,4.2842836,4.143231,3.803741,3.445095,4.928559e-07,0.3,2.2014747,88.16913,88.16117,88.359344,88.163315,0.06115606,0.525,7.129531383514404,50.01165392796199
75,750000,92.66017836121571,-92.28639,0.0,-175.87738,0.66977525,-10.1186,1761.6108,15.520917,9.253253,111.60396,111.71611,111.431305,111.46192,2.3477774,0.7,-116.889885,-2299.1235,3.2989832e-05,-2.836337,10.569219,10.895039,9.772123,9.857,3.6950225e-06,0.3,2.2595108,89.92257,89.922806,89.68751,89.834755,0.080972575,0.45624998,7.208431720733643,50.68853975137075
76,760000,93.85095597526336,-91.60135,0.0,-111.66801,0.7072912,-5.2712135,2988.0452,46.41684,13.946288,111.452,111.58393,111.31259,111.80982,1.0714477,0.7,-117.63293,-1684.8212,0.0009826712,-5.767313,7.4617934,7.167945,7.5360394,7.2302904,4.5781488e-07,0.3,2.3118832,89.20783,89.217804,89.18492,89.21913,0.059003122,0.475,7.2552783489227295,51.3671727458636
77,770000,92.57316580533158,-92.234406,0.0,-155.03806,0.49281007,-3.4349036,2877.7031,8.270842,15.48445,111.27723,111.311485,111.01068,111.248665,1.1185927,0.7,-118.274216,-1949.2642,7.165247e-05,-3.2428403,2.7671,2.614182,2.678347,2.7901418,5.613937e-06,0.3,2.3846262,89.91284,89.85053,89.617165,89.734634,0.069888234,0.37343746,7.2392418384552,52.043704056739806
78,780000,93.88859390599143,-88.56984,0.0,-241.80199,0.37890276,0.19044274,2082.1194,7.1734047,9.037625,110.85629,111.004875,110.74369,110.73287,5.9170284,0.7,-118.21079,-1873.1278,0.0016980891,-3.4129639,1.0354431,1.0369256,1.2333962,0.9365016,2.1129383e-09,0.3,1.8684931,86.666595,86.61661,86.51083,86.55533,0.076126695,0.421875,7.141175270080566,52.71438188950221
79,790000,92.81355513730135,-92.03906,0.0,-90.62359,1.0302174,-0.46812284,2958.4585,41.43921,15.554985,111.60582,111.81316,111.59349,111.6385,2.4901152,0.7,-120.798904,-1958.936,0.002237608,-2.8995838,2.1624005,1.9090466,2.2091064,2.4036782,1.0430813e-08,0.3,2.6777363,89.23322,89.25594,89.2738,89.34442,0.081420444,0.4390625,7.1837053298950195,53.387592391173044
80,800000,93.14820092732661,-89.99492,0.0,-195.42444,0.3730469,-0.13776493,1390.1785,7.417535,8.6360035,111.506516,111.31567,111.319885,111.15237,1.6524656,0.7,-119.71221,-2192.6511,0.00015115744,-5.601265,1.7815965,1.3855792,1.2194321,1.974166,1.6298145e-10,0.3,2.2025018,87.882744,87.84465,87.784035,87.70181,0.056985904,0.49375,7.201683759689331,54.06643589337667
81,810000,93.57014198335708,-87.80041,0.0,-235.38704,0.48663148,-1.6594843,2494.4243,7.524451,7.924888,111.24105,111.39286,111.17361,111.348434,2.3000517,0.7,-116.62905,-1868.729,0.00029401045,-3.993352,3.4109778,3.113099,2.719346,3.1706214,5.0920065e-08,0.3,2.0236378,85.70943,85.69912,85.52824,85.63893,0.057602193,0.465625,7.22432804107666,54.73864311774572
82,820000,92.50912957533477,-90.38521,0.0,-164.29195,0.32415664,-3.6509778,2485.0337,6.6878543,10.975579,110.86868,110.781235,110.965744,110.845856,3.773837,0.7,-116.812195,-1848.6147,0.00016750547,-3.8413649,2.5710874,3.5820303,3.3391225,4.051993,1.4889055e-06,0.3,2.1023097,88.34201,88.27233,88.225006,88.343185,0.08151883,0.4609375,7.189619541168213,55.41407805283864
83,830000,93.32123730617745,-90.57838,0.0,-189.0601,0.37670344,-4.966381,2032.5779,5.4096327,8.931078,111.30291,111.041756,110.732506,110.85853,11.188951,0.7,-118.444626,-1812.4755,0.00012530113,-4.5781617,7.1606665,7.0689387,6.940052,7.198824,7.099472e-07,0.3,2.2551508,88.243195,88.20575,88.12796,88.232735,0.09187686,0.47812504,7.453182220458984,56.091128540039065
84,840000,93.29433959379931,-90.83155,0.0,-159.28262,0.5051458,-6.2326713,1621.7969,5.7661915,9.375034,110.52902,110.42652,110.5506,110.44003,2.1681998,0.7,-118.35063,-1855.115,0.0005284284,-6.7372613,6.60575,7.6236863,7.6090474,7.260321,4.69666e-07,0.3,2.3987365,88.44403,88.38884,88.553764,88.53134,0.068837255,0.42499998,7.557140588760376,56.769979401429495
85,850000,93.43658695086559,-92.00173,0.0,-166.31195,0.7465633,-3.7045655,2442.4775,16.368935,9.701192,111.00072,111.01639,111.5655,111.287994,1.3054838,0.7,-117.698044,-2313.5076,0.00050093385,-4.1703997,4.675255,4.831305,4.7037115,4.7387457,2.6560156e-06,0.3,2.0881674,89.702225,89.74193,89.858894,89.98313,0.0832034,0.37499997,7.792102575302124,57.45331922769547
86,860000,92.17478175943403,-89.77283,0.0,-222.8604,0.5821134,0.45413667,2280.1162,33.14778,11.946771,111.244125,111.08707,111.20054,111.63664,10.277594,0.7,-116.68752,-2372.2778,0.0005741876,-3.4481573,0.8556015,0.95836157,1.3811566,1.4820181,7.792097e-06,0.3,1.9471,87.71411,87.75812,87.58586,87.87562,0.16104937,0.3578125,7.761268377304077,58.13434300025304
87,870000,91.14901299071929,-90.37735,0.0,-101.9749,0.5536452,-1.9881939,1896.4088,11.739555,8.799234,112.0015,111.82429,111.654915,111.762215,1.7436552,0.7,-117.418564,-1789.4327,0.00056092127,-4.8118124,1.8682876,2.0769525,1.605921,1.5596688,3.677269e-07,0.3,2.3940759,88.00477,87.89359,87.92466,87.97452,0.07448473,0.46406248,7.418836832046509,58.80882230997086
88,880000,93.20626785726527,-90.676834,0.0,-171.84013,0.37264997,-2.6653385,3477.568,7.241392,16.245287,111.40225,111.474266,111.42892,111.38606,3.2354052,0.7,-126.90635,-1531.9541,0.00030068518,-8.250677,2.7404323,2.8904285,3.1035702,3.2387455,1.5429687e-07,0.3,2.2980297,88.35707,88.33322,88.427475,88.39975,0.101430714,0.47968748,7.521840333938599,59.4864718357722
89,890000,93.56930853917028,-90.20196,0.0,-153.86874,0.63782096,-2.7553709,2010.9999,21.517813,10.01763,110.59978,110.90133,111.01695,110.81837,11.969918,0.7,-117.48245,-1755.6147,0.0010891727,-4.7642646,3.042386,3.0406427,3.9776196,3.6292312,2.0368026e-07,0.3,2.2072628,87.998665,87.97266,88.237854,88.06752,0.15495113,0.465625,7.444298505783081,60.163816233476005
90,900000,91.69944338815505,-93.38307,0.0,-180.13417,0.564586,2.153057,1690.2047,32.99612,10.232329,110.95029,111.05261,111.239815,110.86941,3.6001155,0.7,-119.402695,-1875.6903,0.0012249262,-3.8035333,0.22844636,0.66652495,1.4051085,0.09267643,2.9511285e-09,0.3,2.365303,90.99803,90.997696,91.06656,91.01574,0.07791393,0.47968748,7.55305027961731,60.84505659739177
91,910000,93.3721147646015,-90.326035,0.0,-264.99466,0.74355817,1.0074911,2822.219,10.277449,8.571745,111.77863,111.855,111.389435,111.41153,1.2655537,0.7,-118.51225,-2212.9995,0.0009873724,-4.911765,0.22188103,0.25758833,1.3025292,0.6668868,9.382301e-06,0.3,2.0691464,88.16709,88.19277,88.385056,88.253555,0.06251201,0.44062498,7.3994104862213135,61.52151597340902
92,920000,92.80583580378735,-89.00314,0.0,-172.83145,0.73142076,-1.5452586,1560.2101,13.424376,8.32781,110.78679,111.01351,111.13339,111.07154,1.8794315,0.7,-117.37049,-1948.6884,0.000750298,-7.1338253,1.1706703,0.87166774,1.3317876,1.4124465,0.0,0.3,2.0647142,86.9883,86.93422,87.2263,87.283066,0.096401975,0.428125,7.665425062179565,62.201217571894325
93,930000,92.88612614475991,-91.837944,0.0,-173.39838,0.46978527,-15.550979,2042.4275,10.469825,10.1253605,111.47548,111.54673,112.672356,111.43403,1.7279693,0.7,-120.33602,-1728.8691,1.5920275e-05,-5.201091,14.968221,15.066448,15.16621,15.229268,4.3655748e-10,0.3,2.3418136,89.33415,89.36104,89.51138,89.293015,0.08365275,0.54999995,7.638309001922607,62.881142596403755
94,940000,93.4026511365195,-92.454575,0.0,-239.91185,0.33511567,-2.465927,1729.6019,6.1243615,8.154039,110.998276,110.7848,110.64204,110.95494,7.8165655,0.7,-117.86135,-1779.7964,0.0007786909,-4.0815544,3.0316389,3.0755806,3.139152,3.0042224,2.3391797e-06,0.3,2.2238278,90.1258,90.11717,90.13483,90.22771,0.09717335,0.409375,7.324197292327881,63.55988281567891
95,950000,91.83197123983624,-88.28081,0.0,-247.41016,0.49308616,-0.106354296,1584.4613,12.381005,7.996886,111.85361,111.865746,112.20213,112.15682,4.528068,0.7,-117.20365,-2270.3613,0.00010817271,-4.961565,-0.46771884,0.34018058,1.1861886,-1.5869504,3.7550925e-07,0.3,1.980153,86.30158,86.26667,86.32597,86.27616,0.10273536,0.44687498,7.167276382446289,64.2347074230512
96,955000,93.76217747107859,-86.85909,0.0,-265.79596,0.40010288,-0.6383178,2492.3982,4.1856413,9.656769,111.29696,111.51339,111.13167,111.19154,1.1704751,0.7,-120.82663,-2058.6497,0.0016398139,-6.4701443,3.086003,3.2073095,2.7920303,3.2682996,9.2375565e-09,0.3,1.9850377,84.839005,84.87385,84.81674,84.904785,0.061365664,0.4484375,7.1353960037231445,64.63285255034765
97,960000,92.3905388489511,-92.975586,0.0,-125.847336,0.6711806,-5.9470606,2859.408,24.951908,13.220242,111.67355,111.68421,111.2798,111.486275,3.7600005,0.7,-116.639885,-2063.9473,0.0031454687,-5.549382,7.2736287,7.1206985,6.6816926,6.845436,7.6065774e-08,0.3,2.4947886,90.33478,90.35553,90.170425,90.31952,0.06983337,0.4609375,7.172527074813843,65.02683146794637
98,965000,93.57111295787897,-88.80571,0.0,-175.29797,0.3656874,-1.3075821,2203.857,8.330397,10.268295,111.59935,111.74074,111.531876,111.58437,1.592853,0.7,-117.475235,-3106.8481,9.593205e-06,-6.133746,1.8209229,1.377676,1.3076768,1.3966945,1.6244304e-08,0.3,2.189093,86.73512,86.57231,86.691414,86.7724,0.06879313,0.434375,7.244488477706909,65.42633192539215
99,970000,93.60696945125316,-90.87279,0.0,-188.07321,0.66639465,1.3210783,1993.8643,18.080273,13.474899,110.45014,110.40862,110.72594,110.60189,4.572149,0.7,-119.54171,-1835.43,0.0013965715,-6.4735327,0.30174106,0.68191695,1.166473,0.58428514,2.807955e-06,0.3,2.3735251,88.41704,88.478676,88.76509,88.66688,0.079661265,0.425,7.225375652313232,65.82308109601338
100,975000,92.00252354658089,-91.25498,0.0,-163.80362,0.40166306,-3.029274,2687.2795,5.4656706,9.815529,110.97203,110.86945,111.31364,111.19209,9.497776,0.7,-120.38977,-1988.1908,0.00019474799,-4.2066307,6.6421466,6.387807,6.681413,6.63153,2.8219774e-06,0.3,2.2485871,88.959015,88.961555,88.969406,89.03664,0.09837334,0.39999998,7.239229917526245,66.2219396273295
101,980000,92.45836366031772,-88.47327,0.0,-198.43208,0.33859277,1.7657485,4754.879,13.01184,15.382491,111.451614,111.23164,111.14518,111.47087,11.784962,0.7,-117.849236,-2511.658,0.0005005017,-8.339528,0.9176416,0.68993765,1.334451,0.1288352,1.261651e-07,0.3,2.1955538,86.22091,86.20188,86.179855,86.22639,0.09440701,0.41406247,7.26941704750061,66.61919843355814
102,985000,93.44967969013406,-94.58115,0.0,-126.84964,0.5106771,-9.28809,2218.4995,5.5594006,10.600691,111.64332,111.43825,111.45349,111.20209,8.336858,0.7,-117.80933,-1720.9751,0.0001694067,-3.9483376,10.003151,10.103893,9.216166,9.581291,6.9849196e-11,0.3,2.318367,92.30195,92.32265,92.08797,92.07903,0.1099944,0.503125,7.209353923797607,67.01846302747727
103,990000,93.20873565040799,-90.54244,0.0,-195.39511,0.6169676,-0.74545574,3070.2612,46.862335,9.434168,110.546715,110.483864,110.5074,110.58802,1.552976,0.7,-118.82914,-3069.699,0.0009543826,-2.411323,1.0477104,1.7942752,1.2838521,0.96850216,8.332019e-07,0.3,2.2435036,88.193726,88.18874,88.12993,88.32693,0.07714367,0.36874998,7.128401756286621,67.41778595844904
104,995000,92.81490359979759,-89.777466,0.0,-227.34843,0.5150604,-1.1021948,1678.0808,8.798142,8.942731,112.392815,112.274315,112.29234,112.47183,6.106827,0.7,-119.46294,-2719.5396,0.001133896,-4.817041,2.4567194,2.3605661,2.812117,2.6261194,3.1393022e-06,0.3,2.021301,87.70402,87.70244,87.70914,87.81633,0.09141373,0.41875,7.270293474197388,67.81802002588908
105,1000000,92.80819771055721,-92.06786,0.0,-235.26889,0.54407823,-3.3009994,2046.0066,13.389017,10.045363,110.77081,110.87603,110.88334,110.81859,22.37894,0.7,-118.64097,-2095.5015,0.0007628823,-4.73253,4.515936,4.3962564,3.6551397,4.1587996,1.370674e-07,0.3,2.1811948,89.834656,89.875015,89.90016,90.12986,0.15978463,0.421875,7.311946153640747,68.21745423873266
