Xixo99/comfo/baselines/comfo6_perterbation_actor/20230225_mle0/halfcheetah-medium-v2/COMFO6_s0_20230225_212126_halfcheetah-medium-v2_58.44.csv
,step,reward,actor_loss,alpha,alpha_loss,critic_loss,max_actor_loss,max_alpha_loss,max_critic_loss,max_mle_prob,max_q1,max_q2,max_target_q,max_v,max_value_loss,max_weight,min_actor_loss,min_alpha_loss,min_critic_loss,min_mle_prob,min_q1,min_q2,min_target_q,min_v,min_value_loss,min_weight,mle_prob,q1,q2,target_q,v,value_loss,weight,eval_time,time
0,0,2.2556815281906504,,,,,,,,,,,,,,,,,,,,,,,,,,,,,,,,,
1,10000,-3.4634727432256063,-34.95524,0.10160953,-1.2512599,2.0045786,-0.90318865,15.793321,63.817505,11.094339,43.7438,43.650448,43.601936,42.65207,3.4523053,0.7,-43.694115,-21.766531,0.00037494896,-55.153088,0.24092059,-0.5549665,-0.27956718,0.17791952,3.890321e-06,0.3,-5.6175346,34.634033,34.646168,34.299706,33.891026,0.13184024,0.459375,5.779198169708252,2.2045347452163697
2,20000,-4.011048125678126,-59.10968,0.1507008,0.026871286,2.1239712,-32.7728,12.492511,54.23381,10.058886,68.104866,68.30958,68.34017,67.49519,4.421264,0.7,-69.670364,-20.94644,0.0029911343,-84.19638,32.903656,31.973295,32.901215,32.008686,2.6390874e-06,0.3,-6.996729,58.647118,58.614807,58.70452,58.428825,0.19832566,0.4421875,5.736919641494751,2.8945812225341796
3,30000,-3.186566145323603,-72.89612,0.1335682,0.47354308,1.8461797,-0.5117211,17.764763,25.585548,11.162936,83.4527,83.84952,82.904625,83.60274,4.757322,0.7,-83.518684,-21.73809,0.0008028921,-79.91696,0.9558428,0.87946707,-1.3189131,-0.3870547,1.9965228e-07,0.3,-5.5888786,72.53124,72.61058,72.34491,72.32332,0.19964635,0.44375,5.662604093551636,3.58423033952713
4,40000,-1.0669155355320812,-79.780075,0.11730066,0.32139042,2.0041268,-0.6209677,17.992971,30.946709,10.734535,89.51891,89.960594,89.876976,90.87192,2.2403517,0.7,-91.67673,-18.746721,0.001478958,-111.38641,-3.1478994,-2.2050154,-2.3592432,-2.565978,2.7121744e-06,0.3,-5.847479,79.54063,79.56435,79.7184,79.74193,0.13384566,0.45,6.267019510269165,4.279203073183695
5,50000,-1.2125601509793016,-82.91076,0.10078993,-0.8864205,2.2658672,3.911215,19.549515,216.33878,13.05831,94.65967,94.837524,94.547874,94.2405,3.8079438,0.7,-93.86085,-24.255175,0.000282162,-72.30493,-3.8945193,-4.493373,-5.0569754,-3.8255327,6.1973694e-08,0.3,-4.621969,82.795876,82.772675,82.89748,82.94219,0.1332652,0.41406247,5.850343227386475,4.970907191435496
6,60000,-0.8972676754572562,-85.742096,0.08812398,-0.40898687,1.4027224,4.314476,22.147783,21.265684,12.70092,95.11839,94.90767,95.21611,95.127716,1.4880662,0.7,-95.35349,-22.867418,8.400355e-06,-78.74513,-4.8150935,-3.8400888,-6.7940884,-5.5650682,5.6735007e-06,0.3,-5.5320215,85.70278,85.61873,85.699615,85.72822,0.13238685,0.396875,5.689785480499268,5.664093275864919
7,70000,-2.0667793149270737,-87.49327,0.07755816,0.48638168,2.3579655,6.810517,26.612087,150.64664,11.23138,95.54991,95.44968,95.03627,95.32405,3.5536606,0.7,-95.56185,-33.647076,0.003942416,-88.380974,-7.066027,-7.148027,-7.1675553,-6.7750673,3.496345e-05,0.3,-5.4464903,87.417336,87.368355,87.38975,87.530045,0.12703797,0.434375,5.791201114654541,6.3549440741539005
8,80000,-1.6513488432277539,-88.31515,0.07056567,0.5988316,2.4056969,-66.8617,135.19035,173.92659,12.06142,96.49785,96.143425,96.490364,96.79443,2.2821417,0.7,-96.0073,-29.279263,0.0011298878,-187.89041,65.23491,65.17621,65.526115,65.88574,7.207447e-07,0.3,-7.4322376,88.24948,88.21068,88.352646,88.437614,0.12025459,0.4125,5.683916807174683,7.0449680407842
9,90000,0.4872051302136627,-87.716965,0.06490743,-0.21608004,1.3472008,2.324495,30.01504,25.66042,12.039139,96.43562,97.00467,96.730774,96.507774,5.8907366,0.7,-96.25969,-33.794617,0.00037682848,-102.15744,-2.454046,-2.3365068,-3.7219582,-3.4897647,5.0466045e-09,0.3,-7.2782784,87.73179,87.66828,87.90044,87.804665,0.109448686,0.50312495,5.7101380825042725,7.733840680122375
10,100000,2.561898896652141,-87.80293,0.060497187,0.014901012,1.9581451,3.436856,34.50229,65.896904,11.268621,95.8035,96.07442,96.49558,96.11941,9.056445,0.7,-95.46215,-37.976833,0.0020567246,-67.52957,-3.5743034,-4.231539,-6.4360356,-4.2222414,1.3398648e-06,0.3,-8.201809,87.74076,87.74446,88.19895,87.89978,0.10690582,0.46093747,5.756450176239014,8.41901505390803
11,110000,2.586508560375288,-89.813065,0.057713002,0.17828047,1.166505,-54.30116,26.192385,14.264193,11.687386,96.81809,96.951706,97.33359,96.638016,3.4643633,0.7,-97.12225,-26.995293,0.0011554991,-83.858826,53.65468,53.62842,53.314636,56.18017,3.5361154e-08,0.3,-8.307779,89.8249,89.732506,89.90212,89.7594,0.08512439,0.47031248,5.789907693862915,9.110425651073456
12,120000,4.843019110702343,-88.04378,0.05549859,-0.29760855,1.9154451,4.1259313,46.30687,195.66498,9.839582,97.10957,97.46962,97.73528,96.8794,10.472786,0.7,-97.19376,-28.655647,0.00060193427,-113.47668,-3.719118,-4.7204304,-2.427695,-2.6108873,9.8225435e-08,0.3,-9.178218,87.926025,87.96496,87.739395,87.85167,0.11403128,0.46875,5.648867607116699,9.801716880003612
13,130000,5.730761015869468,-89.28662,0.052740917,-0.7155622,0.84962356,-47.75515,29.241602,22.396261,12.573601,96.9383,97.63566,96.99424,97.03229,1.6011227,0.7,-98.71862,-38.74234,0.0005497204,-123.96563,47.40676,49.388096,48.69625,47.498528,9.782961e-08,0.3,-11.098435,89.23135,89.2746,89.28995,89.180756,0.08831094,0.48125,5.778317928314209,10.492738044261932
14,140000,6.613840804269583,-88.72036,0.0523269,-0.45754176,0.7672314,0.71439755,84.770096,12.275022,11.915687,96.59753,95.753975,96.23946,95.39495,1.6965901,0.7,-95.905945,-35.63782,0.000121780206,-198.0439,-1.4360675,-1.615283,-1.1729879,-1.6310544,1.7462298e-07,0.3,-10.602848,88.6738,88.763306,88.82866,88.77654,0.07395895,0.41562498,5.613011837005615,11.18108214934667
15,150000,19.86807048667413,-88.86092,0.04994449,0.63528687,1.0346724,2.7625253,42.64948,18.982128,14.1190605,96.55016,96.84413,96.37517,97.12982,1.3226426,0.7,-96.90088,-26.641848,0.0009143818,-128.89963,-2.9907725,-2.5232565,-1.3042467,-0.23026782,2.0905165e-06,0.3,-13.284212,88.707214,88.72365,88.826065,88.776566,0.090457916,0.4671875,5.830271005630493,11.869163366158803
16,160000,40.5791445828025,-88.76413,0.05028795,-0.02564174,1.4393599,0.28966597,29.212845,19.43468,11.317679,97.15591,97.273224,98.32228,97.09102,1.2479489,0.7,-96.83976,-35.1301,0.0028723713,-184.09396,0.05517727,-0.40964806,2.9313536,1.4030678,3.182504e-07,0.3,-10.91194,88.67744,88.69249,89.169266,89.13064,0.08047132,0.396875,5.762040138244629,12.554023098945617
17,170000,43.60179857757419,-89.36141,0.048794065,0.6312547,1.2587959,-0.92326075,27.973696,82.01863,12.931625,96.81115,96.125275,96.464,96.501335,1.2756172,0.7,-96.053734,-26.866467,0.004218582,-108.013306,-0.1941145,-0.8554186,-0.28362098,-0.8199666,1.7881394e-08,0.3,-13.03231,89.188354,89.234566,89.34157,89.350815,0.08554033,0.4671875,5.7518415451049805,13.246507632732392
18,180000,50.42772843118243,-88.97682,0.048083942,-0.14723314,1.080953,-0.06116178,53.239777,56.889977,11.4567795,96.94492,97.61942,97.549416,97.55439,1.465502,0.7,-97.216095,-32.068367,0.00011210522,-643.18866,-0.5392582,0.093812585,-0.2661797,-0.39151126,6.519258e-10,0.3,-13.738304,88.82507,88.90895,88.74338,88.73594,0.089160815,0.5281249,5.675133228302002,13.935263431072235
19,190000,45.36467796594576,-88.88794,0.047368027,-0.3662643,1.4043815,-0.6115434,26.96987,26.385574,11.910705,95.58772,95.623146,96.35152,95.91414,2.0807824,0.7,-95.38602,-33.28862,0.002481806,-163.66959,0.041831076,0.8771214,-0.72920454,-0.3550594,2.231053e-06,0.3,-10.78878,88.78159,88.816154,89.20066,89.03543,0.08003838,0.45468748,5.765124797821045,14.625206033388773
20,200000,44.89318244735408,-90.19042,0.048378658,-1.9126499,0.80239564,-51.617138,36.254715,19.964725,12.456197,97.03274,96.92578,97.22757,96.5105,2.6191916,0.7,-96.54852,-36.708496,0.0014969213,-143.00356,49.213478,49.195515,50.14812,49.649002,1.0058284e-08,0.3,-12.568947,90.08715,90.080154,90.00928,89.99518,0.08505629,0.43124998,6.201550006866455,15.321476248900096
21,210000,50.67624645187816,-90.08391,0.046453297,-0.45952618,1.150723,-64.43591,48.894333,34.391293,11.993748,96.36383,96.30988,96.449,95.998535,2.952879,0.7,-96.27591,-31.820715,7.5186195e-05,-99.64772,64.189445,64.40675,64.207726,66.22256,2.3264147e-06,0.3,-9.15534,89.94183,90.00818,89.76071,89.79494,0.090995446,0.43593746,5.710078716278076,16.008142165342967
22,220000,52.755111541921764,-89.50614,0.0468198,0.5041417,0.997058,-50.105217,60.06961,34.776566,12.437404,96.607635,96.660706,96.54138,96.558235,1.5241792,0.7,-96.1612,-29.630913,0.00048908225,-182.13925,43.533787,42.652252,45.81857,43.303883,1.5103143e-07,0.3,-12.557228,89.38751,89.410576,89.25871,89.290474,0.07763847,0.44843748,5.720912456512451,16.696109076340992
23,230000,40.032063043209384,-89.41803,0.045567214,0.30761302,1.0994337,-2.724779,42.82918,41.26663,12.017602,96.338005,96.259,96.45551,95.84806,1.301934,0.7,-96.08762,-41.915043,6.1538303e-06,-235.76729,2.2166533,3.049798,0.57336795,2.0091515,1.9016444e-08,0.3,-13.418808,89.30678,89.26982,89.22363,89.17766,0.084141344,0.4640625,5.810461759567261,17.387001474698383
24,240000,50.57136358269073,-89.63049,0.04489605,-0.35192338,1.1481018,-3.608786,26.7739,42.970554,10.568779,98.1142,97.865845,97.84487,97.00079,2.5192075,0.7,-97.515625,-29.138643,0.0013109432,-208.75034,4.003296,3.0444953,4.1633487,3.3100312,7.3385314e-07,0.3,-16.76119,89.518654,89.442665,89.61396,89.66461,0.08586644,0.42343748,6.247864246368408,18.08806845744451
25,250000,48.80771147036798,-89.87893,0.044681307,0.50315255,0.88320816,-2.4754276,27.105116,36.70043,12.116594,97.09544,97.01379,96.66838,97.07418,5.121462,0.7,-96.50542,-32.467,0.0003018534,-343.60324,3.959836,4.5063953,4.1002736,3.6276019,2.949749e-06,0.3,-19.30977,89.78052,89.75432,89.64763,89.65787,0.095286876,0.45,5.739185333251953,18.776852138837178
26,260000,55.24232465155745,-90.45821,0.044530846,1.5058295,1.0449554,-68.089676,37.618797,39.489494,10.706615,96.78348,96.43117,95.92383,96.05587,0.7859514,0.7,-96.08879,-31.7037,0.002155067,-289.55176,66.18501,67.03428,66.03488,66.38978,2.1129382e-07,0.3,-17.060734,90.321236,90.40528,89.973885,90.08217,0.053934522,0.40937498,5.601475238800049,19.46221599976222
27,270000,55.80972108386183,-90.1033,0.045662344,-0.2681876,0.6209073,-7.269821,41.757256,10.406392,11.801789,97.692245,98.20533,98.23182,98.51589,3.2065763,0.7,-98.08359,-29.4916,0.0033490816,-350.2532,0.86300623,-0.283252,-0.47637826,2.6517458,5.3689755e-06,0.3,-14.648895,89.92868,89.96837,89.93512,89.77596,0.100760415,0.47187495,5.65255880355835,20.15032502412796
28,280000,46.116895390191935,-90.30475,0.044003632,-0.098688595,0.5812955,-57.562195,38.857903,10.647888,12.087531,96.69913,96.62431,97.18865,96.63579,1.2733258,0.7,-96.73159,-41.256653,0.0015730311,-205.28769,53.797966,54.679268,53.70497,53.73921,3.9131845e-07,0.3,-16.385069,90.208725,90.13048,90.103836,90.10372,0.07607198,0.44375,5.712208271026611,20.838640554745993
29,290000,56.02743388075032,-89.017204,0.043418758,0.09464109,0.79401815,-7.785319,31.594055,11.985794,11.543956,96.34624,96.19718,96.50016,96.28868,1.4609995,0.7,-95.706276,-30.215216,0.002077191,-591.26904,7.493634,7.145296,6.996073,6.52113,5.359459e-06,0.3,-22.417017,88.899414,88.881546,88.72652,88.84819,0.07635086,0.4609375,5.799546718597412,21.52911755243937
30,300000,52.35950163323486,-89.9594,0.044100486,0.07762909,0.7811047,-72.32717,34.986454,13.361919,10.306865,96.76695,96.926125,97.269455,97.35486,8.775738,0.7,-96.96665,-27.261972,3.5483972e-05,-150.88036,71.35579,71.37066,71.4928,70.56277,3.228779e-08,0.3,-14.045286,89.70498,89.72382,89.75566,89.86554,0.112095326,0.453125,5.956827402114868,22.22469700972239
31,310000,56.40972391058674,-89.35028,0.04295054,0.28051928,0.96878517,-5.170453,60.6519,28.835693,10.913081,96.552864,96.484886,96.25365,96.64238,1.4192015,0.7,-96.089516,-33.170616,0.002773313,-172.58722,4.211025,4.5448766,2.9473631,3.7407494,3.6950226e-08,0.3,-16.160622,89.16613,89.18824,89.37787,89.40579,0.08251303,0.43281248,6.202013254165649,22.91848289569219
32,320000,54.98324806216127,-89.81424,0.043397345,0.34879273,0.73255646,-67.697845,53.350346,12.216397,11.804969,96.49839,96.47181,96.47862,95.82865,4.595499,0.7,-96.737495,-38.096806,0.00019827858,-276.98087,65.997604,67.391945,66.85092,65.60661,2.514571e-09,0.3,-16.951962,89.63264,89.72891,89.812805,89.81114,0.09873262,0.4453125,6.103583574295044,23.610832079251608
33,330000,55.990178546234816,-89.53259,0.042036016,-0.007884741,1.1039058,-2.5169704,53.794277,49.469135,11.992716,96.89217,97.09308,97.04568,96.77863,23.028471,0.7,-97.05121,-35.831776,0.0030951286,-408.15295,2.9128184,3.2591949,4.0328245,3.681609,1.1230441e-05,0.3,-22.61332,89.24217,89.28584,89.357285,89.55929,0.20302352,0.39999998,6.160314559936523,24.301716005802156
34,340000,56.275216639982574,-90.10311,0.042146616,0.48609662,0.7982849,-3.68073,29.705158,16.262995,12.748427,96.03406,96.45516,96.214005,96.221924,1.1581204,0.7,-95.84868,-39.47138,0.0016123047,-362.31134,4.45322,3.420504,4.1314955,4.9209275,4.249625e-07,0.3,-25.079638,89.81744,89.92195,89.72836,89.77164,0.067020014,0.428125,5.953020811080933,24.990525484085083
35,350000,57.42608647725602,-89.686646,0.041790437,0.17477264,1.1537495,-51.243496,81.21216,78.68855,10.197726,96.420456,96.26615,96.63369,96.33846,10.526194,0.7,-95.94014,-38.84335,0.0044593476,-301.52856,31.58191,33.54388,26.367579,38.57425,1.9252185e-07,0.3,-18.870644,89.434044,89.433556,89.23687,89.2507,0.13646786,0.503125,5.877173185348511,25.677616155147554
36,360000,56.45984540888303,-89.3073,0.04274974,0.04934573,0.8886937,-1.6798398,44.29449,18.510223,12.097954,95.93592,96.70362,96.03915,95.6714,7.9127665,0.7,-95.85074,-32.920525,0.0016805755,-158.34319,1.7465346,2.311303,2.8405547,2.9083552,6.0645397e-07,0.3,-17.790047,89.10129,89.138626,89.0794,89.096375,0.12189914,0.4578125,6.025284051895142,26.36447041829427
37,370000,56.010254789904934,-89.29993,0.041952383,1.5835118,1.1419725,-0.027243376,62.94599,24.98124,10.356594,95.68674,95.923,96.68098,95.42903,4.9971557,0.7,-95.865906,-35.526497,0.0026349616,-589.78455,-0.35238338,0.31176317,0.2628284,1.5451148,5.867332e-09,0.3,-23.799381,89.017525,89.15245,89.15338,89.20094,0.10586044,0.39999998,5.959004163742065,27.051028927167255
38,380000,56.77321339961421,-89.408264,0.042919382,-0.42957455,0.91679543,-4.221321,27.738409,30.1661,10.751409,96.046165,96.27156,96.14563,96.05552,2.3544412,0.7,-96.00853,-32.269306,6.1574974e-05,-144.13152,4.0486736,3.587375,5.019378,5.373414,5.359459e-06,0.3,-18.531769,89.14364,89.16429,89.20207,89.255196,0.09123847,0.4015625,6.133605241775513,27.74250067869822
39,390000,53.05847312959116,-87.831436,0.041840058,0.11071044,0.9579215,-2.1890073,28.860422,57.10666,10.718181,96.259705,96.04512,96.03885,95.757996,2.7884107,0.7,-96.51496,-30.146046,0.00051759847,-273.84668,1.9474671,1.9484165,2.0788043,1.9507666,1.0226621e-06,0.3,-18.69426,87.673256,87.73483,87.68907,87.64865,0.080081224,0.503125,6.128598213195801,28.434414970874787
40,400000,57.387509545730495,-89.43417,0.04143773,0.32550544,0.6487445,-52.603153,34.30356,17.97731,13.596096,96.64458,96.70451,96.95017,96.78245,1.8987411,0.7,-96.52629,-30.868628,0.00025413028,-265.1051,49.99324,46.90243,51.016956,49.305195,1.7637358e-05,0.3,-21.987438,89.285126,89.29094,89.336075,89.26497,0.088954866,0.496875,5.768789291381836,29.122821537653603
41,410000,57.12233585385241,-90.00394,0.04088898,-0.90119433,1.2489998,-6.665148,25.096628,9.921904,9.403116,97.48704,97.73517,96.39036,96.29143,3.5385993,0.7,-97.08874,-54.487534,0.0019416206,-232.1692,7.4411435,5.7627854,7.837032,8.771521,8.927163e-06,0.3,-26.056736,89.74255,89.705536,89.19229,89.51215,0.10471244,0.38906246,5.629589080810547,29.796284298102062
42,420000,54.80755999708141,-89.50843,0.040974047,-0.30922604,0.92807096,-7.7311625,32.223938,27.77364,11.69262,96.04737,96.088005,96.00086,95.83114,3.858612,0.7,-95.93971,-31.969814,0.00038246374,-206.01913,6.8984194,8.008618,5.20835,7.0350204,1.3831887e-07,0.3,-20.227999,89.28629,89.25724,89.09694,89.105644,0.08885595,0.4921875,5.7574005126953125,30.467854777971905
43,430000,58.746439730838276,-89.52997,0.04118424,-0.25798696,0.6325536,-3.367204,39.990173,9.301357,12.759862,95.9309,95.85375,96.48435,95.52349,2.2840512,0.7,-95.9359,-27.857708,0.0012511523,-157.14992,3.7338526,3.8012621,4.1200404,3.788301,5.912036e-07,0.3,-16.689789,89.451706,89.413994,89.42032,89.232254,0.09929343,0.54999995,5.661978006362915,31.158321603139242
44,440000,56.97476476342007,-88.45034,0.04061923,-0.92071414,0.73645985,-2.1896262,27.469643,15.417002,10.259691,96.619225,96.75275,96.682274,96.28741,1.9558942,0.7,-96.31498,-32.805172,0.0018774993,-199.85669,2.2776923,0.9843173,2.3453217,2.7021098,6.572111e-07,0.3,-21.731562,88.2039,88.24693,88.17286,88.17237,0.115562946,0.5125,5.711259126663208,31.84915302991867
45,450000,48.494538380172486,-89.32968,0.04168786,-1.1180204,1.6805004,-0.94027746,33.757893,225.83023,11.161848,95.61503,96.01578,95.94065,95.77379,3.0342424,0.7,-95.56149,-35.118393,0.00011051842,-208.01402,0.4483347,1.0199924,1.9736679,0.8455536,2.4789477e-07,0.3,-20.304188,89.10814,89.137985,89.08884,89.115,0.09399088,0.4890625,5.624427318572998,32.536312917868294
46,460000,55.3004577211313,-88.74589,0.0410212,0.5856515,1.1394,-2.8340576,45.47954,29.787834,10.50013,96.6192,96.60599,96.64358,96.5212,1.6742982,0.7,-96.85575,-35.461094,0.0016764258,-332.03165,3.185317,2.397173,2.5458937,3.7508605,3.1944364e-08,0.3,-19.627003,88.64687,88.66931,88.68866,88.65143,0.07851386,0.42031246,5.6726744174957275,33.22533925771713
47,470000,56.794340451714454,-90.35317,0.04140362,1.0332146,1.1457534,-70.039986,36.26973,40.39405,11.304645,96.11568,96.02084,95.99624,95.61324,1.5007586,0.7,-95.95134,-27.783388,0.0009349921,-719.93646,69.147224,69.98403,68.85799,69.03882,1.0740013e-06,0.3,-23.81784,90.080185,90.142044,89.827545,89.9879,0.08696375,0.4421875,5.5590503215789795,33.9119170943896
48,480000,50.70223005153073,-88.657394,0.04042016,0.44965854,0.84193254,-2.6488621,27.359829,18.851313,11.655323,95.85337,95.9041,96.171875,96.0244,48.25256,0.7,-95.49283,-29.13972,0.001128249,-509.33902,2.1379743,2.9248424,2.4996533,1.4652402,1.3238169e-07,0.3,-31.401913,88.363464,88.41237,88.64111,88.40851,0.28004193,0.43593746,5.6863062381744385,34.6005219578743
49,490000,47.89515652165361,-89.786224,0.04096341,-0.77573675,1.1539642,-50.309002,29.76385,26.010471,10.747197,96.00438,96.493034,97.241104,96.67359,3.3120563,0.7,-95.93039,-26.626236,0.0006427347,-645.6408,51.521744,49.74171,47.97766,51.905655,1.5716068e-08,0.3,-26.032215,89.547035,89.60324,89.956955,89.86867,0.0895468,0.4375,5.715311288833618,35.28545053799947
50,500000,57.784815073638576,-88.88858,0.04100104,0.028061777,0.76904637,-3.7076182,31.216312,9.062689,11.007487,95.77607,95.9335,95.51035,95.495445,3.2864237,0.7,-95.334854,-33.471634,0.0025663108,-607.829,3.754161,3.96843,3.2809234,3.6444008,1.0624063e-07,0.3,-25.838747,88.661026,88.60072,88.51572,88.52424,0.10025592,0.459375,5.687995433807373,35.97220727205276
51,510000,57.27787717502007,-88.873024,0.040396485,0.123524964,0.7434602,-2.8423264,24.104513,13.25057,11.29135,97.00591,97.49325,97.81821,97.83532,4.1230426,0.7,-97.128944,-28.379839,0.0005105399,-233.46742,2.816833,2.5587628,2.6940672,2.9655561,2.4165029e-06,0.3,-20.971577,88.62513,88.62068,88.820045,88.888596,0.09698478,0.3984375,5.693686008453369,36.66264673868815
52,520000,56.0234754375831,-89.70545,0.04034476,0.28119022,0.8834502,-2.5109758,31.214203,25.383415,11.548598,95.46355,95.563545,95.77184,95.69516,1.9471495,0.7,-95.19541,-34.83166,0.00076443073,-297.03897,1.9652086,1.8824117,1.3439834,2.2096999,5.8527044e-06,0.3,-25.861874,89.52204,89.45497,89.839935,89.830086,0.08476019,0.37812498,5.772623538970947,37.358830618858335
53,530000,57.88225319363329,-88.475266,0.040331997,0.44116053,1.4986188,-2.4930162,30.316288,157.60974,9.245625,95.52971,95.9839,96.27041,95.26534,10.837414,0.7,-96.01617,-29.904797,0.0013610686,-557.4904,1.1497016,2.3406382,2.3954978,2.957682,1.7968704e-08,0.3,-24.22022,88.20817,88.3085,88.22836,88.22974,0.17580642,0.44375,5.877193927764893,38.05330455700557
54,540000,52.07940931221875,-89.94266,0.04086307,-0.861521,0.86804163,-63.40962,26.483501,29.606222,9.768036,96.03161,96.31158,96.23619,95.85612,3.4773018,0.7,-95.714226,-29.27117,0.0008391119,-202.21147,54.56142,55.008152,52.275738,55.132454,1.0624063e-07,0.3,-20.310375,89.76814,89.74777,89.88162,89.82644,0.091749266,0.37031245,5.649179697036743,38.74391148090363
55,550000,56.55746738325551,-89.56425,0.03993475,-0.64655083,0.5073388,-62.559868,54.58612,9.555347,13.367037,95.10859,95.16401,95.73831,95.37683,2.3426962,0.7,-95.14094,-40.516422,0.00034110207,-604.58344,61.87185,61.831608,61.604088,62.467255,1.4584687e-06,0.3,-31.797834,89.310486,89.36481,89.308624,89.36887,0.07276401,0.41562498,5.599666595458984,39.43699384530385
56,560000,57.817802626329495,-89.20083,0.04047829,-1.0277351,0.7863716,-1.6585368,34.32525,10.909714,11.002004,96.63778,96.73718,96.83372,96.362885,1.9363304,0.7,-96.3325,-34.052917,0.00015863386,-712.5611,1.8204931,1.6718558,3.2452223,2.7505484,8.6217185e-08,0.3,-30.726097,88.94608,89.01447,88.920975,88.785866,0.094117574,0.48281246,5.608948707580566,40.125850860277815
57,570000,58.22599120355849,-89.09398,0.040243216,-0.33431953,1.1107358,-4.0594664,41.77038,77.63617,9.909115,95.63627,95.503654,96.16659,96.242424,9.679735,0.7,-95.130135,-29.603426,0.00057229423,-316.67572,3.1858797,3.8197918,3.499958,4.4104395,7.77439e-07,0.3,-26.573376,88.98025,88.96724,89.08278,88.980286,0.15869299,0.4765625,5.5614283084869385,40.81519501209259
58,580000,49.07483430423198,-89.95859,0.04009679,0.26684606,0.5738554,-5.343493,33.336365,7.708972,8.398987,96.2106,95.990555,96.05277,95.72838,4.866808,0.7,-95.76355,-32.02802,0.001604116,-384.89404,4.078336,4.656361,4.027949,4.691783,1.1089259e-06,0.3,-27.45934,89.762,89.69087,89.64093,89.69223,0.105420426,0.45468748,5.659514904022217,41.50554138422012
59,590000,57.30384300617932,-89.26088,0.04061827,-1.0846164,0.7691864,-4.0411863,38.818863,14.158279,12.139858,95.69696,95.731834,96.31996,95.46785,1.2653657,0.7,-95.756096,-38.66949,0.0013009221,-329.0354,3.962843,4.2742248,3.032224,3.6916513,8.919044e-07,0.3,-24.33738,88.97417,89.01996,89.20126,89.06982,0.08131288,0.4859375,5.5583579540252686,42.19273533026377
60,600000,53.50401857652647,-89.75125,0.041722823,-0.80612755,0.8312889,-3.225164,30.804445,28.544876,10.466122,95.65371,95.36496,95.67098,95.23972,1.0191576,0.7,-95.31056,-28.432682,0.0005357085,-322.05252,4.2625666,2.5766468,1.9287069,1.8987987,1.3398648e-06,0.3,-24.198233,89.58284,89.563614,89.34952,89.410385,0.0650866,0.45937502,5.561434507369995,42.882596425215404
61,610000,56.089118919673496,-89.90094,0.040655673,0.89384747,0.98880804,-59.35608,31.623787,18.055527,13.947216,95.91226,95.65735,95.910866,96.59665,8.32794,0.7,-96.039604,-29.059536,0.0002540868,-214.39966,51.294067,52.846855,54.737633,52.72821,2.3985935e-05,0.3,-23.015926,89.6387,89.594894,89.60592,89.63969,0.12062205,0.4296875,5.658916473388672,43.570285165309905
62,620000,58.150337971090714,-89.75905,0.040388674,0.31006226,0.89267075,-74.10895,27.401815,19.451012,13.674572,96.09642,96.262115,96.35628,96.33427,1.2646325,0.7,-96.15147,-25.980196,3.3734832e-06,-256.71234,74.06863,74.430275,74.21298,73.663795,3.759563e-06,0.3,-23.34119,89.49379,89.51281,89.66025,89.67598,0.07832709,0.48125,5.6493980884552,44.257670390605924
63,630000,58.93106959957224,-89.09536,0.040518437,0.4088843,1.0593355,-2.5328095,34.910923,34.061462,11.641709,96.75288,97.34595,96.914925,97.00869,3.7014353,0.7,-97.134315,-37.51289,0.0004011314,-456.81863,2.4682589,2.5201342,3.1764512,4.347005,2.1883054e-06,0.3,-24.790552,88.87669,88.887314,88.716515,88.89212,0.121143445,0.4375,5.565270185470581,44.941027204195656
64,640000,58.20378901785103,-90.02411,0.04085146,-0.5003696,0.8807815,-9.912971,32.3523,29.01155,10.577408,97.38553,97.2567,96.1769,95.976776,5.3933334,0.7,-96.93075,-38.65421,0.0024615135,-291.81702,9.816124,10.249035,9.0693245,10.099323,1.1102459e-05,0.3,-23.441483,89.86072,89.90111,89.54744,89.43872,0.11185596,0.52187496,5.577612638473511,45.61889748175939
65,650000,57.49404316903378,-89.24077,0.04091536,-0.29188973,0.8198813,-4.4065394,48.20236,38.062405,10.440762,96.61428,96.554276,96.369286,96.27576,22.803864,0.7,-96.35134,-30.225622,0.0031033189,-418.0498,3.843929,3.7929163,3.1411986,3.2330685,3.277499e-07,0.3,-26.765926,89.04338,88.997055,89.003746,89.047554,0.17373087,0.4265625,5.894882917404175,46.30804277658463
66,660000,57.944562929074394,-89.49071,0.040226582,0.5938526,1.3112602,-4.702502,68.58671,77.07957,11.483186,96.2882,96.35533,96.02649,96.207466,2.1544998,0.7,-96.355865,-31.598299,0.0006692704,-419.09753,4.0120583,4.719319,4.172096,4.0827003,1.6298145e-08,0.3,-24.604738,89.29257,89.25435,89.43192,89.357544,0.09056088,0.490625,5.684245824813843,46.991749886671705
67,670000,53.85436002430586,-88.651,0.0412289,0.6012748,0.7312397,-3.301234,57.945183,24.17798,10.443508,95.79982,95.92096,96.693245,96.438934,3.1530664,0.7,-95.70763,-37.40447,0.00033770595,-969.95917,3.337507,3.692356,3.1731238,3.480063,2.2733835e-05,0.3,-26.121078,88.40358,88.41867,88.569885,88.54042,0.10686712,0.4328125,6.026374101638794,47.68269677162171
68,680000,54.41933837287728,-88.777725,0.04000035,0.93594223,0.94099534,-2.6216104,33.084454,23.728216,9.6691475,96.00716,96.02974,95.765396,95.52623,15.904681,0.7,-96.11964,-24.968113,0.0011533033,-426.72458,2.7462568,2.4054015,3.2766898,3.1488938,6.2930803e-06,0.3,-27.69104,88.4839,88.49436,88.25198,88.32446,0.14273036,0.47812498,5.619723081588745,48.3661461353302
69,690000,54.17502309798907,-89.833374,0.039931342,-0.0021581352,1.1175854,-3.1603072,32.703293,41.468468,12.205726,96.35468,96.38743,96.202835,96.32115,6.435107,0.7,-96.14482,-40.26809,0.00016166811,-378.70297,2.4564807,3.0245519,3.6729803,3.5371008,1.4144462e-07,0.3,-26.824955,89.63253,89.653694,89.63482,89.54268,0.11887157,0.4734375,6.168607473373413,49.05671286582947
70,700000,58.63028879450993,-87.90456,0.040811036,0.97007453,1.3141001,-2.5706077,36.296673,30.327068,12.100588,95.2359,95.40539,95.50485,96.15351,8.045359,0.7,-95.869514,-28.880148,0.0020897193,-850.68555,2.519032,2.8716824,3.4972737,3.3759692,5.9655287e-07,0.3,-32.12669,87.653496,87.60649,87.91254,87.98509,0.1302064,0.4375,6.297967910766602,49.755428957939145
71,710000,58.12495476789978,-90.234116,0.039798945,0.92417514,1.0073586,-74.74396,27.097885,68.94328,10.403561,96.70027,97.05852,97.03931,96.86741,1.677499,0.7,-96.63605,-36.037895,0.00024687324,-492.5525,74.84244,74.199036,72.28323,73.596115,3.583421e-06,0.3,-29.732132,89.97951,90.01755,89.759186,89.866264,0.08274774,0.4640625,6.260008096694946,50.451952648162845
72,720000,58.228260991831036,-89.39396,0.04093543,0.7596832,0.61967885,-4.5094566,41.015457,16.553732,11.911757,95.33204,95.15948,95.5269,95.3498,4.346004,0.7,-95.82701,-32.049797,0.00026594737,-269.19086,5.372657,4.5796547,4.915572,5.0862412,4.0686687e-06,0.3,-23.831387,89.13336,89.09884,89.01228,89.11934,0.08341454,0.45625,5.740838050842285,51.13700774510701
73,730000,57.93033347959663,-88.547775,0.039802805,0.089805186,0.8999943,-5.2569757,37.306778,28.771275,10.231838,96.167854,96.19221,95.94718,95.87263,4.025812,0.7,-96.0767,-32.408672,0.00038755883,-1783.8722,5.499415,4.9638314,3.3520792,3.4637709,4.752539e-07,0.3,-39.322823,88.350174,88.32814,88.31031,88.32086,0.109382905,0.43124998,5.791563034057617,51.82465119361878
74,740000,58.84180309785282,-89.40044,0.039596412,0.8089177,1.186578,-4.299054,60.401405,45.9877,10.780801,96.30268,96.43809,96.44331,95.98941,2.1350753,0.7,-96.24149,-35.583748,0.00093793555,-552.01135,5.0840335,4.420944,4.0471854,4.5879674,3.1716597e-06,0.3,-33.33517,89.13095,89.09732,89.012085,88.98219,0.0914095,0.5265625,5.7308526039123535,52.51049983501434
75,750000,56.33192060577008,-89.1428,0.038605303,0.62345,0.9929494,-4.1963305,45.98839,35.318604,12.038881,95.9806,95.725716,95.83676,95.69049,20.357653,0.7,-95.73724,-26.963287,0.00024200679,-246.25517,4.382611,3.820394,4.02069,4.3153543,1.02193735e-05,0.3,-26.354914,88.8326,88.8627,88.66243,88.815735,0.18669903,0.46875,5.687604904174805,53.19722841978073
76,760000,58.45157726209859,-89.367676,0.038803138,1.222306,1.0139754,-3.9324,30.298035,37.977085,10.708883,97.305885,97.95207,96.93728,97.437454,6.6297345,0.7,-97.146324,-28.06242,2.6580004e-05,-567.3002,4.3927555,3.9672527,3.838278,4.2356977,9.4138085e-07,0.3,-35.765526,89.077576,89.06416,89.19719,89.09465,0.11389399,0.42343748,5.576380968093872,53.88273440599441
77,770000,57.77289951125558,-89.02367,0.03906403,0.27644408,0.84560287,-3.5996552,33.346382,24.831718,9.00769,96.819984,96.58355,96.85896,96.36053,1.498507,0.7,-96.442245,-31.935223,0.0007084778,-297.89502,3.6762428,3.8720484,3.900557,3.8605556,1.9016444e-06,0.3,-31.859798,88.79729,88.795944,88.903824,88.90197,0.07479356,0.45468748,5.715258836746216,54.570112415154775
78,780000,59.667809906932426,-89.31889,0.039999522,-0.13230503,1.06527,-4.330698,33.19271,53.225204,13.628467,95.738625,95.84747,96.43888,96.16676,0.9060151,0.7,-96.1963,-26.763605,0.0004096239,-263.909,5.16149,3.8498745,3.0992868,3.7494278,8.435309e-06,0.3,-28.593906,88.98545,89.02425,89.19206,89.09851,0.07133883,0.41718748,5.752553701400757,55.25916704336802
79,790000,58.73680753546435,-89.51126,0.03998642,-0.13892803,0.7674178,-3.8508313,40.031807,19.712263,11.082809,95.72529,96.01359,95.97899,95.93717,2.9131877,0.7,-96.04927,-28.501106,0.00012713281,-186.77478,4.5035887,3.1352262,3.1933892,3.9542885,9.623892e-06,0.3,-24.443562,89.25177,89.19201,89.05858,89.23853,0.11327979,0.4390625,5.691980838775635,55.94663166999817
80,800000,58.066553202678136,-89.78389,0.039259862,-1.0211654,1.4909817,-4.1378884,25.008186,135.74272,11.2971735,96.41671,96.7197,96.49959,96.52351,2.3738232,0.7,-97.07198,-29.967113,0.000244672,-335.0009,3.893292,4.5091577,3.2018046,3.0589514,1.8140242e-06,0.3,-29.69783,89.5617,89.52159,89.50107,89.405304,0.08285716,0.4765625,5.795856237411499,56.63696279923121
81,810000,58.7654164249009,-90.259445,0.039849695,0.37823707,0.7473644,-73.35286,38.31011,17.77755,10.732504,96.84521,96.83685,96.93136,95.96183,1.0631387,0.7,-96.21704,-29.122211,0.00021987979,-277.8225,73.313286,73.97527,74.06596,73.02569,6.164366e-07,0.3,-26.601215,90.09756,90.085434,90.001114,89.918884,0.06572597,0.4890625,5.681673765182495,57.32383785247803
82,820000,58.147479004498784,-89.019394,0.039360538,-0.09228799,1.3013467,-3.3289492,38.412746,24.977434,12.2334175,96.13723,95.986916,96.67346,95.82195,2.062744,0.7,-95.91425,-33.18256,0.00010386022,-401.4247,3.183069,3.1431737,2.9795055,3.2978292,1.9480242e-06,0.3,-33.906456,88.68596,88.64676,88.65958,88.70242,0.097766295,0.48593748,5.772594451904297,58.013496899604796
83,830000,58.049523610301065,-88.99717,0.03838398,-0.7972387,0.6957073,-3.8221521,43.843327,24.864452,12.506773,96.58024,96.21598,96.10683,95.7371,8.684282,0.7,-96.17648,-34.3594,0.002734298,-361.01932,3.9182491,3.1797342,3.2118175,3.7883148,1.0913936e-08,0.3,-31.946703,88.74132,88.72098,88.55899,88.60872,0.13415572,0.4265625,5.7881762981414795,58.70444645086924
84,840000,56.53797286484159,-89.52356,0.03923183,-1.0742904,0.7969948,-2.2362638,33.803543,29.879133,10.011227,96.01749,96.024666,96.50811,96.213196,1.2787602,0.7,-96.36717,-32.82059,0.00070560194,-210.2084,2.8713841,2.8651438,3.8022757,3.8585782,3.4486874e-07,0.3,-21.578724,89.39587,89.33831,89.24623,89.35779,0.07723567,0.4296875,5.751748561859131,59.389752900600435
85,850000,58.41781021568677,-88.73789,0.03939444,0.67857194,0.7826213,-2.1185126,28.64406,9.3717,10.621468,96.66328,96.85864,96.91588,97.106964,1.8029668,0.7,-96.93878,-31.809307,0.00014240632,-443.37396,1.603214,2.4992456,3.4485986,2.2470112,9.4138085e-07,0.3,-29.920395,88.40102,88.4066,88.604004,88.6184,0.09347856,0.41562498,5.610933303833008,60.076347986857094
86,860000,58.47387768453086,-88.40979,0.038307685,-0.45097607,0.63348114,-2.6644802,39.58759,9.59581,12.39631,95.49929,95.566956,95.62978,95.4905,2.1858459,0.7,-95.30248,-30.254154,0.00074496726,-1388.4233,1.8108675,2.8047137,3.082821,3.2665057,4.0745363e-07,0.3,-34.442245,88.162735,88.17772,88.328964,88.27003,0.08490215,0.4375,5.7056357860565186,60.76224141518275
87,870000,59.53029074528381,-88.57811,0.03868437,-1.3459356,0.803318,-3.3481722,77.66434,24.073719,9.536962,95.52262,95.42654,95.655655,95.62588,12.0030155,0.7,-95.401764,-39.42053,0.00016197294,-841.9204,3.2943678,3.4001293,2.8036125,2.5556083,7.986091e-09,0.3,-32.897858,88.235535,88.262115,88.40047,88.39035,0.12658712,0.425,5.632437705993652,61.450164794921875
88,880000,58.5818825068409,-89.48486,0.038553845,-0.81511545,1.286419,-3.408339,37.07754,79.72776,12.591682,96.37587,96.238716,95.740524,96.58097,1.0975316,0.7,-96.79719,-32.04786,0.0001163804,-251.49666,2.9195728,2.7473147,3.2810297,3.667644,1.6227645e-05,0.3,-29.47942,89.19101,89.27846,89.019455,89.13794,0.077572644,0.44062498,5.711460113525391,62.13596046765645
89,890000,58.60257152119806,-89.53239,0.038370565,0.22914122,0.927869,-4.250357,34.481052,23.69033,12.727438,95.63066,95.67184,95.69117,96.073875,2.4990354,0.7,-95.435326,-36.32767,0.0002480576,-313.93463,4.5454655,3.6015115,2.6600735,2.9030337,2.1713204e-07,0.3,-25.99015,89.328445,89.34216,89.382454,89.3613,0.08712155,0.45468748,6.0265045166015625,62.83005411624909
90,900000,58.53155720599988,-89.563286,0.038629737,0.69377404,0.6145998,-69.42209,48.82563,10.20759,10.600543,95.4331,96.079155,95.8909,95.60947,1.3840666,0.7,-95.788414,-33.229614,0.0007226116,-305.26074,68.66654,69.36866,69.20749,68.49918,3.1944364e-08,0.3,-33.088287,89.24533,89.21207,89.35017,89.36943,0.082915545,0.4109375,5.692135572433472,63.51922059456508
91,910000,59.28899072316944,-88.95564,0.039300915,0.13565737,1.2132668,-3.4724877,30.576012,62.876724,12.158362,96.53032,96.81727,96.7666,96.625786,15.876895,0.7,-96.61957,-31.474375,0.00077183853,-387.99435,3.2430563,3.1926842,4.0863757,3.495907,1.5429687e-07,0.3,-31.412832,88.69049,88.60563,88.74624,88.76123,0.18010096,0.4578125,5.827200651168823,64.2122529665629
92,920000,58.850213823076146,-89.81334,0.03759404,-0.1469248,0.89661264,-67.80689,59.096527,17.680271,9.854992,96.81321,96.824104,96.930855,96.512794,10.178643,0.7,-96.19851,-43.097584,0.0022184718,-746.92896,65.95744,66.21435,65.78618,66.67709,3.4486874e-07,0.3,-37.090225,89.49077,89.46786,89.49043,89.53296,0.11521621,0.4890625,5.799834728240967,64.90068994760513
93,930000,58.46451700130959,-89.52706,0.037871968,0.10840517,0.6588273,-3.8258743,28.993263,16.415134,10.634553,95.42717,95.62606,96.03999,95.742294,1.7920136,0.7,-95.6909,-40.146687,0.0005044688,-334.93936,4.055734,4.106252,3.4238837,3.9315548,6.366463e-07,0.3,-32.49723,89.23828,89.291916,89.2536,89.17708,0.08775114,0.503125,5.669909238815308,65.59094927310943
94,940000,58.913693686213776,-89.47119,0.038274355,-0.73485446,1.1557206,-2.5852568,41.012783,42.81704,11.2130575,96.15427,95.953285,96.38953,95.794495,6.9827657,0.7,-97.1001,-33.202778,0.001753954,-666.48315,2.6745613,2.1351538,2.9418495,3.3269606,2.542918e-07,0.3,-32.610966,89.1131,89.21536,88.97199,89.13968,0.1271295,0.43593752,5.752688646316528,66.27811303933461
95,950000,59.11696059665862,-89.3186,0.0375398,0.3007034,0.97515714,-38.01936,41.55679,24.104263,10.993922,95.976456,96.17709,96.48532,96.72136,2.188664,0.7,-96.16152,-39.93099,0.00054318254,-2173.5647,27.464308,28.593195,28.435581,29.62352,8.7285125e-06,0.3,-40.832397,89.037636,89.05862,89.343925,89.293564,0.09507419,0.3953125,5.748710632324219,66.96197805802028
96,955000,58.76106775477216,-89.399185,0.036955778,0.14155254,1.4869759,-3.1620753,30.57004,116.41157,11.835296,95.471954,95.71362,96.182076,96.04431,3.8086288,0.7,-95.5489,-34.880806,0.000100977544,-1097.0748,2.4759932,3.195835,1.7932065,2.229801,1.9965227e-09,0.3,-31.667435,89.18207,89.135925,89.38281,89.388885,0.10439253,0.409375,5.648828506469727,67.3522311925888
97,960000,58.990801782799984,-90.16816,0.038210403,0.91697204,0.7800313,-67.492256,32.022274,22.492783,11.270628,96.2042,96.04142,95.21142,95.354355,1.8084137,0.7,-96.22129,-33.014816,0.0007958361,-972.5012,65.79139,65.01699,64.75396,65.58741,2.2757042e-06,0.3,-31.697239,89.84567,89.905716,89.72313,89.680954,0.09844902,0.46718746,5.717666387557983,67.74218947887421
98,965000,59.04464879149203,-89.874016,0.035997853,0.17578375,1.0061271,-66.51268,50.636204,18.149208,10.729199,96.68952,96.32962,97.74693,95.96304,2.9989429,0.7,-96.14002,-30.104412,0.001014981,-378.2838,65.70281,65.29487,65.87547,66.60858,8.5565266e-10,0.3,-26.182854,89.577644,89.56115,89.90094,89.77052,0.11724303,0.5109375,6.222853899002075,68.14291956027348
99,970000,58.876870455425276,-89.118576,0.03799002,-0.4786232,0.7880367,-5.6424417,36.600456,12.100834,10.868082,94.90314,94.81095,95.36013,94.68808,0.98527104,0.7,-95.742874,-39.2902,0.0022285865,-692.57086,5.761055,5.464506,3.3831265,3.5492716,1.5716069e-10,0.3,-37.912025,88.7339,88.70927,88.735565,88.63902,0.07133121,0.47187498,5.746719837188721,68.53597229719162
100,975000,58.52284141106213,-89.389946,0.03830498,1.018888,1.0529379,-4.4503493,78.366585,31.13438,9.80588,96.137215,96.310776,96.49007,96.54349,2.0606809,0.7,-96.00652,-34.086735,0.0016520745,-502.34775,4.5167537,4.405657,3.3631208,3.520554,1.39451e-06,0.3,-30.850964,89.097626,89.10223,89.34382,89.375015,0.08310453,0.4046875,5.5443689823150635,68.924081158638
101,980000,56.202583907070505,-89.1145,0.036883652,-1.1995072,0.8533821,-10.209121,34.133022,12.873006,11.713282,96.00998,95.85815,96.06741,96.06172,8.180938,0.7,-96.72864,-32.522274,0.004359854,-598.4291,9.5087385,11.472713,11.311483,8.379832,5.57804e-08,0.3,-32.638916,88.82267,88.85257,88.76916,88.76206,0.16382793,0.4515625,5.6602184772491455,69.31518767674764
102,985000,58.6133780542216,-88.3349,0.038337454,-0.3682745,1.7757059,-3.9921038,37.341522,255.15424,13.624234,96.365105,96.68596,96.16144,96.39328,1.8465635,0.7,-96.87295,-34.94831,0.0004397196,-559.5665,3.524538,4.4674745,3.5508847,2.991932,1.983176e-06,0.3,-30.904379,88.11219,88.05676,88.182686,88.080154,0.10619266,0.496875,5.683030366897583,69.70645728111268
103,990000,59.37375197466017,-88.585815,0.034873255,-1.7740694,0.914938,-2.6240933,33.01348,29.15274,12.4798355,95.74766,95.95628,95.512405,95.75767,12.193327,0.7,-96.285835,-40.234325,0.0015784558,-350.9498,3.2932277,2.5765855,3.184872,3.0926602,2.818316e-06,0.3,-29.098026,88.271545,88.2007,88.16775,88.10527,0.11971289,0.4796875,5.687544107437134,70.10014491478601
104,995000,59.29370008677015,-89.57768,0.037224825,0.9883178,0.8771223,-3.0327103,32.242058,15.095039,11.734516,95.426384,95.756676,95.91386,95.517715,5.157298,0.7,-95.91486,-27.770945,0.0010265585,-694.7908,3.2640812,2.9422607,2.3510928,2.885714,8.071948e-07,0.3,-30.133839,89.25513,89.21786,89.36212,89.267944,0.10149604,0.45625,5.670633316040039,70.48780182997386
105,1000000,56.7171811922178,-89.875435,0.041388903,0.37347567,1.1649208,-54.85292,38.572468,61.6431,10.572638,96.286674,96.09318,95.83184,96.49428,2.6152976,0.7,-96.5821,-37.66602,0.000123173,-543.05566,49.563667,48.837234,43.66063,47.16718,2.673303e-07,0.3,-29.45786,89.55859,89.558365,89.37784,89.41054,0.0925099,0.44062498,5.561063528060913,70.87916096448899
