Xixo99/comfo/baselines/comfo6_perterbation_actor/20230225_noise0.01/hopper-medium-v2/COMFO6_s2_20230224_162515_hopper-medium-v2_79.92.csv
,step,reward,actor_loss,alpha,alpha_loss,critic_loss,max_actor_loss,max_alpha_loss,max_critic_loss,max_mle_prob,max_q1,max_q2,max_target_q,max_v,max_value_loss,max_weight,min_actor_loss,min_alpha_loss,min_critic_loss,min_mle_prob,min_q1,min_q2,min_target_q,min_v,min_value_loss,min_weight,mle_prob,q1,q2,target_q,v,value_loss,weight,eval_time,time
0,0,4.111066623844924,,,,,,,,,,,,,,,,,,,,,,,,,,,,,,,,,
1,10000,52.15471387891155,-41.168613,0.066617586,-4.794867,0.4506407,1.9883745,20.015448,23.769196,7.3363605,59.84744,59.769775,62.03677,59.896523,2.1594157,0.7,-59.729523,-17.985117,0.00022540837,-5.188411,-0.8170026,-0.62218887,0.47276688,-0.4338675,5.347829e-09,0.3,1.2835362,39.966938,39.981552,40.070274,39.508724,0.04162074,0.4359375,3.8329765796661377,1.9977562387784322
2,20000,54.23610164022797,-66.489334,0.0037070815,-6.9699736,1.5499628,-9.382278,27.941132,128.74812,8.218944,86.70652,86.57871,86.179924,86.139336,3.6158159,0.7,-90.188866,-49.74445,0.00021269867,-5.0342436,10.479669,10.94929,9.782917,9.397437,4.172325e-08,0.3,1.4971993,64.76996,64.78445,64.860825,64.61917,0.121103846,0.465625,4.003634691238403,2.623530121644338
3,30000,52.62084308359245,-77.070625,0.00019768754,-11.778661,1.3822353,0.13701248,47.746883,41.941082,8.420939,98.59343,99.236595,98.90123,99.0962,6.6356864,0.7,-106.13589,-77.29092,0.003044652,-7.898879,2.1751912,0.12705392,1.4265859,1.2069113,8.250936e-08,0.3,1.4197412,75.36508,75.315674,75.05667,75.20023,0.16535671,0.425,4.116663932800293,3.2545313556989033
4,40000,47.454257406465835,-85.23865,1.0374585e-05,-11.964779,0.7652087,2.5429504,70.74431,20.679932,9.565944,104.780525,104.5183,105.26012,104.98198,1.3172367,0.7,-110.2079,-77.19482,3.9412873e-05,-3.7746086,-0.42752087,-0.7353412,1.3318639,1.001227,2.20716e-05,0.3,1.7143152,83.39684,83.41925,83.39098,83.449066,0.0920198,0.40156248,3.480494499206543,3.8558186690012612
5,50000,45.45964663272866,-90.51747,5.352236e-07,-16.675804,0.62589043,0.2815441,102.33387,9.501828,9.240973,108.778015,108.57326,108.12225,109.443535,3.8480945,0.7,-112.898766,-111.51374,0.00030602445,-4.4803987,2.0445123,1.6715696,1.7405834,1.3170961,1.2765114e-06,0.3,1.8620716,88.61745,88.55189,88.33441,88.324936,0.1435481,0.51874995,3.318476438522339,4.461804815133413
6,60000,42.72038304673678,-91.713,2.780743e-08,-21.059013,1.095355,1.7683446,123.95525,59.5667,8.295722,110.351074,110.32561,111.118935,111.10657,3.3426151,0.7,-115.23648,-201.45012,2.2797496e-05,-5.1485925,-0.29582494,-0.12619036,1.2961583,-0.6741674,1.8840656e-07,0.3,1.8754029,89.724174,89.76902,89.701065,89.583725,0.15701687,0.49375,3.133256435394287,5.055341223875682
7,70000,46.15556072664572,-90.08919,1.4493069e-09,-26.289356,1.1164335,-0.1507057,126.66129,17.841042,8.851275,111.2668,111.12428,111.86856,112.26705,2.9931128,0.7,-117.42986,-181.58318,0.00026743917,-3.6890059,1.1881927,1.0433682,1.3606378,1.1571082,5.547929e-06,0.3,1.5202461,88.51173,88.461555,88.72827,88.569275,0.11360643,0.45625,3.4289162158966064,5.673043314615885
8,80000,45.37862816799815,-89.32016,7.536561e-11,-25.15063,1.0955586,-3.470106,158.79234,17.820448,9.297538,114.39771,114.48195,113.210846,113.08185,8.253246,0.7,-120.52275,-173.57556,0.00042414584,-6.6545515,3.0924242,3.689329,3.7002344,2.7964418,1.11758716e-07,0.3,1.5970737,87.446884,87.535095,87.54131,87.39753,0.17001419,0.5265625,3.397899627685547,6.291578900814057
9,90000,53.27390667197317,-89.46187,3.913324e-12,-25.2065,0.6679432,-7.945979,159.3137,14.467035,12.288893,113.81679,113.7862,112.61203,113.1673,6.0228333,0.7,-117.70618,-231.73212,0.0016834904,-2.5078397,9.408211,9.2783,9.506904,9.248041,6.780436e-07,0.3,1.8233981,87.47024,87.477295,87.48976,87.55171,0.14121974,0.475,3.9657044410705566,6.923761427402496
10,100000,50.09844139606613,-90.23395,2.0321341e-13,-29.76854,0.9678124,1.3046029,281.66162,19.30274,16.237097,111.22692,111.26998,111.796776,111.638725,5.6040306,0.7,-119.24245,-211.0396,0.0017252599,-4.2001386,0.8118646,1.1166914,0.96995604,1.208248,2.9511285e-09,0.3,1.9934587,88.0572,88.106735,87.973434,87.900345,0.12201807,0.52031255,3.2984299659729004,7.539815207322438
11,110000,54.71685734301751,-90.5074,1.0576666e-14,-24.383995,0.7084456,-7.225884,396.61636,23.715954,16.072697,111.203186,111.66597,112.26187,111.57007,4.5756245,0.7,-123.2782,-273.57324,0.00043725275,-3.625855,10.414043,9.955798,10.16075,9.843462,5.5950954e-07,0.3,1.9926109,88.38258,88.352554,88.404495,88.30289,0.1058968,0.440625,3.9994308948516846,8.16994990905126
12,120000,49.30378651284071,-92.61792,5.475661e-16,-38.301098,0.6289012,-13.998311,217.68115,10.960024,10.647043,111.74617,111.64648,112.74348,111.26249,5.7160735,0.7,-120.54502,-335.62955,0.0006747316,-5.3922906,15.73644,14.86362,14.635869,14.472857,9.915791e-07,0.3,1.7261871,90.771095,90.80455,90.74525,90.63657,0.12032345,0.4125,3.672616481781006,8.794141276677449
13,130000,54.239616048966376,-89.83326,2.859358e-17,-44.044647,0.9054967,0.9915619,182.0586,9.8390255,8.764719,110.39665,110.948875,111.04728,111.10245,1.7323452,0.7,-119.185135,-338.0303,0.001750988,-3.743991,0.8229054,1.2894434,1.2254233,-0.8592051,2.766098e-06,0.3,1.861334,87.84899,87.95445,88.2013,88.21852,0.10995558,0.38437498,3.979557991027832,9.423217864831289
14,140000,55.06548174193148,-91.96552,1.4830299e-18,-37.973003,1.079294,2.0483828,270.2058,23.246532,9.210091,113.33785,113.198296,113.09449,112.91395,0.8999575,0.7,-122.31433,-287.14032,0.00068229745,-4.6347504,0.894837,0.61364657,0.6984795,-0.57481813,1.7217128e-06,0.3,1.9320976,89.94345,90.07628,89.75961,89.920135,0.069887,0.43124998,4.025500535964966,10.0549897869428
15,150000,64.0962735006806,-92.584114,7.745565e-20,-50.740147,1.0987518,-2.9004009,207.23993,130.56802,8.436592,110.94144,110.89033,111.48395,111.13792,2.8501678,0.7,-118.091,-360.92065,0.00066757906,-7.4184217,3.3009787,3.546082,3.1512365,2.9754417,1.6093254e-07,0.3,1.8492193,90.723175,90.74785,90.69389,90.550934,0.11252457,0.571875,4.599620819091797,10.695383020242055
16,160000,51.35753134529249,-91.349075,4.0173787e-21,-35.515778,0.62778294,-1.6874518,294.32758,7.582261,10.329813,112.188354,111.68264,113.25905,111.69027,3.3309357,0.7,-117.86641,-413.45877,0.00033907132,-3.5424895,1.8641073,1.7579607,2.1958432,2.403003,4.0233135e-06,0.3,2.1887212,89.17105,89.1573,89.446884,89.51516,0.11670019,0.36874998,3.694704294204712,11.319576450188954
17,170000,49.42546314550871,-89.77859,2.0875692e-22,-62.988976,0.59827954,-3.9503388,313.99884,20.068556,7.909938,111.38301,111.32816,113.14213,110.99999,1.3338412,0.7,-115.40714,-342.49133,0.00020427129,-4.8316827,7.4379597,7.862056,8.781907,7.8630886,2.861023e-07,0.3,1.9878573,87.76815,87.75731,88.01982,87.78049,0.08374351,0.45937502,3.668429374694824,11.939083401362101
18,180000,51.14719310701384,-92.412186,1.0856219e-23,-38.840134,0.87942374,-2.849077,501.24545,14.640167,8.980572,112.95571,112.89592,113.46873,113.826416,0.829169,0.7,-118.53099,-430.27805,0.00092113373,-5.769725,2.2591178,1.9267421,3.0124006,2.044349,5.476177e-08,0.3,2.198781,90.2359,90.22504,90.555046,90.41766,0.071303084,0.553125,3.761340618133545,12.562055671215058
19,190000,85.90679219686923,-89.45519,5.6337414e-25,-54.058147,0.9810893,-4.2663536,358.85065,15.083792,9.18207,111.22382,111.39172,111.2235,111.33108,1.3256719,0.7,-116.524536,-409.8202,0.0013196659,-4.770509,5.3588877,6.110773,4.9915876,5.1376524,2.724555e-06,0.3,1.7669865,87.61699,87.63832,87.16658,87.3031,0.07217495,0.46249998,6.55860447883606,13.233548637231191
20,200000,96.1247557702516,-89.600266,2.911195e-26,-54.20243,0.94376916,-1.1517595,721.18353,59.96514,11.56272,112.21362,111.57681,111.09886,110.72514,1.2280121,0.7,-117.77218,-416.91544,8.601608e-05,-4.485078,2.6389413,2.9233625,2.6664014,2.0055993,4.8409566e-07,0.3,1.8832997,87.63749,87.5527,87.60638,87.41399,0.09212687,0.5203125,7.4594080448150635,13.912215399742127
21,210000,90.08191715795417,-90.73568,1.5135369e-27,-70.29597,1.2585121,-2.804185,359.759,74.10497,8.931054,110.90676,110.75468,111.76547,110.479095,0.91718626,0.7,-119.35341,-522.2863,0.0007652245,-3.7785895,3.3171706,3.8591094,4.4137907,4.0793705,1.5973811e-06,0.3,1.9447424,88.69542,88.77253,89.12668,89.06932,0.05447872,0.43281248,7.027611970901489,14.585353724161784
22,220000,88.05362510072636,-90.261406,7.8568866e-29,-41.585186,1.2370687,-7.0501924,721.89606,138.2518,9.200659,113.17799,113.491264,113.41942,113.27682,2.9270275,0.7,-116.33673,-481.32797,0.0027979913,-4.7647715,7.765772,7.8714213,8.209738,8.267418,3.0803495e-08,0.3,2.1124878,88.109116,87.99781,87.954666,87.90881,0.09006792,0.484375,7.351911306381226,15.266789257526398
23,230000,81.82915214780427,-87.44779,4.0854526e-30,-63.093384,1.0853015,-2.4827,588.80646,87.22853,8.374582,111.50302,111.554886,111.0637,111.274956,3.9235907,0.7,-116.300545,-423.81995,0.00043696538,-4.742036,4.7158303,5.0882177,4.4763927,4.663393,2.5566553e-07,0.3,1.876543,85.54089,85.606766,85.4502,85.51829,0.08007321,0.4609375,6.730865240097046,15.935704704125722
24,240000,75.37435290389493,-86.24184,2.1249197e-31,-74.04914,0.6985904,0.30593753,400.37183,28.256401,9.422763,114.72213,114.27964,114.46635,114.52624,2.790316,0.7,-121.28687,-561.97723,0.00016711286,-5.332388,0.97023886,1.5337197,2.3283265,2.2961364,1.4709076e-08,0.3,1.7596645,84.40094,84.445694,84.55831,84.58753,0.106191084,0.409375,6.0333428382873535,16.596359956264497
25,250000,73.21879854191835,-86.79704,1.10943436e-32,-72.01842,0.73147225,-0.009679198,442.04514,22.871794,9.263411,112.01846,112.45457,112.33668,112.24429,8.985341,0.7,-117.52088,-544.4112,0.00030313618,-3.8707457,1.3197503,1.3960214,1.3044442,1.3292906,6.2864274e-08,0.3,1.6051285,85.04587,85.038895,84.97901,85.1499,0.14044002,0.40468746,5.958305597305298,17.25725129445394
26,260000,82.53160099006767,-91.49662,5.7630704e-34,-69.78542,0.5845071,-3.2034087,1182.4977,7.4951572,7.7993445,111.94376,111.92216,111.69528,111.84969,2.8359501,0.7,-118.678955,-673.3414,0.000302393,-3.830402,2.3904238,2.8344972,2.1272173,1.8895128,1.7658575e-06,0.3,1.972153,89.369194,89.36485,89.171265,89.329895,0.072528645,0.45624998,6.85430383682251,17.93017869790395
27,270000,83.86231556827514,-88.35193,2.9971143e-35,-69.51212,0.5686096,-3.013016,453.08734,7.985977,8.707825,111.257614,111.86337,111.3156,111.54658,1.5828925,0.7,-118.27562,-549.2152,0.0006091021,-5.4906797,5.449558,5.7382083,5.3194537,5.0639877,1.3109996e-06,0.3,2.01604,86.307556,86.44249,86.50363,86.42375,0.07160293,0.5,6.88630485534668,18.605453638235726
28,280000,79.65129395698364,-90.98886,1.5627128e-36,-78.87396,1.1906226,-1.0718699,682.4953,198.98836,8.480337,112.25125,112.300835,112.14517,111.97696,3.0264466,0.7,-119.36196,-564.73425,8.81264e-06,-4.3346405,3.3193626,3.1404529,1.4305176,3.1826904,1.0825635e-06,0.3,1.9061007,88.96978,89.000015,88.89389,88.86015,0.064885266,0.51875,6.891976356506348,19.275353904565176
29,290000,68.52154501412657,-87.74512,8.1592733e-38,-71.45409,0.46121117,-2.9208412,1010.2152,11.822583,12.055441,112.331024,112.02804,111.89178,112.12582,3.5367756,0.7,-116.88852,-603.2133,0.00022250833,-3.7213292,1.0542718,1.4599785,1.421483,0.70822525,9.4138085e-07,0.3,2.0493028,85.59354,85.664055,85.42856,85.60002,0.071480274,0.3953125,5.36722469329834,19.922517863909402
30,300000,77.18680102318787,-90.97558,4.270945e-39,-58.423588,0.59341365,0.8246909,796.2832,13.257187,9.889824,111.92464,111.808685,112.458725,112.20053,2.840499,0.7,-118.8547,-681.4501,0.00044402975,-3.660029,0.7283024,0.5445106,1.4485155,0.5461458,4.0344895e-07,0.3,2.0570433,88.80643,88.80008,88.79678,88.75795,0.10787955,0.5078125,6.0516955852508545,20.588651033242545
31,310000,65.99863994923341,-91.67176,2.23494e-40,-80.992935,0.88289577,-4.906874,654.63074,52.24594,9.861819,112.208565,112.653496,111.816956,112.23112,0.9450511,0.7,-119.55001,-677.9028,0.0005972079,-6.276843,4.70155,4.7895017,3.3635898,3.538074,3.6670826e-08,0.3,2.1238556,89.47719,89.573395,89.61551,89.58583,0.059905585,0.3890625,5.225820064544678,21.238601553440095
32,320000,72.26404335475826,-90.02719,1.168e-41,-96.02539,0.60055965,-1.7570083,738.76196,14.766379,8.662529,113.00377,112.92328,112.537735,112.53727,4.957651,0.7,-118.05587,-740.31573,0.00043164036,-5.7113895,2.529088,2.9667397,2.6625044,2.8187227,5.2952674e-07,0.3,1.7194066,88.2305,88.20233,88.19054,88.18811,0.09454475,0.4578125,5.64779806137085,21.893943695227303
33,330000,68.89993921722305,-88.69017,6.11e-43,-56.92305,0.94281083,-2.6012292,1362.2064,22.850994,9.015332,112.22729,112.31997,112.59132,112.39407,9.031202,0.7,-117.27142,-647.7978,0.00027221983,-3.6531105,2.169974,1.9200764,2.8546085,2.297946,1.561147e-06,0.3,2.2510076,86.16829,86.18437,86.57953,86.21536,0.11379577,0.465625,5.369248151779175,22.545794332027434
34,340000,62.10546035247514,-90.31595,3.2e-44,-75.02719,0.7419132,-3.0782444,762.6558,53.958267,9.014618,112.15795,112.148766,112.10567,112.062546,3.8687074,0.7,-117.15925,-738.19,0.0011649004,-3.5689628,3.272728,3.2300801,3.8760467,3.3969197,7.099472e-07,0.3,2.0314767,88.155334,88.14184,88.33275,88.17164,0.085773215,0.5234375,4.838312387466431,23.18697958389918
35,350000,72.1734088017428,-92.52217,1e-45,-64.82437,0.5780809,-2.3266387,833.8707,12.039253,9.3567,111.44344,111.439354,112.034706,111.3266,2.5384653,0.7,-118.38188,-791.53204,4.271895e-05,-5.1714363,3.8059816,3.0120811,2.4016137,2.5890918,1.10175456e-07,0.3,2.185244,90.277466,90.34364,90.24241,90.291504,0.068448365,0.471875,5.661567687988281,23.841485865910848
36,360000,68.07595166914298,-87.83202,0.0,-94.832596,0.505885,-2.3683448,793.67224,9.214351,9.125586,111.019516,110.93637,111.54158,110.882614,1.9580923,0.7,-116.517265,-707.7502,0.00050379266,-7.9820213,4.310849,4.2752705,4.1640778,4.4704876,6.551895e-06,0.3,1.8837594,85.825806,85.80197,85.85748,85.80517,0.07143517,0.48125,5.3993775844573975,24.494322713216146
37,370000,65.97382133749484,-89.22953,0.0,-110.56095,0.6369331,-0.44129753,850.062,20.708172,8.294535,111.79551,111.62612,111.900764,111.94574,1.2785807,0.7,-116.322815,-812.31384,3.6127167e-05,-4.7377996,1.2106407,1.8259614,1.3248967,1.6951239,2.1129383e-09,0.3,1.9164631,87.179565,87.11919,87.43271,87.34775,0.06603101,0.4265625,5.2391252517700195,25.14208732843399
38,380000,69.70275907919829,-87.98702,0.0,-121.44043,0.5602796,-0.5305486,992.559,7.0371213,7.9485354,111.60187,111.8372,111.48869,111.54456,8.001183,0.7,-117.534004,-709.5215,0.0029608938,-3.7872317,2.0852108,2.1969523,2.3497498,1.7927424,8.580992e-06,0.3,1.7729851,86.09601,86.06091,86.294876,85.89988,0.13266686,0.5375,5.495067834854126,25.790662829081217
39,390000,76.07767225711558,-93.60901,0.0,-72.86351,0.8363284,-4.9008636,1529.386,20.596733,13.768105,111.80772,111.74673,111.878494,112.189156,2.020364,0.7,-121.18361,-720.0467,0.0003747833,-3.7925053,6.1128035,6.466239,6.2584267,6.5295334,8.6838264e-07,0.3,2.3148072,91.27748,91.24519,90.90466,91.11135,0.08663847,0.4015625,5.828659534454346,26.449472633997598
40,400000,63.52909159268572,-90.09239,0.0,-97.460236,0.56813043,-9.422058,768.35736,15.69619,9.07579,110.77523,110.85402,111.23663,110.93669,1.0829235,0.7,-117.15667,-910.5247,0.004251197,-3.0235314,10.136952,10.520221,10.285886,10.300516,4.3655748e-10,0.3,2.1319222,87.94032,87.980865,88.12288,88.07823,0.06126079,0.4453125,4.892977714538574,27.09359024365743
41,410000,70.08998014113051,-86.23651,0.0,-127.21272,1.5160296,-1.2410308,735.0302,18.445581,8.81021,111.98005,111.82864,111.70006,111.38009,6.7224574,0.7,-116.0061,-1031.4392,0.0014721293,-4.128163,1.2177283,1.616147,2.9718494,1.9563683,3.1944364e-08,0.3,1.8974149,84.47976,84.46117,84.79082,84.34967,0.16004297,0.5453125,5.556443452835083,27.751330852508545
42,420000,66.57828018355113,-91.42583,0.0,-100.649055,0.38129637,3.0213544,1437.293,7.3040648,11.926506,112.267815,112.23754,111.990776,112.047424,6.232794,0.7,-123.569565,-738.8475,0.0017762578,-4.756587,0.9336672,0.896282,1.3171867,0.9290216,2.6204363e-09,0.3,2.1194756,89.35157,89.285645,89.213455,89.37039,0.08765674,0.39375,5.217385530471802,28.39609088897705
43,430000,72.61256322187087,-92.00168,0.0,-107.1829,0.7152437,-0.08615136,706.74054,49.348755,8.774569,111.37122,111.72336,111.97851,111.96392,1.2354932,0.7,-116.07449,-989.8018,0.00011218182,-4.972496,3.5297363,3.3507557,4.161468,4.2271285,2.3469328e-08,0.3,1.9522555,89.91934,89.86488,90.184525,90.09746,0.07136289,0.434375,5.768718481063843,29.055658423900603
44,440000,78.594032734372,-90.53641,0.0,-148.20122,0.5537384,-2.1718152,832.46405,17.918467,8.940753,111.495155,111.750565,111.61474,111.64609,2.6832995,0.7,-117.513374,-921.4971,0.001896708,-5.299693,3.8617454,3.6025002,3.1069925,3.1902025,7.1960386e-07,0.3,1.8050289,88.610245,88.73117,88.885574,88.803986,0.0740307,0.47968748,6.200291395187378,29.72287516593933
45,450000,70.00504608063446,-86.84488,0.0,-116.311356,1.0475941,0.3569498,688.83374,14.2510395,9.144818,111.90766,111.921616,112.74862,112.45598,2.3063319,0.7,-114.988045,-1109.8795,0.0016473853,-4.3870783,1.9480703,2.114957,1.3605319,1.960003,8.250936e-08,0.3,2.1851978,84.71307,84.70039,85.19332,85.15174,0.076451026,0.3640625,5.462834358215332,30.36850239833196
46,460000,82.9781029168913,-91.053345,0.0,-155.53958,0.44483918,0.6252977,848.0718,31.445635,10.929219,111.482704,111.572495,112.03733,111.666824,4.25166,0.7,-121.6672,-953.9324,0.0016420787,-5.6529274,0.91189677,1.0586135,1.1483861,0.73467183,1.0430813e-08,0.3,1.8822033,89.13098,89.13771,89.3231,89.0248,0.09459317,0.54375005,6.6083831787109375,31.032499984900156
47,470000,68.88870296548515,-89.11684,0.0,-141.53519,0.5029161,-1.5909772,1203.5592,8.217469,8.857348,112.23122,111.89198,111.61408,111.4897,1.7421215,0.7,-115.71134,-977.1324,0.00013512705,-5.670709,3.301539,3.444723,2.116882,2.3034286,1.2730016e-08,0.3,2.0907931,86.983215,87.003525,86.8483,86.86374,0.07086523,0.496875,5.357885360717773,31.67931360801061
48,480000,66.94977664163582,-89.245735,0.0,-126.72792,0.5033281,1.0678228,1705.139,5.351096,13.029897,111.85364,111.67585,111.35646,111.31029,6.3914933,0.7,-123.28887,-1039.9507,0.00022168877,-5.187044,-0.13644347,-0.1740273,1.3770896,-1.1246744,3.081368e-06,0.3,1.8318424,87.39914,87.322174,87.178406,87.059006,0.11432576,0.5546875,5.1767308712005615,32.32812141577403
49,490000,74.31723293153408,-87.8197,0.0,-152.9082,0.30731553,1.4749879,1962.6838,9.8963995,14.248039,111.46759,111.059265,111.355286,110.87869,1.3295467,0.7,-116.84483,-943.6547,0.00050422206,-6.1300225,0.3826397,0.0912523,1.4438175,0.6108823,9.782961e-08,0.3,1.7682486,85.85661,85.83649,85.82376,85.853226,0.058042098,0.4796875,5.664551258087158,32.98622748057048
50,500000,69.73737933807898,-90.07416,0.0,-140.85632,0.46926016,-5.2224655,1741.1053,5.0190234,16.172523,111.39557,111.13706,111.15785,110.86936,3.06308,0.7,-118.98841,-1550.3488,0.00074261107,-7.9364233,6.4183617,6.257361,5.809669,5.8009667,4.0065675e-06,0.3,1.7946858,88.16767,88.13047,87.98363,88.098755,0.07528924,0.48593748,5.406892538070679,33.637380091349286
51,510000,64.28290570101166,-87.63365,0.0,-107.92076,0.61627626,-2.4569798,1543.0312,7.7166185,11.424477,110.86899,110.81089,111.02225,111.06072,1.6973066,0.7,-116.86259,-1198.4896,0.0005319901,-6.396698,5.065411,4.778795,4.8453875,4.8731813,1.0913936e-06,0.3,2.1727471,85.39668,85.445694,85.635284,85.6478,0.064095244,0.40937498,4.938919544219971,34.28439817428589
52,520000,68.99071918654673,-91.503075,0.0,-125.38623,0.4179924,-2.403714,986.17615,4.669611,11.215131,112.04051,112.14035,111.975426,112.15519,0.5016577,0.7,-117.66738,-1106.3538,0.00047944632,-4.6866,4.969523,4.7829976,4.75611,5.055537,1.0300835e-06,0.3,2.119493,89.453804,89.432106,89.37357,89.44975,0.05214486,0.4453125,5.412763833999634,34.933870458602904
53,530000,70.6660944348888,-92.780426,0.0,-159.0907,0.3547664,-4.66292,1126.2133,10.162448,10.0908575,110.991905,111.12666,110.67973,111.062,3.4655135,0.7,-118.984314,-1367.1755,0.0033468348,-4.2606263,6.1700273,6.3615127,5.778972,6.1260595,2.231216e-07,0.3,2.155819,90.50123,90.589615,90.35383,90.50161,0.071861565,0.4203125,5.480861186981201,35.583777129650116
54,540000,79.40119472803758,-90.62491,0.0,-136.99858,0.4052489,-14.610204,1730.8113,19.45794,10.003581,110.53494,110.493385,110.61195,110.225266,2.9796376,0.7,-119.88575,-1404.5306,0.0011189207,-4.0454373,15.35956,14.999554,14.987229,14.73392,9.97464e-07,0.3,1.953559,88.52611,88.54135,88.44156,88.49834,0.10267098,0.48281246,6.195556879043579,36.25078462362289
55,550000,74.25104957693023,-87.76158,0.0,-169.11621,0.9081051,-0.6440381,1848.686,71.745094,11.79827,111.47215,110.92184,110.98213,111.26419,1.6583953,0.7,-123.113945,-1425.6602,0.0016202382,-3.9888725,2.1604304,2.1635547,1.8067479,2.2617638,7.6065774e-08,0.3,1.9155364,85.74588,85.7023,85.73898,85.94931,0.09676911,0.37343746,5.732088088989258,36.909690296649934
56,560000,71.22079594645297,-91.34161,0.0,-130.20187,0.54123515,-3.0780554,2088.9272,10.481152,9.8392315,110.8807,111.14949,110.41798,110.59794,1.3845384,0.7,-116.548706,-1065.6136,0.00057226163,-3.2161796,4.3952856,4.7144785,4.300316,4.263683,2.739718e-07,0.3,2.1081285,89.15572,89.23799,89.2362,89.22748,0.05901953,0.4671875,5.571023941040039,37.55655363003413
57,570000,66.70977292334325,-92.229294,0.0,-151.27983,0.6772605,-5.0708575,1157.8713,9.379821,10.416358,111.929565,112.057945,111.13935,111.866066,2.541291,0.7,-118.45065,-1051.8662,0.002005121,-3.9426014,7.2911143,7.940202,6.5859747,7.03179,4.5264025e-07,0.3,2.1215632,90.01068,90.10525,89.66553,89.790726,0.07474294,0.52656245,5.251049757003784,38.205275181929274
58,580000,68.03984553288466,-88.30146,0.0,-157.21504,0.78212684,-3.0154004,1499.5023,11.0533085,9.815857,112.007095,112.32949,112.50406,112.846725,3.556308,0.7,-118.41623,-1120.874,0.0002766776,-4.602256,3.7079043,3.942554,4.267468,4.7644596,1.2175151e-07,0.3,2.1820445,85.98804,85.96098,85.78183,85.9937,0.108263046,0.3484375,5.36425256729126,38.8531756122907
59,590000,81.02127013615844,-88.452675,0.0,-198.57092,0.5633467,0.7576271,932.9162,14.606442,9.671879,111.40743,111.67006,112.52128,112.33775,1.5656413,0.7,-116.17852,-1306.1952,0.0013341674,-5.431568,1.8571839,1.9779484,2.416881,2.566716,6.992312e-07,0.3,1.7838593,86.80642,86.74271,87.038506,86.97725,0.07812241,0.38125,4.835219621658325,39.49060821930568
60,600000,67.9081557488377,-89.492165,0.0,-159.28836,0.4352879,-6.351925,1113.4739,5.9447713,9.240133,110.37035,110.10035,110.529854,110.161224,2.7234762,0.7,-116.66975,-1360.3224,0.00070734095,-5.2489634,7.8771276,7.547944,8.499637,8.414637,3.0367112e-06,0.3,1.8655546,87.64242,87.661835,87.7242,87.70429,0.07540616,0.45,5.324061870574951,40.144586356480914
61,610000,66.47594179210907,-88.97312,0.0,-154.55229,0.4776702,3.428023,1062.0415,23.21735,7.9412293,110.50608,110.39557,110.37875,110.40394,2.1075957,0.7,-117.47615,-1243.8036,0.00065986486,-3.8565633,0.60058874,0.71691996,1.332048,0.25182518,2.5465852e-10,0.3,1.9957514,86.85747,86.89459,86.85143,86.88623,0.087727845,0.47968748,5.269242286682129,40.79552075862885
62,620000,80.59345949326165,-89.34979,0.0,-173.74274,0.31842434,-0.5942428,1184.4392,3.7964387,10.459311,110.303535,110.762596,110.78926,110.52075,0.8786945,0.7,-118.42796,-1607.8486,0.00018098304,-3.643701,2.1874695,2.5011613,1.8142169,1.9808412,1.5103143e-07,0.3,2.298941,87.05481,87.08214,87.04111,86.97748,0.055088773,0.45468748,6.3741676807403564,41.46140163342158
63,630000,69.05100607396813,-90.93507,0.0,-145.56934,0.42617175,-3.6063595,1556.0687,13.625702,8.795728,110.6912,110.530075,110.78214,110.66437,3.4683378,0.7,-117.17773,-1455.3871,0.00044394197,-5.2440143,3.571446,3.7573438,1.5712324,4.2615848,4.3226754e-07,0.3,2.1391516,88.763504,88.75273,88.90217,88.9308,0.07482155,0.4125,5.351925611495972,42.11104565461476
64,640000,78.72776632900018,-89.89407,0.0,-139.17267,0.50879395,-4.889329,1281.3646,19.974098,10.158665,111.59011,111.60438,111.24155,111.27652,5.1315746,0.7,-118.023415,-1456.029,0.0003809632,-3.9252203,5.5246897,5.2223125,4.973792,5.060933,1.4584687e-06,0.3,2.172193,87.71931,87.6362,87.59956,87.667206,0.088685304,0.47968748,6.289191007614136,42.774414936701454
65,650000,62.56780304731372,-88.69704,0.0,-188.41931,0.34645134,-1.5752606,1633.4412,6.312497,8.941425,111.07648,111.12679,111.09399,111.42449,3.485782,0.7,-118.688,-1238.0598,0.00069402764,-3.4942749,2.353188,2.7270312,2.4376404,2.325808,1.5652738e-06,0.3,1.9923373,86.59481,86.60838,86.583786,86.59127,0.06146678,0.43593746,5.288519382476807,43.424425303936005
66,660000,55.253651648148235,-87.38876,0.0,-225.00464,0.43746176,-3.2803237,2047.63,6.0834312,7.9370575,110.77369,110.90814,110.70931,110.404884,1.8578619,0.7,-116.60493,-1374.0131,0.00051943754,-5.0326424,4.683264,4.4165683,3.8634303,4.2775755,1.0430813e-08,0.3,1.8684187,85.42862,85.46944,85.51633,85.29647,0.097043335,0.55625,4.373532772064209,44.05306817690531
67,670000,72.4120844650048,-89.318924,0.0,-114.61929,0.49545437,-5.260792,2392.3337,6.232233,9.5652275,110.33797,110.707825,110.2683,110.54188,2.303285,0.7,-117.149635,-1297.9043,0.00011872576,-3.6118548,6.535627,6.9720287,5.874175,5.9332595,4.3655746e-08,0.3,2.1502166,87.02045,87.01784,86.69978,86.84633,0.065104574,0.43906248,5.920273303985596,44.70978311697642
68,680000,80.38006865171528,-90.58627,0.0,-260.71667,0.3660097,-0.1528281,1233.4912,6.576644,7.748569,111.13038,111.24683,111.63856,111.36216,0.6117237,0.7,-117.01223,-1717.541,0.00020698091,-3.8958359,1.3652909,1.5523322,1.3701805,1.4977766,6.437302e-07,0.3,1.9192939,88.6319,88.61644,88.6727,88.66745,0.03924776,0.4203125,6.828546047210693,45.382798584302265
69,690000,69.5717596049561,-88.62639,0.0,-200.10071,0.5351099,-0.9878572,1505.1486,41.914776,8.437628,111.60061,111.610596,111.9623,111.943375,31.204092,0.7,-116.417015,-1427.3752,0.00073184504,-6.9392433,1.0377251,1.3018892,1.2254122,1.5393373,1.1457014e-07,0.3,2.0003035,86.48543,86.55061,86.527664,86.65075,0.22698663,0.44062498,5.634709596633911,46.03027257521947
70,700000,72.0016650135708,-88.56393,0.0,-202.03452,0.53666437,-0.009200335,1874.9823,7.7491846,7.983185,110.91649,110.93044,111.04241,110.787506,1.3387331,0.7,-116.49359,-1372.968,0.0015718341,-4.1626163,1.6599965,1.5913277,1.3347073,2.0205007,1.9992586e-07,0.3,1.9665034,86.4837,86.51397,86.77864,86.690216,0.06606884,0.453125,5.929460287094116,46.685846559206645
71,710000,74.35729175160968,-92.930275,0.0,-216.05835,0.5240344,-2.4618225,1175.4624,58.67726,9.361484,110.43686,110.32874,110.958206,110.35678,2.2575798,0.7,-117.04278,-1439.3921,2.3212517e-05,-3.6976385,4.3481927,4.5264783,4.7369933,4.513906,2.3497269e-07,0.3,2.020224,91.02874,91.000984,91.09002,90.94148,0.07707626,0.50624996,6.128067255020142,47.34623482227325
72,720000,80.69513700539261,-91.385345,0.0,-161.4638,0.66407394,0.9507885,2103.9182,23.351387,8.337693,111.26984,111.0931,111.138664,111.44255,1.0056188,0.7,-115.70255,-1613.6173,0.00024500908,-5.060568,3.8115807,4.3323483,4.308381,4.2117705,1.2730016e-08,0.3,1.9958018,89.37774,89.33443,89.42061,89.42909,0.06759576,0.41718748,6.5605692863464355,48.010519456863406
73,730000,86.33051982257149,-88.34181,0.0,-170.64737,0.39292565,0.7320185,1502.6864,8.833916,9.138393,110.4311,110.64233,110.38914,110.63167,9.080237,0.7,-116.72943,-1837.5544,0.00042796799,-6.443869,0.77273226,0.989255,1.1085261,1.0013295,5.106151e-07,0.3,2.0574002,86.13707,86.20372,86.230545,86.22392,0.116220705,0.42187497,7.039111137390137,48.69091197649638
74,740000,79.32553891097213,-92.67758,0.0,-109.41325,0.5893231,-3.4562302,2155.2415,32.88478,8.667194,111.262314,111.65275,111.42427,111.236465,7.9869356,0.7,-119.21214,-1447.3396,0.001285692,-3.799497,0.98633355,1.0066253,1.3775008,0.75047004,2.542918e-07,0.3,2.2391145,90.465416,90.47974,90.5096,90.42824,0.10356094,0.45,6.697071075439453,49.36239184141159
75,750000,83.82763918983707,-92.30512,0.0,-107.59212,0.3762131,-7.8239717,1419.8131,10.318983,8.997637,111.69327,111.61792,111.08365,111.647484,5.192613,0.7,-117.05743,-1355.0168,0.00017529924,-3.4380856,5.4898624,5.5709085,5.755727,5.9139585,1.5716069e-10,0.3,2.2103095,90.09181,90.02686,90.026276,90.14836,0.082565665,0.40156248,6.718176603317261,50.03407643238703
76,760000,71.0129427501381,-90.383644,0.0,-201.33823,0.507245,-1.5703396,2732.1064,5.2248864,15.957672,111.35242,111.39475,110.98531,110.979065,4.229108,0.7,-119.592026,-2424.0103,0.002199582,-7.5367894,2.36402,2.4139369,1.4745545,2.314738,3.0135269e-07,0.3,2.105943,88.36316,88.35984,88.04942,88.279724,0.0796933,0.39218748,5.630167722702026,50.69334836006165
77,770000,68.63486612376416,-90.37913,0.0,-220.26572,0.38020727,-1.6991286,1624.5981,6.0465865,10.231531,110.89781,111.01407,110.56741,110.70779,1.852258,0.7,-117.22357,-1539.6473,3.5371922e-05,-3.5138988,3.4082956,3.9713063,2.900785,3.3832679,7.647497e-07,0.3,2.0826478,88.242645,88.3234,88.24487,88.419655,0.07949041,0.43125,5.377184867858887,51.34540611108144
78,780000,76.86232193872117,-90.50761,0.0,-220.01718,0.5280091,-7.096971,2192.331,11.661253,7.879528,111.449394,111.365746,110.86571,111.1837,9.867963,0.7,-116.42823,-1761.7767,0.00040785113,-3.7741594,8.724837,8.666693,8.456301,8.766853,6.468734e-07,0.3,1.8655573,88.57951,88.64642,88.594574,88.73353,0.13254328,0.44062498,6.339630126953125,52.0135079463323
79,790000,88.29260387915365,-90.88587,0.0,-199.68466,0.56442124,-5.017606,1315.2892,9.522924,7.7291245,110.79557,110.94428,111.06441,111.08429,2.9802725,0.7,-118.45243,-1740.4419,0.0004220943,-4.7104273,5.3010864,5.1732554,6.83964,6.1379027,1.678127e-08,0.3,1.9551262,88.87992,88.89362,88.966064,89.027466,0.07833736,0.39218748,6.838325500488281,52.69091101090113
80,800000,78.15350134932488,-89.25252,0.0,-237.9624,0.37888068,-2.4191144,1533.8168,10.541551,8.394403,111.434616,111.72194,111.62123,111.68412,1.6428953,0.7,-119.56451,-1839.8347,0.00054561516,-5.47202,3.0026846,3.500896,2.8035665,3.1510684,4.4703486e-07,0.3,1.9123461,87.323364,87.48134,87.26756,87.230675,0.06754008,0.46718752,6.075102090835571,53.35403389533361
81,810000,83.9069468709894,-90.97001,0.0,-219.31125,0.6082432,-1.0591474,1503.7521,11.666523,9.950315,111.78455,111.6499,112.11899,112.03227,5.225278,0.7,-117.51822,-1905.4812,0.0007393948,-3.5172133,1.7733817,1.586713,1.4516914,1.4952599,3.3741233e-07,0.3,2.0208397,88.89424,88.87132,89.16022,89.12419,0.07419734,0.41718748,6.4923624992370605,54.02597294251124
82,820000,77.19917597250323,-90.910324,0.0,-169.33131,0.411903,-4.0772295,2700.0037,32.836353,8.617788,111.417274,111.61655,111.188614,111.37667,6.936507,0.7,-116.57366,-1851.6565,9.400328e-05,-4.141035,2.2533212,2.621471,1.7753742,2.176652,4.5182123e-06,0.3,2.150496,88.58974,88.60148,88.64165,88.74332,0.081405975,0.44375,6.047255992889404,54.69068222045898
83,830000,71.24060479972043,-91.76332,0.0,-245.95503,0.53704596,-5.6519327,2216.962,12.919623,9.890097,110.8109,110.91404,110.77519,110.82152,1.5100116,0.7,-118.17762,-2423.0002,0.0012249325,-5.209263,6.6308837,6.766414,5.6169815,6.7984314,1.6770792e-07,0.3,1.8023174,89.88245,89.88867,89.73357,89.79441,0.07831451,0.4734375,5.546429395675659,55.345874901612596
84,840000,71.91686524606223,-89.75099,0.0,-133.4342,0.37197992,-3.0233438,1847.0775,7.5338836,10.223294,110.9394,111.39546,110.872894,111.687874,3.6311603,0.7,-121.2925,-2299.464,0.0003080294,-3.2892084,4.433444,4.0727763,4.005315,4.102341,8.5667125e-07,0.3,2.3891191,87.38803,87.33859,87.373375,87.33048,0.11234613,0.496875,5.685943603515625,56.00443274974823
85,850000,80.3467598593705,-91.21246,0.0,-226.14706,0.6063386,-5.163401,1677.5602,25.344997,10.247964,111.26579,111.1644,111.32914,111.36264,10.045867,0.7,-117.370445,-2218.4607,0.00020051585,-4.4097147,6.385695,6.511017,6.187458,6.5709085,1.2915116e-07,0.3,2.0980008,89.09924,89.10498,88.9485,89.147156,0.102942854,0.403125,6.35492205619812,56.67441690762838
86,860000,77.69920077882539,-90.14858,0.0,-259.125,0.2925234,-0.14538383,3892.4314,5.7167034,8.898877,111.249344,111.53396,111.59649,111.44724,1.0340521,0.7,-119.22909,-2468.568,0.00011279556,-5.6103916,1.7536095,1.8369682,1.3728199,1.2899451,2.1742133e-06,0.3,2.0082371,88.13309,88.13099,88.080925,88.06972,0.05645761,0.47812498,6.120300531387329,57.33574473063151
87,870000,81.29976074917428,-92.78084,0.0,-160.05331,0.49141437,0.6252042,2463.8264,4.728826,13.335611,111.59677,111.853134,111.24475,111.315895,0.7683152,0.7,-116.123795,-2012.4038,0.00089756143,-3.8035533,0.7609456,0.54872525,1.408836,0.17085347,3.3738908e-07,0.3,2.4288204,90.355965,90.46386,90.10397,90.1561,0.05658533,0.4890625,6.41681981086731,58.006284244855244
88,880000,82.5611906976788,-90.071205,0.0,-237.7001,0.6989829,0.17206615,1455.1895,38.900124,8.951113,111.17044,111.07875,110.87054,110.90474,2.458531,0.7,-117.55982,-1846.9749,3.150158e-05,-3.7527819,1.137094,0.7126127,1.4099382,0.9779114,2.1147544e-06,0.3,1.9279988,87.9845,88.00782,87.83924,87.94031,0.08245233,0.509375,6.3590826988220215,58.672383121649425
89,890000,84.02744597990007,-87.91906,0.0,-238.04501,0.6603964,-0.737581,2287.4756,24.895132,12.092227,110.78585,110.50644,110.75653,110.54909,4.9777074,0.7,-120.09437,-2012.1514,0.0016177921,-4.605152,2.6702442,2.476037,2.4579334,2.7347221,1.0430813e-08,0.3,2.1160696,85.69783,85.695724,85.82231,85.68085,0.086787626,0.534375,6.524415969848633,59.343094631036124
90,900000,82.8497491546231,-91.09523,0.0,-255.92766,0.3434622,-5.9814687,2235.014,5.183725,8.485991,110.891685,110.93584,111.11056,111.01676,4.385732,0.7,-116.19001,-2965.503,0.00015256577,-8.02847,7.151423,6.7303696,7.935387,7.881718,2.3497269e-07,0.3,2.0152798,89.033264,88.98541,89.0383,89.0182,0.07103141,0.49531248,6.43561053276062,60.01571867465973
91,910000,76.49316925722954,-89.450424,0.0,-164.65176,0.6437823,-5.639505,1540.1937,45.62101,9.167556,111.223915,111.26231,111.38837,111.0407,10.141268,0.7,-116.45495,-1437.786,2.2054883e-05,-4.078329,6.22986,6.870892,5.6277127,5.632824,3.5992591e-06,0.3,2.1997328,87.1615,87.22195,87.108574,86.83729,0.18689853,0.5859375,5.93379282951355,60.67401137749354
92,920000,80.8537047452061,-91.47009,0.0,-201.09766,0.50002766,0.07879734,2004.8599,5.8714933,12.247327,111.15468,110.96365,111.260574,111.12233,2.6426141,0.7,-121.293434,-2004.8972,0.0007062343,-5.6921616,1.7907774,1.981714,2.1851773,1.9379184,3.5361154e-08,0.3,2.153276,89.3153,89.3255,89.52867,89.55369,0.105381906,0.40781248,6.352524757385254,61.33966488838196
93,930000,63.7662347208931,-88.09402,0.0,-260.08502,0.47889692,-0.88922,2377.4893,22.584179,11.29599,110.464554,110.41496,110.40483,110.49246,2.543741,0.7,-121.138,-2009.1731,0.00019911015,-5.8587365,0.9665232,1.0842869,1.1143972,0.7911729,1.174165e-05,0.3,2.2047172,85.72151,85.795006,85.6552,85.821686,0.068350896,0.45625,4.9273457527160645,61.9776859998703
94,940000,71.11819469928508,-88.42175,0.0,-271.07397,0.63622487,0.08860779,2772.3792,46.52134,9.608907,110.92823,111.10205,111.033195,110.92588,4.872341,0.7,-119.160416,-2060.8147,0.0005465702,-4.6073422,1.8095956,0.8322212,1.398815,0.34485543,1.261651e-07,0.3,1.901293,86.40526,86.45807,86.52871,86.52078,0.100411594,0.47187498,5.436730861663818,62.62995335658391
95,950000,67.96503133830691,-90.53636,0.0,-170.23956,0.51855135,-3.5312276,1630.9453,26.26567,9.810153,110.6549,110.752556,110.82067,110.55274,6.5870986,0.7,-117.14716,-1756.1057,0.0014795933,-2.9206328,4.4858255,4.6041937,5.469618,5.2869883,1.7326967e-06,0.3,2.3950105,88.12777,88.15703,88.06794,87.95424,0.08042277,0.5171875,5.277341842651367,63.28252398570378
96,955000,80.00190820680663,-91.445206,0.0,-237.50215,0.98441106,-0.7215675,3292.2405,20.776669,10.0045,110.98668,110.82773,111.67666,111.48805,8.58562,0.7,-115.99029,-2266.3167,0.00028762995,-4.9552746,2.3528068,2.0192,1.3550593,2.1097558,1.2824487e-06,0.3,2.2340996,89.14358,89.123856,89.38933,89.26709,0.107359126,0.47031248,6.308776617050171,63.66916809479395
97,960000,76.74094615802882,-90.7952,0.0,-208.35406,0.44993973,-0.74457455,3743.2524,10.494144,9.084324,111.2171,111.41012,111.22012,111.47533,1.0871776,0.7,-116.415695,-1696.8478,0.00039206498,-4.9425635,2.393763,1.7376852,1.4334921,1.2343833,3.6946374e-06,0.3,2.2241926,88.485344,88.493484,88.4675,88.51165,0.057375845,0.490625,5.945719480514526,64.05168359279632
98,965000,81.9324720361096,-91.273544,0.0,-125.994965,0.50155437,-6.841499,1735.7125,11.972988,9.088232,110.98379,111.01666,111.292946,111.35275,5.1017704,0.7,-117.94466,-1712.1045,0.00012640553,-3.6265502,7.8913507,7.7277875,8.476049,8.29212,3.929017e-09,0.3,2.398789,88.7854,88.80101,89.007545,88.98158,0.07748561,0.421875,6.450124502182007,64.43724768161773
99,970000,81.03539813728426,-89.00905,0.0,-271.05847,0.4700364,-1.3346906,1915.481,22.258757,9.239819,110.80546,110.81616,110.589714,110.79775,8.140509,0.7,-115.87385,-1985.0106,0.0008706109,-7.042822,2.3775225,2.2183528,2.3292518,2.6427984,3.521098e-07,0.3,2.0255318,86.867096,86.87804,86.9497,87.05435,0.102471516,0.4125,6.304927110671997,64.82426982323328
100,975000,85.40182593088625,-90.6655,0.0,-228.14607,0.6536542,-1.4538612,2839.3906,11.316845,9.822971,111.20292,111.09191,111.526985,111.35341,2.7783434,0.7,-117.66632,-1889.5134,2.3862813e-05,-3.8228474,3.1545997,3.1536267,3.623664,3.472212,1.7462298e-07,0.3,2.0614488,88.571594,88.55046,88.9382,88.78159,0.07069567,0.4765625,6.624446392059326,65.21847777366638
101,980000,81.47194252724178,-89.82148,0.0,-207.5336,0.45545644,-0.93741727,1695.2523,4.769679,8.668706,110.64395,110.71348,110.33289,110.40598,1.5987207,0.7,-116.63809,-2475.272,0.0034893719,-8.389404,2.8611872,3.3279235,2.5457826,2.692609,5.657785e-09,0.3,2.0400026,87.8242,87.840225,87.491104,87.69862,0.060824893,0.440625,6.265023469924927,65.6031183719635
102,985000,79.25706836791538,-89.01143,0.0,-253.1101,0.3591709,-0.74952936,2343.0647,5.193497,11.127487,111.078804,111.320045,111.13503,111.21546,0.6669776,0.7,-115.95424,-1736.4299,0.00018815655,-4.0870233,2.1801696,2.4225187,2.2224543,2.4618316,1.6770792e-07,0.3,1.8985698,86.843506,86.92731,86.815765,86.89957,0.055922598,0.4359375,6.282560586929321,65.98851629892985
103,990000,77.3192948881879,-92.18472,0.0,-267.8009,0.53718615,3.651652,3618.7083,49.96511,12.311449,110.86451,110.83276,110.95741,111.04205,2.4430258,0.7,-116.904,-2063.97,0.00020161283,-6.4719324,3.1702588,3.2965574,3.9190474,4.251799,1.69985e-06,0.3,2.0284534,90.15857,90.10959,90.14072,90.213,0.06875578,0.39218748,6.096058368682861,66.37266204754512
104,995000,78.04898288830299,-88.241165,0.0,-199.30692,0.6142669,-2.8440611,2092.4697,7.550063,12.468596,111.12772,111.27381,111.588585,111.538795,10.383983,0.7,-115.68228,-2102.249,0.0014285052,-4.510595,4.0503144,4.0461226,3.9105182,3.7957423,1.3201497e-06,0.3,2.0956483,86.181816,86.121994,86.095276,86.10177,0.11859334,0.434375,6.122760772705078,66.7559204618136
105,1000000,77.9531689577211,-91.515785,0.0,-266.76703,0.35550064,-1.9687538,6076.0513,8.708052,9.70775,110.50371,110.26226,110.42799,110.50832,3.3703194,0.7,-115.70765,-1921.5234,0.00026013266,-4.020408,4.2197056,3.8456018,4.606584,4.4594007,1.1895493e-06,0.3,2.1184702,89.26076,89.28332,89.22541,89.31133,0.07447616,0.41249996,6.010226726531982,67.13926732142767
