Xixo99/comfo/baselines/comfo6_perterbation_actor/20230225_noise0.01/hopper-medium-v2/COMFO6_s1_20230224_151913_hopper-medium-v2_55.44.csv
,step,reward,actor_loss,alpha,alpha_loss,critic_loss,max_actor_loss,max_alpha_loss,max_critic_loss,max_mle_prob,max_q1,max_q2,max_target_q,max_v,max_value_loss,max_weight,min_actor_loss,min_alpha_loss,min_critic_loss,min_mle_prob,min_q1,min_q2,min_target_q,min_v,min_value_loss,min_weight,mle_prob,q1,q2,target_q,v,value_loss,weight,eval_time,time
0,0,4.777474521713499,,,,,,,,,,,,,,,,,,,,,,,,,,,,,,,,,
1,10000,48.655828331771474,-42.262314,0.06655066,-3.4195,0.43405887,1.8251708,13.015547,10.50983,8.598366,55.84998,56.092255,56.03478,56.004204,7.2735634,0.7,-63.116573,-16.243477,0.00016813751,-9.356997,0.65980625,0.24649668,1.9104998,2.622577,2.2631139e-06,0.3,1.7198426,40.616478,40.654366,40.48085,39.975006,0.08674954,0.5125,3.5353145599365234,2.0037458658218386
2,20000,55.50671585585177,-64.3524,0.0037093482,-8.782447,1.8290932,0.36623943,31.934494,114.061554,8.987005,85.625854,85.73272,85.20461,84.70259,7.618292,0.7,-91.27549,-36.7011,0.00070084055,-7.8056417,0.10387027,0.76378834,0.5353212,0.94113445,3.5204168e-06,0.3,1.292114,62.83558,62.796005,62.982048,62.63863,0.21180572,0.4828125,4.148354530334473,2.6390809575716654
3,30000,55.095203002359014,-78.615746,0.00019718065,-9.377352,0.79274166,2.4325943,50.812904,21.126509,8.447814,97.86128,98.01369,97.432724,97.997986,4.1128387,0.7,-104.91027,-73.740364,0.00019106726,-5.55998,-2.0000196,-1.5616064,-2.9692817,-0.14881429,2.0746957e-07,0.3,1.4785442,76.97735,77.05662,76.91936,76.949585,0.13718787,0.4140625,4.032042980194092,3.2736743609110515
4,40000,54.12883458579311,-85.99234,1.0313364e-05,-12.911428,1.1796713,-0.94004446,78.68888,38.97056,8.250495,104.87207,104.65512,104.15392,104.79105,3.7802365,0.7,-110.48362,-98.63291,0.00060221815,-4.4001756,1.0654334,0.7662193,1.3687904,1.986493,1.5926315e-06,0.3,1.701284,84.16629,84.14232,83.89177,84.17941,0.16412179,0.3703125,3.908550262451172,3.909761142730713
5,50000,46.08535969609978,-88.92473,5.304859e-07,-15.964718,0.9386357,-2.6932716,86.49376,16.647402,7.9904904,108.648834,108.929565,109.20561,108.99324,4.9413023,0.7,-115.813965,-188.17334,0.00033491204,-3.5994554,3.6243415,4.3573847,3.0317197,3.4519243,2.4258159e-06,0.3,1.8294702,86.91613,86.900215,87.02321,86.9635,0.14176431,0.42499998,3.360491991043091,4.5332919200261435
6,60000,44.6572457501947,-93.70427,2.764682e-08,-13.658421,1.4399109,-5.2283473,105.38325,62.673546,8.238099,111.34275,111.6661,111.44339,111.56136,4.7995424,0.7,-119.98499,-171.988,0.0005828246,-3.735992,5.401931,5.3742166,5.3346887,5.5837736,1.9252185e-07,0.3,1.9862086,91.622894,91.677025,91.27716,91.386696,0.14555398,0.44062495,3.2813687324523926,5.152886871496836
7,70000,50.86511733565653,-92.18441,1.4445213e-09,-16.714344,1.8549058,-0.25641632,143.04132,197.69272,8.077646,112.573944,112.4414,111.708954,111.31281,2.6453543,0.7,-118.18319,-137.82423,0.0010522687,-5.0360284,0.9467645,0.5415778,-0.0032600164,0.43914306,4.4703486e-07,0.3,1.9577491,89.9489,89.9367,89.440865,89.77148,0.107374914,0.465625,3.673649311065674,5.782259213924408
8,80000,49.253063728332314,-92.20529,7.511763e-11,-16.01675,1.3176029,-1.5177181,218.29298,24.605694,8.022953,113.87877,114.044586,111.91256,113.26521,4.7642336,0.7,-120.23001,-170.94019,0.0003994481,-4.9633484,3.3282766,3.1506515,2.6241918,3.162686,2.9511285e-09,0.3,1.9811597,89.893715,89.92381,89.469894,89.78864,0.14986223,0.41562498,3.537060499191284,6.404797979195913
9,90000,50.04398788551349,-92.02901,3.911302e-12,-21.43819,0.9232683,-1.3127809,251.52051,54.951385,10.0374775,113.73732,114.14445,113.663826,113.6084,2.5233278,0.7,-121.56014,-194.3634,0.0005566909,-5.920802,1.8082142,2.3157575,2.0251963,1.9863758,8.919044e-07,0.3,1.9232385,89.906906,89.851,90.204926,89.953476,0.10504631,0.49375,3.658116579055786,7.029081392288208
10,100000,52.473238154504834,-93.25759,2.0356683e-13,-28.885353,0.44718724,-1.0947888,184.58151,7.441133,9.240174,111.77491,112.252205,110.865944,112.74824,2.2327123,0.7,-117.767746,-231.50447,0.00010522129,-3.8980463,3.50312,3.3392768,3.4347517,3.71409,3.677269e-07,0.3,1.8896027,91.210724,91.25162,91.19885,91.25963,0.08764213,0.478125,3.8422162532806396,7.658400189876557
11,110000,55.72612237737733,-89.8248,1.0576746e-14,-31.729748,0.37924352,-1.8172951,261.48157,8.296177,13.177653,112.033714,111.7145,111.8145,111.49301,1.1935178,0.7,-118.145226,-236.44751,0.00011711591,-5.6583266,3.3714926,3.5982833,2.6821055,3.0149224,2.4314505e-07,0.3,1.8870828,87.84863,87.90245,87.875015,87.952194,0.061774127,0.465625,4.054253339767456,8.291548828283945
12,120000,54.615605196956665,-90.43373,5.506306e-16,-42.422367,0.60000956,-1.5733559,214.93687,11.172941,7.959342,112.173515,112.49174,112.9657,112.61048,1.5693893,0.7,-118.76595,-213.19061,0.0006567038,-6.5587144,2.0045962,1.3706461,2.0731335,2.4252267,1.4144462e-09,0.3,1.7808657,88.58412,88.57727,88.82323,88.77728,0.06864406,0.4453125,4.014500141143799,8.921966151396434
13,130000,58.903989932610465,-92.122086,2.8547697e-17,-30.705975,0.9794311,-2.781046,264.45465,72.122475,8.100449,111.92632,112.02299,112.56568,111.565285,1.0076859,0.7,-118.553795,-253.691,0.00071652536,-4.3420486,7.589184,7.4259977,7.053769,7.3411036,1.2915116e-07,0.3,2.0433621,89.99317,90.03792,89.84859,89.98294,0.057837814,0.40625,4.242995738983154,9.5557190934817
14,140000,54.02785390076023,-89.53233,1.4833638e-18,-43.864273,0.7511537,0.47592926,218.26758,18.040876,8.235389,111.868256,112.44567,111.81251,112.35642,2.3460138,0.7,-118.123505,-358.05264,0.00035391148,-5.627639,0.5529432,0.5176679,1.3447014,0.7203208,1.446053e-07,0.3,1.8031415,87.65981,87.647385,87.62744,87.55624,0.1085525,0.5328125,3.7678096294403076,10.182845850785574
15,150000,61.581600775911625,-89.45712,7.704898e-20,-50.581585,0.7922995,-1.2835984,265.66827,16.566248,9.603866,112.33528,112.70697,111.67677,112.33806,2.4192388,0.7,-119.724335,-369.74673,0.00047520018,-4.640502,3.3291235,3.10893,2.4059978,3.0161421,5.482696e-07,0.3,1.7477887,87.78722,87.767426,87.46982,87.46533,0.087752126,0.5046875,4.359918117523193,10.818869650363922
16,160000,66.81652858275055,-87.53554,4.0017467e-21,-55.15725,1.166202,-2.1747546,351.64447,128.2661,8.962269,111.4509,111.427246,111.45757,111.14263,3.706548,0.7,-117.192474,-382.45248,0.00012387853,-6.4560647,4.323537,4.4129667,4.295373,3.5025065,2.4657463e-06,0.3,1.7413954,85.66715,85.77066,85.93763,85.68985,0.11018221,0.46406248,4.798784255981445,11.46555651028951
17,170000,67.64270926142937,-92.43514,2.0760937e-22,-39.78881,0.5119652,-5.6691813,309.54282,12.219863,8.976466,111.0258,110.390625,110.4236,110.78368,2.5358827,0.7,-117.40698,-413.4077,0.0008697589,-7.089757,7.7685685,7.797004,7.1575217,7.375598,6.780436e-07,0.3,2.093453,90.275604,90.2325,90.246056,90.31154,0.076910555,0.4578125,4.8488404750823975,12.114441879590352
18,180000,73.39519473896033,-90.55655,1.0759703e-23,-50.599167,1.0099702,-4.708645,411.63177,17.782604,8.883794,112.30518,112.6262,112.15041,112.022705,1.4080204,0.7,-119.85792,-337.79236,0.0044191135,-2.992381,4.889741,5.4718456,4.6583652,5.015325,9.9836325e-06,0.3,1.8184558,88.54549,88.58786,88.14734,88.45165,0.08744198,0.4203125,5.49385404586792,12.772582991917927
19,190000,90.3825776373618,-86.41371,5.5694236e-25,-63.21968,0.7062577,0.79667807,270.9873,18.197926,11.345688,113.02745,112.876945,112.89878,112.29888,1.1894572,0.7,-119.32387,-371.82703,0.0021326994,-5.7597237,1.0860436,1.0810435,1.2084135,1.0514996,5.5179e-06,0.3,1.8624016,84.52149,84.55954,84.732086,84.43242,0.106476784,0.578125,6.6844401359558105,13.449462115764618
20,200000,91.14348988396237,-89.60753,2.891417e-26,-56.24973,0.76787746,1.5246378,401.49725,7.834895,9.085699,112.47716,112.18863,112.476524,112.07879,0.86218643,0.7,-119.59274,-414.1752,0.0040674144,-4.35522,1.3897394,0.50671446,1.220293,1.8166782,7.3385314e-07,0.3,1.8404199,87.72641,87.69687,88.05359,88.053085,0.051872365,0.4140625,6.832874536514282,14.126489913463592
21,210000,83.9866232022899,-92.166695,1.503679e-27,-67.357376,0.43387175,-0.37858772,388.49136,15.535137,8.87278,111.904144,111.91163,112.7401,111.75165,2.8869293,0.7,-116.92946,-412.52615,0.0008137313,-4.1570835,2.1636176,1.5986338,1.3441337,1.6585523,2.9923801e-06,0.3,1.946033,90.277756,90.26439,90.325745,90.32182,0.082410835,0.4375,6.223026275634766,14.797436622778575
22,220000,81.23794149329935,-89.371155,7.79973e-29,-53.45122,1.0015674,-0.69540906,585.9046,17.16687,10.576168,111.79792,111.5272,111.36655,111.61624,2.4874585,0.7,-116.81968,-395.46622,0.00046107458,-3.866501,1.9569752,1.9155059,1.2858714,0.35423058,8.6217185e-08,0.3,2.1027944,87.21039,87.23091,86.77284,86.8143,0.08365375,0.490625,5.888295412063599,15.46633811791738
23,230000,86.66051119156948,-87.2565,4.0591682e-30,-71.922874,1.1261888,0.6999811,761.1694,45.876747,13.392256,111.782776,111.76897,111.853134,111.75213,1.4476286,0.7,-117.51572,-455.10406,0.00187176,-5.3045716,0.5136703,-0.1669451,1.4133791,-0.6715343,5.1487414e-06,0.3,1.6678277,85.46275,85.51047,85.63828,85.46443,0.11307864,0.559375,6.507683753967285,16.1418280005455
24,240000,88.49053345552599,-91.44356,2.110218e-31,-75.481,0.6014759,-1.1056185,355.4991,23.871044,7.6294355,113.072914,113.6104,113.33668,113.6186,1.0910008,0.7,-118.67894,-598.2291,0.00024761353,-5.039741,2.8114073,2.7840915,3.5156126,4.0654187,8.359803e-05,0.3,1.7883523,89.69467,89.70545,89.96175,90.02374,0.078485906,0.34687498,6.8198840618133545,16.82475223938624
25,250000,76.53149243850409,-90.808914,1.1019435e-32,-73.28052,0.8122318,0.06446171,510.73062,33.687817,9.1414585,112.81663,112.76599,112.75192,112.458046,1.9363536,0.7,-117.81777,-654.96045,0.0022707658,-4.559998,1.6016359,1.6705216,1.2945701,1.2655933,1.08982206e-07,0.3,1.8649831,88.70149,88.807755,88.99335,89.03162,0.066493064,0.43593746,5.876838207244873,17.49293750524521
26,260000,73.16125809944957,-92.053345,5.723634e-34,-47.630966,0.5613322,-0.5244597,596.6202,34.26859,9.632723,111.9154,112.15981,111.84958,111.93106,3.8903701,0.7,-117.733,-601.98206,0.00036439003,-3.5536544,1.2768165,1.0947889,1.3352551,1.4918637,3.014505e-06,0.3,1.9332883,89.95799,90.00277,89.947784,90.12763,0.113141,0.34531248,5.60270357131958,18.151928357283275
27,270000,63.902052746186456,-88.95675,2.992453e-35,-70.121124,0.640628,-1.9527276,542.19403,28.016632,8.615313,112.17458,112.400764,112.63031,112.38288,3.471424,0.7,-117.39444,-634.05066,0.0042980723,-2.29737,3.0959325,3.0519059,4.1910253,4.019954,4.306952e-07,0.3,2.0941505,86.81049,86.7327,87.07648,86.97091,0.09220139,0.4296875,4.997422218322754,18.801889109611512
28,280000,65.18030642545342,-91.34155,1.5622717e-36,-80.32419,0.8108748,1.7819685,590.27954,9.311789,10.224378,111.422646,111.221924,111.93424,111.852554,2.3933291,0.7,-120.36191,-584.1783,0.0013304902,-3.273769,-0.21056286,-0.6378542,1.2912147,0.2979017,1.1059962e-05,0.3,1.9176437,89.22975,89.2767,89.34282,89.454926,0.11449991,0.34375,5.166876316070557,19.456505374113718
29,290000,57.0714628376401,-92.896736,8.182713e-38,-55.83866,0.904477,-4.497645,742.5415,13.884292,8.634344,112.40214,112.39465,112.861984,112.761505,1.3637534,0.7,-118.29435,-844.43024,0.002237292,-4.383892,3.9420807,3.7682464,4.277262,4.1338067,9.077601e-07,0.3,2.3978062,90.42819,90.37268,90.81526,90.69312,0.06387943,0.465625,4.357596397399902,20.09703044096629
30,300000,76.99280118845948,-90.30379,4.27629e-39,-64.355255,0.58426845,2.685094,712.4971,8.83951,9.325659,112.326935,112.37179,112.64375,112.74143,7.5402913,0.7,-119.50187,-614.3069,0.0033012342,-4.5436993,-0.067494005,-0.23876408,1.2444282,0.28501588,5.205791e-06,0.3,2.268166,87.93231,87.859726,87.95269,88.02869,0.09821868,0.440625,5.842228412628174,20.76511733531952
31,310000,72.72724643257162,-91.02835,2.24063e-40,-60.963905,0.5407253,-2.0296483,791.5348,10.230364,9.604984,112.714806,112.98304,112.8655,112.96054,0.8940429,0.7,-121.453186,-615.1336,0.0011333418,-4.513177,3.9688706,4.347668,4.466226,4.3419704,2.1391315e-08,0.3,2.1464634,88.733284,88.848,88.81109,88.72913,0.05862494,0.5015625,5.558332920074463,21.42189395427704
32,320000,67.67751543724613,-89.19333,1.1718e-41,-114.15226,0.51721275,-1.0921886,483.84235,22.727108,8.068077,112.64392,112.402115,112.50296,112.33462,6.128149,0.7,-119.4393,-694.31903,0.0008791816,-5.0319185,2.896615,2.8342278,2.3578088,2.289805,3.9934528e-07,0.3,1.6515458,87.546616,87.45545,87.364655,87.4993,0.098921716,0.42968747,5.229122638702393,22.074702910582225
33,330000,59.60267325969656,-89.22424,6.14e-43,-106.54043,0.6663072,0.39979732,511.76593,6.53749,9.31176,112.9833,112.26973,113.14954,112.876045,1.6076111,0.7,-118.44898,-710.84766,0.0003662096,-4.33054,1.3864664,1.4707544,2.0270772,2.5563707,2.4657463e-06,0.3,1.8022771,87.42134,87.442604,87.715416,87.60769,0.09074913,0.40625,4.475588321685791,22.717414474487306
34,340000,67.74014685577787,-90.09339,3.2e-44,-94.825424,0.73254573,0.33689833,647.47015,52.625454,11.970661,111.565414,111.72722,111.53894,111.57282,1.5002878,0.7,-117.17301,-815.7675,0.0003539294,-6.2025127,2.025096,1.7125475,1.4975526,1.6165358,3.3043036e-06,0.3,1.7615316,88.26159,88.2078,87.94424,88.08458,0.05044493,0.45,5.339158773422241,23.371976284186044
35,350000,54.85948409083503,-92.96335,1e-45,-66.349365,0.3201688,-6.206012,1316.3971,5.9375553,12.480324,112.05075,111.548416,111.47968,112.21575,9.8706045,0.7,-122.100266,-652.0868,0.00023062178,-2.8458657,7.4672217,7.1992054,7.0385294,7.0766535,1.1804514e-08,0.3,2.3612802,90.62436,90.55009,90.45593,90.41238,0.1043571,0.47031248,4.114407062530518,24.009403212865195
36,360000,64.27089841418262,-89.468956,0.0,-149.93556,0.38599676,-2.3449044,577.09424,7.366762,9.838892,112.92678,112.951744,112.44884,112.568,3.2295685,0.7,-120.80048,-841.19495,0.00033425272,-4.404537,2.4910228,1.9976802,1.68399,1.5836079,4.7109899e-07,0.3,1.6860552,87.82416,87.783615,87.76961,87.76631,0.07504885,0.428125,4.823147773742676,24.659395337104797
37,370000,69.19290442997048,-89.93808,0.0,-103.49971,0.8101956,-0.8387685,857.71436,16.440514,10.974295,112.46558,112.65153,112.474594,112.321335,1.7864969,0.7,-117.043434,-773.14075,0.0012522499,-3.3464603,3.6361687,3.199379,3.548761,3.5820036,1.3690442e-06,0.3,2.1484108,87.82169,87.80609,88.05344,87.91571,0.06869088,0.4765625,5.546470403671265,25.32003353436788
38,380000,64.19978926436451,-90.21881,0.0,-108.11386,0.65941125,-0.19766152,774.27313,12.131478,9.4612055,112.1241,112.11008,111.50449,111.76633,1.3178601,0.7,-118.19894,-828.603,0.0010312109,-4.298688,1.7817669,1.8077242,1.2874975,1.6004986,2.4789477e-07,0.3,1.9257252,88.2688,88.21638,87.99739,88.194855,0.06968323,0.4265625,5.567982196807861,25.980601092179615
39,390000,53.06042302466438,-87.88401,0.0,-122.18174,0.70682967,-0.7369971,685.71185,9.472046,9.202321,112.67799,112.535385,111.95184,112.33648,3.1599338,0.7,-117.94558,-900.40234,0.0004633871,-6.4555,2.6213644,2.8134496,2.4904208,2.8999343,4.649442e-06,0.3,1.9454978,85.87886,85.82252,85.65242,85.9755,0.10462305,0.3578125,4.175445318222046,26.61582828760147
40,400000,57.95186138120174,-90.14786,0.0,-95.62752,0.5466368,-2.4157972,1159.7632,7.983087,8.111422,110.883545,110.90214,110.99449,110.8681,6.7862873,0.7,-115.20858,-789.79877,9.12837e-05,-6.5245743,3.5857506,3.2207913,2.6337264,3.0031319,2.4157924e-07,0.3,1.9723171,88.15279,88.08784,87.92655,88.1125,0.1097361,0.4203125,4.842555999755859,27.259141770998635
41,410000,54.378066238541514,-91.04241,0.0,-94.28314,0.29298097,-1.0040886,1170.7869,4.8994923,13.01679,112.49651,112.98858,112.8499,112.88913,1.2347543,0.7,-121.887,-857.86774,0.00019819738,-7.067093,3.440393,3.3647196,3.635078,3.6213448,5.2823456e-08,0.3,2.1990323,88.74731,88.75584,88.83775,88.85887,0.062716365,0.38906246,4.248335123062134,27.89538330634435
42,420000,60.110471382715126,-88.53161,0.0,-98.66955,0.46638256,-1.6231647,1413.9348,16.876003,9.568267,112.22946,112.4377,111.918686,112.070854,4.7834544,0.7,-118.12815,-800.31104,0.0012547115,-2.5325487,2.575909,2.0149298,2.164367,2.304936,2.145248e-06,0.3,1.996914,86.42903,86.43707,86.303925,86.043655,0.1024573,0.58125,4.91120171546936,28.539463158448537
43,430000,65.03423619797692,-90.72575,0.0,-105.74901,0.49817312,-4.460513,1421.9178,31.363853,11.143248,112.71965,112.3859,112.15067,111.95153,2.3450377,0.7,-120.70165,-1090.5653,1.8883147e-05,-3.2660918,5.7034507,5.132386,5.174826,4.6474047,8.5287616e-07,0.3,2.1202803,88.60205,88.54304,88.576675,88.45837,0.08836752,0.4765625,5.240242958068848,29.1954754670461
44,440000,57.417247077738764,-89.09342,0.0,-166.08148,0.36155498,-3.216699,1565.0162,3.4458733,8.19199,112.77801,112.29869,112.581795,112.7486,1.4261049,0.7,-118.70528,-905.35144,9.026204e-05,-5.898467,4.0853505,3.783857,3.4792113,3.8304894,1.1147949e-05,0.3,1.7884859,87.32595,87.22734,87.26848,87.35716,0.052921876,0.38437498,4.509387254714966,29.83663657506307
45,450000,51.62828601606962,-92.01574,0.0,-112.14719,1.7370994,-2.316424,2255.6768,339.76825,8.861198,113.45502,113.49445,113.104324,113.578094,3.516012,0.7,-117.709785,-983.7107,0.0004575053,-4.6644154,2.5544093,2.3051298,1.3945543,1.9862823,9.0738695e-07,0.3,2.1109467,89.82924,89.79515,89.6293,89.89927,0.11323948,0.403125,4.154108285903931,30.4691792289416
46,460000,49.799227130125274,-91.37627,0.0,-106.978775,0.80033886,-6.0159063,1516.4401,39.88862,10.220034,113.81101,113.853264,113.128296,113.10231,6.9366736,0.7,-118.852554,-1020.002,0.00079382083,-4.332515,6.925288,7.383471,6.0617094,6.402694,1.8290594e-07,0.3,2.0374773,89.21042,89.23711,88.90961,88.982895,0.117182404,0.471875,4.0236406326293945,31.100861259301503
47,470000,65.67088405320864,-89.85408,0.0,-96.2909,0.7279225,-1.3334115,1375.982,28.558874,9.063983,111.68266,111.708084,111.60524,111.30611,5.1117015,0.7,-116.86445,-1047.4866,0.00021558936,-5.0992537,2.6819334,2.382196,3.922599,3.287176,5.4707635e-07,0.3,1.8400193,87.83252,87.86452,87.89732,87.79445,0.09029185,0.465625,5.393142461776733,31.754938193162282
48,480000,46.89455603710137,-91.17563,0.0,-93.33954,0.5721787,-1.2257273,1469.0002,14.096449,9.88044,112.20838,112.20751,112.98101,112.88485,2.5089638,0.7,-118.37279,-922.39355,0.00054784404,-4.8657436,5.228476,4.7560816,4.806431,4.7487383,3.5676176e-06,0.3,2.1354582,88.960526,88.96175,89.198166,89.13071,0.08725384,0.396875,3.6545872688293457,32.37840837637584
49,490000,56.053152404651385,-90.29535,0.0,-136.74942,0.3641572,2.0401347,1600.862,10.8949,14.85512,112.90275,112.98985,112.47863,112.66775,6.543663,0.7,-119.76215,-1067.9352,0.00042614533,-3.2648768,-0.04152608,0.306857,1.1300842,-0.22483525,8.298783e-07,0.3,2.0244043,88.15823,88.17207,88.10289,87.94078,0.12993196,0.56718755,4.406434059143066,33.0204553882281
50,500000,58.51753311803277,-88.890465,0.0,-164.53526,0.5182374,-4.310499,1316.6687,7.377801,8.148017,112.81308,112.94052,112.85785,112.8565,1.3311143,0.7,-118.61044,-845.7457,0.00013539923,-3.0698402,5.1788282,5.3641105,5.339656,5.4254017,9.538081e-07,0.3,1.7926791,86.98799,87.05752,86.86723,87.053696,0.07298309,0.43593746,4.527779579162598,33.664468522866564
51,510000,55.30681003750367,-91.62248,0.0,-110.69577,0.3999887,1.5275888,2171.7556,5.9328146,9.417685,111.52524,111.73949,111.318695,111.58237,3.0334864,0.7,-116.52299,-1101.8501,0.0009657236,-5.535201,1.4386239,1.2480459,1.4218524,1.1945678,1.1804514e-08,0.3,2.0857205,89.47789,89.46067,89.35382,89.40468,0.0790555,0.44375,4.223064661026001,34.30608073472977
52,520000,46.13922565879451,-90.59017,0.0,-130.379,0.43915245,-1.5175276,1031.577,11.026453,8.879612,112.35916,112.18641,112.072136,112.12604,1.7741523,0.7,-120.14978,-1295.2053,0.0011418834,-3.5145006,1.8015625,1.6313459,1.2706484,1.3755985,2.2131019e-06,0.3,2.1341755,88.353775,88.33524,88.325096,88.33937,0.101191,0.459375,3.529444694519043,34.93081386884054
53,530000,47.700474920043156,-88.5865,0.0,-110.62403,0.40895998,-1.601599,1594.8943,7.99529,8.993324,112.44796,112.45384,112.317345,112.432,2.6788108,0.7,-116.972435,-1298.1243,0.0002901976,-3.7626767,1.8944161,1.8812006,0.963503,1.2718657,3.1944364e-08,0.3,2.1034665,86.41667,86.39345,86.25778,86.23323,0.072544,0.5078125,3.7703070640563965,35.561278629302976
54,540000,67.13104125867427,-88.68796,0.0,-130.43312,0.5109565,-1.6929069,1170.0375,15.64204,9.678599,111.71069,111.67054,111.99002,111.522316,12.819542,0.7,-116.193665,-1222.9325,0.0005901887,-3.1474257,3.7049153,3.3092856,3.684112,3.9440677,1.2054107e-06,0.3,2.1473413,86.45617,86.364944,86.59198,86.675095,0.13092875,0.4203125,5.060049057006836,36.21553887923559
55,550000,49.333877636112454,-88.473434,0.0,-163.72643,0.6374774,-1.4072063,3956.149,26.458668,9.730118,112.69112,112.718765,111.81707,111.79162,2.6543202,0.7,-117.52612,-1036.5839,0.0015967791,-4.248072,2.3860443,2.4183586,2.802797,2.6413705,2.9059012e-07,0.3,1.9050986,86.54768,86.469086,86.27878,86.2263,0.09707095,0.51875,3.7305195331573486,36.8446404894193
56,560000,57.39880919802771,-90.344315,0.0,-151.04828,0.48994702,4.0307035,1336.2916,4.7258673,9.321552,112.75597,112.58956,112.5014,112.72688,2.9279692,0.7,-118.43724,-1349.2386,0.0014666477,-9.968594,1.7135313,0.8832336,1.1884598,1.1179137,3.6950226e-08,0.3,1.8041548,88.38377,88.4462,88.31416,88.53021,0.09989941,0.39374998,4.4571874141693115,37.48958947658539
57,570000,73.04913818333885,-90.734535,0.0,-99.57061,1.0157259,0.06199646,2063.0798,129.0925,11.440924,112.18893,112.32344,112.361595,112.46002,2.9887187,0.7,-119.27842,-949.0509,0.00031104573,-3.7409892,4.080572,3.8418355,4.0181518,4.0109644,1.2321398e-07,0.3,2.3059373,88.333664,88.31259,88.22571,88.222336,0.13054973,0.45624998,5.545421600341797,38.15072692235311
58,580000,62.27011912387207,-90.5235,0.0,-137.86055,0.5056265,-1.4669647,3086.163,6.46984,8.042791,112.48686,112.530754,112.11839,112.4659,9.969439,0.7,-118.077354,-955.3219,0.0024757613,-4.389632,1.5742846,1.3226523,1.438645,0.91827035,9.8225435e-08,0.3,2.1709948,88.27913,88.25298,88.1365,88.14293,0.13960998,0.49843752,4.788046360015869,38.800452359517415
59,590000,68.12647509999351,-88.97328,0.0,-119.89606,0.70807993,-1.2497764,1403.6349,8.405909,9.496643,112.39669,112.47395,111.87093,111.99468,0.93494666,0.7,-118.8074,-1720.1047,0.00015619141,-3.2813761,3.1438394,2.7194922,2.3360317,2.5959744,7.2671105e-07,0.3,2.1828127,86.71005,86.75468,86.34372,86.55943,0.056324713,0.4421875,5.3309006690979,39.458208862940474
60,600000,55.29984943696722,-90.60017,0.0,-135.53749,0.6426275,-0.4292028,1289.3671,44.72061,9.968512,112.22798,112.7692,112.64842,112.1462,29.369078,0.7,-118.26942,-1311.6238,0.00040328928,-3.4729662,2.4662762,2.461528,1.5515732,2.1998744,6.1339697e-06,0.3,2.1692288,88.280045,88.39604,88.405975,88.44077,0.17905958,0.4625,4.2723610401153564,40.09769804875056
61,610000,57.39581980459122,-89.332886,0.0,-118.89441,0.72888815,-1.6597923,1575.5487,10.547287,9.032494,112.022766,111.79305,112.21885,112.43792,1.0603341,0.7,-118.6877,-1169.6326,0.0023742584,-5.512998,3.0083632,2.977315,1.7048888,2.3669133,9.770226e-06,0.3,2.0240197,87.18532,87.16,87.01836,87.279015,0.08015324,0.34375,4.398069143295288,40.73647512594859
62,620000,63.25022357699493,-90.14119,0.0,-189.54367,1.0177487,-1.5142834,3069.7188,12.255045,9.500829,112.14082,112.15654,111.70269,112.109314,1.8829621,0.7,-117.52765,-1479.6569,0.0030321982,-3.3934731,3.2434194,2.969122,2.3238845,2.706024,1.8834544e-06,0.3,1.8746278,88.1866,88.16678,87.6879,88.06065,0.09187578,0.3734375,4.87854528427124,41.385260649522145
63,630000,54.40017148278557,-88.16742,0.0,-173.23065,0.40404963,-1.2087018,1256.9467,14.422659,10.3506775,111.11619,110.86148,111.40708,111.331795,5.1743174,0.7,-120.444405,-1251.2045,0.00026287074,-4.8626986,2.1219316,2.1047664,1.2877579,2.612121,3.989856e-06,0.3,2.0482588,86.089836,86.05836,86.15619,86.25044,0.06874466,0.41875,4.11311674118042,42.02049500147502
64,640000,62.90714755747889,-90.07425,0.0,-164.9057,0.47792107,-3.047847,3646.5334,9.404205,12.536151,112.00159,111.75698,112.143234,112.12224,5.2670856,0.7,-115.800125,-1737.4426,0.00043032068,-6.805047,5.1035247,5.05853,5.3602276,5.342709,1.2915116e-07,0.3,2.0234838,87.97571,87.8656,88.158905,88.18445,0.12660435,0.37031248,4.825712203979492,42.67014310359955
65,650000,51.23138025573819,-91.80025,0.0,-171.67969,0.6742518,-6.490711,2987.595,25.410164,8.716571,111.70203,111.71338,112.41807,112.05193,4.293043,0.7,-118.59751,-1497.4966,0.0056509133,-3.4237947,7.7044744,7.6393805,8.268596,7.8303175,4.5350606e-07,0.3,1.9419873,89.67648,89.69537,90.056564,89.85956,0.09320381,0.46406248,3.940859317779541,43.29991336663564
66,660000,54.91795867793887,-91.844055,0.0,-199.08823,0.4506156,-3.757194,1096.8856,9.512046,8.391861,112.54671,112.98255,112.630165,112.71654,5.872474,0.7,-119.23368,-1456.8387,9.3156705e-06,-6.1406507,3.704874,3.795802,4.2637606,4.2821627,2.0539737e-07,0.3,1.9717593,89.885826,89.895035,89.756905,89.88696,0.093264624,0.4203125,4.181074857711792,43.934965431690216
67,670000,49.40054524856145,-91.21513,0.0,-159.20416,0.3613667,-2.1928914,4062.5635,3.7787611,8.413044,112.46629,112.54824,112.31183,112.35167,0.7091775,0.7,-117.88055,-1606.242,0.00027929537,-2.9783475,2.2354648,2.4911635,1.2635337,1.7757282,2.673303e-07,0.3,2.1275616,88.97026,88.99672,88.89814,89.03325,0.05154878,0.4296875,3.8808321952819824,44.571153310934704
68,680000,52.806757925056615,-89.83076,0.0,-198.24867,0.40757465,0.5732753,1099.9698,5.7062693,8.563261,111.914665,112.13352,111.9226,111.90869,5.15931,0.7,-116.7674,-1586.2454,0.00055282994,-3.9507012,0.74294686,1.9774996,1.4932574,0.5258832,1.1089259e-06,0.3,2.0765874,87.64244,87.61023,87.468475,87.592926,0.077596754,0.47187498,4.041365385055542,45.20583728949229
69,690000,67.13066773633813,-89.73988,0.0,-193.47334,0.3768106,-5.9133263,1178.6036,6.03263,10.226623,112.2588,112.15927,112.943954,112.482056,2.6738474,0.7,-118.58706,-1083.844,0.0020943028,-3.6165571,6.1364617,6.328107,5.8260365,5.379879,2.5566553e-07,0.3,2.19161,87.528336,87.610435,87.52994,87.54542,0.06944825,0.4453125,5.02449107170105,45.85935169458389
70,700000,49.73457543996972,-89.088806,0.0,-183.43108,0.5328417,0.3149351,2917.1367,13.858973,8.554332,111.188805,110.986176,111.00694,111.12298,14.82575,0.7,-117.426796,-1622.143,0.0004354532,-3.7046854,1.1387181,1.1549777,1.348416,0.57452893,1.7797981e-06,0.3,1.9344549,87.01573,86.96273,87.14208,87.03041,0.13541229,0.48593748,4.027785778045654,46.49601581494014
71,710000,50.078679360588254,-89.806564,0.0,-178.36545,0.5442138,-1.6014429,1302.3933,33.089092,8.159173,111.89937,111.92623,111.79537,111.69287,1.3981305,0.7,-118.40973,-1562.9111,0.0007037396,-2.9878433,2.615797,3.1438587,2.8391643,2.7944293,1.9539694e-07,0.3,2.193175,87.69927,87.70295,87.78067,87.59799,0.09126052,0.51406246,4.226776599884033,47.12745555639267
72,720000,59.57061271772035,-91.892494,0.0,-194.92471,0.45721796,-2.954634,1737.2717,13.051659,8.402029,112.53348,112.55509,112.21282,112.395325,4.632158,0.7,-117.243515,-1587.0864,0.0015282133,-4.4818506,3.9885461,3.7660832,3.3615189,3.8270059,9.782961e-08,0.3,1.9458282,89.80626,89.84895,89.83218,89.96562,0.0903722,0.4125,4.603719234466553,47.77061999638875
73,730000,53.73074882531458,-89.60682,0.0,-128.5581,0.6080748,-4.675454,1616.352,37.590218,8.88847,111.30321,111.21414,111.10413,111.11047,1.0873897,0.7,-116.124725,-1270.6283,0.00038429687,-7.867573,6.331216,6.012258,5.8315763,5.9255104,1.11758716e-07,0.3,2.1344264,87.42967,87.405174,87.239006,87.43492,0.08172001,0.3984375,4.282494068145752,48.40342820485433
74,740000,51.45638803521061,-91.05766,0.0,-135.30943,0.45073044,1.1447829,4082.118,4.8385777,8.979549,111.950615,112.0524,111.98952,112.27501,1.4032269,0.7,-117.94464,-1426.6875,0.00046692678,-4.749944,1.0296892,0.9193758,1.2441397,0.68057626,1.9252185e-07,0.3,2.2381918,88.844894,88.82317,88.643875,88.898026,0.07880606,0.38281247,4.019004821777344,49.03223951260249
75,750000,51.78683695243231,-91.34679,0.0,-152.13762,0.58667755,-3.8823595,3222.4854,20.044325,16.517023,111.97296,111.914375,112.011246,112.0345,2.4246035,0.7,-117.39814,-1776.9603,0.00019147276,-6.70404,3.5991726,5.1674895,3.1677597,2.3182898,4.5955358e-06,0.3,2.1722462,89.18784,89.09096,88.97792,88.97698,0.0734722,0.49843746,3.9228057861328125,49.66075174411138
76,760000,56.65251013464698,-89.827255,0.0,-211.29584,0.7264724,-2.351942,1547.6993,18.109268,8.154093,111.72117,111.609505,111.63986,111.62816,2.9930649,0.7,-118.3324,-2523.5154,0.00011666567,-4.453256,1.9146805,2.640661,2.2710495,1.9691815,2.6288444e-06,0.3,2.110536,87.65555,87.69132,87.34096,87.43069,0.09750995,0.4796875,4.569669723510742,50.30027163028717
77,770000,52.33308172845498,-89.60416,0.0,-191.3566,0.61055005,0.030444741,2716.2183,12.016445,11.8719,111.43123,111.39443,111.54094,111.52755,2.3844566,0.7,-118.10071,-1607.7789,0.0010847349,-5.0542502,0.9033786,1.0729983,1.2812855,1.299115,2.739718e-07,0.3,2.148484,87.34358,87.314835,87.5608,87.46083,0.068198636,0.421875,4.143866777420044,50.93453407684962
78,780000,47.34435057225569,-91.86047,0.0,-150.36816,0.4506709,-0.2336793,2191.2842,8.111055,8.19082,111.717636,112.090546,112.11134,111.98136,9.816755,0.7,-117.97016,-1847.8864,0.0019361861,-6.0384088,2.2540658,2.0765278,1.8457415,2.0648918,1.135486e-06,0.3,1.9335086,89.770004,89.817856,89.92088,89.85127,0.11716593,0.496875,3.6500630378723145,51.55723679860433
79,790000,50.9861845911747,-87.223335,0.0,-272.21533,0.5951481,2.8282175,2470.1228,23.075123,7.5677867,111.42715,111.35641,111.72924,111.48843,3.1334202,0.7,-117.4813,-2177.6921,0.0009563673,-5.4890594,1.8827884,2.0105505,1.5064555,2.07716,9.915791e-07,0.3,1.6260114,85.45087,85.492004,85.48117,85.42384,0.11109663,0.40781248,4.108462572097778,52.18637273708979
80,800000,58.23393895369179,-91.34341,0.0,-241.9573,0.498825,-1.134462,1469.5469,21.33508,8.342538,110.88539,110.6378,110.83506,110.62508,2.7235894,0.7,-117.381035,-1873.7755,0.00032292708,-5.531774,2.0506608,2.278192,1.3203046,1.983126,4.4921762e-07,0.3,1.8691131,89.50487,89.5316,89.323235,89.45393,0.09522766,0.47499996,4.702536344528198,52.8284751812617
81,810000,47.082470494387756,-90.11958,0.0,-275.98184,0.960642,-3.029964,2787.3428,13.63755,8.264407,112.02991,111.755264,111.907715,111.81013,9.885404,0.7,-116.64783,-2065.1982,0.00054904877,-5.421368,4.7284117,4.7057548,4.7049923,4.984963,1.7968704e-08,0.3,1.9316294,88.20532,88.17996,87.80056,87.7931,0.10528104,0.52187496,3.7286081314086914,53.452519007523854
82,820000,57.299479661157385,-88.52216,0.0,-190.16162,0.38401574,-1.3653803,3044.0403,25.559155,9.302157,111.73967,111.927086,111.827805,111.90732,1.9435999,0.7,-119.32263,-1560.6292,0.000656676,-5.317769,2.9621434,2.9736848,2.8264947,2.8234143,7.152558e-08,0.3,1.9259113,86.471375,86.55158,86.5327,86.57182,0.06965503,0.44531247,4.311314344406128,54.09336853027344
83,830000,57.74660886777517,-91.90285,0.0,-158.46521,0.49000472,-3.0661583,3817.7383,28.029255,9.588659,111.31191,111.47485,111.82206,111.7339,11.392888,0.7,-119.53028,-1868.9728,0.00046435662,-3.8635507,3.0302172,3.4140663,3.7876382,3.4223955,4.0745362e-11,0.3,2.1106982,89.566795,89.59417,89.65949,89.61818,0.09509186,0.4875,4.353925466537476,54.734785230954486
84,840000,45.17482563799098,-87.04088,0.0,-170.25693,0.36052793,0.28536558,3708.0845,9.684576,10.274023,111.173706,111.29432,111.43553,111.57497,3.6724875,0.7,-116.33272,-2674.4294,0.00028925505,-4.7998285,1.0067842,1.19027,1.4548278,1.778906,1.9252185e-07,0.3,2.0123959,84.973785,84.94971,85.028244,85.00624,0.07267438,0.40937498,3.510507345199585,55.359507048130034
85,850000,46.04487364977835,-91.99006,0.0,-198.79707,0.35121533,1.1313179,3940.6313,3.9342957,9.561999,111.592224,111.78846,111.81624,111.82998,3.2543135,0.7,-118.24678,-1795.6693,0.0017354107,-3.7979178,2.3336663,2.4223757,1.5894607,2.074562,1.0186341e-09,0.3,1.9986134,89.95374,89.98755,90.12387,90.13628,0.080714256,0.3796875,3.509990930557251,55.98632482687632
86,860000,64.97444219084963,-90.78952,0.0,-230.87729,0.44256216,0.9924567,3313.952,8.403387,9.284159,111.493675,111.48113,111.1174,111.0798,1.9259589,0.7,-118.54761,-2011.6713,0.00053038966,-7.1458907,0.7568351,0.7147017,1.19926,1.1586161,2.2614695e-07,0.3,1.9613028,88.824326,88.8198,88.69661,88.65891,0.07246438,0.51875,4.9144439697265625,56.63215224742889
87,870000,49.33825369000333,-88.86747,0.0,-293.03485,0.48096502,0.5049448,2194.302,19.880222,10.911568,111.46707,111.43491,111.13491,111.0882,2.9933152,0.7,-118.75355,-2324.7349,0.00022913911,-5.902404,0.67191887,1.1967926,0.42507505,0.5909415,1.3217215e-07,0.3,1.7190526,87.22871,87.168274,87.110435,87.20056,0.0910158,0.428125,3.7956840991973877,57.263618572553
88,880000,50.783849570274306,-92.81828,0.0,-158.06224,0.42297465,-6.105084,3758.937,7.4470253,12.718628,110.59344,110.91599,110.68474,110.70771,1.4801685,0.7,-115.85281,-2252.3752,0.0001658579,-2.6812167,5.664386,5.713841,5.180171,5.542029,8.109535e-07,0.3,2.1325629,90.64437,90.62387,90.550934,90.654945,0.06918624,0.46875,3.9910364151000977,57.897499358654024
89,890000,48.59278673796395,-88.00287,0.0,-325.40842,0.5105749,-0.79647183,1490.43,16.284588,8.566061,111.44399,111.26903,111.14843,111.20059,3.9578545,0.7,-116.886185,-1852.0319,0.0004928743,-4.153218,1.874495,1.4940937,1.2769853,1.2984971,8.919044e-07,0.3,1.5224603,86.416176,86.44307,86.33383,86.29439,0.11992439,0.490625,3.74538516998291,58.52831684350967
90,900000,53.390540837143504,-89.16661,0.0,-176.10674,0.4650976,-3.6495917,5333.7466,9.414973,8.365179,111.18081,111.103806,111.80298,111.55789,12.057013,0.7,-116.33598,-1890.9973,0.000596965,-2.932476,4.241268,4.4712257,3.9070978,3.8196387,3.3807012e-08,0.3,2.1068387,86.91368,86.89851,87.08278,87.062996,0.11786979,0.4171875,4.177267074584961,59.16770980755488
91,910000,50.80276032248875,-90.94414,0.0,-235.31131,0.6317558,-0.614223,2011.3792,14.881071,11.087664,110.811874,110.7635,111.06311,110.854515,4.351879,0.7,-117.10343,-2106.383,0.0017507016,-3.6955009,1.9639814,2.1239047,1.4030241,2.8080902,4.9301887e-09,0.3,2.00929,88.88579,88.88998,89.17824,89.129395,0.07470986,0.428125,3.8784234523773193,59.80129763682683
92,920000,55.80476207867095,-91.20416,0.0,-228.66489,0.4128946,-2.8425055,4743.743,8.703649,10.73415,111.26645,111.415115,111.29303,111.279,1.6791556,0.7,-119.95618,-1848.292,0.0006464125,-4.4016514,2.4228625,2.5862207,1.8760477,1.8742304,6.519258e-10,0.3,2.126742,89.05048,89.058395,89.03348,89.01155,0.07942872,0.465625,4.2095112800598145,60.4404243906339
93,930000,49.56123621316337,-90.21542,0.0,-141.47879,0.4740402,-1.2783449,1800.4844,11.073071,11.797705,111.16963,111.2788,111.359505,111.380486,3.8241396,0.7,-117.14781,-1662.8042,0.0004999715,-4.545788,1.9066188,1.9772649,1.284736,2.5119455,8.435309e-06,0.3,2.25062,87.87802,87.92421,87.97337,87.88615,0.08272896,0.4890625,3.847250461578369,61.07580891052882
94,940000,60.15318032389908,-87.268555,0.0,-168.962,0.44283953,-2.1769905,3203.8306,6.805538,9.992936,110.36636,110.64722,110.725204,110.75329,5.1181793,0.7,-116.527405,-2790.3347,9.138469e-05,-6.395998,2.4705553,2.6753848,2.4638658,2.20589,1.370674e-07,0.3,2.30274,84.97226,85.02232,85.12908,85.13624,0.07397626,0.440625,4.64797306060791,61.71951880455017
95,950000,53.440576122937536,-90.24954,0.0,-219.23907,0.45413405,0.14154863,2048.161,9.279988,9.006902,111.40675,111.32909,111.46926,111.22955,1.9757525,0.7,-117.945175,-2400.547,3.8613216e-05,-3.933014,0.9929832,1.0554163,0.7293031,0.7800493,6.420549e-07,0.3,2.1166363,88.113556,88.12471,88.05493,87.947464,0.080551445,0.4796875,4.147080421447754,62.35567533969879
96,955000,53.99382745704331,-87.855835,0.0,-128.87177,0.49176577,-1.0286069,3299.8584,21.59623,10.926665,111.080925,111.22471,111.10481,111.4728,3.2491298,0.7,-118.33174,-1764.2349,0.00010777174,-5.313527,1.4048076,1.4748528,1.410398,1.9489629,3.6714485e-07,0.3,2.1799273,85.56445,85.55524,85.46319,85.582794,0.1127129,0.403125,4.1266233921051025,62.70642125209172
97,960000,63.595626547920844,-90.68447,0.0,-196.52557,0.6595465,-2.0770345,2836.7578,32.170094,8.355211,111.1861,111.12476,111.11614,111.0612,1.4231944,0.7,-118.14493,-1894.5515,0.00089948636,-4.3519564,4.3883004,4.082184,4.6800976,4.5317903,2.806948e-07,0.3,2.0845227,88.61285,88.622345,88.73233,88.66221,0.06236269,0.47031248,4.783352851867676,63.06791568199794
98,965000,48.42545343523123,-90.791046,0.0,-197.8869,0.41940004,-1.1151034,1978.3125,22.172287,10.809095,111.36902,111.36119,111.11634,111.0959,3.2936928,0.7,-119.41117,-2761.4375,0.0006515196,-4.2848554,2.091257,2.2552905,1.2092162,1.1256051,4.3655748e-10,0.3,2.4253297,88.40993,88.34306,88.46469,88.32712,0.08208907,0.52031255,3.7530763149261475,63.41485059658687
99,970000,56.92768139335528,-90.45741,0.0,-368.528,0.38265622,-4.2772236,1521.081,17.201504,8.62889,110.34155,110.34508,110.24676,110.25286,2.187675,0.7,-117.19787,-2853.4446,0.00080119085,-4.460526,5.3198533,5.297354,5.162361,5.417886,1.1986821e-06,0.3,2.023696,88.4668,88.405594,88.4105,88.35854,0.092474334,0.48125,4.338870525360107,63.76599281231562
100,975000,49.20325322655742,-89.653244,0.0,-241.81424,0.31900632,-3.3285513,2974.9324,7.337125,9.64349,111.30665,111.04748,111.21448,111.26103,5.79036,0.7,-118.262215,-2389.1658,0.00088426314,-7.627814,5.5054607,4.975203,5.627575,5.16539,3.6950226e-08,0.3,2.1096668,87.53569,87.52063,87.50558,87.453445,0.08689993,0.45625,3.581831693649292,64.10849519570668
101,980000,64.72505250012358,-91.51821,0.0,-263.01932,0.36197424,-0.65067506,2137.141,3.619692,10.434515,111.52731,111.52029,111.636314,111.58282,1.5477365,0.7,-117.444115,-1791.5859,0.0004774633,-3.5027387,1.8454156,1.6312389,1.3351711,1.3362384,9.1677066e-07,0.3,2.1791081,89.361496,89.3577,89.4324,89.49852,0.060923837,0.40156248,4.924108266830444,64.4751357515653
102,985000,51.16953865788526,-91.19791,0.0,-262.5255,0.44138503,-1.1762793,4253.259,9.380031,8.955669,110.974495,111.04047,111.24528,111.097244,0.9321688,0.7,-115.96134,-2016.2366,0.0004334678,-4.080203,2.5186553,2.4236453,1.6085676,1.7369187,1.1941113e-06,0.3,2.1226554,89.07791,89.064674,89.079254,89.15706,0.057181206,0.38906246,3.932514190673828,64.8200712998708
103,990000,60.647707503272976,-89.79177,0.0,-192.93658,0.7666423,1.3466074,2906.893,23.554928,8.770031,111.45909,111.03181,111.13545,111.15862,1.4650916,0.7,-118.63936,-2454.7454,0.00010276475,-5.8074102,0.37633473,-0.0060787797,1.2759651,0.3356532,6.0786265e-06,0.3,2.1802688,87.53017,87.51164,87.81347,87.69144,0.07741415,0.4375,4.564918279647827,65.18276134729385
104,995000,56.36706304280891,-90.89864,0.0,-232.77856,0.6342596,-3.5699415,3228.761,40.787395,9.336399,111.09084,111.05765,111.338745,111.388374,5.1844363,0.7,-116.34944,-2044.5321,0.00023289595,-6.6268697,4.108609,3.2015836,3.7379751,3.3394964,3.2891287e-06,0.3,2.0752137,88.76782,88.77775,88.97043,89.01048,0.09465765,0.40781248,4.244337797164917,65.53846089839935
105,1000000,49.31531325973017,-91.055725,0.0,-198.3696,0.38974726,0.47118163,3707.9045,4.963018,9.15225,111.6201,111.645706,111.595634,111.73347,2.126828,0.7,-117.8525,-1786.506,0.00062194886,-4.599693,1.7536421,1.7455165,1.3010688,1.5221428,1.0145636e-05,0.3,2.091138,88.95371,88.89647,88.716805,88.943016,0.07640703,0.378125,3.813042163848877,65.88168983062108
