Xixo99/comfo/baselines/comfo6_perterbation_actor/20230225_noise0.01/hopper-medium-v2/COMFO6_s0_20230224_081743_hopper-medium-v2_89.93.csv
,step,reward,actor_loss,alpha,alpha_loss,critic_loss,max_actor_loss,max_alpha_loss,max_critic_loss,max_mle_prob,max_q1,max_q2,max_target_q,max_v,max_value_loss,max_weight,min_actor_loss,min_alpha_loss,min_critic_loss,min_mle_prob,min_q1,min_q2,min_target_q,min_v,min_value_loss,min_weight,mle_prob,q1,q2,target_q,v,value_loss,weight,eval_time,time
0,0,4.6111483384744005,,,,,,,,,,,,,,,,,,,,,,,,,,,,,,,,,
1,10000,57.89080726316207,-40.60361,0.06676788,-4.6639185,0.6347515,-2.739215,10.472158,5.488264,6.9437785,57.8757,57.451584,58.473457,57.40841,2.0552127,0.7,-58.67605,-18.885937,0.0018847282,-9.305405,3.5650725,3.6962116,3.7791305,4.3756857,7.377821e-10,0.3,1.5116323,39.129166,39.192497,39.583244,38.98059,0.050468832,0.3765625,4.5690083503723145,2.0668925722440084
2,20000,60.587173858352664,-65.88523,0.0037228598,-7.6400175,1.2783444,2.2473018,39.393646,34.391144,7.3836603,84.381,84.448524,83.86813,83.492455,10.738787,0.7,-90.76719,-40.699467,0.0016660504,-10.771218,-0.76122403,-0.44139117,-1.0861806,-0.86945444,1.2448698e-06,0.3,1.5679928,64.284325,64.31698,64.74035,64.11355,0.1766069,0.49999997,5.00518012046814,2.7144877791404722
3,30000,53.88231614400162,-77.85109,0.0001986671,-10.972141,2.8182316,22.852577,58.76154,353.45636,10.389553,97.440605,97.41962,98.34816,98.39739,20.69493,0.7,-106.118,-87.248474,0.0008267999,-7.328688,-14.961093,-8.785299,1.0571198,-19.234388,2.1515298e-07,0.3,1.6413963,75.95541,75.95778,76.449265,76.20254,0.25790113,0.3828125,4.27737021446228,3.345512843132019
4,40000,51.82044246566715,-85.32774,1.0406314e-05,-11.046209,1.522042,1.9285346,107.12936,52.777565,13.201636,106.08198,106.01655,106.710815,106.42161,3.7999375,0.7,-114.69864,-83.86484,0.00094092154,-5.2279253,-3.045924,-3.8088527,-0.34788477,-5.015237,1.2730016e-08,0.3,1.7111093,83.37079,83.36815,83.61694,83.525024,0.1535586,0.465625,4.017995357513428,3.970830456415812
5,50000,45.63527713762207,-87.41113,5.38641e-07,-14.471537,0.7690331,3.1345985,140.3902,22.114525,12.031794,109.587776,109.65811,109.64669,108.190704,1.7402179,0.7,-116.84719,-102.42408,0.0011597329,-4.64236,1.2580388,-0.15599908,1.3656402,0.96213096,8.930285e-06,0.3,1.9466785,85.35487,85.31983,85.39348,85.12436,0.1393764,0.5625,3.932990550994873,4.597829727331797
6,60000,45.30115106438375,-87.05817,2.81641e-08,-18.766243,1.5604025,1.0991747,180.7971,38.840446,10.603197,110.80921,110.94505,110.83541,111.14525,6.174622,0.7,-118.05139,-134.89478,0.0005084759,-3.3957796,0.1618474,0.107763216,1.4506267,0.34586984,7.2671105e-07,0.3,1.8222041,85.00101,85.01518,85.326096,85.19159,0.17465007,0.4484375,3.611762762069702,5.214264249801635
7,70000,57.271130045368636,-91.7731,1.4699948e-09,-21.558231,1.549073,0.937371,123.93648,27.72439,8.41097,112.52115,112.0954,112.607346,112.26852,4.7495413,0.7,-118.795044,-138.70871,0.001157746,-6.4879866,-0.35123706,-0.0175654,1.2569851,0.15468006,1.9965228e-07,0.3,1.6483977,90.04378,90.03598,89.82977,90.027054,0.15326363,0.42499995,4.446558237075806,5.845821527640025
8,80000,43.828455667865626,-88.37357,7.654004e-11,-28.136114,3.6174297,-1.5388651,156.21906,678.3607,8.321271,111.5471,111.74695,112.04108,111.92475,2.9996917,0.7,-118.81017,-193.76518,0.00015853264,-8.096645,2.8020058,3.2735932,1.6239045,4.019654,1.1804514e-08,0.3,1.6126988,86.56163,86.627655,86.798836,87.04698,0.12212366,0.34687498,3.740231990814209,6.466041723887126
9,90000,49.2067825602319,-90.88258,3.987768e-12,-25.294182,0.8178433,-0.022099495,253.27924,20.92617,8.224175,112.830154,111.76243,111.80629,111.98817,4.976906,0.7,-118.40947,-152.40889,0.00022951805,-8.944927,2.715547,3.2368965,3.0268106,3.578377,1.9965227e-09,0.3,1.9283148,88.88516,88.78453,88.908646,88.96991,0.09843854,0.45,3.828329086303711,7.0833907206853235
10,100000,45.06043476900265,-90.11627,2.0744764e-13,-19.43775,0.83427304,-5.7872305,181.99763,43.03225,8.542734,111.70955,111.70309,113.33123,112.53174,4.573276,0.7,-119.48674,-237.02682,0.00025850796,-3.7562857,5.6844077,6.007822,6.165942,6.3742027,4.541944e-08,0.3,1.9486103,87.982346,88.146835,88.300415,88.35144,0.13675314,0.38593748,3.6963889598846436,7.703048034509023
11,110000,52.61999622541278,-90.471054,1.0812378e-14,-32.02276,0.8560244,0.23170829,235.0671,48.74944,10.120016,113.00022,112.77464,112.98173,112.54104,12.531445,0.7,-119.15507,-271.92874,0.0004967503,-3.599522,1.4834193,1.4856703,1.4033543,1.6671152,2.670288e-06,0.3,1.9845135,88.39552,88.43393,88.48662,88.51993,0.19223186,0.3953125,4.064950466156006,8.332437288761138
12,120000,55.80180353302837,-91.47934,5.633058e-16,-35.72077,1.3095431,-0.96530414,307.91263,21.050842,8.271183,113.246475,112.93935,111.60259,112.80016,3.3069181,0.7,-119.111885,-230.76837,0.0003682131,-8.1083355,3.0867405,3.430279,1.1384528,3.7666943,1.418346e-07,0.3,1.714316,89.58239,89.638916,89.333824,89.394844,0.11347289,0.45625,4.5022478103637695,8.969007154305777
13,130000,55.81729349119855,-91.64313,2.9381965e-17,-16.908514,1.0114145,-0.20694518,268.37106,52.622055,11.126456,111.0969,111.582054,110.39579,110.53942,1.6766944,0.7,-118.16941,-264.14682,0.0010890276,-5.5895934,2.4895399,1.881043,1.7142009,1.5521744,3.3807012e-08,0.3,2.0969353,89.543915,89.49979,89.1819,89.29094,0.09320789,0.5234375,4.409330606460571,9.598415172100067
14,140000,48.65579849796585,-91.25003,1.5314786e-18,-36.00021,0.39355928,-0.19218576,456.96994,8.563567,15.047821,111.03617,110.75927,111.09929,111.33306,4.5741863,0.7,-116.71602,-364.32697,0.0011823964,-5.279914,1.2943845,1.7360276,1.436079,1.359772,8.8046653e-07,0.3,1.6767317,89.46852,89.44495,89.557335,89.5467,0.11610534,0.4203125,3.9160213470458984,10.222845216592154
15,150000,59.95389001852271,-91.82207,7.951691e-20,-39.618996,1.2643743,0.638947,501.10486,78.916794,14.60059,111.82167,111.90297,111.358505,111.567566,4.643128,0.7,-118.85305,-450.30508,0.0004137766,-8.228216,1.493725,1.4155836,1.160077,1.1192882,3.9815788e-07,0.3,2.1161447,89.57341,89.58626,89.37535,89.41719,0.105790175,0.49687502,4.049581527709961,10.851791866620381
16,160000,50.33235329646385,-89.795746,4.114421e-21,-53.81077,1.0698297,0.5574484,361.21625,22.78619,7.959445,112.14438,111.78395,111.17689,111.38791,1.4324844,0.7,-118.19611,-293.15768,0.00014016929,-5.3311863,1.1211007,1.5751333,1.2338595,1.1481819,1.678127e-08,0.3,1.7968955,87.96585,88.01253,87.81326,87.86093,0.052631885,0.49374998,4.2310638427734375,11.48193031946818
17,170000,97.70460558715327,-87.26706,2.135852e-22,-44.05173,0.7375598,-1.4590852,398.14676,6.971484,16.786837,111.6366,111.57038,112.23118,112.194756,1.9048843,0.7,-125.7669,-414.44974,3.6710175e-05,-4.641836,2.4569604,2.367457,1.2926037,1.7474785,3.8328394e-06,0.3,1.9335114,85.27568,85.288025,85.36345,85.33294,0.092562675,0.40781248,7.962631940841675,12.175869381427765
18,180000,96.3998578025168,-89.481674,1.1038543e-23,-69.77165,0.7048346,-0.6185868,334.0417,33.29902,8.583311,113.76707,113.18258,113.499825,112.97551,1.2387626,0.7,-117.916916,-386.33963,0.0011939509,-4.178384,1.2346379,1.097143,1.5072687,1.8730638,4.541944e-08,0.3,1.9133466,87.65521,87.683136,87.72084,87.807274,0.07286904,0.39999998,7.887098789215088,12.86365466117859
19,190000,89.79300745665975,-89.01793,5.7527075e-25,-77.44208,1.0448489,-4.405453,273.0475,39.075832,8.408763,111.731476,111.85863,112.694824,112.688286,1.1537534,0.7,-115.54785,-383.88016,0.00043351785,-3.6264462,5.6551723,6.0396385,4.975684,5.366393,5.6735008e-08,0.3,1.6902957,87.290955,87.25757,87.106285,87.107285,0.076972276,0.45625,7.451737642288208,13.543055244286855
20,200000,74.17871406054704,-89.70036,2.9968422e-26,-51.28794,1.442556,0.92333776,386.7886,52.74103,8.943185,112.512535,113.88803,111.90983,113.346725,6.380202,0.7,-116.86467,-547.3073,2.1043525e-05,-7.821074,0.6448042,0.683736,1.0473818,1.0230678,8.215895e-07,0.3,1.8626475,87.78296,87.74061,88.01158,87.87894,0.13225198,0.46875,6.074842214584351,14.204846668243409
21,210000,83.52000964385104,-92.4353,1.5587728e-27,-31.853165,0.8296258,3.0208504,848.16,53.76545,7.6203194,112.62608,112.25287,112.23074,112.22545,1.2904104,0.7,-117.81831,-418.41934,0.000228149,-8.500825,-0.57455397,-0.5934194,1.4030241,0.23670581,5.9352433e-06,0.3,1.9876704,90.33678,90.346176,90.30989,90.32759,0.06626551,0.4953125,6.781796216964722,14.872392853101095
22,220000,56.059705798707185,-91.76029,8.102149e-29,-49.63282,1.2080063,0.85427,637.6752,143.53815,11.979523,112.579254,112.657585,113.22302,112.87841,7.9923024,0.7,-120.46304,-521.56586,0.0010521273,-5.58914,1.1436335,0.6135944,1.2213233,0.97427386,1.2730016e-08,0.3,2.0931501,89.63269,89.485115,89.528366,89.60449,0.11341297,0.39374998,4.540947437286377,15.507882956663767
23,230000,72.40946302745719,-90.6535,4.2359648e-30,-86.464966,0.49134287,-2.1194396,493.56738,16.253021,12.416411,111.72921,111.46707,111.541565,111.30826,0.8193577,0.7,-116.23613,-597.72595,0.00013214175,-6.03579,2.4930065,2.9588897,1.5552409,2.3152232,4.754111e-07,0.3,1.8383942,88.73664,88.83597,88.707825,88.68103,0.057560243,0.4875,6.11870551109314,16.167089664936064
24,240000,61.34315596553858,-86.23987,2.2162867e-31,-74.31096,2.3660069,-1.3546172,904.5976,407.09308,9.942742,111.447395,111.42045,111.60687,111.62159,5.142039,0.7,-116.374565,-528.056,0.000105846906,-4.8989544,1.1849221,1.6357977,1.2254122,1.7389058,1.1637283e-06,0.3,1.7392054,84.39928,84.41634,84.34041,84.473595,0.117271096,0.4609375,5.11399245262146,16.80224653482437
25,250000,52.75046967812924,-88.2397,1.15428946e-32,-86.08864,0.40219527,-8.552573,430.7051,11.455816,9.255017,111.34952,111.3031,111.71403,111.423874,4.750536,0.7,-118.01815,-709.83575,0.000934178,-3.9206629,9.631447,9.480284,8.89417,8.841906,8.4489585e-07,0.3,1.7567286,86.48427,86.4542,86.43012,86.350235,0.14518633,0.4265625,4.30482029914856,17.430896135171256
26,260000,51.0261553068325,-90.56181,6.0393695e-34,-71.2477,0.79985696,-5.2778044,451.59714,51.436104,8.576756,111.97339,112.03768,112.419846,112.06981,2.3607934,0.7,-119.90857,-561.36194,0.00011052494,-4.0888634,5.611975,5.3107734,5.4005466,5.1753254,1.9965228e-07,0.3,2.0965464,88.41291,88.37727,88.35692,88.22538,0.08797205,0.5328125,4.471405267715454,18.05794668197632
27,270000,45.19252148008259,-86.37215,3.1570696e-35,-83.14782,0.8847257,0.77087915,902.33734,20.960201,15.562534,111.761536,111.943756,111.98563,112.04739,2.3855605,0.7,-125.252914,-538.2575,6.0790335e-05,-5.3773065,0.7886423,0.9459363,1.4753032,0.97765386,2.3905886e-06,0.3,1.7089944,84.668106,84.656296,85.06738,85.02667,0.07962757,0.3875,3.657090902328491,18.669225335121155
28,280000,44.483568699486874,-92.36453,1.650667e-36,-70.028625,0.48895326,-1.076913,476.11435,32.766632,8.657284,110.68259,111.14414,111.445526,110.612854,1.2548672,0.7,-115.02836,-582.2563,0.00027345907,-3.282878,2.6484818,2.6789505,1.3749236,2.0033386,8.556526e-08,0.3,2.0179276,90.20688,90.19198,90.1317,90.08003,0.0674931,0.5140625,3.904655933380127,19.285852344830833
29,290000,49.64551675975207,-90.5241,8.649924e-38,-76.875916,2.0660963,0.13982582,694.32227,278.4511,7.6347375,112.5393,112.68369,113.021194,113.01999,1.8955629,0.7,-116.67779,-885.3226,5.6871795e-05,-5.9887047,1.2836442,1.9809065,1.1384528,1.9814289,2.807955e-06,0.3,1.9225049,88.55322,88.59736,88.96537,88.77741,0.07056834,0.50625,4.20212197303772,19.90914120674133
30,300000,41.801996648942534,-88.672066,4.52118e-39,-90.37991,0.7806846,0.15540981,769.00934,7.729825,7.688514,111.72716,112.3831,113.467735,112.31227,3.820783,0.7,-117.37669,-542.65936,0.0037304515,-3.2111862,1.0688883,1.0717762,1.2906284,0.8164493,1.4709076e-08,0.3,1.9584469,86.553665,86.64662,87.04326,86.68437,0.101012655,0.4984375,3.6119720935821533,20.52471588452657
31,310000,49.24822579277895,-88.19119,2.36591e-40,-68.58428,0.43429956,-3.3503683,678.9604,4.637835,9.968223,112.93573,112.76234,113.18749,113.00265,1.4177245,0.7,-115.98363,-518.475,0.0007515252,-6.333468,3.567584,3.0170887,2.4911838,2.3838515,1.446053e-07,0.3,1.994715,86.19934,86.155396,86.22362,86.27794,0.06604637,0.39062497,4.24720573425293,21.145439795653026
32,320000,41.76528581685779,-89.66603,1.2456e-41,-85.13327,1.1008878,-6.715848,556.3983,149.64114,8.477995,113.66053,113.93853,112.87396,112.93754,3.9980903,0.7,-121.4267,-539.8494,0.0011030585,-7.1953173,9.480001,9.451299,1.4723048,9.063966,5.1772267e-06,0.3,1.8418677,87.6248,87.64259,87.69104,87.72786,0.091113195,0.496875,3.5003089904785156,21.75752470890681
33,330000,41.405970514355936,-88.33344,6.53e-43,-76.81329,1.1138009,-2.1412244,1323.5826,82.469376,11.96604,111.49299,111.471634,111.75818,112.11746,1.4628524,0.7,-115.67878,-743.5832,0.00077071437,-4.3505287,2.0367126,1.9908395,1.3198994,1.9249363,5.280599e-08,0.3,1.88699,86.27081,86.35989,86.29733,86.379715,0.055922754,0.421875,3.789785146713257,22.373843085765838
34,340000,51.31240000822949,-91.855225,3.4e-44,-89.92313,0.47488803,-3.769133,482.0894,7.830425,8.848934,112.60361,112.75984,112.55142,112.564285,7.1327558,0.7,-118.78371,-684.90424,7.177261e-05,-5.480603,5.2898746,5.4567966,5.625402,5.707004,1.6673177e-06,0.3,1.8806255,89.872955,89.922066,89.85186,89.720146,0.10302148,0.4890625,4.683815002441406,23.003237438201904
35,350000,43.25583034936994,-89.19688,1e-45,-109.932526,0.62651443,-2.2638862,715.1642,29.027887,14.32672,112.37716,112.23137,112.40591,112.43113,2.2517715,0.7,-116.267845,-1013.41833,0.0002663742,-4.566561,2.5482283,2.8850262,3.3593912,3.570789,7.152558e-08,0.3,1.9686127,87.236565,87.27494,87.35796,87.30899,0.07935571,0.4375,3.689932107925415,23.622445635000865
36,360000,53.265949076124464,-89.747955,0.0,-71.390594,0.3802601,-1.857402,673.3417,9.518354,8.674674,112.52364,113.26976,112.74466,112.690956,2.7018132,0.7,-117.698524,-712.2595,0.00092536514,-4.5424886,3.235574,3.3165221,2.542992,2.6541836,4.6411515e-08,0.3,1.9419498,87.629776,87.66305,87.529594,87.290565,0.111880995,0.5640625,4.5432116985321045,24.252292156219482
37,370000,53.240819527952596,-88.614525,0.0,-116.79021,0.90570855,-2.4527571,898.5273,15.799641,9.416389,111.897804,111.84144,111.689606,111.944786,5.753708,0.7,-118.94267,-1170.4229,0.0011743614,-7.891038,3.6102817,3.9157186,3.495071,3.6664195,1.3831887e-07,0.3,1.9187412,86.52839,86.62766,86.20734,86.21002,0.1218336,0.49531248,4.626629829406738,24.880981636047363
38,380000,62.65375940670958,-91.3831,0.0,-83.35939,0.4979032,-2.6394644,727.1225,19.240797,9.727065,112.754295,113.26477,111.78343,112.28323,1.2123547,0.7,-119.000786,-719.6519,0.00010022987,-4.975131,2.7674582,2.964605,3.0486135,2.941434,1.9714237e-06,0.3,2.1148462,89.29166,89.32768,89.3181,89.30032,0.05997068,0.40624997,5.110081672668457,25.528302828470867
39,390000,53.46671638700364,-91.442566,0.0,-89.2899,0.502846,-6.484226,919.1468,23.653847,9.210064,111.81971,111.852425,111.9714,111.99431,1.0627279,0.7,-117.971695,-714.23004,0.0007543799,-3.0440578,7.1459723,6.999487,6.5785685,6.978003,1.1637283e-06,0.3,2.2021453,89.30988,89.24244,89.13437,89.27748,0.05836393,0.42343748,4.3329246044158936,26.15923020442327
40,400000,52.045847903330625,-87.48619,0.0,-76.41363,0.5293881,1.6061118,1490.9305,9.554183,15.419786,112.42551,112.368454,112.48145,111.74371,4.525135,0.7,-118.40446,-958.41473,0.0003580863,-3.7929423,1.1732489,0.82403547,1.3592715,0.13850293,3.042631e-07,0.3,2.2482948,85.24878,85.23562,85.15145,85.10287,0.10163431,0.43906248,4.322228670120239,26.790871636072794
41,410000,48.18505106564676,-89.339386,0.0,-111.52297,0.7983084,-10.595926,967.681,10.948252,13.016984,112.16876,112.49953,111.50451,110.683846,1.9168879,0.7,-120.00947,-1026.6631,0.0013804744,-6.559154,6.1174364,5.2054367,4.432499,4.4958143,6.3704215e-07,0.3,1.9258403,87.39497,87.42119,87.26175,87.36065,0.092289,0.46875,4.012479543685913,27.413331921895345
42,420000,59.71836895551472,-92.19234,0.0,-104.613945,0.65530556,-3.0355368,1628.572,29.815376,12.094222,112.80679,113.12999,112.50147,113.27177,6.598129,0.7,-117.87205,-1022.48,8.357747e-05,-4.317377,6.48777,6.5856996,6.936772,6.776801,6.265007e-07,0.3,2.094864,90.12548,90.11322,90.309265,90.29821,0.10020409,0.40468746,4.93255352973938,28.052697213490806
43,430000,51.98827598572755,-90.762764,0.0,-113.162125,0.7791293,0.37400126,972.55084,82.794685,11.943553,111.766975,111.89397,111.82439,111.72327,1.8864846,0.7,-118.859825,-856.5024,0.0005603254,-6.143038,0.686453,0.82417214,1.341828,0.65443003,5.9764716e-07,0.3,2.0236807,88.751724,88.76521,88.69516,88.61522,0.066180915,0.4765625,4.1949968338012695,28.682439402739206
44,440000,54.85698359786843,-90.89636,0.0,-117.27023,0.6555047,-1.0869989,1529.4116,33.80716,10.411142,112.14627,111.994675,111.907196,112.04284,1.666379,0.7,-115.7581,-967.79816,0.0005636441,-4.7053556,1.88198,1.9527804,2.1556108,2.3989909,3.7757857e-06,0.3,1.9793018,88.902115,88.885826,89.06049,89.26729,0.079399794,0.359375,4.569132566452026,29.3153476079305
45,450000,45.55163546824008,-92.78969,0.0,-99.224434,0.70774627,-2.640204,880.4402,17.669127,9.157608,111.73675,111.47944,111.840965,112.11006,3.6135755,0.7,-116.77447,-865.8794,0.0016722917,-8.485326,4.0753827,3.8229454,2.5404744,2.8134897,1.5403319e-06,0.3,2.0624223,90.65782,90.58876,90.64813,90.70533,0.092814416,0.465625,3.8055973052978516,29.94101529121399
46,460000,57.431868683482826,-90.366486,0.0,-123.50838,0.4934199,-10.346018,736.6787,21.45617,7.50847,112.245186,112.30391,112.204414,112.17647,3.4330568,0.7,-117.65827,-980.98425,0.00068532146,-4.5160546,8.598403,8.6948,7.8706565,7.995082,5.202775e-07,0.3,1.8821927,88.41263,88.477554,88.53169,88.41545,0.074462816,0.4609375,4.643187761306763,30.579438936710357
47,470000,58.09639119648604,-92.06474,0.0,-92.3219,0.6418389,-4.278646,1357.5795,18.120663,14.935422,112.315994,112.00554,112.20976,112.27088,5.367627,0.7,-119.72532,-1004.74866,0.0014752164,-4.983663,2.1446664,2.668219,1.3988726,2.2253795,3.2402343e-06,0.3,2.236259,89.81039,89.788666,89.49604,89.592316,0.0824345,0.4375,4.617976427078247,31.214217110474905
48,480000,79.7305292275652,-91.857605,0.0,-95.71963,0.69812113,-6.9040112,1044.221,8.82528,10.749819,111.0366,110.92959,111.18413,111.20638,1.8004652,0.7,-118.24604,-875.92944,0.0011085358,-4.183869,7.288024,7.661328,6.4346333,6.5871544,2.4950832e-06,0.3,2.040092,89.815025,89.78903,89.550224,89.55051,0.068671696,0.50624996,6.480287551879883,31.882061370213826
49,490000,79.58212425033136,-90.0754,0.0,-147.06645,0.3658409,-3.361187,1612.0844,8.921671,9.035158,111.00234,111.18753,110.98862,111.083275,1.5912397,0.7,-115.03763,-936.1413,0.00036871183,-5.220302,3.484676,3.4023142,3.8904254,3.897227,1.913187e-06,0.3,1.7073158,88.28572,88.363174,88.260574,88.30185,0.08565253,0.50312495,6.306590795516968,32.54496800502141
50,500000,67.27289201938738,-90.79372,0.0,-94.082375,0.4539814,-0.9360707,1768.4009,4.2992506,8.189885,112.209885,112.394585,112.04313,111.972946,1.5733048,0.7,-119.66628,-1225.4518,0.00041563355,-4.3275037,1.975263,1.5067713,1.2120916,1.0273999,6.202888e-06,0.3,2.0611222,88.65118,88.68825,88.60554,88.59439,0.05272417,0.490625,5.450497627258301,33.19754767020543
51,510000,70.94215256930464,-92.235054,0.0,-147.09596,0.380778,-0.8685708,1710.0526,6.963698,12.645927,111.46363,111.39789,111.51798,111.61934,1.0373522,0.7,-117.859795,-927.6518,0.00046264008,-4.56627,2.6543913,2.329447,2.4924052,2.8306563,3.088906e-07,0.3,1.9859637,90.24525,90.22157,90.31441,90.2912,0.047645494,0.43124998,5.8291916847229,33.85686944723129
52,520000,64.87513649350343,-89.17623,0.0,-110.06639,0.5229329,0.5492655,3543.756,17.253553,15.145754,112.46441,112.32887,112.11452,112.19764,3.5373886,0.7,-118.21715,-968.35986,0.00017783005,-4.31746,1.8664309,1.7791972,1.3474547,1.2852277,1.0624063e-07,0.3,2.2448316,86.92586,86.91542,86.91224,86.97511,0.09786305,0.40625,5.645309925079346,34.50853584210078
53,530000,70.40696797537389,-87.79385,0.0,-183.87152,0.5211248,0.6621629,2058.9001,19.013634,12.4881315,111.80299,112.11071,112.171844,111.95386,0.9897113,0.7,-116.95558,-1157.0927,0.0003655642,-5.302716,0.8126075,0.67821634,1.2547431,-0.3920144,1.174165e-07,0.3,1.8334688,85.99927,86.00502,85.81729,85.777985,0.080618426,0.5375,5.778459072113037,35.16723802487056
54,540000,69.34801216263729,-90.003914,0.0,-99.691696,0.3701037,0.67989576,1336.7218,7.8522367,12.244291,111.480576,111.75367,111.543755,111.53627,0.9209383,0.7,-116.773026,-1020.4095,0.0009263667,-4.372698,1.8950082,1.5303757,1.4156353,1.5818894,1.0086224e-07,0.3,2.074337,87.90169,87.83778,87.971855,87.98282,0.05748956,0.45468748,5.881815671920776,35.824397905667624
55,550000,80.6055620454689,-91.83241,0.0,-132.1636,0.34867936,0.65157247,1331.7795,10.365726,11.751607,112.00383,111.862114,111.81362,111.68244,2.619153,0.7,-122.661736,-1383.6976,8.179166e-05,-3.162737,0.98466396,1.0562717,1.2500573,0.3478258,2.1709566e-07,0.3,2.0782876,89.752464,89.77121,89.75476,89.58109,0.07763446,0.5546875,6.591984033584595,36.495691458384194
56,560000,77.2653562037412,-90.6389,0.0,-119.34024,0.48917055,-1.2640452,2311.7942,9.176718,7.3788247,111.10116,111.728714,111.55004,111.5502,7.452172,0.7,-116.0818,-1225.243,0.00060800766,-4.640666,4.142282,4.2722616,4.8205934,4.880032,9.2375565e-09,0.3,2.1541486,88.44728,88.43258,88.45974,88.50206,0.13206846,0.43124998,6.508194923400879,37.16257723172506
57,570000,89.43542021811992,-90.89227,0.0,-169.03577,0.5543767,1.5348077,1084.132,7.1320324,8.732437,111.82754,112.06139,111.768456,111.76685,5.8113484,0.7,-118.77125,-1166.3346,6.486225e-05,-6.473874,0.5501355,0.0530594,1.2569342,-0.27795035,1.8659746e-06,0.3,1.7210441,89.10594,89.17198,89.14667,89.18944,0.093695745,0.46718752,7.436851739883423,37.84214286804199
58,580000,85.06657190774153,-91.105865,0.0,-149.34981,0.502093,-3.9288545,3853.4995,12.484744,8.737242,111.31797,111.10387,111.20113,111.10959,1.3302467,0.7,-116.65937,-1487.9315,0.00093227025,-5.047717,4.576237,4.3937936,4.080849,4.487551,3.8246626e-06,0.3,1.8653307,89.15694,89.17616,89.18569,89.19528,0.0710652,0.43906248,6.86510157585144,38.512515719731645
59,590000,93.98496004675728,-89.4881,0.0,-116.19489,0.55516505,-3.252718,2735.88,23.927984,10.828712,111.23253,111.43425,111.411964,111.47436,4.9545674,0.7,-118.452934,-1112.5076,0.00056646625,-4.4541826,2.0332081,1.6813278,2.1971426,2.6062605,2.4950832e-06,0.3,2.1852565,87.37368,87.296555,87.22574,87.329666,0.08899252,0.4265625,7.8499696254730225,39.202887717882795
60,600000,89.09809055416457,-87.88794,0.0,-125.64409,0.534305,-0.54565763,4421.709,18.743603,8.984677,112.59222,112.63569,111.8988,112.14821,1.945727,0.7,-117.06487,-1502.6506,0.0005953361,-4.4134235,1.5348349,1.7285367,1.5846714,2.5225234,1.7462299e-11,0.3,2.029292,85.899925,85.897484,85.832275,86.02188,0.09759068,0.40468746,7.582118034362793,39.89130752086639
61,610000,86.87915795031662,-89.616,0.0,-185.39221,0.609251,-1.222488,2264.652,22.81392,8.795721,111.82725,111.40368,112.60943,111.58836,1.6122762,0.7,-117.22249,-1512.6913,0.00067405385,-3.871438,2.9130921,2.9445462,3.524407,3.3786008,4.0745363e-09,0.3,1.9567893,87.64851,87.67575,87.832184,87.76085,0.070662305,0.4453125,7.116402626037598,40.56780521869659
62,620000,90.0312184002811,-91.855576,0.0,-156.25478,0.28223234,-4.00995,1600.6826,8.446075,8.947006,111.37427,111.76647,111.82643,111.90078,1.8224595,0.7,-119.46025,-1292.401,0.00022806473,-2.6139274,6.0105605,6.012003,6.021936,6.24452,5.6735007e-06,0.3,1.7268956,90.0382,90.12836,90.11073,90.26897,0.06661911,0.43593746,7.346540451049805,41.25058170159658
63,630000,86.70983093782819,-89.04675,0.0,-124.70369,0.43805176,-7.254595,5774.411,18.717667,10.524173,111.56784,111.62521,111.674995,111.682465,0.71664345,0.7,-118.02971,-1415.1688,0.0013446643,-4.7887344,5.64214,6.043458,6.055054,6.5223904,5.5327547e-07,0.3,2.0202146,86.8948,86.88205,86.85338,87.042885,0.06676664,0.4140625,7.210818529129028,41.92659359375636
64,640000,90.0174383224779,-91.619995,0.0,-148.02527,0.356144,-5.1577487,1162.7168,11.401382,9.103834,110.96051,110.9294,111.14901,111.12429,1.5065798,0.7,-118.43984,-1685.0178,0.00052830606,-4.346889,5.523117,5.5490913,4.714759,4.8080897,8.6217185e-08,0.3,2.1770139,89.42215,89.44555,89.3435,89.461464,0.06591481,0.45,7.60753059387207,42.60781810681025
65,650000,94.22121266210381,-86.417046,0.0,-116.17822,0.4918745,-0.7162406,1994.6428,34.00929,11.436887,110.98689,111.05281,111.17576,110.9872,1.8388637,0.7,-117.01236,-1217.2092,0.0009406457,-4.9936485,2.3365831,1.3381388,0.98883235,1.5001959,3.5047533e-06,0.3,2.0676463,84.41591,84.46773,84.47604,84.66615,0.07078388,0.39843747,7.877300262451172,43.29691462914149
66,660000,94.72713130487077,-90.902756,0.0,-148.88618,0.70368993,-2.099646,3376.4631,38.031227,10.00418,112.02502,112.10831,112.39685,112.392784,5.2085943,0.7,-119.37036,-1364.1024,0.0008558683,-8.74575,1.6371388,1.994024,0.9168515,2.2486043,1.4584687e-06,0.3,1.9887184,88.76691,88.79747,88.94904,89.00437,0.08058571,0.42343748,7.8064844608306885,43.979002662499745
67,670000,95.11595540308349,-89.88949,0.0,-178.04196,0.36759052,-1.3118517,3424.8284,3.392191,8.187718,111.625595,111.57208,111.598946,111.61509,1.5850044,0.7,-116.267265,-1776.6337,5.7682046e-06,-6.4378443,3.2504413,2.4001188,2.9111524,3.0695577,1.913187e-06,0.3,2.0769942,87.72642,87.814835,87.83925,87.93671,0.06083515,0.403125,7.78801417350769,44.6645335038503
68,680000,92.41441954086909,-91.552956,0.0,-151.63826,0.40450352,0.7831359,1160.7278,9.153276,7.6659503,110.8602,111.50031,110.8929,110.61414,1.6901605,0.7,-116.14823,-2172.6648,9.339984e-05,-6.1524034,1.7382672,2.4635773,2.6487556,1.6793344,1.7797981e-06,0.3,1.9894583,89.52231,89.57093,89.531,89.38351,0.09570642,0.571875,7.415259599685669,45.34561360677083
69,690000,90.37095038902989,-90.70048,0.0,-181.25967,0.45756122,2.057781,1426.1129,17.148779,10.014015,111.295456,111.33418,110.84666,111.08909,1.3453264,0.7,-117.28953,-1207.9673,0.003070681,-5.817643,0.6317693,0.18062925,1.2686789,0.34321412,6.5718194e-07,0.3,1.97162,88.6249,88.6041,88.6438,88.78618,0.072178796,0.39218748,7.4693334102630615,46.023185940583545
70,700000,90.1281595910807,-89.33983,0.0,-185.67818,0.5984486,-1.6200562,2145.808,18.110708,9.736604,111.3245,111.2662,111.628876,111.57894,14.404902,0.7,-116.50961,-1679.5045,0.0007222058,-5.488962,2.052752,1.5700431,1.2194321,1.1941369,7.4103014e-07,0.3,1.9856399,87.245605,87.32022,87.2024,87.23476,0.11670289,0.44843748,7.429039239883423,46.70853589375814
71,710000,94.36875557384077,-92.64656,0.0,-142.34023,0.483398,-1.8182448,2299.1191,30.524414,8.314074,110.71093,111.057106,110.566574,110.789116,20.693619,0.7,-116.95317,-2075.235,0.000107470696,-5.8478994,2.01707,1.7832766,2.7459373,2.8392315,2.0186418e-08,0.3,2.195306,90.33441,90.33347,90.24459,90.39674,0.22757006,0.45468748,7.883399963378906,47.40047946373622
72,720000,93.79716137718476,-91.77481,0.0,-98.65941,0.54073864,-0.42354298,4507.079,7.6773634,9.305823,111.726845,111.62831,111.74082,112.16614,2.6343815,0.7,-116.52907,-1773.2631,0.00084109476,-6.917532,0.55389184,0.9356888,1.1225046,0.6300498,2.3905887e-08,0.3,2.1118672,89.57873,89.56156,89.589745,89.618744,0.08647451,0.4484375,7.881894588470459,48.08853135506312
73,730000,92.79799206983351,-91.02733,0.0,-169.90453,0.43030518,1.076614,2241.695,7.6418095,8.776821,110.80128,110.817894,110.80627,110.85148,11.823244,0.7,-117.22458,-1608.1201,0.00016008806,-4.284529,1.5222043,1.7183819,1.8221914,1.7575595,3.6151324e-08,0.3,2.2888303,88.76301,88.79034,88.96181,88.89937,0.12551598,0.4421875,8.553699731826782,48.79148981571198
74,740000,93.74265018099635,-88.80376,0.0,-154.19537,0.5496965,-3.8698215,2035.3947,47.629112,11.000498,111.10031,110.99141,111.046684,110.69135,9.93766,0.7,-119.43716,-1436.2802,0.0001555864,-4.3390217,5.3397827,5.40656,5.2508545,5.3727274,1.5916157e-05,0.3,2.1474547,86.64041,86.50809,86.6331,86.67932,0.118468605,0.40781248,7.954046010971069,49.48093028863271
75,750000,94.62732021632196,-87.30722,0.0,-238.41925,0.56413984,0.8818197,1508.3413,23.117933,7.6269293,111.434944,111.46646,111.31769,111.50563,0.91013855,0.7,-116.60109,-1693.2775,0.0011968554,-4.4516635,2.12598,1.9561725,1.3086839,2.2012417,1.3584341e-05,0.3,1.8156042,85.536644,85.43077,85.36189,85.597855,0.070373215,0.3734375,8.216461181640625,50.1701718489329
76,760000,94.20294335875204,-89.93227,0.0,-203.9306,0.5532037,-1.5054244,2444.6648,10.808332,10.164997,111.54192,111.76664,112.101295,111.878914,2.3592463,0.7,-119.53112,-1548.3145,0.0003487075,-3.666837,0.92143047,1.1283741,1.3080009,1.2401223,4.69666e-07,0.3,1.944787,87.898026,87.992516,88.126434,88.15069,0.076546445,0.40156248,8.217235088348389,50.86471072832743
77,770000,95.0458183162279,-90.8529,0.0,-148.54846,0.5794353,-1.7960125,3572.1372,13.626976,8.348133,111.45664,111.96849,111.031395,110.756195,7.688881,0.7,-118.03953,-1761.7749,0.000106063264,-6.1757402,2.3703132,2.5172412,2.4525042,2.7883806,1.5716068e-08,0.3,2.092794,88.588165,88.57297,88.57856,88.73001,0.0992388,0.48125,8.068743228912354,51.55662249326706
78,780000,93.22799367281122,-91.56171,0.0,-73.04037,0.42796278,-8.324023,1936.3038,6.7949147,10.084656,110.993324,110.93051,112.02045,111.85682,19.828089,0.7,-119.68311,-1351.6663,0.00013916055,-10.54847,6.509695,6.2202954,6.2715793,6.2594504,3.3741233e-07,0.3,2.221979,89.1036,89.01946,89.2121,89.423935,0.2149166,0.36093748,7.906604051589966,52.24662875334422
79,790000,94.17149171881309,-91.19735,0.0,-221.2185,0.44510198,-0.97694016,1265.074,10.936595,8.582562,111.42757,111.44779,111.305534,111.4619,2.265951,0.7,-116.69145,-2020.7069,0.00077391346,-6.922264,2.4868307,2.724412,2.8977914,2.7287521,3.3807012e-08,0.3,2.1224086,89.07865,89.18097,89.28726,89.22107,0.06342697,0.484375,7.938309192657471,52.936616158485414
80,800000,90.66155884410503,-91.71327,0.0,-179.71155,0.4196291,-10.837302,3251.3538,7.2991476,8.458653,112.127075,112.447716,112.28191,112.31748,4.4982758,0.7,-116.054504,-1680.2069,0.00016992592,-4.9766426,10.963798,11.093495,11.283198,11.28593,9.8225435e-08,0.3,2.0250561,89.51,89.56076,89.59125,89.499084,0.0784454,0.496875,7.547303915023804,53.6202010790507
81,810000,94.26094562705816,-90.96578,0.0,-194.88922,0.4831333,-0.8449962,3403.7842,20.465645,9.37388,110.45045,110.39971,110.70905,110.95821,13.714705,0.7,-118.07582,-1556.1191,0.00067861343,-4.016344,2.5140338,2.9429574,2.7855167,2.6922688,1.678127e-08,0.3,2.1348124,88.76456,88.89266,88.75546,88.761925,0.1307062,0.5015625,8.143672943115234,54.310018603007
82,820000,93.99939107382282,-90.558334,0.0,-197.74065,0.48153427,-7.357435,2260.3203,7.122707,9.847386,111.84398,111.463646,111.03076,111.24262,1.2584838,0.7,-118.45494,-1433.6558,0.00055285805,-4.1227894,9.020192,8.947574,8.71034,8.661538,1.3348588e-06,0.3,2.1733303,88.25632,88.25816,88.073975,88.11777,0.07576296,0.5171875,8.637888431549072,55.01081780195236
83,830000,95.02082108306145,-91.523346,0.0,-248.37157,0.47310895,0.38705373,3018.129,13.771537,9.534213,110.5805,110.79233,111.19386,111.008545,4.4037957,0.7,-119.6031,-1605.1064,0.00047751103,-3.3845048,1.9312344,1.9766191,2.8898683,2.999976,5.657785e-09,0.3,2.0031378,89.48874,89.43238,89.61981,89.678604,0.060890175,0.39218748,7.762825012207031,55.69590188662211
84,840000,90.20284449776935,-87.92609,0.0,-229.04395,1.3903341,0.55528617,1664.4967,127.48581,9.0405,111.770935,111.68299,111.27127,111.384766,2.7390318,0.7,-117.562355,-1909.0537,0.0005323072,-4.410232,-0.021359384,0.17803687,1.277963,0.29361117,2.9046962e-06,0.3,2.0798435,85.83864,85.8059,85.81105,85.85513,0.055219367,0.5140625,7.443971395492554,56.380574293931325
85,850000,91.62297038739938,-90.21346,0.0,-155.51129,0.45024723,-5.427349,2116.3582,10.085556,8.942124,111.1386,111.0754,111.41417,111.31144,2.602115,0.7,-117.08329,-1558.5634,0.00038720696,-7.402255,6.8333626,6.8625603,7.019145,7.3367925,1.6298145e-06,0.3,2.2679682,87.90206,87.90993,87.81923,87.80031,0.089882895,0.4671875,7.598933935165405,57.070446423689525
86,860000,90.82784142357288,-92.57021,0.0,-163.99059,0.34737757,-1.8153656,1914.467,7.568865,9.677387,110.941826,111.098114,111.08826,110.92429,3.4588528,0.7,-117.185425,-2114.899,6.33701e-05,-3.3113801,3.7622914,3.2396908,3.2546787,2.9974387,1.7658575e-06,0.3,2.2643147,90.37045,90.300964,90.458786,90.29223,0.08971601,0.49374998,7.851004600524902,57.76076491673788
87,870000,90.07386134972522,-89.5494,0.0,-125.41897,0.41424426,-0.2542889,5544.3535,14.428924,13.465726,111.41326,111.48595,111.32855,111.31731,2.8549113,0.7,-121.73993,-2074.2188,0.0010459758,-5.4509783,1.2791355,1.5344177,1.3075508,1.6566734,2.2380382e-06,0.3,2.0577726,87.42391,87.41678,87.36366,87.352036,0.09235516,0.4765625,7.425532102584839,58.44171230395635
88,880000,86.83208745473175,-89.04648,0.0,-233.43576,1.0536842,-4.4935036,4868.7886,14.534882,10.014593,111.10572,111.28466,110.90778,111.23936,3.0757895,0.7,-117.7008,-1843.4115,0.0003517308,-4.9108706,4.7784886,4.921054,4.4480796,4.6394,2.7939679e-08,0.3,2.1105485,86.88216,86.93934,86.42679,86.6784,0.118486986,0.45468748,7.13762354850769,59.11388661066691
89,890000,93.49237265639339,-91.13203,0.0,-208.48582,0.5557226,1.9049368,2137.3257,12.623395,11.814943,111.041306,111.05936,110.9405,110.98072,5.6733017,0.7,-119.49567,-1825.1945,7.410953e-05,-3.125529,0.75951314,0.46215338,1.400525,-0.35119998,6.915245e-07,0.3,2.2024415,88.86018,88.82603,88.662735,88.63403,0.099734455,0.5109375,8.019163846969604,59.799770363171895
90,900000,90.71034090311963,-90.51084,0.0,-239.05737,0.384831,-3.1246238,1500.9558,6.1030293,8.441438,111.31392,111.30454,111.50698,111.47104,3.2746,0.7,-116.29699,-2238.5156,8.400122e-06,-3.187151,5.951379,6.463091,5.9115133,6.123864,1.4709076e-08,0.3,2.064402,88.45317,88.49042,88.453995,88.429306,0.089005694,0.43281248,7.38227105140686,60.48084454933802
91,910000,87.80325395326196,-92.65123,0.0,-178.1778,0.65797186,-0.19047403,1633.1672,12.033453,8.545659,110.80567,110.91061,110.853264,110.918,1.9391638,0.7,-119.55782,-2181.7888,0.0005600576,-4.810177,2.0324667,1.8937426,2.3307953,2.0640545,3.4115046e-06,0.3,2.0901608,90.67812,90.582016,90.877495,90.73857,0.08387054,0.540625,7.135515213012695,61.16338292360306
92,920000,94.03810695064895,-88.65743,0.0,-203.3628,0.45057148,-2.0925717,4969.7915,20.334253,8.739985,111.85177,111.584114,111.61382,111.71574,1.4797152,0.7,-116.661545,-2056.565,0.0006496921,-4.1239333,3.4935455,3.5740256,3.7950573,3.6459358,1.418346e-07,0.3,1.8872728,86.76491,86.75047,86.6425,86.74716,0.057649758,0.44062498,7.817777156829834,61.85237988630931
93,930000,87.70046580450848,-92.68692,0.0,-240.08044,0.6808897,-13.180371,3493.7124,6.116123,14.131312,110.85606,110.81502,110.24334,110.37848,1.0465835,0.7,-119.31652,-1929.5656,0.0035534317,-3.9950285,13.34013,13.222323,12.298711,12.606126,8.074567e-08,0.3,1.9088275,90.83431,90.84563,90.3968,90.66557,0.05962947,0.4109375,7.150762319564819,62.529438463846844
94,940000,94.28719980981374,-89.033775,0.0,-260.89917,0.32824984,0.84418327,6585.5903,7.165221,7.702791,111.96678,112.23057,111.68041,112.092804,1.6795554,0.7,-116.63812,-2498.035,0.00019554619,-4.0792675,0.82091254,0.5878205,0.9354722,1.0703502,5.482696e-07,0.3,1.8767972,87.17902,87.193726,87.067795,87.10955,0.056140035,0.47187498,7.7654454708099365,63.22206837336223
95,950000,94.39190696402817,-90.68135,0.0,-323.87134,0.3269597,-4.9940033,3302.1418,4.476361,10.244381,110.61485,110.66278,110.586205,110.85059,6.1878705,0.7,-120.21924,-1962.205,0.0007801043,-5.5718274,5.7658916,6.016138,6.572048,6.924698,4.1953174e-07,0.3,1.9179907,88.62729,88.67929,88.57205,88.652405,0.090878755,0.39218748,7.79165244102478,63.91103515625
96,955000,93.38876292646844,-90.47902,0.0,-200.64804,0.78556436,-1.1296017,2995.8225,6.84379,12.035536,111.73381,111.86069,111.27235,111.54911,2.7885828,0.7,-118.17324,-2161.991,0.0021424904,-3.6665962,2.3249905,2.353332,1.5209935,2.2185204,1.69985e-06,0.3,2.194952,88.24432,88.22738,87.74895,87.97145,0.08922233,0.41718748,7.8181986808776855,64.32088625828425
97,960000,85.37174969323019,-88.55716,0.0,-273.04453,0.34331754,-2.9450796,4911.9565,8.732056,13.118684,112.099396,112.08845,111.83734,111.59894,1.1821032,0.7,-121.957825,-3051.5886,0.00056410517,-5.8311696,3.5927613,3.1520586,3.5105724,3.1708188,4.752539e-07,0.3,1.6880784,86.8199,86.79938,86.65167,86.66585,0.064175606,0.5515625,7.054073333740234,64.71337294975916
98,965000,89.9372752586163,-89.65379,0.0,-250.91608,0.51790524,-1.4879217,3718.6724,14.484048,10.271794,111.04149,111.02932,110.99633,111.00004,2.6104827,0.7,-117.71621,-2092.9297,0.0005452056,-4.271022,1.8662288,1.7620089,1.4200736,1.6291308,6.4218357e-06,0.3,1.9194517,87.70436,87.71061,87.81067,87.78771,0.073696345,0.46249998,7.861151456832886,65.12234905958175
99,970000,90.36094544367802,-90.64014,0.0,-196.48822,0.54736805,-1.9355336,4229.932,28.501747,9.080862,110.70931,110.96664,110.811066,111.03904,12.333406,0.7,-117.321495,-2068.5608,0.0012141431,-4.9237576,3.4844139,3.6957238,3.5880122,3.6969774,1.08723704e-07,0.3,2.0697062,88.51869,88.47966,88.55748,88.67985,0.112015255,0.434375,7.977201700210571,65.53671946922938
100,975000,86.34409822930715,-91.17197,0.0,-180.09026,0.6392045,-2.2252681,1833.447,32.22711,8.761341,111.50559,111.53966,111.307335,111.37209,3.1434498,0.7,-116.15395,-2467.8408,0.0010083751,-5.0970645,3.7529466,3.745157,3.6043768,3.3502417,2.3093891e-07,0.3,2.201418,88.88119,88.96195,89.1328,89.05478,0.09640901,0.446875,7.307758808135986,65.93556115229924
101,980000,90.92069375934332,-90.30566,0.0,-232.61,0.5830426,-5.434458,2047.8611,12.655917,9.865995,110.9677,110.87295,110.99811,110.98147,2.0175495,0.7,-118.252335,-2195.243,0.00034980575,-4.946486,6.4964476,6.3996024,6.056068,5.96859,3.4226106e-09,0.3,1.8585923,88.464775,88.43996,88.31543,88.26509,0.09250361,0.540625,7.272585868835449,66.33578847646713
102,985000,83.21982269666167,-89.757095,0.0,-294.78125,0.37389615,-0.074622214,1742.1461,11.263182,9.258062,110.79139,110.78213,110.84382,110.708885,13.495987,0.7,-118.24109,-2112.2297,3.167201e-05,-6.1235337,1.5192912,1.4891615,1.3424191,0.5983688,9.00065e-08,0.3,1.8584962,87.774155,87.76568,87.76781,87.65185,0.15948546,0.57187504,6.636419057846069,66.73018767436345
103,990000,94.81762054808391,-90.22729,0.0,-261.54175,0.39939874,-1.110373,1898.751,7.867893,9.462696,112.00252,112.21252,112.05415,111.82453,6.0671535,0.7,-118.0567,-2639.0837,0.0015157275,-6.997572,5.567848,5.7197227,4.7915397,5.3935437,1.5716069e-10,0.3,2.0347304,88.32652,88.32321,88.323715,88.39587,0.093298405,0.38906246,7.90068244934082,67.1429726878802
104,995000,90.82495865572136,-92.079,0.0,-235.03888,0.72364444,-2.7801285,2468.993,18.789845,9.082451,111.76611,111.806435,112.14929,111.96219,2.9473667,0.7,-118.18548,-1967.2781,0.002180953,-4.7878213,2.0418983,2.217047,1.9869606,1.8285483,2.2757042e-06,0.3,2.0589676,89.85841,89.9514,89.76224,89.73311,0.077369854,0.48593748,7.506659030914307,67.54608174562455
105,1000000,94.108535905636,-90.396225,0.0,-261.6522,0.48524868,-0.50665736,3432.1863,13.526209,9.029124,111.2056,110.9605,110.66339,111.45465,1.4409795,0.7,-118.03506,-2629.1724,0.00065029744,-4.9736066,2.898796,2.7915769,2.8379264,2.8938413,3.4716797e-07,0.3,2.2201207,88.11498,88.12335,87.9702,88.037796,0.05678231,0.459375,7.79546594619751,67.95195448001226
