Xixo99/comfo/baselines/comfo6_perterbation_actor/20230222_actor_perterbation/hopper-medium-v2/COMFO6_s0_20230222_035859_hopper-medium-v2_76.10.csv
,step,reward,actor_loss,alpha,alpha_loss,critic_loss,max_actor_loss,max_alpha_loss,max_critic_loss,max_mle_prob,max_q1,max_q2,max_target_q,max_v,max_value_loss,max_weight,min_actor_loss,min_alpha_loss,min_critic_loss,min_mle_prob,min_q1,min_q2,min_target_q,min_v,min_value_loss,min_weight,mle_prob,q1,q2,target_q,v,value_loss,weight,eval_time,time
0,0,4.609867337543006,,,,,,,,,,,,,,,,,,,,,,,,,,,,,,,,,
1,10000,53.93598683515458,-40.48558,0.067076266,-4.600432,0.60502267,0.26608324,24.499647,29.721603,11.413268,59.908745,59.754093,60.47904,59.48577,1.4086416,0.7,-64.38647,-21.029356,0.0018037432,-7.423272,1.8914163,1.8905954,0.92612576,1.4008064,4.0233136e-08,0.3,1.3694953,39.1932,39.18599,39.187866,38.568485,0.04931853,0.5140625,4.198259592056274,2.007137672106425
2,20000,51.25111068438986,-65.44191,0.0037622007,-8.551294,0.7089171,-0.64484787,44.482136,25.459843,8.353676,82.719765,82.67372,82.79819,81.727005,12.680637,0.7,-89.95767,-49.497456,0.0004456584,-4.253192,1.9131682,2.5959504,1.3970466,2.7494009,2.2883296e-06,0.3,1.4228256,63.935146,63.84118,63.9662,63.60528,0.21305995,0.48593748,3.973013401031494,2.6316694736480715
3,30000,58.95531654559569,-78.87833,0.00020131376,-10.713278,0.75686306,-1.4046478,55.521362,41.174385,8.775934,97.3343,97.20115,97.88734,97.1525,2.0085256,0.7,-102.40044,-77.80433,0.0008120288,-5.095059,2.7950087,2.716759,4.8412857,4.1691546,4.5781488e-07,0.3,1.6071064,77.32381,77.3309,77.44318,77.12309,0.08812852,0.515625,4.4885289669036865,3.2625683426856993
4,40000,47.225844358770644,-85.64939,1.0626376e-05,-10.48777,1.3451302,-5.219294,72.57087,35.998917,8.947705,104.42348,104.45044,104.98772,104.580696,3.948031,0.7,-111.96091,-69.046005,0.0030902792,-5.306159,5.194955,4.96444,5.880933,5.5739264,4.5828057e-07,0.3,1.6414664,83.963,83.90912,84.42914,84.24271,0.10063379,0.4140625,3.6094915866851807,3.8834990938504537
5,50000,49.23853137898725,-89.00019,5.531252e-07,-16.069088,1.373425,-8.785816,87.26134,55.198105,9.09554,109.27134,109.1188,108.3647,108.24081,3.618073,0.7,-115.935875,-96.650345,0.0005745872,-4.935671,9.332899,9.453363,8.852146,9.118787,2.1391315e-08,0.3,1.582262,87.33025,87.27466,87.15764,87.0538,0.17463961,0.528125,3.7667086124420166,4.507140000661214
6,60000,42.141391211798975,-88.67751,2.878386e-08,-15.860652,1.0633483,0.09565097,99.51969,40.69423,8.972096,109.96614,109.88552,109.61986,109.745964,2.9369736,0.7,-117.61192,-137.38954,0.0001341587,-6.7739334,-0.4046428,0.14045846,1.4248221,0.49666178,1.4709076e-08,0.3,1.841346,86.53351,86.55824,86.44046,86.55206,0.12894318,0.47499996,3.2451484203338623,5.122040756543478
7,70000,42.053213381381624,-89.7763,1.5117102e-09,-20.990894,1.6086018,-1.3413892,134.258,105.936386,10.934746,110.79876,111.23391,111.13998,111.091934,1.1748965,0.7,-119.203964,-140.86635,0.0007683607,-4.189863,0.6152646,1.7474781,1.3022027,0.8885386,5.6735008e-08,0.3,2.1093414,87.70878,87.57643,87.58833,87.78534,0.09201854,0.4109375,3.2636966705322266,5.73534947236379
8,80000,47.63395827076819,-90.499344,7.933442e-11,-18.142181,0.8412568,-2.722262,166.05391,26.573864,8.906638,112.87131,112.90596,112.71729,112.80879,3.5114217,0.7,-119.2734,-177.4131,0.0005493295,-5.6425576,4.77104,4.827179,5.1114397,5.522634,1.370674e-05,0.3,1.8740602,88.21995,88.234505,88.24662,88.42314,0.14198938,0.41406247,3.583221197128296,6.350019458929697
9,90000,46.7957394118539,-91.31369,4.1407424e-12,-23.89537,0.88119364,2.3750443,267.9371,27.849754,9.126296,110.64642,111.04565,111.19918,111.41316,2.8761046,0.7,-117.53084,-158.64471,0.00093726726,-3.9960299,1.5870217,0.8300247,1.7231284,1.7657073,2.9354124e-08,0.3,1.7992108,89.431694,89.3854,89.576355,89.695206,0.112475954,0.40468752,3.6100316047668457,6.966570595900218
10,100000,50.00792152800347,-91.89725,2.1656312e-13,-27.84327,0.5053389,1.2125063,398.508,12.629471,16.842632,110.73489,110.869934,112.135895,111.16863,2.085915,0.7,-116.169334,-202.92798,0.00047202792,-4.4322624,2.5524063,2.725289,2.654222,2.674866,1.5821017e-06,0.3,1.6834475,90.07307,90.140335,90.254776,90.214386,0.07859242,0.44687498,3.8278982639312744,7.5923187136650085
11,110000,49.62376827064868,-92.13667,1.1362006e-14,-27.964863,1.0994892,-0.2997384,495.16882,49.05328,10.157995,111.111534,111.23898,111.131195,110.94584,3.3780663,0.7,-118.645996,-254.21536,0.00027922844,-4.531775,2.9438944,3.1282973,3.4571068,3.4318573,8.606119e-07,0.3,1.8532819,90.232605,90.22273,90.36475,90.437386,0.15102415,0.35625,3.7570111751556396,8.215298291047414
12,120000,47.808385092452916,-94.028114,5.938562e-16,-33.907787,1.4321525,-3.6950293,345.54437,15.637507,10.093321,112.94903,113.12863,112.67427,113.21001,4.208232,0.7,-119.964905,-347.35712,0.00028421736,-5.1979055,5.247793,3.989041,5.1131063,5.059147,2.514571e-07,0.3,2.17591,91.79899,91.810165,91.58405,91.42616,0.1550264,0.565625,3.9000048637390137,8.835070657730103
13,130000,55.964129836333186,-90.88574,3.114775e-17,-33.059525,0.7788413,-2.6973648,236.09547,22.706688,6.8076596,111.60357,111.31945,111.99699,111.7538,2.073125,0.7,-118.26122,-339.79813,0.00024681923,-3.6984844,4.117188,3.8003364,4.7638564,5.005747,4.6111384e-07,0.3,1.7367599,89.07912,89.09538,89.25011,89.149185,0.08771732,0.4671875,4.887531757354736,9.466973066329956
14,140000,58.07509747815429,-91.67064,1.6376054e-18,-32.7881,0.7590281,-3.6253114,507.6607,5.0536814,11.6860485,112.94525,113.51703,113.171364,112.57406,3.4898114,0.7,-123.63737,-313.53485,0.0011908244,-5.448496,5.1361423,4.93338,5.667636,4.988293,3.5699456e-06,0.3,2.292488,89.31857,89.29706,89.09401,89.03926,0.14031895,0.521875,4.6930224895477295,10.098231653372446
15,150000,56.21283601411275,-88.89053,8.5784336e-20,-27.792458,1.13448,1.7407357,430.77475,25.007627,10.949209,111.78226,111.58317,113.52141,111.50568,6.094479,0.7,-117.37524,-505.5147,0.0009648765,-4.357063,0.001411736,-0.2852172,1.2742491,0.4451431,8.802745e-08,0.3,2.1454792,86.791306,86.7138,87.168434,86.88272,0.10650338,0.4375,4.200981378555298,10.717024036248525
16,160000,51.26115041942209,-88.842285,4.494876e-21,-39.773438,0.4975391,-0.5150988,379.36047,6.699667,9.895418,110.53424,110.49483,111.0738,111.152725,7.662716,0.7,-117.87278,-339.15125,0.00048374315,-5.070929,2.791311,2.2555149,1.1042683,2.9007726,2.2255526e-06,0.3,2.0224247,86.63707,86.574646,86.61809,86.658035,0.14399767,0.52187496,4.2450408935546875,11.341063944498698
17,170000,55.78969807534104,-87.95067,2.353761e-22,-41.218582,1.4660151,1.6504083,262.8792,7.8384466,8.857042,110.2992,110.04279,110.849884,110.42106,1.1541215,0.7,-114.876526,-404.9839,0.0009772875,-4.217955,-0.341435,-0.6076424,1.2963296,0.6773614,6.712508e-08,0.3,1.9525455,86.06976,85.98406,86.736145,86.602905,0.0809339,0.3984375,4.671252489089966,11.96555316845576
18,180000,80.94676383381659,-88.158844,1.22541235e-23,-67.74756,1.3453333,-4.2380986,354.40427,239.10962,10.184482,111.10097,111.33641,110.95473,110.89204,5.3741155,0.7,-117.26436,-417.92468,0.00045793422,-5.3410807,4.865131,5.2840686,4.4717245,4.9846663,1.5926315e-06,0.3,1.9235445,86.247665,86.16943,86.1031,86.3137,0.0902816,0.4515625,6.437449932098389,12.628885273138682
19,190000,97.6942078240026,-92.645996,6.3793125e-25,-34.0126,0.78325593,-2.4415784,406.50064,57.01388,8.616117,111.12488,110.98528,111.434456,111.32691,4.2128425,0.7,-114.969734,-378.2825,0.000502138,-6.1226435,3.9507747,3.7973082,3.666719,3.542195,5.020236e-07,0.3,2.2279196,90.395004,90.389984,90.495514,90.34004,0.110615805,0.515625,7.870286226272583,13.315316319465637
20,200000,97.36554967938488,-91.30625,3.345375e-26,-25.963371,0.59064984,-2.8477738,428.18445,14.53665,10.8187275,111.52887,111.54473,111.486916,111.94434,7.352226,0.7,-120.159836,-415.42657,0.000562097,-6.1885633,4.358266,4.358087,4.571153,4.8023825,3.3003744e-07,0.3,2.188919,89.08341,89.18754,89.07454,89.252335,0.112857215,0.3890625,7.831580400466919,14.001864536603291
21,210000,96.88423329214292,-89.709564,1.7529163e-27,-62.412064,0.4870445,-3.0923347,674.03815,16.753193,15.028405,111.85483,111.89154,111.60375,111.51536,1.4334321,0.7,-116.96194,-567.15594,0.00040358223,-3.6460547,4.6835136,4.924267,4.9262505,3.9674644,1.9252185e-07,0.3,2.1161513,87.621765,87.58884,87.60878,87.415184,0.0768895,0.56562495,8.115436553955078,14.691773637135823
22,220000,95.37979142128816,-89.27529,9.1684076e-29,-78.88042,1.8746107,-7.390401,369.32172,251.92728,8.572188,110.45357,110.218254,110.35214,110.35206,12.261732,0.7,-117.32255,-500.78705,0.00043410726,-4.249774,9.39604,9.230689,9.179781,9.355436,6.708317e-07,0.3,2.080442,87.24783,87.11877,87.14647,87.27978,0.14267382,0.43124998,7.592204809188843,15.368268831570942
23,230000,95.71037907557698,-91.88267,4.8153094e-30,-63.544994,2.1417642,-5.3230124,457.63446,262.18018,8.801647,111.922935,111.8307,112.231224,111.91808,1.7850004,0.7,-118.45595,-467.61807,0.00011691154,-8.117952,7.2917824,6.4069204,7.1701946,7.3756247,6.30389e-09,0.3,2.2280734,89.513596,89.5491,89.63912,89.73267,0.07918011,0.4546875,7.5912346839904785,16.051908870538075
24,240000,95.81386555593068,-89.30289,2.5219035e-31,-66.07768,0.55818,-2.8499894,473.2986,10.388439,8.263672,113.14158,112.54995,112.843636,112.80166,2.8430274,0.7,-119.95012,-626.4381,0.004339349,-6.8897977,3.3643608,3.503966,2.3805432,2.537524,4.43717e-06,0.3,1.9233437,87.33467,87.395355,87.17587,87.11378,0.08235505,0.5,7.531436443328857,16.736554606755575
25,250000,95.61259932093549,-89.65046,1.328194e-32,-69.329185,1.3413278,-2.5420113,471.55997,101.86772,8.976508,112.082726,112.05705,112.17317,112.425606,3.6662414,0.7,-117.42668,-791.3991,0.00046805182,-6.031985,3.4721155,3.4592955,3.9339945,3.7928634,2.9059012e-07,0.3,1.9799905,87.55861,87.53155,87.55852,87.7607,0.12778173,0.36093748,7.534529685974121,17.41646407445272
26,260000,95.76298900747344,-90.93754,6.9969244e-34,-66.565094,0.7247366,-1.1891305,482.61026,59.458664,10.249559,112.375206,112.75627,112.189705,112.28506,6.9217024,0.7,-116.28364,-616.74854,0.0015108632,-4.05843,3.0693798,2.8569548,3.035791,3.4510622,1.2325472e-07,0.3,1.9958472,88.85033,88.86319,88.600784,88.726944,0.087507874,0.434375,7.689300537109375,18.101571349302926
27,270000,94.06243483156832,-88.321465,3.6738784e-35,-80.49981,0.8203149,-1.1339335,443.47437,41.363102,10.043977,111.336716,111.527084,112.009224,112.012856,13.520223,0.7,-117.5393,-518.5944,0.00022642041,-8.889683,1.6828936,1.9442341,1.2111393,2.641026,3.7222637e-07,0.3,1.9439225,86.27823,86.27368,86.190605,86.2557,0.13819012,0.3890625,7.4795451164245605,18.782254707813262
28,280000,95.12587090334297,-89.95539,1.936034e-36,-64.707886,0.8388232,0.45111823,573.7513,22.581116,10.945133,112.272736,112.2364,112.00952,112.11602,5.658113,0.7,-121.01053,-683.4628,0.0010274246,-6.7782397,2.0880342,2.0924873,1.260251,1.4034961,6.640039e-07,0.3,2.065062,87.80701,87.77435,87.578674,87.793335,0.124816895,0.46718746,7.508183240890503,19.46187154452006
29,290000,88.87439605474421,-91.103516,1.0212105e-37,-67.950455,1.1223581,-2.9909844,669.59515,71.02731,10.005325,113.79539,113.55679,112.86228,113.158005,1.969441,0.7,-121.84406,-873.9893,0.001609717,-3.9527192,4.826621,4.4045095,3.9888713,4.547365,1.4683855e-05,0.3,2.2277513,88.85892,88.84115,88.51224,88.7262,0.060879096,0.4390625,7.03071928024292,20.13766674200694
30,300000,88.33120321395174,-90.286385,5.384991e-39,-78.01014,0.5393589,1.2459202,791.40564,44.58628,10.387999,111.92588,111.83874,111.950195,111.976166,1.4248623,0.7,-121.894196,-552.39136,0.00065980275,-6.970333,1.5716693,2.071608,1.2152448,1.7640831,6.551895e-06,0.3,2.2114654,88.06094,88.09011,88.01367,88.02167,0.055962145,0.4203125,7.1143176555633545,20.81571222146352
31,310000,88.42744597421132,-88.701416,2.84189e-40,-86.45728,0.53797436,-5.619874,531.26245,17.579693,9.811859,112.60648,112.71868,112.55352,112.408104,5.585715,0.7,-116.01935,-653.63983,0.0010330143,-7.071064,5.8919873,5.7956734,5.371823,5.4399757,1.2321398e-07,0.3,1.8392867,86.84412,86.8783,86.916,86.84958,0.10170265,0.503125,7.272310495376587,21.496174478530882
32,320000,91.49571202257546,-85.8239,1.5023e-41,-73.13849,0.83473504,0.67012715,703.9886,33.04872,9.763515,111.13016,111.38258,111.49206,112.16128,2.213251,0.7,-118.47845,-750.89606,0.000531846,-3.2886467,2.0480332,1.7843592,1.2767473,2.5396996,3.876805e-07,0.3,2.090757,83.76078,83.65175,83.58772,83.626656,0.064348534,0.45,7.488076448440552,22.1782168785731
33,330000,85.05397050406496,-92.92936,7.93e-43,-60.26942,0.4899265,-1.0093298,677.04504,40.633568,9.487432,112.07444,111.96575,112.149956,112.26433,6.94144,0.7,-119.204475,-867.0123,0.0010717805,-4.0543995,5.043148,5.6741424,5.3675194,5.1922174,3.6151324e-08,0.3,2.2603009,90.63774,90.55843,90.59828,90.627396,0.07653344,0.41718748,7.006693363189697,22.85573641061783
34,340000,88.69375422331727,-91.00965,4.2e-44,-110.95699,1.0682653,-1.6448603,1365.4014,98.54025,15.346351,111.75419,111.18215,111.16371,111.04609,6.0886188,0.7,-116.21951,-641.8622,0.00068383396,-8.355552,2.8417087,3.3231983,1.4452066,2.4420605,2.6424125e-06,0.3,1.9308901,89.02486,89.08467,88.9783,88.862885,0.076355755,0.5109375,7.1931867599487305,23.535469086964927
35,350000,88.87458467140249,-92.501724,3e-45,-85.18858,0.3301343,-4.5843573,739.6852,9.815401,8.274173,111.97253,112.23275,112.14615,112.34976,2.7984192,0.7,-117.97619,-702.4467,0.000113762915,-2.7379682,4.9677105,4.4322925,4.8082056,4.7784224,2.0186418e-08,0.3,2.1695561,90.26897,90.24116,90.22684,90.303986,0.07065793,0.421875,7.7203404903411865,24.221608825524648
36,360000,81.63741170148053,-90.82677,0.0,-56.03405,0.8515321,1.7745252,690.68146,36.030907,9.573772,112.1297,112.04351,111.828354,111.72643,1.0557865,0.7,-115.861855,-905.0514,0.00021624524,-8.31359,-0.13612777,0.10050771,1.1689359,0.065490544,3.277499e-07,0.3,2.1875215,88.644936,88.6403,88.882126,88.88786,0.06298032,0.403125,6.5733373165130615,24.884864254792532
37,370000,80.4410994685574,-90.47815,0.0,-88.775894,0.5292371,3.0044384,1342.408,6.299678,13.550905,111.09867,110.93374,110.242386,110.57677,0.91646504,0.7,-118.28401,-941.8653,0.00012633414,-4.02012,1.0421958,1.3049252,1.3588526,0.7564847,1.0913936e-08,0.3,2.249607,88.25833,88.305115,88.02948,88.112236,0.064863876,0.475,6.644370794296265,25.554655261834462
38,380000,77.36390635493984,-90.840805,0.0,-121.593124,0.7249053,-4.1596165,1040.1466,36.164703,14.024849,111.64547,111.2225,111.252625,111.14596,3.537923,0.7,-116.6432,-875.3608,0.0003377861,-2.957833,5.3690176,5.35514,5.379546,4.8477,3.0803495e-08,0.3,2.0305648,88.777405,88.74457,88.556274,88.47532,0.110591054,0.5046875,6.379781246185303,26.22149832646052
39,390000,70.16476975176053,-93.275154,0.0,-89.10041,0.3651194,-1.1747899,733.3928,8.179174,9.068011,111.847984,112.05444,111.91994,111.91715,2.1411152,0.7,-118.45545,-648.0047,3.0497846e-05,-6.3655014,2.1773472,1.9960735,2.5071106,2.918163,2.2501627e-06,0.3,1.9498464,91.222946,91.353714,91.40564,91.36522,0.06894335,0.434375,5.598626613616943,26.87347156604131
40,400000,77.41208398338459,-91.99754,0.0,-75.8877,1.1112211,1.9973729,1268.3743,9.982011,8.799406,112.15974,111.95217,112.75517,112.52559,7.0251164,0.7,-116.85917,-848.1882,0.0007764093,-5.559651,0.25824934,0.02582848,1.2539265,1.1077392,8.802745e-08,0.3,2.2562065,89.71258,89.653404,90.17764,89.987274,0.09264536,0.475,6.401407241821289,27.539783628781638
41,410000,89.19933013055893,-90.183975,0.0,-80.49725,0.5405862,-0.8525896,727.31934,4.9960346,9.282139,111.612785,111.451065,111.31003,111.491806,3.6908348,0.7,-120.12669,-771.50696,0.0020117261,-4.5220366,4.7555714,4.6869793,3.9550498,4.336077,3.7550925e-07,0.3,2.1796036,88.076035,88.04959,87.79565,88.012344,0.09913242,0.3796875,7.274031162261963,28.21943968931834
42,420000,76.40717964800086,-88.37389,0.0,-133.87613,0.5893318,-0.003920436,758.161,12.917421,8.689244,110.7313,111.06307,111.03913,111.03723,1.349768,0.7,-117.430405,-983.8847,0.0009885794,-3.9349906,0.66459835,0.69749844,1.2145689,0.6356363,3.876805e-07,0.3,2.0139802,86.22624,86.25893,86.06746,86.09492,0.060742166,0.41718748,6.263485670089722,28.88173600832621
43,430000,80.51891592279125,-91.67126,0.0,-84.76001,0.40604886,-1.2736423,910.83826,6.0001736,8.746686,111.87717,111.750145,111.92251,111.815216,10.840771,0.7,-119.05369,-852.97,0.0002204912,-6.769002,3.047316,3.018297,4.008113,3.1064126,3.7903373e-08,0.3,2.2249923,89.33293,89.37405,89.463745,89.429985,0.09582071,0.4578125,6.590628385543823,29.54895290136337
44,440000,67.78905030459484,-90.12711,0.0,-107.421234,0.40829358,1.2576658,1415.9952,7.2017055,12.853073,111.81749,111.45015,111.41409,111.438446,6.7393165,0.7,-118.360054,-1192.3289,0.0005748542,-5.3405304,0.815029,0.8766488,1.1270238,0.7580751,1.466833e-09,0.3,2.2125838,87.91855,87.9235,87.87599,87.82512,0.091454074,0.515625,5.3825623989105225,30.19846034447352
45,450000,71.6690669485463,-88.098335,0.0,-113.90921,0.47141546,-4.921947,1215.2175,16.749336,9.917158,111.4244,111.244514,111.26801,111.35565,1.28857,0.7,-118.98731,-882.6049,0.00042762945,-4.937619,5.1679845,4.801042,5.1269765,5.4063053,2.1554296e-08,0.3,2.351032,85.58852,85.57146,85.56569,85.69263,0.06059376,0.4125,5.764857530593872,30.852947235107422
46,460000,87.4588814322311,-90.19061,0.0,-111.194405,0.64911485,-1.6155475,1148.6364,17.131756,10.193627,111.606636,111.548546,111.3586,111.23008,2.6661043,0.7,-119.092186,-968.7172,0.0002367077,-4.464122,2.63748,2.8917673,2.9169335,3.2439818,1.1895493e-06,0.3,2.1659822,88.008255,87.958466,87.86908,87.92022,0.087580755,0.45156246,7.05483865737915,31.529379653930665
47,470000,69.29624712771786,-90.46447,0.0,-110.024216,0.5150384,1.4128996,915.8193,8.017861,9.644805,112.237175,112.17049,112.315,111.9833,0.6403283,0.7,-117.555275,-883.1134,0.0023859397,-3.930565,0.60370946,-0.24988183,1.2912147,0.2611071,3.551849e-06,0.3,2.1013036,88.27501,88.170074,88.09064,88.200775,0.04480276,0.403125,5.4691197872161865,32.178545983632404
48,480000,76.10578501475473,-91.609314,0.0,-54.87421,0.59236264,-0.2225796,1717.5791,10.820826,14.092506,112.62412,112.264145,112.04549,112.21003,3.8627336,0.7,-125.4195,-812.8665,0.00010849314,-6.9629135,1.8636091,2.2374334,1.3961506,2.0873158,4.192698e-06,0.3,2.2079036,89.40849,89.369286,89.36884,89.4245,0.09066046,0.4421875,6.180323123931885,32.842654812335965
49,490000,63.88815093996425,-91.09213,0.0,-99.46295,0.49069548,0.11117554,1273.053,5.110997,8.99331,111.32893,111.87226,111.80536,111.523705,3.3666642,0.7,-119.03198,-846.6292,0.0026586398,-3.1461222,2.8773482,3.1422222,2.9147315,2.8883529,2.0746957e-07,0.3,2.2321897,88.81772,88.84369,88.79948,88.69576,0.08669248,0.4953125,5.262119770050049,33.4886053442955
50,500000,73.503399636958,-89.71448,0.0,-131.95598,0.48812562,-0.3180511,1705.0988,13.244021,8.6018,111.40923,111.68268,111.46197,111.47376,4.0355606,0.7,-116.51728,-943.6609,0.00038450514,-4.169031,2.8240774,2.2798283,2.8740053,2.8916135,3.9156294e-08,0.3,2.1482391,87.50154,87.459015,87.55638,87.67215,0.07630204,0.4375,6.118476629257202,34.15208028952281
51,510000,84.63552244812037,-90.48473,0.0,-93.03375,0.75143504,-1.6382728,2714.6592,17.637407,8.455461,113.036964,112.54199,111.17956,112.37003,1.1541834,0.7,-117.32913,-1137.8688,0.00068227877,-3.767847,3.1239047,3.3262253,1.6725203,3.3019307,3.4226106e-09,0.3,2.2103503,88.25033,88.18438,87.89765,88.20975,0.0978709,0.365625,7.011449813842773,34.82836921215058
52,520000,79.26470520393771,-90.08499,0.0,-100.16117,0.6144235,-2.8528337,1145.4155,11.719293,9.613964,110.63133,110.586266,110.493614,110.446846,2.6308603,0.7,-115.692795,-1057.9862,4.8367132e-05,-3.793174,3.7451358,3.5720549,3.9956365,4.04079,2.6418712e-07,0.3,2.25793,87.79112,87.76525,87.85621,87.84074,0.084385306,0.49374998,7.008807420730591,35.505025601387025
53,530000,77.70431242770464,-92.412865,0.0,-118.70091,0.4812609,-2.5586004,1931.1588,18.072899,15.203405,111.1618,111.30037,111.14063,111.07484,6.5630755,0.7,-117.98641,-1147.982,4.9473718e-05,-3.7702363,2.7849395,2.997438,2.6179886,2.4260857,4.52415e-06,0.3,2.0983155,90.301346,90.34748,90.27666,90.2173,0.089792624,0.434375,6.293818235397339,36.16714032093684
54,540000,72.95175029722098,-88.67324,0.0,-107.31335,0.5597608,-3.0527015,2648.9983,10.209918,9.657695,110.82072,111.02713,110.98486,110.974686,1.9622632,0.7,-117.026245,-1398.658,0.00020972948,-7.7725797,-0.006477326,-0.023212135,1.24264,0.9539095,8.32444e-06,0.3,2.2968063,86.327644,86.37321,86.477646,86.54532,0.072543286,0.3828125,5.873505353927612,36.82222362359365
55,550000,71.16158847089868,-89.43171,0.0,-143.11899,0.33834177,-4.1487913,1033.8191,6.578808,9.649741,110.07096,110.36704,110.19716,110.190025,1.59161,0.7,-115.13196,-1120.283,7.862807e-06,-4.091457,5.347091,5.1724896,5.5757,5.598448,2.4165029e-06,0.3,1.9767399,87.429855,87.47694,87.29291,87.28483,0.07058105,0.575,5.88760781288147,37.48031275669734
56,560000,79.4866234473894,-91.212845,0.0,-109.969406,0.65075755,-0.9711,1612.9131,30.078487,10.542264,111.45871,111.3604,111.29644,111.259636,0.72574985,0.7,-118.455,-1513.8127,0.0009755735,-5.311082,2.0199103,1.8891162,2.8390985,2.6469994,1.7114799e-07,0.3,2.3018723,88.79709,88.79339,89.07998,88.96509,0.05161309,0.47500002,6.445164442062378,38.14452143510183
57,570000,75.45456990315176,-91.65872,0.0,-144.53992,1.033653,1.5839326,1567.8079,23.84719,12.216362,110.904465,111.32608,111.15651,111.18675,1.2180022,0.7,-118.9203,-1077.3004,0.0018659018,-4.425946,0.20722753,0.44814962,1.408836,0.48690242,3.0365018e-06,0.3,1.9446883,89.68027,89.76889,90.15933,90.213684,0.090872526,0.37656248,6.15927791595459,38.80259757041931
58,580000,76.26410793563444,-93.06556,0.0,-98.92055,0.33703238,-3.8341389,1645.833,9.211352,10.830697,111.17451,111.026375,110.64859,110.906975,1.7093849,0.7,-121.18572,-1538.5017,6.942544e-05,-3.2587879,6.196154,6.4769692,6.6689787,6.512648,1.9965228e-07,0.3,2.37524,90.60916,90.66547,90.609985,90.48929,0.068253085,0.5296875,6.180738687515259,39.46064046621323
59,590000,75.71395872098145,-91.65585,0.0,-88.95607,0.35963535,-1.3312685,3454.6907,9.479229,9.328844,110.200356,110.4274,110.3706,110.39157,6.1104054,0.7,-119.25329,-1332.285,0.0007417896,-6.4534974,2.1188145,2.075902,2.3457413,2.5541785,1.0396354e-06,0.3,2.2412689,89.26007,89.24817,89.245804,89.19124,0.09544148,0.44843748,5.937222480773926,40.115969479084015
60,600000,83.23493997659978,-89.48314,0.0,-119.956696,0.4364692,-2.1998634,1192.5532,16.86996,9.33955,111.517006,111.28962,110.982025,110.97913,2.2818522,0.7,-117.68698,-1264.0839,0.00031653338,-5.243184,3.8000717,3.6273584,3.7661734,3.6669028,6.780436e-07,0.3,2.2616553,87.20699,87.251114,87.2505,87.27696,0.06711647,0.4734375,6.641085863113403,40.78375796477
61,610000,68.63304354732018,-90.30314,0.0,-143.64153,0.42592964,-0.75208926,1148.6034,7.420642,8.402665,111.31826,111.46182,111.5318,111.416306,6.844752,0.7,-118.93565,-1576.3055,0.00063621305,-3.8776655,1.6886656,2.0605495,1.3361553,1.6050069,1.466833e-09,0.3,2.1144574,88.099464,88.20791,88.38521,88.26216,0.07586434,0.47187498,5.592177867889404,41.43279713392258
62,620000,79.58401692402487,-90.59573,0.0,-81.200966,0.34945726,-2.1379085,1342.4553,7.2734895,10.062184,111.69974,111.576126,111.494446,111.43736,1.72201,0.7,-119.35908,-1052.5349,0.0009880994,-5.1087303,4.0179043,3.8397415,3.7871814,3.7428217,1.6298145e-08,0.3,2.4262757,88.182526,88.145515,88.14737,88.036606,0.062102288,0.48593748,6.316343069076538,42.091986012458804
63,630000,81.30511458837397,-89.340225,0.0,-140.25554,1.5323751,-6.318511,1315.5173,167.9948,8.961817,111.50259,111.57467,111.25878,111.332054,11.818241,0.7,-117.347664,-1621.2164,0.0005953629,-5.561965,9.856831,9.639389,10.193824,10.328262,5.2952674e-07,0.3,2.1090665,87.28183,87.325424,87.28108,87.39644,0.12204629,0.4015625,6.578057050704956,42.75740918715795
64,640000,70.01082657087649,-90.823845,0.0,-102.28698,0.3216466,0.34895277,2490.3223,4.9223204,9.311501,111.62696,111.504005,111.19461,111.4584,1.7189457,0.7,-118.77835,-1402.016,0.00058757374,-3.307076,1.3615866,1.031138,1.2787368,1.3237633,2.2919266e-07,0.3,2.155715,88.510925,88.436935,88.33969,88.4957,0.07365279,0.396875,5.66064715385437,43.4094619790713
65,650000,76.47096542051605,-87.74755,0.0,-169.10803,1.0018402,0.31096458,1310.5011,9.449242,9.132179,110.55248,110.55106,111.01034,110.89569,4.1340537,0.7,-115.71544,-1233.5192,0.0005760011,-5.305291,2.2462962,2.082082,2.9981165,2.319355,1.0542496e-05,0.3,1.8228168,85.84682,85.94295,86.42428,86.07886,0.096454486,0.51093745,6.180335998535156,44.06752782662709
66,660000,77.78652582469005,-91.216286,0.0,-101.000565,0.41145006,-5.3065896,1965.1305,16.010574,8.717372,110.49124,110.74984,110.53536,110.3247,0.6068701,0.7,-117.64167,-1619.4017,0.00038226793,-3.5040336,4.9090776,5.4219294,4.771026,4.9733005,2.2255526e-06,0.3,2.2720327,88.81745,88.85541,88.66765,88.68048,0.048750404,0.4796875,6.767624855041504,44.73937793970108
67,670000,72.31190406850119,-87.23334,0.0,-202.67165,0.6118142,0.12004256,3087.6836,9.886627,9.523928,111.08512,111.14532,110.770676,110.68278,1.2335148,0.7,-119.468475,-1520.4938,0.00049662136,-5.996887,1.6895077,2.1118808,1.2743148,1.5472031,9.167707e-09,0.3,2.1179829,85.06555,85.05102,84.84724,84.895424,0.06332182,0.453125,5.8147337436676025,45.387640380859374
68,680000,66.09037324695444,-87.100845,0.0,-155.6275,0.47821417,-0.08622384,2328.4106,15.955484,9.101962,111.28851,111.135345,111.257935,111.54071,1.1833975,0.7,-118.4982,-2136.2473,0.00043296517,-6.9321184,0.8220742,1.5977364,1.3690175,1.82971,1.5973811e-06,0.3,1.9480295,84.98906,85.16126,84.872475,85.162895,0.076054074,0.42343748,5.4321441650390625,46.03310904502869
69,690000,63.673455270156985,-86.77756,0.0,-152.1911,0.44641772,-3.8419394,2817.9497,25.06958,12.78963,111.38913,111.153,111.08768,111.12506,1.8349559,0.7,-119.47651,-1161.4429,0.0004781807,-4.4454365,3.9043026,3.888427,4.4811378,4.7195754,2.542918e-07,0.3,2.0739927,84.63544,84.65625,84.67584,84.821266,0.09929156,0.37656248,5.567883014678955,46.681257617473605
70,700000,68.50684756841132,-92.18797,0.0,-134.76707,0.383666,-1.1316767,2254.8564,13.392237,11.184174,111.01821,111.046715,111.088425,111.23612,3.0842378,0.7,-117.15117,-1637.4558,3.836176e-05,-6.784434,2.6440165,2.9568315,2.9589105,2.6205456,8.332019e-07,0.3,2.1143217,89.90817,89.984184,89.9626,89.94255,0.087259725,0.4828125,5.642254114151001,47.33261760075887
71,710000,75.15404785160665,-88.79126,0.0,-189.8,0.4689049,0.8951005,3925.8564,9.119839,10.376917,111.11476,111.043396,111.15898,111.13174,2.572514,0.7,-117.73386,-1553.7065,0.00017329224,-6.4300656,1.9047531,1.504788,1.3265386,0.41712174,3.6670825e-10,0.3,1.9851556,86.71805,86.622955,86.73201,86.63449,0.08343035,0.4765625,6.507349967956543,47.99391528367996
72,720000,75.86714896789246,-90.82622,0.0,-119.22594,0.507141,1.9554044,3535.8762,5.3141336,8.893746,110.94286,110.89725,111.15368,111.297195,1.8667808,0.7,-115.98447,-1628.8599,0.0032395492,-3.6615543,2.2256074,1.7797517,2.6873775,2.300715,4.2700603e-06,0.3,2.3502724,88.41859,88.32654,88.66699,88.75769,0.08187659,0.39062497,6.814801216125488,48.66376961072286
73,730000,66.88570365950625,-93.007645,0.0,-140.93416,0.40052712,1.1148313,2188.5073,6.060668,10.052593,111.24841,111.20041,111.510704,111.18381,2.040845,0.7,-121.12308,-1485.504,0.0001405077,-3.972103,0.64397395,0.8469195,1.2824651,1.0678571,2.4789477e-07,0.3,2.3489728,90.53053,90.53546,90.40094,90.50412,0.05402401,0.4296875,5.576087713241577,49.309158253669736
74,740000,70.59862954943759,-91.63927,0.0,-58.326958,0.7041141,1.2638333,3112.1123,20.54044,10.207928,111.20048,111.132095,111.108406,111.030655,1.5267966,0.7,-120.17647,-1640.1686,0.0019030808,-7.73285,1.829191,1.9817331,1.3254774,1.5034974,7.862243e-06,0.3,2.3870034,89.087685,89.00604,88.96933,89.03003,0.064372815,0.41562498,6.026665687561035,49.96127483844757
75,750000,82.2576740851839,-88.33285,0.0,-235.21828,0.6270117,2.4076805,1337.5104,13.107037,8.755479,111.20639,111.41043,111.18195,111.031166,4.3492627,0.7,-116.54768,-1437.3706,1.6493374e-05,-6.8429575,0.5180299,0.35699463,1.1830101,0.8075534,9.1677066e-07,0.3,1.9490013,86.34024,86.37749,86.64288,86.40408,0.095089935,0.51406246,6.9810497760772705,50.629740277926125
76,760000,89.1353839711828,-89.80522,0.0,-126.44833,0.6183175,0.32469308,2727.1587,8.774498,9.232133,110.820656,110.42881,111.10517,111.020515,1.8150388,0.7,-116.36773,-1279.878,0.00011594646,-5.859131,0.6306173,0.20767057,1.2340016,1.4339278,9.953947e-08,0.3,2.0725615,87.53512,87.56036,87.69659,87.68376,0.0898498,0.440625,8.0263991355896,51.31605088710785
77,770000,69.1285998474082,-88.85623,0.0,-147.56895,0.46672964,0.8657553,3975.6904,6.8977227,8.317709,110.85189,110.84882,111.22766,111.00733,2.218271,0.7,-119.0662,-2021.9797,0.000348115,-6.2159295,1.9061167,1.4765224,1.4588034,1.5850642,9.426888e-06,0.3,2.3160355,86.474556,86.4253,86.56652,86.465225,0.086991966,0.50312495,5.618388414382935,51.96301764647166
78,780000,72.96420859901525,-91.81,0.0,-153.05112,0.69093883,-5.7693,1361.249,13.660672,8.741282,111.385185,111.64857,111.00384,111.199295,10.276218,0.7,-117.629845,-1540.3726,2.9986317e-05,-7.8374987,6.3250666,6.4691753,6.1188474,6.1379766,2.6560157e-08,0.3,2.1009004,89.74045,89.73559,89.676674,89.6479,0.09577877,0.4125,6.0508873462677,52.62314968506495
79,790000,76.05096601114413,-87.66272,0.0,-163.68274,0.44552398,-0.7870083,3924.275,3.783956,10.283895,110.914246,110.82508,110.94028,110.942635,3.4201658,0.7,-116.4111,-1481.8531,7.05861e-05,-3.480579,2.379451,2.6356354,3.2826624,3.4353929,9.2375565e-09,0.3,1.8453345,85.64171,85.5953,85.701035,85.73605,0.09140177,0.4421875,6.128258228302002,53.28306559324265
80,800000,82.98391997604494,-90.33145,0.0,-157.10904,0.37960353,-3.219552,1638.1693,15.941457,9.249652,110.874855,110.79383,110.85088,110.97908,1.0186807,0.7,-117.47871,-1690.465,0.00061034237,-4.1081142,3.7653701,3.3830101,3.5555189,3.7570722,6.5045316e-07,0.3,2.06343,88.23918,88.224976,88.23475,88.26456,0.06020197,0.43593746,6.865183353424072,53.95515926678976
81,810000,62.38343882635926,-90.03453,0.0,-198.47531,0.41602197,-4.4624615,1392.6292,21.520824,8.221193,111.08599,111.03667,111.15275,110.9916,7.8605385,0.7,-117.282074,-1535.5717,3.1619566e-05,-3.8464596,6.447742,6.1342607,6.1876426,5.9031906,2.9211108e-06,0.3,2.10446,87.88877,87.944176,87.78165,87.77783,0.08021058,0.52812505,5.082200765609741,54.59367986122767
82,820000,74.50226082585849,-93.16841,0.0,-149.4036,0.48447794,-6.049541,1592.5149,10.573664,11.363467,111.15383,111.29794,111.544395,111.55121,6.084717,0.7,-117.70042,-1951.3755,0.00015894423,-4.9707894,3.301023,3.1211612,3.041316,5.313607,1.418346e-07,0.3,2.3900855,90.7756,90.73771,90.60828,90.66838,0.12430401,0.45,6.092016696929932,55.25086906750997
83,830000,66.61994121090031,-89.70865,0.0,-170.19284,0.46698797,-2.8059523,3576.597,10.900519,8.711724,110.79817,110.90456,110.974174,110.941505,6.5885453,0.7,-118.217476,-1679.4917,0.00015427575,-4.2887077,3.1703472,3.5197878,3.3600347,2.7447703,2.0262262e-06,0.3,2.164716,87.35563,87.397736,87.47263,87.40179,0.12150633,0.47031248,5.3168253898620605,55.89458351929982
84,840000,64.03306421205768,-91.047295,0.0,-248.14363,0.8351573,1.7185785,2944.8315,8.793436,13.438053,111.57482,111.40545,111.324646,111.177155,20.27173,0.7,-123.67053,-1968.4504,0.0007184053,-3.9955206,-0.70138204,-0.73794985,1.3770896,-0.04733467,3.5708655e-07,0.3,2.1082795,88.874664,88.891945,89.238144,89.03439,0.14625914,0.46718746,5.148265361785889,56.53786661624908
85,850000,73.37651956784991,-89.514694,0.0,-307.49246,0.4077387,1.3344992,1715.0106,4.3073025,8.991597,111.18622,111.35397,110.959305,110.96427,1.238472,0.7,-118.04293,-1998.5029,0.0005257607,-3.6913342,1.6080872,2.0244231,3.1041882,2.8276088,1.9016444e-06,0.3,1.7869412,87.62228,87.66441,87.696075,87.67203,0.047561213,0.4453125,5.968126535415649,57.19176441033681
86,860000,65.43178029142277,-87.52955,0.0,-182.8972,0.6289568,-5.475235,3281.3474,10.521423,11.14595,111.142204,111.01435,111.25307,111.18307,6.421577,0.7,-118.31097,-2046.4294,0.0019282827,-5.7088223,6.6017137,6.6511497,6.914262,6.7999773,1.0105013e-05,0.3,2.1743135,85.16742,85.13095,85.36461,85.33708,0.10872893,0.4359375,5.369609355926514,57.83968164523443
87,870000,80.39168144058742,-90.019135,0.0,-222.2319,0.7187185,1.8334062,2522.5886,54.612137,11.770454,110.070885,109.868164,109.740715,110.02198,7.6265984,0.7,-117.86679,-2275.1223,0.001352462,-8.17369,-0.09805405,0.35964137,1.3674532,0.342282,1.5926315e-06,0.3,2.2429328,87.70783,87.753006,87.87538,87.9773,0.14003518,0.428125,6.4180216789245605,58.5023410876592
88,880000,69.75943314953857,-89.07199,0.0,-276.76703,0.65134335,0.8401124,1805.8973,7.203246,8.847731,110.568214,110.30205,110.60856,110.63385,1.8674135,0.7,-118.75003,-1822.0823,0.000929945,-5.589127,1.0267389,0.8991455,1.2416205,0.5704027,7.4824203e-07,0.3,2.1290548,86.983765,86.91229,87.20793,87.030045,0.06328669,0.4578125,5.699449062347412,59.154196504751845
89,890000,56.567701575851316,-89.951965,0.0,-248.7118,0.42722484,-2.5208695,1544.7728,8.460508,9.097187,111.18366,111.33096,111.06171,111.02075,1.0035708,0.7,-116.14743,-1839.7379,0.0004963973,-5.0421066,3.04668,3.4776173,2.8853183,3.582085,4.0745363e-09,0.3,2.0897694,87.78236,87.851845,87.7613,87.87889,0.07010047,0.4296875,4.536642789840698,59.78602928717931
90,900000,77.88153345218977,-87.76072,0.0,-140.02994,0.5600753,-0.3560332,2692.4333,7.6882405,9.726717,110.94706,110.85256,110.428314,110.73548,3.3003395,0.7,-119.80504,-1766.7974,0.0014898867,-4.1081967,2.255312,1.7910498,1.3438989,1.5887825,4.400569e-06,0.3,2.2376828,85.3618,85.31913,85.211395,85.39412,0.08909047,0.3984375,6.187394380569458,60.445528205235796
91,910000,66.0146820402428,-87.63477,0.0,-226.9292,0.43699947,0.42585683,4401.7314,7.1709714,9.879816,111.452385,110.950554,110.97083,111.41463,6.910709,0.7,-120.882545,-2289.6294,0.00077986513,-4.88756,-0.26237142,0.19377661,1.3845552,0.12527424,1.4283462e-06,0.3,2.0176528,85.43646,85.442856,85.665375,85.555336,0.0881073,0.47031248,5.374144077301025,61.09724137385686
92,920000,67.55874941984004,-91.59822,0.0,-148.29428,0.5461873,-2.070024,3164.1516,13.944906,9.557277,110.95641,111.37997,111.05504,111.14986,1.8565065,0.7,-119.87915,-2061.6501,0.00024370675,-2.785698,3.715671,3.886838,3.4374995,3.3269312,1.0913936e-08,0.3,2.3854585,89.16303,89.2045,88.97401,89.10516,0.06674008,0.45625,5.533069372177124,61.75096175670624
93,930000,75.02165449383126,-90.38108,0.0,-145.71382,0.44327348,0.06373757,2190.0535,10.550644,11.827001,111.31987,111.52408,111.50526,111.607796,3.0601711,0.7,-115.91913,-2326.2417,0.0013934711,-4.4688435,0.07478696,0.6443663,1.3004907,0.88652414,2.4425565e-06,0.3,2.2514696,88.00923,88.06646,88.17123,88.13806,0.06523366,0.46875,6.017040729522705,62.40927627881368
94,940000,66.9917245662997,-87.34783,0.0,-224.513,0.3955144,-0.58577085,2158.7607,30.239103,12.027779,111.15912,111.2533,110.838554,110.80513,1.851977,0.7,-119.808685,-2109.6897,0.00012456701,-7.449381,3.1392636,3.025402,3.3489246,3.576324,1.2336066e-06,0.3,2.0469842,85.194336,85.19467,85.09334,85.14617,0.06497547,0.47812498,5.560718536376953,63.05696289539337
95,950000,69.39712406513574,-86.761284,0.0,-289.3957,0.6840766,0.7789058,1902.2999,52.477005,7.7290936,110.661476,110.615814,110.60765,110.66216,9.634548,0.7,-116.582504,-2489.717,0.00044100062,-5.0496573,0.84319395,0.665355,1.3233413,0.37688023,1.174165e-07,0.3,1.9882944,84.68212,84.66507,84.781975,84.75947,0.14689896,0.4421875,5.5707457065582275,63.69705537954966
96,955000,68.2737921475066,-89.550934,0.0,-190.49362,0.6549996,-0.091784,3740.3945,7.1343613,9.773918,111.27096,111.58965,110.982254,111.09706,3.1921804,0.7,-117.141,-1900.6381,0.0020031938,-3.427744,1.5953324,2.1298816,1.5017979,1.2034204,7.978361e-09,0.3,2.1195788,87.27782,87.2209,86.92496,87.22481,0.09431644,0.37812498,5.554890155792236,64.06517481803894
97,960000,73.42063425215447,-92.82024,0.0,-109.17456,0.49224064,-8.456543,4534.6455,11.628768,15.085246,110.80763,110.73699,110.65095,110.88744,5.2715964,0.7,-124.17739,-2232.7632,0.00019355939,-4.315763,8.028723,8.039361,7.474187,7.8771515,3.4716797e-07,0.3,2.484149,90.32251,90.32178,90.35423,90.48939,0.07491507,0.40625,5.861632347106934,64.44060345888138
98,965000,67.21294246261971,-89.06265,0.0,-282.7067,0.6587225,-2.0868855,3487.6824,32.79785,10.669633,111.045975,111.13109,111.070435,110.92825,8.434095,0.7,-118.94789,-2537.494,0.00026134832,-3.6950593,3.3382466,2.6344247,1.6710898,2.778171,5.6735008e-08,0.3,1.9021492,87.056335,87.0664,87.24175,87.096565,0.13784069,0.45468748,5.3519158363342285,64.80785386164983
99,970000,90.52917857499627,-89.6539,0.0,-212.72485,0.7678673,1.9152652,5478.0674,15.476135,9.906231,110.80326,111.00607,110.8982,110.98305,2.6573904,0.7,-115.78304,-2197.727,1.2395554e-05,-5.1899643,-0.9831171,-1.0929792,1.4291575,0.014801264,1.5561283e-05,0.3,1.8681278,87.57982,87.58244,87.94328,87.94242,0.09462245,0.3984375,7.2850048542022705,65.20872530142466
100,975000,79.13621464878892,-90.85141,0.0,-223.59889,0.316102,-0.44853526,1957.3542,4.4022617,10.20497,111.11322,111.16561,111.40937,111.35495,3.3836212,0.7,-118.243034,-2961.979,6.586546e-06,-4.76789,0.35848695,0.695089,1.3004907,0.100642025,9.4138085e-07,0.3,2.1561747,88.73125,88.76134,88.82303,88.91206,0.076400444,0.41249996,6.3315489292144775,65.59322497447332
101,980000,77.44743908908927,-92.56251,0.0,-225.0799,0.63965404,0.68030024,2614.044,22.240982,13.888352,111.87715,111.846924,111.65058,111.62993,1.7495604,0.7,-122.14022,-2137.9636,0.00071201765,-4.6100044,1.2005131,0.7662396,1.2677505,1.8896092,2.263114e-08,0.3,2.0674925,90.460754,90.400375,90.39843,90.41701,0.050321262,0.48125,6.2466206550598145,65.97658156553904
102,985000,70.24986806762575,-93.49586,0.0,-97.56729,0.6717415,0.5564364,4115.043,77.29523,10.8389,110.82834,110.8353,110.541275,110.6542,2.207796,0.7,-117.104294,-2832.6924,0.0011796833,-4.8250074,0.7802222,0.40569568,1.1939493,0.7880831,2.0424604e-06,0.3,2.5963228,90.86287,90.813354,90.64787,90.805374,0.082917705,0.4,5.704352617263794,66.3529769817988
103,990000,87.89130151416106,-90.833046,0.0,-163.51422,0.49653524,0.54753006,2652.2737,44.454865,10.240741,111.93871,111.876045,111.413994,111.36685,1.0424154,0.7,-119.540596,-2335.7954,3.3907607e-05,-4.6370316,0.60118604,0.885941,1.3161271,0.35316724,1.7462299e-09,0.3,2.5050387,88.37998,88.34106,88.29112,88.244995,0.05450436,0.51250005,7.118849992752075,66.75084622303645
104,995000,78.70325401187631,-90.560974,0.0,-218.79102,0.6897729,-2.91847,6088.8716,21.660538,8.5129175,110.75034,110.82326,110.56335,110.79264,5.5610023,0.7,-117.25471,-1997.7772,0.0008177148,-6.9712687,3.6810808,3.9803529,4.115037,3.997402,1.7114799e-07,0.3,2.241067,88.17089,88.19665,88.231514,88.34774,0.12987432,0.36874998,6.4974212646484375,67.1397472222646
105,1000000,68.10700928593707,-91.024956,0.0,-138.12753,0.45134497,-1.4789193,1821.3915,25.523607,8.761023,110.787056,110.84966,110.784096,110.73746,6.255213,0.7,-118.1087,-1737.2747,0.00027399336,-3.7244806,3.6554976,3.658371,3.3733258,3.9331632,1.0353397e-07,0.3,2.1730576,88.69783,88.71909,88.52073,88.71457,0.09329647,0.496875,5.5571348667144775,67.50645288626353
