Xixo99/comfo/relaxed_iql/20230321_5seed_mle0/walker2d-medium-expert-v2/riql_s3_20230321_011334_walker2d-medium-expert-v2_-0.02.csv
,step,reward,actor_loss,alpha,alpha_loss,critic_loss,max_actor_loss,max_alpha_loss,max_critic_loss,max_mle_prob,max_q1,max_q2,max_target_q,max_v,max_value_loss,max_weight,min_actor_loss,min_alpha_loss,min_critic_loss,min_mle_prob,min_q1,min_q2,min_target_q,min_v,min_value_loss,min_weight,mle_prob,q1,q2,target_q,v,value_loss,weight,eval_time,time
0,0,1.722148527611288,,,,,,,,,,,,,,,,,,,,,,,,,,,,,,,,,
1,10000,-0.27519656426813804,-34.340843,0.05709848,-13.968685,0.5487166,-3.9011233,7.403217,50.50383,1.9760714,43.837112,43.84508,44.107697,43.47896,1.9012611,0.7,-44.010704,-35.293365,0.0002522266,-141.69753,3.9805655,4.9893174,4.0989766,2.615065,1.4500284e-05,0.3,-13.841423,33.874786,33.83706,34.00758,33.41511,0.03744158,0.3796875,0.3597261905670166,1.3226456681887309
2,20000,1.6634552511295249,-56.085823,0.02500344,-2.7498336,0.46483725,-13.926877,49.425488,25.76112,4.3912086,70.88523,70.643394,70.798996,70.59921,1.1036927,0.7,-72.15025,-41.25739,0.00055215985,-124.81987,2.434292,4.036911,2.7323093,2.4165092,1.11758716e-07,0.3,-30.420933,55.26068,55.262966,55.294586,54.96691,0.033351485,0.40937498,0.6283206939697266,1.6599549969037375
3,30000,1.7293949573377048,-69.18962,0.038969282,0.971761,0.9906337,-15.846569,42.21999,52.97398,9.447398,85.861824,86.03261,86.450035,86.24009,2.67786,0.7,-87.11633,-33.447086,4.1713065e-05,-136.08519,14.224487,14.988106,14.22245,13.314511,9.1574043e-07,0.3,-29.548758,68.14265,68.12381,68.33865,68.09837,0.050545134,0.4328125,0.8013205528259277,1.9936625123023988
4,40000,1.9145643114733122,-75.95039,0.04577709,0.76931804,0.98370624,-7.9898653,36.929283,42.103714,8.434074,96.092674,96.37627,96.11481,96.22739,0.95722014,0.7,-96.61737,-40.664516,0.0007310854,-142.53098,2.8454847,1.3025106,2.5852447,3.6955628,1.6093254e-07,0.3,-32.103672,74.83441,74.8268,74.86282,74.73133,0.06594081,0.515625,0.705312967300415,2.3363688270250957
5,50000,0.8936287699228718,-80.45529,0.04996253,2.2833362,1.839836,-11.1451845,50.67657,166.75096,2.6660647,102.062805,102.089096,101.8079,101.86276,4.737382,0.7,-102.537025,-28.056492,4.014821e-05,-122.9094,6.614774,7.7232265,9.368608,9.266388,1.7881394e-08,0.3,-33.80018,79.03812,78.975235,78.750015,78.90371,0.110633604,0.421875,0.6796698570251465,2.6742343346277875
6,60000,-0.06945589871550006,-86.139824,0.05082548,-0.27130616,1.5994012,-24.202866,44.12723,102.02327,7.9716935,105.95932,106.067795,106.24112,106.201706,12.744961,0.7,-106.77709,-38.066196,0.003116381,-165.47237,18.562187,18.629272,19.036919,19.198885,1.2915116e-07,0.3,-32.59478,84.907684,84.87282,84.49055,84.66443,0.14365217,0.42499998,0.1333472728729248,2.99693249464035
7,70000,-0.10322589941700797,-86.55957,0.04996773,0.56915414,0.961861,-20.02704,44.32342,39.066948,4.469388,108.37181,108.508484,108.59522,108.43953,16.311146,0.7,-108.64399,-34.977474,0.00085624726,-160.32108,12.4281645,12.207832,14.434354,15.253043,6.849295e-08,0.3,-32.744637,85.139984,85.12998,85.153015,85.2107,0.22747692,0.45468748,0.13089752197265625,3.325041202704112
8,80000,-0.09350399116721181,-89.42491,0.049330994,-0.0118486285,1.4997792,-15.7667,69.195915,68.60523,8.331041,109.36669,109.233376,109.5343,109.14095,5.405051,0.7,-109.999,-27.007664,0.0005453439,-174.6607,14.102416,14.592046,14.108438,15.328407,3.2588841e-06,0.3,-32.42436,88.295715,88.2966,88.03098,88.2865,0.124415815,0.3984375,0.13484883308410645,3.6495612144470213
9,90000,-0.1700101140061845,-89.01366,0.04626021,-1.452574,1.0382683,-14.737202,43.37408,27.0999,9.754259,111.15596,111.003,110.60727,110.89255,2.6230078,0.7,-111.057655,-38.2902,0.00076447014,-250.03012,13.761902,13.889523,11.472841,9.513724,3.0367112e-06,0.3,-33.261173,87.69625,87.66083,87.31879,87.45239,0.1257051,0.3796875,0.11929750442504883,3.975332013765971
10,100000,-0.26065939275808764,-92.12201,0.044989735,-2.9992528,0.6219583,-4.113264,35.601265,12.320465,7.1165614,110.77052,110.9164,111.29583,111.5084,1.7022319,0.7,-111.61561,-31.603254,6.629445e-05,-204.3247,-3.009779,-2.7167523,-1.5709352,-0.30755612,2.5481686e-06,0.3,-25.296833,91.18444,91.262375,91.167656,91.071976,0.09035243,0.49843746,0.12471461296081543,4.301389221350352
11,110000,-0.3148011889732697,-88.694885,0.04476926,0.59223586,0.6472486,-19.968409,46.378864,9.688562,7.694257,111.26437,111.065186,111.14124,111.22414,8.575171,0.7,-111.39412,-32.68382,0.004035995,-168.65721,9.137143,10.40679,10.525487,11.314318,5.106151e-07,0.3,-33.675835,87.54674,87.41083,87.66745,87.84411,0.15829724,0.35625,0.10800623893737793,4.621303375562032
12,120000,-0.3261286087974719,-88.64013,0.044424433,0.6454461,0.74677503,-13.746688,72.279625,27.234535,5.009499,110.97487,111.091835,110.71025,110.86595,8.030804,0.7,-111.66221,-26.963297,0.0016055016,-260.2673,14.098234,14.410356,14.417124,12.76234,2.9703369e-08,0.3,-36.039474,87.41894,87.460205,87.19908,87.19742,0.12933436,0.496875,0.11685657501220703,4.945548343658447
13,130000,-0.351047966217376,-88.91844,0.041607656,0.14381212,1.3272749,-8.632346,50.870888,41.7062,7.347377,111.47721,111.538574,111.70791,111.445045,10.827745,0.7,-112.04255,-36.90819,0.0002654363,-163.92249,7.094402,6.6190233,7.462889,3.9859397,1.994963e-06,0.3,-35.33078,87.89077,87.793175,87.967384,87.85343,0.16363204,0.44531247,0.10376715660095215,5.269090962409973
14,140000,-0.3519860796330596,-89.79703,0.040015336,-0.6047281,0.8192013,-21.156376,44.317623,42.801384,5.7528667,111.42968,111.86286,111.59335,111.75795,9.125288,0.7,-112.42963,-30.040129,0.00048198784,-201.03465,16.158422,17.370512,14.308571,13.214803,2.4818992e-06,0.3,-34.599525,88.80606,88.83411,88.817024,88.83344,0.14417826,0.3984375,0.11102008819580078,5.601418900489807
15,150000,-0.29207602589864723,-89.367226,0.038991235,-0.836418,1.1443717,-21.290133,44.83309,36.654297,3.3541534,113.123886,113.07768,113.567505,113.209496,4.010148,0.7,-113.45701,-36.57711,1.3816403e-05,-176.31828,19.564756,18.659966,18.26338,17.94667,8.1005857e-07,0.3,-37.263428,88.326584,88.37924,88.49634,88.3818,0.104858905,0.47187498,0.13738679885864258,5.934413437048594
16,160000,-0.3352455040344745,-90.69589,0.038527254,-1.0265324,0.6284641,-22.731901,44.483223,11.552082,7.8494473,112.1437,111.65907,111.760254,112.007286,1.8640641,0.7,-113.14329,-33.567055,6.995468e-05,-283.14752,18.61599,19.262362,19.611023,19.123905,3.8904077e-06,0.3,-33.512093,89.74323,89.787964,89.99482,90.009415,0.08354154,0.40625,0.11229491233825684,6.261117005348206
17,170000,-0.3529969284691472,-89.658165,0.03800034,-1.1104255,2.2961645,-22.238045,61.37553,218.13425,8.171139,111.44082,111.75564,110.81774,111.34453,16.77442,0.7,-112.84517,-32.65986,0.00077456963,-234.91568,19.974659,19.789951,19.630175,19.884327,2.1129383e-09,0.3,-37.170776,88.64787,88.63827,88.27564,88.368835,0.14540271,0.4421875,0.10730814933776855,6.5782400647799175
18,180000,-0.33865569216644587,-87.63214,0.036676798,-0.30842757,0.72881985,-2.404185,50.895977,13.694756,5.429279,111.08355,110.90031,111.18436,111.378334,5.5888853,0.7,-111.22433,-31.09346,0.00064388313,-497.70328,1.2422453,-0.8476792,1.0483329,2.8482184,3.461838e-05,0.3,-36.68555,86.64956,86.68999,86.93468,86.92716,0.15701091,0.44375,0.10880565643310547,6.9056983351707455
19,190000,-0.34184922104490606,-92.35649,0.036190704,-1.0725873,0.8988285,-19.335003,39.298508,52.578438,6.237628,111.06711,111.05733,111.08487,111.48305,4.750671,0.7,-111.38154,-25.099741,0.00021640427,-212.7941,18.31056,17.47931,18.401485,18.368076,2.542918e-07,0.3,-36.900253,91.32939,91.29638,91.264084,91.40622,0.090863146,0.4578125,0.11769652366638184,7.245313247044881
20,200000,-0.34445578532815957,-89.33757,0.03771022,3.0870113,2.7311666,-3.113596,96.13851,316.75543,3.6452048,111.44773,112.14735,111.6856,112.105156,25.763126,0.7,-111.69932,-33.492016,0.00015663076,-268.0994,3.690773,2.1435895,2.3580549,2.929058,6.3704215e-07,0.3,-35.372787,88.21565,88.25589,87.95892,88.18373,0.18748203,0.40156248,0.10222411155700684,7.569539638360341
21,210000,-0.34623931601058505,-85.58302,0.03615131,2.3094363,0.89417416,-5.7615004,59.34569,21.786848,4.171976,111.65481,111.71785,111.54408,112.627594,27.43796,0.7,-112.65076,-27.709702,0.0010873217,-375.85083,-0.18105277,0.13591293,1.2065245,-1.9247096,7.2671105e-07,0.3,-43.361244,84.41843,84.392746,84.34471,84.46749,0.23588412,0.459375,0.09943556785583496,7.88884185552597
22,220000,-0.35377333745482664,-89.44932,0.037049744,-0.64710295,0.6914827,-5.334344,79.396645,26.40988,7.205373,111.62448,111.5556,111.55849,111.40948,41.36267,0.7,-111.794525,-37.067406,0.00018656463,-246.7038,4.507537,4.7097473,3.694561,3.1647701,1.4084392e-06,0.3,-36.50081,88.55826,88.52571,88.47831,88.32852,0.31318012,0.553125,0.10755276679992676,8.202090569337209
23,230000,-0.3493195116971788,-89.46379,0.036831517,0.33750573,0.6369548,-19.033108,55.30486,18.926516,7.056333,111.64424,111.72022,111.47326,111.572365,1.9736539,0.7,-111.78741,-39.458775,0.00022825098,-360.30743,15.776617,16.259445,16.310804,17.077183,9.561656e-07,0.3,-34.31963,88.48814,88.501434,88.35938,88.43499,0.09029941,0.4453125,0.10226249694824219,8.520999530951181
24,240000,-0.3506559490391094,-87.58894,0.03452518,1.1463233,0.6547092,-18.092434,46.710495,18.237726,4.62633,111.257126,111.05102,111.263016,111.58092,3.1093092,0.7,-111.642006,-27.158894,0.00020754861,-387.3815,17.83968,17.7297,17.291718,17.426477,1.3201497e-06,0.3,-39.77847,86.57742,86.57848,86.78369,86.87433,0.09620136,0.37343746,0.10597491264343262,8.834460123380024
25,250000,-0.3336838894682217,-87.509476,0.0349611,-0.56875896,0.5821432,-10.694904,66.164444,11.809813,4.4705772,112.3872,112.18771,111.37989,111.75239,6.901167,0.7,-112.336464,-29.212322,0.0007153718,-323.70764,11.945498,10.00477,9.523946,12.123822,9.387731e-08,0.3,-37.008003,86.629,86.66319,86.59471,86.65498,0.10884669,0.453125,0.1034708023071289,9.15730934937795
26,260000,-0.35491049395441254,-90.135956,0.03445637,0.4782079,0.9026661,-14.097615,51.162083,46.17095,4.5259867,112.17,112.02719,112.38194,112.70074,5.086869,0.7,-113.0734,-38.4482,0.0037597222,-454.60968,12.637472,13.635212,14.57476,15.492071,2.6153111e-06,0.3,-45.901905,88.98999,88.984764,88.88995,89.09625,0.103932075,0.43749997,0.10906291007995605,9.474225147565205
27,270000,-0.341635137685065,-87.23529,0.035381045,-0.12727882,1.4383521,-6.258657,48.494762,53.7267,3.3088999,111.23254,111.13455,111.358574,111.58005,1.6952058,0.7,-111.277016,-42.79793,0.0022607439,-240.65593,6.6264944,6.441082,7.6461816,6.9338675,1.9851303e-05,0.3,-38.564484,86.22871,86.19539,86.51695,86.60122,0.10000751,0.33437502,0.09999442100524902,9.784695502122243
28,280000,-0.3429800188214511,-89.72896,0.03490772,-0.29480314,1.0577159,-3.0511525,43.15908,62.088337,9.260296,110.79696,110.83591,110.837395,110.89939,7.296166,0.7,-111.38511,-30.531193,0.0006158744,-305.21503,3.3207364,2.9961262,0.9343994,1.5641199,2.3093891e-07,0.3,-37.41913,88.78826,88.80278,88.615,88.79216,0.11591728,0.484375,0.0985708236694336,10.09691420396169
29,290000,-0.3519162874388493,-89.3849,0.034236357,1.6957164,1.0959078,-20.067057,74.75239,86.59144,5.0628595,111.46591,111.577324,111.40382,111.886826,5.4337406,0.7,-112.09398,-27.005224,0.0010489479,-358.75595,19.133335,18.69046,20.132717,19.982765,1.5973811e-06,0.3,-44.905758,88.3902,88.46312,88.46602,88.59686,0.10732204,0.43593746,0.1068105697631836,10.407077221075694
30,300000,-0.34251410449307473,-90.27941,0.034376334,0.53766465,0.6809392,-21.557364,84.86072,37.488808,4.243668,110.68893,110.908424,111.33468,111.13786,31.89231,0.7,-111.420586,-32.658325,3.6187703e-05,-290.5283,15.548194,16.309301,16.88768,15.523561,6.712508e-08,0.3,-44.331764,89.14371,89.144295,89.12823,89.27478,0.33995855,0.43749997,0.11248350143432617,10.726748637358348
31,310000,-0.3338690160453848,-88.559326,0.034382746,0.14279029,0.9542475,-20.23246,76.35886,29.887825,4.5335426,110.95225,111.096115,110.668076,110.81585,3.02067,0.7,-112.32802,-35.824276,0.00018965919,-290.82718,20.221489,20.276606,19.452436,19.5243,3.309542e-06,0.3,-47.3674,87.434105,87.471405,87.27854,87.455765,0.11270575,0.434375,0.1063382625579834,11.042378274599711
32,320000,-0.3384862429572111,-88.14799,0.034595072,0.023762941,1.2234228,-8.5012045,70.53709,71.197495,4.1962333,111.396034,111.44909,111.04684,111.10965,7.068451,0.7,-112.55791,-38.60244,0.0015145522,-344.74005,7.909725,10.034677,12.206643,12.551124,1.7881394e-08,0.3,-43.512863,87.2323,87.255516,87.04686,87.10395,0.10680625,0.4609375,0.10609912872314453,11.353141570091248
33,330000,-0.33599856389557325,-88.71781,0.034917336,0.36578447,0.7106705,-21.616135,46.819576,38.31608,13.49988,112.520744,113.00057,112.73034,113.07377,2.453293,0.7,-112.98956,-29.13305,0.00049821363,-271.18845,19.709888,19.489492,19.479614,19.324196,2.4728362e-07,0.3,-39.848923,87.84721,87.863075,87.83839,87.93024,0.09087222,0.403125,0.10798931121826172,11.665010035037994
34,340000,-0.3398179644871481,-88.04504,0.034786914,0.17253363,3.0256896,-10.355832,59.24965,356.07037,8.067745,111.62778,111.763535,111.13791,111.20267,2.19962,0.7,-111.85111,-31.157711,0.0010170492,-486.22394,7.8807316,9.532314,13.81319,13.137537,1.936377e-06,0.3,-38.126015,87.20809,87.18891,86.70157,86.8416,0.07557225,0.4671875,0.10807943344116211,11.974829232692718
35,350000,-0.32030167636885476,-88.648636,0.03435023,0.39223176,2.215281,-19.273401,56.57511,373.45233,4.2164345,110.5696,110.68008,110.78255,110.82426,1.8469987,0.7,-111.90463,-40.138756,0.00014167262,-306.30725,18.08951,19.015766,19.20959,18.316187,1.9965227e-09,0.3,-42.87568,87.57411,87.644325,87.61676,87.625725,0.09023073,0.428125,0.11410331726074219,12.290305745601653
36,360000,-0.3411383056102976,-86.67903,0.03465162,-0.21780187,2.3365245,-18.319288,67.03659,215.71866,4.6725044,110.70368,110.357925,110.67888,110.417496,47.272087,0.7,-111.66537,-36.378693,5.180482e-05,-724.013,15.179586,14.909299,14.69706,16.296637,5.657785e-09,0.3,-46.996788,85.531265,85.52378,85.37075,85.6013,0.45123604,0.4453125,0.10694146156311035,12.60744795401891
37,370000,-0.3187424243169464,-84.42994,0.035396826,0.9009109,1.5240864,-10.724663,62.669876,35.248566,5.149619,111.13865,110.98727,110.61761,110.68052,5.3326373,0.7,-111.25673,-30.860987,0.0006708347,-329.35364,10.729849,10.961829,8.121378,8.097065,3.1489647e-06,0.3,-38.160698,83.44159,83.39192,83.11583,83.12688,0.1320824,0.471875,0.10242581367492676,12.923459780216216
38,380000,-0.3278975645748014,-87.51818,0.034586277,0.6669948,1.787078,-14.574823,55.197174,79.84807,3.0783296,111.52094,111.32862,111.00588,111.202065,39.281635,0.7,-111.51844,-32.780815,0.0034347887,-507.66882,5.127021,1.4926617,-0.28873304,0.9449375,4.2441943e-06,0.3,-47.665627,86.37629,86.31239,85.92342,86.12232,0.41829914,0.4453125,0.10111212730407715,13.23549393415451
39,390000,-0.3486914727742897,-90.46959,0.03506534,-0.49259883,0.6529781,-21.067934,50.568897,41.705822,2.8078518,111.55198,111.83673,111.23148,111.19605,1.970356,0.7,-111.87143,-31.18542,0.0001655629,-240.70493,20.045443,20.138481,19.581457,19.58781,1.2321398e-07,0.3,-39.077923,89.52052,89.59401,89.52987,89.566345,0.08510481,0.39999998,0.10902142524719238,13.548234224319458
40,400000,-0.3196190943957978,-86.95996,0.034496624,-1.1943879,0.6661494,-5.8979325,98.52607,14.222662,6.26302,110.511116,110.717186,111.17825,110.95621,10.595188,0.7,-111.17138,-49.29735,0.00046703138,-285.4708,5.430919,4.6401944,4.747794,4.160328,1.5716068e-08,0.3,-43.54409,86.000046,86.04383,86.19588,86.160645,0.14928077,0.43593752,0.11095476150512695,13.864008486270905
41,410000,-0.328244719474009,-86.90398,0.034153134,-0.8420985,0.9446322,-17.677734,49.57131,37.902298,7.07543,110.95554,110.97678,110.85581,110.940956,4.954948,0.7,-111.670975,-37.75337,0.0006502739,-449.4125,17.240107,17.872347,17.061096,16.796318,1.0430813e-08,0.3,-46.818893,85.96489,86.001114,85.796165,85.955505,0.11923787,0.4359375,0.10967159271240234,14.177823555469512
42,420000,-0.3502862044551916,-88.271255,0.034309916,-0.67717266,0.5210606,-13.8274975,44.769154,15.466558,7.577483,111.21027,111.13319,111.17259,111.235886,1.0827713,0.7,-111.27092,-30.142282,0.00015216065,-310.3186,13.947486,11.981642,13.148596,12.451415,1.5662518e-07,0.3,-40.569633,87.51063,87.461685,87.501175,87.47392,0.065004975,0.47031248,0.10147237777709961,14.49459091424942
43,430000,-0.33421439363528826,-88.28195,0.034805696,-0.21237528,0.7260375,-20.51342,65.80338,39.502865,6.6533318,111.16451,110.44328,110.439384,110.476326,8.4841,0.7,-111.224976,-35.75526,0.0020947983,-785.59247,19.784643,20.247389,19.525602,19.4573,1.2730015e-06,0.3,-49.577286,87.11754,87.189255,86.94769,86.8781,0.11388755,0.5578125,0.11028623580932617,14.807190549373626
44,440000,-0.34815681960627604,-88.17956,0.033971116,-0.27808732,0.9652713,-14.33563,133.35341,37.01572,6.323491,110.6821,110.629745,110.59052,110.95399,8.234066,0.7,-111.21073,-30.846144,0.00041393336,-436.04242,12.2366495,12.422541,12.767955,14.05612,2.6288444e-06,0.3,-42.017532,87.14996,87.163445,86.875275,87.01374,0.12218437,0.4796875,0.10674786567687988,15.120775858561197
45,450000,-0.32749921456267533,-87.3349,0.034033444,0.06332564,0.90650773,-15.34323,59.414284,23.147842,6.19901,110.93569,110.72592,110.35059,110.74707,1.7109935,0.7,-111.29845,-36.28106,0.0015496499,-295.0694,15.148751,15.479131,13.245408,13.776795,8.802745e-08,0.3,-46.466606,86.37038,86.40083,86.497284,86.45261,0.073662534,0.4671875,0.11329460144042969,15.43453716437022
46,460000,-0.37990351325183885,-87.55208,0.03417106,0.18193257,0.70687205,-20.483196,50.891552,13.7771225,4.129501,110.93955,110.99724,110.66048,110.68868,34.725132,0.7,-111.03188,-35.6749,0.00035123347,-467.67474,14.339585,15.234153,17.17122,15.535922,6.3704215e-07,0.3,-44.502193,86.49076,86.42366,86.446045,86.43842,0.22363281,0.4390625,0.11602187156677246,15.755889741579692
47,470000,-0.30989530216507494,-87.409,0.034099694,1.3770487,1.2637271,-1.8502452,45.052498,137.63278,5.220742,111.45705,111.40486,111.3859,111.719444,1.98474,0.7,-111.76873,-51.404346,0.00070407434,-371.89038,0.58508897,-1.0040579,0.7907787,1.4583948,2.1515298e-07,0.3,-47.474796,86.47226,86.49638,86.55378,86.53143,0.08464855,0.41406247,0.12424468994140625,16.06652410030365
48,480000,-0.332838955401902,-89.5072,0.0340295,0.5120912,0.4982155,-1.9428334,96.21182,17.354406,9.1280985,110.7215,110.810196,110.518456,110.50251,25.916838,0.7,-111.621666,-26.73032,0.00018156471,-714.63525,0.81105065,1.673197,2.6098733,2.9574125,7.533817e-08,0.3,-50.759018,88.29952,88.323456,88.37146,88.3593,0.215204,0.40468746,0.11634612083435059,16.38223015467326
49,490000,-0.3164404444097976,-87.1741,0.03294854,-0.14279878,0.7406247,-11.817347,47.876022,17.686064,3.0445132,111.40016,111.42727,110.996254,111.30355,3.2366378,0.7,-112.29082,-32.93749,0.00027647207,-341.91183,10.489536,12.718974,9.730036,9.680272,7.838826e-08,0.3,-50.929787,85.915886,85.89845,85.6586,85.80319,0.105145,0.46249998,0.11983990669250488,16.702682713667553
50,500000,-0.30186542231059715,-86.89252,0.03396008,0.10323799,0.82750165,-13.401446,46.80446,28.423159,6.2818503,110.89434,110.95161,110.4937,110.26922,2.4271939,0.7,-111.405174,-33.633163,0.00010609423,-544.13934,13.09439,12.376231,14.319143,14.023756,5.925067e-08,0.3,-50.738583,85.911354,85.92172,85.608,85.543274,0.09880513,0.5453125,0.12284564971923828,17.018848864237466
51,510000,-0.290034756457574,-87.328766,0.033831894,0.58237493,0.8017924,-21.522156,49.656364,11.96831,6.2595835,111.27477,111.681206,111.01311,111.28722,38.895412,0.7,-111.46707,-30.402788,0.00044842646,-419.45428,20.08283,19.839935,20.628284,19.999298,5.388574e-07,0.3,-51.043793,86.173515,86.133835,86.41344,86.45232,0.38161087,0.403125,0.12482213973999023,17.335489539305367
52,520000,-0.2963632832747917,-87.07421,0.03366951,-0.22973743,0.7628087,-20.499851,58.708405,34.673172,4.121953,110.55994,110.86493,110.99703,110.90536,2.9285288,0.7,-110.99005,-35.955536,0.0002725667,-454.7132,10.860989,13.952595,11.339751,10.240237,4.4357034e-06,0.3,-52.557953,86.038376,86.07684,86.13274,86.22464,0.07339439,0.4109375,0.1246335506439209,17.653484098116557
53,530000,-0.30635556244438183,-89.92528,0.033886503,-1.3275037,0.7018392,-21.261162,58.045727,22.499218,5.587241,110.54895,110.56778,110.87987,111.43417,7.0820103,0.7,-111.05398,-35.328472,0.0002694971,-247.40768,20.188354,20.457247,19.878489,20.132158,2.3905887e-08,0.3,-43.359367,89.04759,89.09663,89.10324,89.03113,0.10049853,0.4921875,0.13117003440856934,17.986453870932262
54,540000,-0.31777013976330676,-91.08337,0.03364411,-0.4170454,1.005521,-14.604341,76.30551,69.96838,10.075027,110.90041,110.75574,111.006035,111.361244,4.6091084,0.7,-111.98256,-32.839466,0.0025807738,-862.6813,13.935152,13.652948,12.843674,11.675334,1.0267994e-05,0.3,-47.418,90.14659,90.17047,90.34731,90.200134,0.15751088,0.5171875,0.11800670623779297,18.31056909163793
55,550000,-0.31247529057773904,-88.880165,0.0329524,0.25219315,0.590866,-20.047453,51.76723,27.897589,4.578147,110.38283,110.21605,110.4362,110.623665,1.0078998,0.7,-110.89737,-32.326294,0.0003703002,-310.93036,19.890024,19.95127,19.115307,19.020561,1.1941113e-06,0.3,-47.845623,87.981094,88.02225,87.951614,88.10742,0.07249881,0.38437498,0.11524295806884766,18.63352739016215
56,560000,-0.26977210111330996,-85.52371,0.03309204,0.82683504,0.72717685,-21.205088,46.00359,21.336727,3.6500826,111.03499,111.2276,110.75403,111.15585,6.685025,0.7,-111.13183,-30.539473,0.00031217607,-1715.0192,20.38015,20.412258,19.06058,18.5942,2.6560157e-08,0.3,-64.91693,84.26195,84.25845,84.100876,84.25705,0.11531702,0.4609375,0.1380465030670166,18.953000779946645
57,570000,-0.2637281637761671,-85.932175,0.03298506,2.0122232,0.98761594,-6.716917,76.70959,31.868519,2.2960854,110.16135,110.241905,110.25728,110.40597,31.742632,0.7,-110.530396,-31.39364,0.0016338651,-540.0441,6.7377305,7.8655734,6.3880677,8.154978,2.0307718e-06,0.3,-53.442234,84.82909,84.73275,84.71031,84.75748,0.25622913,0.47031248,0.13102030754089355,19.289256846904756
58,580000,-0.28592743017226324,-87.618256,0.033196487,0.37438583,2.5203037,-10.581223,79.90222,430.36057,4.9928207,110.757385,110.71086,110.83486,110.56064,7.3635716,0.7,-111.08781,-27.86571,0.00089961523,-729.2569,10.680525,10.4709015,11.588727,11.807375,2.5481686e-06,0.3,-57.04256,86.68821,86.67316,86.64424,86.634766,0.14231575,0.46249998,0.11731100082397461,19.617039553324382
59,590000,-0.2788750640939803,-83.235916,0.032342214,0.998445,1.8445165,-17.556105,56.991566,186.86765,4.364758,110.484535,110.509346,110.556335,110.5376,19.155714,0.7,-111.14944,-50.790657,0.0007571123,-721.4979,8.528564,7.832904,6.377509,7.229798,2.3274158e-06,0.3,-56.810524,82.052956,81.99753,82.089615,82.179535,0.22824967,0.3984375,0.1229393482208252,19.945673334598542
60,600000,-0.27843416783531205,-85.9217,0.032531526,0.61991477,0.8221853,-7.6853747,48.152103,24.34771,2.6400485,110.97488,110.631546,110.32603,110.76355,6.257742,0.7,-110.98998,-43.234577,0.00023068511,-514.779,8.992716,6.9408937,7.506786,7.364207,6.9849198e-09,0.3,-57.422253,84.85279,84.84478,84.655716,84.64924,0.09294424,0.44687498,0.1250138282775879,20.27141919930776
61,610000,-0.28008100201714264,-87.30521,0.032473613,-0.13427573,0.77816856,1.3572762,43.843605,19.94271,5.4147363,110.562325,110.31376,110.67888,110.36624,4.619998,0.7,-110.71143,-28.564585,0.00059522345,-493.8808,-1.4682889,0.68875724,1.2467713,0.33950764,2.5465852e-06,0.3,-51.188408,86.304214,86.24429,86.15764,86.05844,0.11555759,0.5234375,0.12222409248352051,20.596628765265148
62,620000,-0.2745174287619583,-85.46217,0.03150816,0.47703627,0.81618476,-7.622654,81.91276,20.47618,4.554118,110.20238,110.39251,110.18062,110.30414,4.7007356,0.7,-110.80447,-30.580555,0.0001781073,-426.6487,8.336877,7.979776,8.443847,8.164232,1.4991209e-06,0.3,-56.7374,84.186646,84.17467,84.29859,84.26848,0.1302951,0.4625,0.1261448860168457,20.92335359255473
63,630000,-0.24515962643503073,-86.84011,0.031350087,0.10155955,1.0824715,-14.159882,59.23599,88.27405,5.258544,110.48715,110.654724,110.42212,110.34596,6.034857,0.7,-110.81146,-46.416405,2.8192298e-06,-580.7271,14.208859,15.191483,17.228111,15.571797,4.559773e-06,0.3,-55.59855,85.71059,85.77634,85.82113,85.829025,0.111960955,0.45624998,0.1402266025543213,21.250467002391815
64,640000,-0.2412127234600187,-86.007614,0.031246418,-0.047460705,0.8113537,-2.2336342,42.5902,34.514545,3.769683,111.440384,111.382645,111.41655,111.23396,35.559933,0.7,-112.187614,-38.73585,0.00063358166,-485.65945,3.6625428,9.2565775,9.531036,0.7196276,2.7756148e-06,0.3,-58.82998,84.82075,84.80028,84.86983,84.89398,0.26039848,0.44687498,0.13180899620056152,21.572579562664032
65,650000,-0.09760392325822104,-88.589874,0.032199033,0.7407327,0.6384978,-10.30423,50.871895,28.744595,2.8525245,111.95828,111.66881,111.98086,111.864265,14.745783,0.7,-112.19227,-33.268963,0.0008147146,-375.5986,11.465583,10.6866255,9.247946,10.036879,2.0443533e-05,0.3,-49.29181,87.645874,87.61568,87.74719,87.661255,0.20146213,0.3984375,0.19469285011291504,21.890561588605244
66,660000,-0.21411943470444986,-89.811035,0.03194266,0.25123066,1.0828128,-16.154245,41.343304,53.095978,7.667133,110.46237,110.37084,110.46688,110.540085,9.6788225,0.7,-110.54759,-29.5765,0.000910074,-354.76437,16.797731,18.188625,17.821062,17.572659,4.7218055e-08,0.3,-54.88915,88.87674,88.776886,88.93431,88.90599,0.13362592,0.45468748,0.14963746070861816,22.213296790917713
67,670000,-0.1225522545670012,-87.00662,0.031905062,-0.26921284,0.5629643,-13.940909,47.290947,12.88334,10.101622,110.82225,110.93899,110.84824,110.6615,35.91514,0.7,-111.54901,-32.324062,0.00012882368,-356.04285,11.481857,11.328516,8.8683,10.724587,1.478009e-07,0.3,-56.7611,85.99736,85.906166,85.82091,85.76162,0.2918005,0.5109375,0.1848001480102539,22.538618286450703
68,680000,-0.2164011313650653,-87.489395,0.03167449,0.5849838,1.0941037,-11.788664,48.297768,101.35578,7.2641125,110.41125,110.292046,110.193275,109.92371,15.552795,0.7,-111.669395,-47.48703,0.000101009035,-346.23706,12.449928,11.954498,9.523952,10.191496,4.4709773e-06,0.3,-56.98044,86.542465,86.58877,86.651794,86.67269,0.14930293,0.3640625,0.1348707675933838,22.873360768953958
69,690000,0.010926379745170349,-89.11249,0.031151233,-0.39735377,1.102466,-15.248161,47.902134,26.946926,4.8736606,111.18542,111.050476,110.789894,110.68202,21.839592,0.7,-110.97934,-34.77457,0.00039085728,-318.25748,12.483848,12.965326,11.866765,12.607879,5.280599e-08,0.3,-54.11341,88.208984,88.183136,87.88135,88.00837,0.18381692,0.46718752,0.23646068572998047,23.20066345135371
70,700000,-0.2169743711329737,-85.66232,0.032426715,0.09486869,1.0793883,-19.608475,59.042892,23.568016,4.2600365,110.633896,110.39818,111.29701,110.66415,37.743137,0.7,-110.25426,-37.134727,0.0007210607,-607.84314,19.393553,19.998156,19.42715,19.40142,9.822543e-10,0.3,-55.934334,84.54232,84.49597,84.85585,84.86948,0.30986813,0.3625,0.14386320114135742,23.51965542634328
71,710000,-0.19239351058806856,-89.87202,0.03131839,-0.79787505,0.8212704,-4.443621,70.7602,25.849754,5.6322327,110.98116,111.02455,110.58431,110.689285,5.9235206,0.7,-110.94042,-37.725838,0.0010394915,-320.47104,4.0104656,2.2719283,4.2650843,3.887766,7.3162374e-07,0.3,-45.626373,88.995026,89.02969,88.70724,88.76634,0.10140249,0.5203125,0.14894843101501465,23.841540849208833
72,720000,-0.25160404323564545,-85.735535,0.032249533,0.13639605,1.0703107,-13.199035,46.435036,30.436554,6.5636535,110.16256,110.025024,110.20481,110.08719,37.737415,0.7,-110.05722,-38.58545,0.00048705802,-955.89954,11.748318,10.145362,10.247452,11.141811,3.876805e-07,0.3,-62.09185,84.801346,84.78844,84.88251,84.9938,0.32047796,0.38437498,0.12420034408569336,24.17279212474823
73,730000,-0.22125739985184664,-86.77877,0.03133668,0.8913833,0.635641,-15.822667,37.80413,33.75089,2.9997997,110.44003,110.601685,110.28349,110.335236,9.69412,0.7,-110.52591,-36.43137,0.00083460455,-834.9037,14.446762,15.909222,15.268572,14.373882,1.466833e-09,0.3,-58.321655,85.86087,85.87978,85.77884,85.79532,0.14332561,0.47812498,0.13429546356201172,24.502010651429494
74,740000,-0.2709510868766247,-90.54487,0.031190244,-1.8397692,0.7105676,-22.304665,75.11935,24.07397,6.7228384,111.49203,111.66043,111.21386,111.31578,5.6185465,0.7,-111.715614,-41.364925,8.37206e-05,-666.8265,20.244577,20.256725,20.641218,20.500195,4.120334e-06,0.3,-55.541313,89.63773,89.666336,89.60329,89.57324,0.0919979,0.48125,0.11674833297729492,24.830073078473408
75,750000,-0.2796214224539788,-88.93593,0.031289738,-1.2123545,0.61735904,-2.9122698,66.15815,15.219151,4.4799376,111.20105,111.07497,110.84858,110.97328,2.7325656,0.7,-111.71659,-29.943705,0.0010700525,-338.01874,3.626377,2.732341,4.208936,4.396404,1.0596839e-05,0.3,-52.91317,88.09159,88.098404,88.03718,88.09531,0.07562695,0.41718748,0.11843180656433105,25.145334776242574
76,760000,-0.24378840120334944,-89.65645,0.031213967,-2.22168,0.70058,-15.630383,70.11287,28.328339,7.1579895,110.52186,110.58311,110.9989,110.761185,0.87449545,0.7,-110.59865,-32.961662,0.00042528106,-437.61548,15.661982,14.8274,15.75198,14.749733,2.3519797e-06,0.3,-46.931614,89.049484,88.94954,89.17645,89.121704,0.05086992,0.4671875,0.13155674934387207,25.46269449790319
77,770000,-0.2134812999289467,-83.907135,0.03000836,-0.45546702,0.8660863,-16.802118,51.027073,18.956556,3.1634974,110.70832,111.034706,111.286255,110.61513,8.558278,0.7,-111.19419,-39.00061,0.00048343168,-393.02765,15.790069,15.967787,15.310192,15.2011595,1.1168888e-05,0.3,-63.728905,82.982544,82.96926,83.284134,83.29827,0.12264721,0.35781246,0.13692021369934082,25.77533636490504
78,780000,-0.20252704086482992,-85.39991,0.03015652,0.32621545,1.4973094,-1.6641548,48.365448,103.497345,3.9933848,111.27461,111.19904,110.783295,111.040115,40.593636,0.7,-111.6525,-38.486225,0.00012004981,-583.6103,1.7379111,1.5718617,0.84309757,4.105804,1.8140242e-06,0.3,-70.81231,84.18919,84.2327,84.1783,84.32695,0.34489417,0.465625,0.14835238456726074,26.0890141805013
79,790000,-0.08792215035689346,-88.40317,0.029992841,0.80848646,0.7562006,-8.37907,62.535046,30.726582,3.2989192,110.35959,110.40256,110.04495,110.185936,0.8478128,0.7,-110.187256,-40.527596,0.00018599641,-448.01175,9.670131,7.3153667,6.8258734,8.136994,2.728484e-07,0.3,-58.334858,87.55663,87.57703,87.38516,87.550354,0.054997347,0.4203125,0.1829674243927002,26.40568079551061
80,800000,-0.0586326221087378,-86.4113,0.029232685,-0.017746672,0.558864,-2.352125,58.305897,8.311357,1.9676464,110.69398,111.20565,110.91352,110.95282,13.360804,0.7,-111.411674,-41.036125,0.00079034327,-490.2823,4.1606727,3.0660655,5.0828166,3.8165793,2.6469654e-05,0.3,-53.24573,85.596664,85.63758,85.59575,85.62603,0.16726387,0.48593748,0.12775015830993652,26.72230572303136
81,810000,-0.07869919462818993,-88.018326,0.029565567,-0.3355908,0.8049016,1.4747603,48.839714,30.338764,6.0877423,110.927574,110.856705,111.567856,111.32159,3.5043151,0.7,-111.013504,-35.79149,0.0015216935,-510.9499,-2.7331648,-1.4005299,-1.4546033,0.6440109,9.077619e-06,0.3,-58.9831,87.15408,87.166595,87.1061,87.22537,0.086855516,0.403125,0.17992568016052246,27.03437522649765
82,820000,-0.11249501572020865,-87.188576,0.029634446,-0.046614125,0.6977061,-11.497881,63.484135,68.107025,4.282353,110.61996,111.27054,111.03176,110.97698,1.4558502,0.7,-111.12155,-37.48418,0.00011557399,-694.3812,12.020556,11.929154,12.343881,11.850058,4.6395581e-07,0.3,-57.426693,86.293526,86.305244,86.30494,86.22534,0.079329506,0.4796875,0.18333864212036133,27.349461706479392
83,830000,-0.1815465038458606,-87.63577,0.029738538,-0.22908242,0.5811483,-16.431442,43.141846,42.006927,3.6607933,111.10842,111.21924,111.106125,111.332596,6.2344465,0.7,-111.41827,-40.767857,0.00028177397,-652.9653,15.355452,14.920183,15.150726,13.823144,7.9970346e-07,0.3,-64.19711,86.50914,86.519226,86.42758,86.52885,0.108261816,0.409375,0.1490795612335205,27.670674232641854
84,840000,-0.05763765884766366,-87.09485,0.029032689,-0.13331261,0.67279285,-21.71408,71.51598,37.24579,7.370861,110.63182,110.625854,110.93534,110.81163,24.73709,0.7,-112.10745,-36.710075,0.0005251358,-457.63687,21.046421,21.722544,20.429136,20.74736,7.986091e-09,0.3,-63.47137,86.0486,86.143074,85.93501,85.902336,0.25035542,0.5609375,0.18404483795166016,27.985797719160715
85,850000,-0.04994717744438225,-88.480934,0.029504852,-0.010024667,1.0898573,-14.638758,50.813786,33.239014,3.521225,111.39655,111.08076,110.409454,110.554214,26.068022,0.7,-111.62027,-37.09788,0.0014996151,-482.19995,15.484116,15.613007,16.126558,14.279153,9.2375565e-09,0.3,-54.09475,87.56147,87.54797,87.32875,87.373436,0.19634993,0.5140625,0.19406604766845703,28.300295706590017
86,860000,-0.07245877255877403,-87.30647,0.029866587,0.25899285,0.66537786,-7.7452164,44.947563,16.413942,1.5389519,110.250084,110.243904,110.68798,110.681305,3.4180105,0.7,-110.554276,-39.58807,0.0007299423,-1165.4159,7.9593635,8.360135,9.306585,9.21775,1.1064392e-05,0.3,-69.86762,86.512115,86.501305,86.70473,86.77547,0.09211842,0.33906248,0.19462060928344727,28.619694324334464
87,870000,-0.12117791029030862,-86.836716,0.02961904,-0.6153217,0.8975378,-4.210077,41.522118,37.402115,1.8088815,110.424995,110.69862,110.74999,110.31938,9.1266365,0.7,-110.70195,-38.527187,0.00041171093,-570.31744,3.2317514,4.670338,6.4691935,6.0726967,1.05978685e-07,0.3,-59.818504,85.89636,85.925026,86.00397,85.83067,0.19478616,0.4921875,0.17403006553649902,28.937356511751812
88,880000,-0.08132684339634615,-87.55696,0.02911456,-0.43054807,0.9110768,-6.3957667,73.65705,35.782238,2.1529431,112.258675,112.307816,111.50938,111.80768,2.8845396,0.7,-113.19015,-33.362152,0.0018365001,-1033.8583,3.8045003,4.8537865,1.1454004,1.6118877,1.2478267e-10,0.3,-61.416286,86.75864,86.73346,86.33952,86.4922,0.09913595,0.5015625,0.17754602432250977,29.24888527393341
89,890000,-0.07852314399300374,-86.54443,0.027737897,0.18009597,1.5578095,-4.2448454,67.2017,119.613754,6.719891,110.88884,110.81837,110.70904,111.10103,10.343537,0.7,-111.19453,-35.108997,0.00031947682,-587.4663,4.396922,4.432247,5.3496313,5.851284,5.6577846e-07,0.3,-60.441578,85.738846,85.71811,85.99389,85.8523,0.1410084,0.4265625,0.20078730583190918,29.556140939394634
90,900000,-0.06994097971317097,-85.699295,0.027342813,0.4712186,1.4532714,-11.873547,51.28147,71.06204,4.5304637,110.56615,110.74294,110.36964,110.49674,2.8872914,0.7,-110.60398,-43.281918,0.0012411068,-559.2138,11.975641,12.759458,9.782397,11.219054,2.4157924e-07,0.3,-59.4867,84.89673,84.869156,84.72338,84.89159,0.11842692,0.48593748,0.18744826316833496,29.87092933257421
91,910000,-0.01658267765048635,-85.561745,0.029256474,1.0607338,0.60195005,-20.176653,58.449444,21.149273,5.7347894,110.49272,110.36033,110.48493,110.54775,41.151806,0.7,-110.51807,-34.012974,8.8629604e-05,-461.2559,19.568727,19.85889,19.659142,19.792664,6.712508e-08,0.3,-64.1561,84.7438,84.69518,84.76779,84.87453,0.2552263,0.40156248,0.20355606079101562,30.18905021349589
92,920000,-0.06311768279986205,-85.69963,0.029019859,-0.032697618,0.84179765,-5.7345824,43.534866,31.138361,3.1183205,110.665535,110.88348,110.81377,110.83915,3.4401684,0.7,-111.23064,-34.797867,0.00016879954,-367.30734,2.9794571,6.2602,1.031185,1.6700184,1.4619477e-05,0.3,-60.400936,84.76082,84.86063,84.88765,84.86818,0.12371929,0.41718748,0.1908097267150879,30.50144026676814
93,930000,-0.031100894810757774,-87.99011,0.029890407,0.17601322,0.48068628,-10.891019,59.20843,14.278608,2.136717,110.31407,110.29741,110.26507,110.25431,6.4100003,0.7,-110.61475,-41.16199,0.0012646993,-362.63245,9.527078,10.215849,8.844992,8.636808,1.6298145e-10,0.3,-55.043884,87.06696,87.09747,87.242935,87.215164,0.14252637,0.38593748,0.20160174369812012,30.817847084999084
94,940000,-0.05362763671104584,-86.9305,0.028698593,1.3646245,0.8586152,-19.263643,55.13287,27.207241,6.553865,112.91287,112.8588,112.24438,111.75295,26.805656,0.7,-113.23229,-41.338753,0.00074763456,-1351.3622,18.538,19.445122,19.347456,18.708878,1.261651e-07,0.3,-58.955338,85.85228,85.80586,85.83748,85.83035,0.22101748,0.47812498,0.19971656799316406,31.132813243071237
95,950000,0.028108138261776418,-88.456635,0.029184112,0.5214052,0.6593965,-20.200838,82.84858,15.365259,2.9381104,111.52272,111.306564,110.91816,110.963326,6.91491,0.7,-111.44216,-34.71989,0.00013302459,-455.45987,19.594778,19.649418,19.369717,19.771807,6.9849198e-09,0.3,-53.313396,87.73097,87.67705,87.5785,87.58128,0.13319534,0.496875,0.19784307479858398,31.449131894111634
96,955000,-0.00796851876578774,-88.60182,0.027306097,0.4151092,0.5843461,-10.072237,79.11692,16.418041,4.950871,111.24813,111.19031,110.89471,111.054596,3.29236,0.7,-111.94409,-35.912365,0.00052844663,-519.5424,3.3301888,6.297572,6.0035877,7.2244062,5.0466045e-09,0.3,-59.594944,87.79349,87.81178,87.77842,87.8952,0.08409447,0.4296875,0.1960136890411377,31.609481700261433
97,960000,-0.03485679432682347,-87.309235,0.027928194,0.7467419,1.1849792,-3.9993894,57.46578,85.6767,4.03267,110.948524,110.891914,110.36939,110.5253,1.5349789,0.7,-110.89589,-38.039993,0.00059018296,-500.70953,5.1990595,5.8572626,6.828008,5.2592597,1.1488603e-05,0.3,-62.643894,86.37793,86.358055,86.13193,86.261566,0.06449999,0.4484375,0.1978435516357422,31.770744673411052
98,965000,-0.03499890516653815,-87.49694,0.028511483,0.22082037,0.8797073,-1.0156802,85.757515,89.780106,5.298491,110.28464,110.062004,110.49611,110.308716,23.051134,0.7,-110.43804,-29.619513,0.0005257335,-334.43103,0.89234984,3.1080596,2.6756577,2.2422767,5.243998e-06,0.3,-59.446953,86.65795,86.69481,86.86621,86.67386,0.14843458,0.4765625,0.19304108619689941,31.929575459162393
99,970000,-0.03953539148877759,-88.27847,0.02644834,1.1766036,0.77377367,-14.290121,101.777,22.43373,5.9496236,111.05426,111.06672,111.12961,110.88248,51.678516,0.7,-110.925186,-38.44334,0.0041916575,-521.89307,11.4868765,11.644573,11.379362,11.382698,1.8887222e-07,0.3,-67.54647,87.08955,87.14133,87.45976,87.37608,0.41356865,0.40625,0.19674277305603027,32.08910104036331
100,975000,-0.0079410533716767,-87.15033,0.02997634,-0.8845935,0.7836906,-3.7184684,42.05776,27.212925,5.7891755,111.18058,111.052345,110.84089,110.70317,3.0767863,0.7,-111.25869,-36.873093,4.3907785e-06,-415.5728,3.5100904,3.9961243,5.9243937,4.2595677,3.9156294e-08,0.3,-57.57689,86.48439,86.423065,86.65125,86.5901,0.08034131,0.45,0.19665002822875977,32.24795067310333
101,980000,0.0038527482746910187,-83.74343,0.027371982,-0.2005395,0.58846724,-2.0641286,53.43578,10.067559,6.541062,110.984024,111.33883,111.80393,111.9035,1.8538829,0.7,-111.00253,-32.065613,0.002383206,-428.48584,3.161721,2.807302,4.313818,4.6055164,1.9252184e-09,0.3,-62.715218,82.89464,82.924805,82.91159,82.93413,0.07505398,0.44687498,0.1890573501586914,32.407572106520334
102,985000,-0.009182513096936714,-87.700165,0.028492706,-0.1070219,0.59658647,-13.22525,62.62195,19.255522,5.287429,110.94583,110.88808,110.30482,110.243546,3.3050842,0.7,-111.3248,-35.357536,2.8848299e-06,-517.7955,12.574093,13.232969,12.491155,13.776738,2.1147544e-06,0.3,-66.758804,86.88724,86.86632,86.69955,86.660706,0.07344654,0.4765625,0.19618749618530273,32.567572236061096
103,990000,-0.040158906324522556,-84.48373,0.028573142,1.3651336,0.5239299,-14.283433,65.111496,9.0965605,4.7472916,110.341675,110.6548,110.64935,110.84491,17.695528,0.7,-110.61981,-33.31121,0.00026185118,-610.6606,10.469084,11.451129,9.877106,10.273456,3.7111051e-06,0.3,-75.736755,83.335785,83.39432,83.24198,83.25438,0.15137088,0.4203125,0.18449187278747559,32.72704213460286
104,995000,-0.005850785401286582,-87.57988,0.029040616,-0.7790782,0.6787285,-1.4227686,66.821266,41.2261,8.8636465,110.22026,110.14869,110.15177,110.34816,29.889463,0.7,-110.126526,-34.488724,0.00010291935,-404.02646,1.1231917,1.3168925,4.614844,4.13575,1.5196566e-06,0.3,-58.84589,86.65288,86.64378,86.705414,86.74257,0.25297907,0.4328125,0.208099365234375,32.89074039061864
105,1000000,-0.036132500293518416,-86.73123,0.029373365,-0.97567415,0.7058464,-16.782637,53.352432,29.736279,4.7936363,110.33156,110.45787,110.32511,110.070145,2.081202,0.7,-110.609184,-35.051426,0.00040219893,-510.7752,15.321286,13.897831,14.56839,13.816677,5.5776326e-07,0.3,-61.7548,86.01495,85.97261,85.85018,85.87457,0.061624818,0.465625,0.19292855262756348,33.0541900118192
