Xixo99/comfo/relaxed_iql/20230321_5seed_mle0/walker2d-medium-expert-v2/riql_s5_20230321_045047_walker2d-medium-expert-v2_-0.31.csv
,step,reward,actor_loss,alpha,alpha_loss,critic_loss,max_actor_loss,max_alpha_loss,max_critic_loss,max_mle_prob,max_q1,max_q2,max_target_q,max_v,max_value_loss,max_weight,min_actor_loss,min_alpha_loss,min_critic_loss,min_mle_prob,min_q1,min_q2,min_target_q,min_v,min_value_loss,min_weight,mle_prob,q1,q2,target_q,v,value_loss,weight,eval_time,time
0,0,1.5393567761619016,,,,,,,,,,,,,,,,,,,,,,,,,,,,,,,,,
1,10000,-0.1342854162053002,-34.217655,0.05785568,-15.054396,1.4720271,5.959356,5.3418274,305.18463,7.349471,43.589607,43.5879,43.5132,43.072136,2.3093202,0.7,-43.735973,-41.967346,9.070391e-05,-120.872284,-12.012819,-12.29194,0.19965826,-11.774411,1.5455226e-08,0.3,-13.846014,33.726303,33.700035,33.81514,33.22248,0.031257268,0.453125,0.3914463520050049,1.300883690516154
2,20000,-0.26526880133605146,-55.180893,0.026766682,0.7395334,0.44161886,-11.20057,48.71305,15.695345,6.0547333,70.59627,70.65212,70.41649,69.90918,1.1780432,0.7,-70.83443,-34.252483,2.8915732e-05,-204.90979,9.90404,9.429334,10.839385,9.398114,2.5215559e-06,0.3,-38.366417,54.363678,54.34932,54.304405,54.02114,0.03134014,0.47187498,0.18545317649841309,1.615746831893921
3,30000,2.008375382099009,-69.66243,0.034955557,-0.84104633,0.9187799,-14.760114,51.409897,35.39461,7.0871553,86.7952,86.60023,86.88533,86.39971,2.8668566,0.7,-87.82818,-36.39453,0.00015552068,-160.57425,12.322421,12.80067,13.10769,11.073916,9.2375565e-09,0.3,-32.191875,68.76602,68.68021,68.40044,68.30115,0.068148956,0.5046875,0.7119004726409912,1.9420278032620748
4,40000,1.6206690068188625,-77.72771,0.038844362,-1.3106583,1.6551056,-20.56825,44.074005,43.494892,6.45455,98.06786,97.32907,97.16962,96.97273,8.58093,0.7,-97.762436,-47.355347,0.0006855233,-179.6868,16.340998,16.276964,15.8815775,15.7099285,1.5161349e-07,0.3,-36.793568,76.50066,76.413574,76.05249,76.0668,0.11241227,0.50624996,0.6622235774993896,2.2649991432825725
5,50000,-0.2046480084969948,-83.199196,0.040361483,-0.34979352,1.2154675,-19.22422,47.96119,45.14727,6.4052296,105.00946,104.24623,104.88716,104.71967,3.2071228,0.7,-105.01013,-30.87025,0.0005608297,-230.53818,14.2831955,14.207482,12.884245,13.598135,6.070896e-06,0.3,-37.953983,81.86971,81.86569,82.0115,82.007996,0.09462067,0.3828125,0.10508561134338379,2.5830521980921426
6,60000,-0.2576929227003038,-83.76917,0.04118198,1.8876866,1.1041136,1.1098523,51.54401,44.308685,3.5571516,106.73884,106.94301,106.48127,106.1151,12.379629,0.7,-107.37512,-31.066948,0.00049527484,-256.99173,-4.2366,-2.873434,1.1022124,-5.9431944,2.0067848e-06,0.3,-42.542076,82.21904,82.29498,82.11194,82.096725,0.16855621,0.43906248,0.10013222694396973,2.895857306321462
7,70000,-0.2223377586228551,-88.5497,0.041463215,-1.1985391,0.78321517,-21.304888,57.80492,11.464912,3.8200247,109.82822,109.78824,109.50157,109.69449,5.205238,0.7,-109.73484,-36.89265,0.0020957622,-177.05025,18.872808,18.724483,18.813446,19.01203,8.802745e-08,0.3,-36.070812,87.36574,87.301186,87.12085,87.293724,0.09264682,0.3953125,0.12287306785583496,3.212400734424591
8,80000,-0.25589666062065103,-89.9948,0.039167825,-0.66874206,1.2923923,-11.417403,51.07235,116.06254,4.2854595,110.556816,110.502846,110.13394,110.489044,2.0047219,0.7,-111.425224,-33.401207,0.0004513499,-386.90955,8.911483,8.06517,3.4342432,8.190426,3.426685e-08,0.3,-39.492252,88.662964,88.74899,88.46671,88.60683,0.079398796,0.446875,0.1310887336730957,3.526751430829366
9,90000,-0.23495402408911245,-87.507866,0.038698994,1.4571577,1.4883374,-11.727378,54.653236,70.32907,7.0464997,111.0843,110.82865,110.62514,110.87506,7.8165927,0.7,-111.95722,-29.655993,0.0018347162,-188.89708,6.8323836,6.162919,2.6469526,6.0960474,2.1122396e-07,0.3,-41.61898,86.26809,86.228714,85.91844,85.98443,0.12757915,0.45,0.13173246383666992,3.8340327501297
10,100000,-0.2242791851212569,-90.07393,0.040400494,0.51356965,0.8741778,-20.00583,74.66254,38.111492,4.6020184,110.945625,111.07936,111.016075,110.97691,4.939713,0.7,-111.9875,-34.413548,0.0019252938,-319.19568,13.772962,14.35979,13.9519,11.475307,4.383549e-06,0.3,-40.565674,88.939926,88.97354,89.1425,88.99809,0.1304995,0.48125,0.12468242645263672,4.148426024119059
11,110000,-0.22853215510331756,-89.40646,0.04144264,-0.75523627,0.9423935,-14.256026,58.34906,41.27209,1.680634,111.46293,111.23966,111.40649,111.5645,20.636404,0.7,-112.99242,-33.546696,0.001239968,-232.8432,10.465294,8.498884,6.2355175,8.925909,4.304282e-07,0.3,-38.031693,88.263336,88.18129,87.93559,88.09587,0.17068312,0.50624996,0.12470412254333496,4.464406410853068
12,120000,-0.2130788786496502,-91.57286,0.04197801,-0.6412172,1.1708968,-7.6966214,49.86901,43.717216,4.063479,111.47887,111.23157,111.260635,111.35188,3.9820957,0.7,-111.80741,-31.815498,0.00063426164,-195.06897,3.8636944,5.535214,2.1886406,1.6698815,6.519258e-08,0.3,-36.01164,90.59209,90.52673,90.542755,90.454666,0.13599965,0.496875,0.12155032157897949,4.780846790472666
13,130000,-0.2944047094747804,-88.9371,0.043794136,0.5671972,0.8752005,-15.627656,84.01315,17.305937,4.3509817,111.12414,111.10928,110.99312,111.004684,4.862513,0.7,-111.7914,-30.867283,0.0010710431,-227.77422,15.888684,16.59805,15.0606575,15.297999,8.169842e-06,0.3,-40.559433,87.655426,87.71156,87.74834,87.741974,0.11166446,0.4375,0.10705447196960449,5.096717401345571
14,140000,-0.2345697917281153,-91.556854,0.042013664,-0.28890586,0.6814889,-18.080864,79.1746,22.496588,8.046813,111.81563,111.597244,112.069466,111.820915,5.8786526,0.7,-112.725586,-39.37147,0.0022826844,-194.09328,16.52472,16.834938,17.225603,17.15113,1.5161349e-07,0.3,-37.630856,90.50302,90.52563,90.51404,90.67583,0.12599775,0.37031248,0.12569689750671387,5.413262951374054
15,150000,-0.20707378140117677,-90.349785,0.040630806,-0.20175862,2.0312307,-16.199936,36.374653,288.29672,6.771368,112.1845,111.836494,112.11257,112.78668,5.0078063,0.7,-112.78239,-34.971737,0.00091227854,-180.53389,11.178976,12.1493845,9.890549,10.168695,3.5458652e-06,0.3,-38.86753,89.375015,89.33261,89.58923,89.38406,0.12068224,0.478125,0.1183159351348877,5.72333048582077
16,160000,-0.33011768694743016,-91.00339,0.040275063,-2.7677011,0.98677695,-17.218218,70.845245,55.21324,7.8297653,111.36819,111.2234,111.19645,111.20451,3.9491668,0.7,-112.09626,-33.596085,0.0008724542,-222.973,17.166948,17.380283,15.626771,15.896765,8.6217185e-08,0.3,-36.362194,90.07196,90.13397,90.073166,90.08623,0.09810495,0.45312497,0.10976815223693848,6.036935691038767
17,170000,-0.3339858901159529,-89.71518,0.040062472,0.47205663,1.4742256,-11.78968,70.173454,114.576996,6.597918,111.271904,111.2677,111.52204,111.65857,21.965847,0.7,-111.76389,-29.657522,0.0026630731,-453.48743,8.562628,9.579657,9.623653,8.922837,4.224642e-06,0.3,-40.195072,88.68494,88.686424,88.90279,88.89621,0.21347874,0.4578125,0.11164498329162598,6.354320112864176
18,180000,-0.3285107363594928,-85.96577,0.0403465,0.0017055273,0.99752074,-13.769904,50.47158,35.55626,6.0125527,111.04837,111.106514,111.08492,111.35114,1.8721094,0.7,-111.78123,-32.75474,0.001482713,-307.7347,11.492258,12.505621,11.893719,10.715254,5.347829e-11,0.3,-41.0866,84.92508,85.02523,85.01677,85.14,0.079352096,0.40625,0.11061906814575195,6.671429296334584
19,190000,-0.3570621036071084,-87.18227,0.038851023,-0.9607979,1.2400762,-10.945629,57.676655,51.099117,8.88892,111.43796,111.44685,111.036606,111.435394,8.506471,0.7,-111.773346,-31.2892,6.690447e-05,-407.33383,9.090438,9.278313,9.480536,8.240847,2.229761e-07,0.3,-40.18514,86.219894,86.281494,86.06141,86.25723,0.12998834,0.46874997,0.10895824432373047,6.990299646059672
20,200000,-0.3338657452652689,-86.25275,0.03641292,-0.34212786,1.4190707,-17.868708,61.11194,43.92793,3.6209087,111.42625,111.21291,111.19023,110.988014,16.171757,0.7,-111.7437,-37.759563,0.000180971,-333.64404,17.994526,17.643068,18.545927,17.927492,2.3079804e-06,0.3,-44.993324,85.23935,85.35376,85.30707,85.23588,0.21344423,0.5046874,0.10595965385437012,7.307757151126862
21,210000,-0.320874919879891,-87.50723,0.036422677,-0.48987538,1.1571307,-6.1907477,47.99796,79.729935,3.557344,110.93364,111.014946,111.05011,111.262085,6.625577,0.7,-111.475914,-25.517584,0.0007829795,-290.0772,3.3107562,4.033489,6.2062883,4.115295,8.298783e-07,0.3,-45.8108,86.39985,86.4207,86.27704,86.33856,0.14978872,0.4421875,0.1084752082824707,7.626004203160604
22,220000,-0.29277910392617706,-89.177704,0.037300795,-0.59770024,1.6323514,3.830504,33.904297,67.21281,8.069807,111.40768,111.235756,111.81586,111.50758,25.167439,0.7,-111.97028,-34.41986,0.0064158672,-421.6317,-3.2179909,-4.5938673,0.24135926,-4.146795,7.647497e-07,0.3,-45.36873,88.00032,88.05169,88.40351,88.17885,0.25702128,0.53125,0.08215975761413574,7.941221380233765
23,230000,-0.33114310930519525,-88.79664,0.03660991,-1.462845,1.2187798,-12.870503,63.29257,39.763233,3.5155602,110.65365,110.36697,110.748665,111.352715,5.018833,0.7,-110.885544,-36.400646,0.00072931126,-238.98352,12.228231,13.83797,15.083679,13.460539,1.9016444e-08,0.3,-42.091953,87.84954,87.815025,88.05498,87.985306,0.10586731,0.5078125,0.09794878959655762,8.253709018230438
24,240000,-0.3302572258961104,-89.79114,0.03702125,-0.9214766,1.2705352,-9.624488,80.5987,113.5827,5.505617,111.739525,111.67062,111.594185,111.50886,1.8815626,0.7,-111.825584,-36.275196,0.0016161148,-342.6366,9.714947,10.476999,7.439606,8.152943,1.466833e-09,0.3,-41.19363,88.780304,88.80596,88.839554,88.78813,0.08647226,0.5296875,0.10674643516540527,8.568191023667653
25,250000,-0.30053275875263935,-86.48561,0.036666833,0.84181535,1.7373774,-5.1752477,74.50028,145.45013,4.985959,111.22501,111.05956,111.21187,111.171425,22.745047,0.7,-111.234146,-38.535645,9.0972753e-07,-271.81207,4.162851,4.617832,4.7253036,3.1091206,1.5403319e-06,0.3,-47.333466,85.26608,85.25894,85.53073,85.44389,0.19798914,0.41718748,0.08191275596618652,8.882260970274608
26,260000,-0.28675974418013855,-88.6825,0.036306016,0.017428309,0.8887434,-14.931641,67.19705,41.80287,4.551607,111.732956,111.64828,111.61172,111.72156,2.0308354,0.7,-111.731834,-42.895767,0.0006666987,-197.73183,15.575649,13.4536085,14.509207,13.990637,1.8558233e-06,0.3,-42.43985,87.62209,87.601074,87.56822,87.591934,0.08658515,0.42968747,0.0827338695526123,9.196408398946126
27,270000,-0.2948955770100592,-88.82236,0.036532946,0.6552546,0.90474856,-19.3556,47.322594,25.30715,7.079952,111.64386,111.52461,111.09143,111.32265,2.256017,0.7,-112.19651,-29.289661,0.0021575724,-381.76147,16.181253,18.326868,18.117783,16.877815,1.3109996e-06,0.3,-43.12863,87.86261,87.75885,87.62283,87.73184,0.080980495,0.42343748,0.08248233795166016,9.509714253743489
28,280000,-0.25835433099017635,-85.42754,0.03733286,0.872035,0.7975861,-16.578556,76.11023,30.324059,3.466882,112.33947,112.0946,112.19622,112.73933,2.538086,0.7,-112.64119,-33.07703,0.001549276,-365.99454,11.315177,13.3927555,12.955914,13.366553,8.250936e-08,0.3,-42.169823,84.237045,84.23245,84.162674,84.21084,0.07945812,0.48749998,0.07099676132202148,9.822384468714397
29,290000,-0.2712000540150999,-89.69183,0.03610186,-0.41387475,1.3797587,-3.497809,36.01955,61.37879,3.3271565,111.861626,112.06555,111.47532,111.77903,2.3623695,0.7,-112.11202,-31.319538,0.00092010415,-439.76807,3.8721607,2.1632338,6.986433,5.818085,6.640039e-07,0.3,-49.817543,88.660126,88.64458,88.32448,88.466515,0.1094176,0.41406247,0.07630562782287598,10.131403768062592
30,300000,-0.2676292237074137,-91.36455,0.035860505,-1.7976012,1.2403288,-11.055077,45.179455,25.21294,6.2402287,112.1858,112.23116,111.90403,111.61765,1.8035505,0.7,-112.25805,-32.70465,8.070754e-05,-421.5264,8.864369,9.166338,10.497751,10.745773,2.1391315e-08,0.3,-37.77303,90.48901,90.47774,90.15013,90.09764,0.08428248,0.52656245,0.0673222541809082,10.444837121168772
31,310000,-0.2698574646135679,-88.90442,0.036364827,-1.4559356,0.7036247,-11.598961,48.04389,19.523859,4.5926933,111.09845,110.90997,111.01872,111.1874,3.9028065,0.7,-111.604164,-30.211945,0.00043391698,-275.81226,8.847288,8.595072,10.484554,11.522661,1.6171834e-05,0.3,-40.901443,87.943344,87.902245,87.92966,88.01558,0.08220346,0.42499998,0.07459640502929688,10.758696015675863
32,320000,-0.26325985630040016,-89.33746,0.03603852,0.7469348,1.8115101,-9.5479965,78.189514,211.2054,4.28485,111.6332,111.35697,111.103355,111.09627,4.1642714,0.7,-112.08824,-30.12444,6.39903e-05,-312.29944,6.1591945,6.0439696,6.961689,6.495184,5.280599e-08,0.3,-45.50652,88.35266,88.266266,88.39905,88.3271,0.111265466,0.459375,0.07225561141967773,11.072335616747539
33,330000,-0.31395382789695725,-87.85603,0.036614783,-1.1010972,1.3849683,-9.4434395,75.33426,118.14675,5.6081924,110.483475,110.59775,110.73053,110.93085,8.208653,0.7,-111.501915,-26.558678,7.7758916e-05,-517.1449,9.555175,8.397479,8.059143,8.100065,1.9118743e-05,0.3,-51.853935,86.72326,86.75641,86.771255,86.824646,0.1461569,0.3984375,0.08424854278564453,11.385702912012736
34,340000,-0.27492210001873174,-88.429306,0.036209967,0.70175636,1.1074171,-12.193498,64.74394,42.276745,6.9578094,111.75957,111.97578,111.63658,111.65042,3.5209775,0.7,-112.149796,-35.238346,0.0005944868,-554.4854,8.039185,9.294037,11.4553995,12.4135895,2.0067848e-06,0.3,-50.434795,87.21538,87.255585,87.141846,87.20538,0.09494117,0.4796875,0.07395195960998535,11.700628372033437
35,350000,-0.2727521561942282,-87.57626,0.034975465,1.3358637,1.3157741,-15.670548,71.49766,26.387228,4.454676,111.58235,111.99589,111.18734,111.23977,3.561385,0.7,-111.68993,-49.91579,0.0010853726,-453.22595,13.877764,12.091237,12.056673,12.251897,5.506354e-07,0.3,-47.034634,86.57915,86.51327,86.14506,86.18729,0.13645735,0.465625,0.07244539260864258,12.01474108695984
36,360000,-0.3004381935451933,-89.64671,0.035719845,-1.1156147,1.0794716,-20.577566,47.62848,42.289993,11.160307,112.080925,111.842735,111.55976,112.081985,3.15159,0.7,-112.512985,-46.868137,0.00025045988,-350.61752,19.800112,19.997025,20.040682,20.061422,7.4103014e-07,0.3,-47.312958,88.65292,88.66783,89.04614,88.985725,0.10685408,0.34531248,0.08151936531066895,12.331804768244426
37,370000,-0.35067884393416976,-90.13309,0.03485403,1.2075504,1.9866499,-19.930113,72.02517,302.87164,7.1919374,110.842415,111.10508,110.5876,110.91537,20.921041,0.7,-111.84084,-44.385036,0.00010268786,-478.5869,19.996536,19.785364,19.7538,19.584097,6.2864274e-08,0.3,-48.374855,89.15604,89.11906,89.0971,89.18057,0.19820315,0.465625,0.10139203071594238,12.649248540401459
38,380000,-0.25800911488379535,-89.662926,0.035297237,0.029526368,1.0091168,-21.45048,51.64956,41.27773,5.04132,110.49406,110.361015,111.26518,110.79294,3.8174334,0.7,-113.108864,-44.245087,0.00072584493,-398.2759,19.969095,19.983027,20.745361,20.654459,6.455183e-06,0.3,-46.066765,88.65231,88.62906,88.7827,88.82228,0.07344736,0.4265625,0.07126688957214355,12.959698935349783
39,390000,-0.3253817652764268,-86.18796,0.034937114,0.41234574,0.8132747,1.698544,60.754555,20.786625,3.5604796,112.4683,112.086395,111.90463,111.861565,24.39809,0.7,-111.95054,-38.76494,0.0018509901,-580.5094,-0.5209536,0.21692264,1.122659,0.049639225,7.099472e-07,0.3,-55.430058,85.03693,84.90664,84.98549,84.913574,0.23530883,0.46250004,0.10261654853820801,13.283538428942363
40,400000,-0.2726485453283413,-87.367035,0.03450895,-0.2604857,5.0710597,0.5365359,72.51221,1077.5142,5.6267123,112.587654,111.655815,111.6863,111.728836,2.1058793,0.7,-112.21163,-32.399616,0.0012460935,-376.44687,3.8199751,-1.8213301,0.54081464,1.033283,9.562355e-08,0.3,-45.361603,86.38603,86.41194,86.71214,86.6593,0.07776841,0.41875,0.07629990577697754,13.615174285570781
41,410000,-0.2700138567366305,-88.11661,0.035147686,-1.3588891,1.0348762,-0.82168883,55.753468,42.328133,4.8860245,110.75845,110.79938,111.07616,111.63251,4.1942325,0.7,-111.09973,-35.610622,0.0010505635,-271.58496,1.3533332,0.88242084,0.97761244,1.5487902,2.4157924e-07,0.3,-47.445896,87.16495,87.12163,87.45686,87.57538,0.11964365,0.36562496,0.0731358528137207,13.940520211060841
42,420000,-0.2664871855978955,-88.1689,0.034858737,-0.11356354,1.0249119,-10.64445,54.324127,27.111599,3.9563026,111.471664,111.579926,110.97011,110.99644,4.810113,0.7,-111.689606,-32.85151,0.00021721062,-827.8612,6.967746,9.007549,6.0160995,6.1707187,2.1515298e-07,0.3,-47.612144,87.08309,87.014656,86.85504,86.89353,0.11658979,0.465625,0.0721428394317627,14.263293186823526
43,430000,-0.2943990176168664,-87.22402,0.034663618,1.0495677,0.7688501,-19.60631,45.23789,18.458437,3.926131,111.046005,111.07471,111.243706,111.26371,38.833046,0.7,-111.471,-33.66141,0.0007379768,-294.00522,19.118938,19.243692,20.445612,20.293129,3.5708655e-07,0.3,-46.99145,86.1856,86.20643,86.32348,86.32135,0.3959519,0.459375,0.08176326751708984,14.582533021767935
44,440000,-0.3077047485045426,-87.016464,0.0360732,-0.719531,0.7519144,-17.379202,54.57654,8.557085,14.521053,111.390045,111.58671,111.347244,111.20418,10.374755,0.7,-111.67622,-26.968609,0.00014865363,-659.4171,16.691626,17.28513,17.717777,17.387112,1.6244304e-06,0.3,-50.228035,85.97378,86.0394,85.97092,85.86781,0.11728544,0.475,0.08587813377380371,14.918388903141022
45,450000,-0.27011592954259744,-87.933655,0.035655484,-1.736832,0.8342409,-19.025606,70.46443,23.505548,6.674737,110.83126,110.86582,111.191635,111.042244,3.1410177,0.7,-111.17208,-32.09454,0.0021803614,-238.90659,18.911306,18.580944,20.40719,20.012451,8.32444e-06,0.3,-44.652573,87.12671,87.12666,87.38301,87.22139,0.09312851,0.5593749,0.07121729850769043,15.242403666178385
46,460000,-0.27673475131590436,-86.715225,0.035261974,0.20650035,0.94830924,-9.688241,40.62491,11.876162,5.340969,111.10348,110.822105,110.474945,110.528725,4.4220195,0.7,-111.026955,-23.82427,0.0011629206,-394.01926,6.301814,5.9684153,8.391407,8.1378145,5.867332e-09,0.3,-52.05848,85.7688,85.7372,85.39722,85.54603,0.09036891,0.49531248,0.07121729850769043,15.565107282002767
47,470000,-0.2682464448743004,-90.44915,0.03457963,-0.6315874,0.94451094,-23.6952,59.84343,31.187023,2.6008358,111.72382,111.615074,111.2206,111.6209,9.176458,0.7,-112.118324,-28.078493,0.0012933884,-239.0058,17.624466,18.673733,18.629162,18.048653,2.4258159e-06,0.3,-41.471985,89.48833,89.4807,89.375336,89.49263,0.14440237,0.3796875,0.07251739501953125,15.884358127911886
48,480000,-0.2976931034880179,-86.15656,0.03458588,0.052808166,0.84228563,-15.182238,41.07985,91.47641,5.233142,112.00448,111.89038,112.31647,111.786995,22.597675,0.7,-112.01227,-25.495872,2.1429383e-05,-351.979,12.4312315,11.650446,13.3056,14.21599,4.7036624e-06,0.3,-45.398308,85.18283,85.2052,85.18271,85.14878,0.26385015,0.5640625,0.08189797401428223,16.20741101503372
49,490000,-0.3596769173802318,-86.55296,0.03604968,0.57519954,2.5745738,-17.009647,59.91389,221.17755,5.0821514,111.32163,111.43194,111.26919,111.22219,6.6121116,0.7,-111.26202,-42.292328,0.000554591,-417.77884,13.138596,13.1683,13.503246,14.463834,8.877291e-06,0.3,-43.613686,85.61632,85.63346,85.649796,85.63716,0.11356963,0.54218745,0.10219883918762207,16.52842494646708
50,500000,-0.3115484483878256,-86.93622,0.03427761,0.5192292,1.0803701,-6.2191896,101.55073,38.76043,5.37551,111.05841,111.28699,110.38583,110.747574,11.320843,0.7,-111.36387,-34.63028,0.00502612,-522.1988,5.418578,3.2763062,3.1700938,5.048517,1.5926315e-06,0.3,-52.253708,86.085175,86.003174,85.81113,85.995155,0.12321176,0.42812496,0.09233689308166504,16.848988890647888
51,510000,-0.26760359863924893,-86.27545,0.035183586,-1.0769173,0.5813093,-4.544369,44.2326,9.339457,4.8293715,111.47602,111.43938,111.35522,111.6341,4.746391,0.7,-112.09133,-36.00684,0.0005604062,-561.6237,3.150105,3.2644806,3.3253794,3.3373687,8.104905e-06,0.3,-53.63805,85.276596,85.376785,85.492645,85.62144,0.13160798,0.37031248,0.07215404510498047,17.167771236101785
52,520000,-0.3263626791681585,-88.41147,0.035203718,-0.5556232,1.1808553,-12.937388,58.32317,64.55763,8.450906,111.672134,111.729866,111.30419,111.69048,2.2757742,0.7,-112.18699,-33.621407,0.00052751444,-358.9001,12.612865,12.611081,11.010286,10.853087,4.192698e-08,0.3,-53.519836,87.2287,87.24161,87.26604,87.40405,0.118959695,0.4015625,0.12101244926452637,17.492209029197692
53,530000,-0.25365559366812535,-89.67349,0.0346133,-0.4250108,0.7509898,-8.716749,43.89339,21.396341,2.9821022,111.194176,110.80762,111.52344,111.09156,9.709127,0.7,-111.36046,-35.99252,0.00051445107,-587.8675,5.176432,4.83638,5.727032,3.945165,3.0074445e-06,0.3,-55.385414,88.76245,88.759125,88.815994,88.89197,0.16194609,0.42812496,0.0693819522857666,17.811486744880675
54,540000,-0.26222545585814194,-88.69919,0.034329053,1.8345213,1.3174448,-7.478771,52.793465,65.87048,8.958565,111.02531,110.718864,110.92136,110.79203,2.6161087,0.7,-112.06572,-36.763676,0.0041879895,-1251.4402,5.9756103,4.629914,5.131924,4.82717,3.6950226e-08,0.3,-58.36235,87.43352,87.40379,87.39523,87.42887,0.10557511,0.46874997,0.07992935180664062,18.14071787595749
55,550000,-0.25903847448350154,-87.28679,0.034212545,0.7533511,0.6912641,-21.457846,57.045013,14.029407,3.0658665,111.281395,111.272354,110.92272,111.397,27.579943,0.7,-111.64848,-29.872057,0.000101055266,-678.43976,20.333263,20.100368,20.130503,20.170311,1.9992586e-07,0.3,-54.665173,86.42517,86.44893,86.36651,86.370285,0.19636229,0.46406248,0.07164216041564941,18.47160270611445
56,560000,-0.2552143387066226,-85.014084,0.035037253,1.5020101,0.7763642,-1.0766394,49.039642,14.196765,3.9465303,111.51961,111.14102,111.481346,111.555725,1.5762933,0.7,-112.394104,-37.600056,0.0024664546,-552.63135,1.661482,-0.5661893,1.8286856,2.1800046,4.4703485e-09,0.3,-57.19229,83.94971,83.9975,83.9831,84.10098,0.082374096,0.40156248,0.08008122444152832,18.791998851299287
57,570000,-0.2649377666329963,-88.49838,0.034132507,-0.21154585,0.83576643,-20.183659,54.38992,50.790634,3.3906724,110.6915,110.78875,110.85043,110.39052,24.065964,0.7,-111.748215,-37.02173,0.00029306422,-937.59674,20.16153,20.235567,20.382912,20.375044,1.745898e-06,0.3,-52.8384,87.47897,87.617096,87.53119,87.4722,0.16936848,0.4578125,0.07659602165222168,19.110008041063946
58,580000,-0.2625206523539336,-86.12052,0.033352893,-0.13197652,0.71665335,-17.057919,53.489605,12.179124,7.099495,112.09599,112.01345,112.28222,112.34244,4.5394816,0.7,-112.00776,-33.981182,0.00019175751,-289.19272,13.907446,12.996539,14.82223,13.395189,4.2808097e-07,0.3,-49.27079,85.22951,85.22519,85.290344,85.20132,0.10846922,0.48125,0.07733607292175293,19.432587063312532
59,590000,-0.257203331488188,-87.434235,0.033971645,0.2773351,1.4762509,-11.724084,51.02167,87.13235,2.8084502,111.08975,110.964485,111.49151,111.62572,4.895058,0.7,-111.859436,-30.126558,0.0011421395,-759.35254,9.225578,9.371919,10.250493,10.555002,8.074567e-08,0.3,-59.354126,86.35377,86.32649,86.687485,86.7024,0.12403224,0.475,0.08047699928283691,19.762991086641946
60,600000,-0.25622126687414404,-88.01136,0.03290567,-0.48608744,0.729115,-10.842545,54.85134,16.879246,7.164358,111.90581,111.800354,111.3549,111.41011,22.465591,0.7,-112.07307,-40.050526,0.002644118,-350.558,6.1712904,5.158434,5.368488,5.8157187,1.5093713e-06,0.3,-56.78573,87.07864,87.05156,87.00976,87.18074,0.1933728,0.43124998,0.06975221633911133,20.09377341667811
61,610000,-0.2559126622930563,-85.93565,0.033031203,2.1783063,0.9142988,-13.807051,50.663883,98.376526,5.7018023,110.99055,111.23665,111.05296,110.900536,33.463276,0.7,-111.32752,-38.101658,0.0010468834,-586.30194,13.070881,16.0967,9.804448,13.939703,1.8525753e-07,0.3,-63.399734,84.765236,84.81181,84.89993,84.95372,0.21918683,0.50625,0.07377481460571289,20.413434366385143
62,620000,-0.25949401148104173,-87.75902,0.033284817,0.06407231,0.88717365,-18.211353,42.984318,25.460316,4.2634544,111.32533,111.39914,110.88124,111.12282,3.0075457,0.7,-111.86995,-37.071053,0.0010530057,-712.51843,16.67452,17.42509,15.567423,16.686277,2.7543864e-08,0.3,-63.74095,86.7955,86.80283,86.57132,86.570595,0.07744013,0.5375,0.07619237899780273,20.727055752277373
63,630000,-0.3421806454289971,-87.382996,0.03344868,0.7180017,1.395776,-14.920863,69.22676,54.882713,6.607265,110.61485,110.44608,110.80024,110.842834,43.11904,0.7,-111.04518,-29.739693,0.0023903025,-708.2948,15.998895,15.424985,15.498373,15.667757,1.446053e-07,0.3,-61.375244,86.29457,86.23599,86.04909,86.14308,0.32499117,0.41875,0.11784791946411133,21.039240646362305
64,640000,-0.2616124031403372,-86.87584,0.03305054,-0.16202751,0.6708184,-8.839227,48.729404,19.88901,3.8044536,111.31617,111.1251,111.355095,111.239,1.2873335,0.7,-111.22509,-37.290127,0.0005592374,-559.47723,8.608788,9.576298,8.322239,7.9915524,3.7757857e-06,0.3,-50.249092,86.00302,85.9669,85.81105,85.793434,0.08271712,0.509375,0.0741584300994873,21.349299252033234
65,650000,-0.2653288484099853,-86.37389,0.032418642,0.58140105,0.67671025,-15.999831,53.055855,38.311428,5.9585433,110.646164,110.63414,111.03424,110.84305,5.9264708,0.7,-111.20758,-30.487629,0.0009070242,-524.3259,14.629012,13.840309,13.12404,14.933406,6.2864275e-10,0.3,-61.376366,85.2678,85.31914,85.36186,85.333115,0.13236195,0.55625004,0.0750279426574707,21.662519331773122
66,660000,-0.33942764608320575,-85.82057,0.032734964,-0.5265541,0.72244155,-6.8469915,65.04656,31.810051,4.6123614,110.761795,110.86388,111.02891,110.93126,3.0718915,0.7,-111.24241,-39.07795,0.00020579551,-748.5544,8.072141,7.3101087,8.757671,8.730767,1.1120062e-05,0.3,-61.12342,84.90547,84.90942,84.87218,84.94185,0.07074839,0.4328125,0.10886740684509277,21.977833910783133
67,670000,-0.35567956279378987,-87.26807,0.03217656,0.2952023,0.9233526,-11.855975,58.087368,56.446808,3.3684664,110.97287,111.02207,110.85508,110.74576,1.562863,0.7,-111.86485,-42.044025,8.620345e-05,-748.65295,10.433158,10.993872,11.801685,11.377867,6.164366e-07,0.3,-61.00036,86.129395,86.13852,85.98358,85.969894,0.0907011,0.4921875,0.10656905174255371,22.28979962269465
68,680000,-0.299174678384647,-86.81998,0.032336578,0.05471249,1.0741093,-15.259416,61.06385,42.679535,2.0238316,110.75556,110.8693,110.20058,110.69911,33.057507,0.7,-111.60451,-31.908127,0.00071053416,-798.90533,10.142058,11.875948,13.372118,13.498445,7.04579e-07,0.3,-57.625908,85.7242,85.7413,85.51398,85.66498,0.27231857,0.4828125,0.08834958076477051,22.606240264574687
69,690000,-0.35186829671120373,-90.375824,0.031911515,-0.9025578,0.958923,-17.818155,51.83882,28.714619,4.195923,111.54528,112.00498,111.122086,110.92061,4.158823,0.7,-111.43105,-31.284578,5.0608858e-05,-356.8985,16.424284,16.66132,16.084332,18.231586,1.6137958e-06,0.3,-54.920883,89.44437,89.51337,89.11796,89.23096,0.098534785,0.515625,0.11221694946289062,22.922987894217172
70,700000,-0.34646017328365464,-90.427,0.031802163,-0.37860823,1.5794523,-7.7713184,74.58287,212.28966,3.8837461,110.63262,110.636955,111.065994,110.87479,1.7983084,0.7,-111.64907,-38.36147,0.00040370185,-1654.9896,7.9485435,5.38811,3.7520313,5.0075927,5.243998e-06,0.3,-55.58677,89.43805,89.4992,89.35946,89.495995,0.08198088,0.3828125,0.10897207260131836,23.238170059521995
71,710000,-0.35084192803842973,-86.71968,0.03139471,-0.45947242,0.6959561,-1.0306724,86.62429,34.196808,7.662548,110.4501,110.7309,110.60498,110.62599,4.505454,0.7,-110.8227,-39.897846,0.00039712398,-512.88715,1.6059785,-0.8411955,2.1031425,3.1825209,7.627707e-07,0.3,-57.17059,85.72297,85.7973,85.79448,85.80425,0.114353195,0.434375,0.10209488868713379,23.553644780317942
72,720000,-0.3140486481383444,-87.69858,0.031430278,0.10237034,0.6498046,-16.542612,67.35308,22.442417,4.0297356,111.07915,111.292,111.064865,111.06282,6.169973,0.7,-111.51692,-38.329056,0.00014333671,-512.0016,14.609307,12.372324,14.92606,12.082321,2.9703369e-08,0.3,-60.725986,86.60685,86.63314,86.63119,86.54501,0.11276403,0.5,0.11822772026062012,23.86833801269531
73,730000,-0.3171982996590305,-85.000305,0.031714663,0.3543135,0.8306482,-9.857854,77.72564,34.986603,6.2106967,110.44629,110.09946,110.59907,111.04002,32.43612,0.7,-111.14472,-39.32805,0.0006500317,-801.9584,8.499409,9.575844,7.1835556,7.8184276,5.2952674e-07,0.3,-61.80178,83.91806,83.97464,83.96028,83.90821,0.2764194,0.49374998,0.11579084396362305,24.181680007775626
74,740000,-0.34309604750609013,-85.92013,0.031490706,-0.2483589,0.72065806,-15.713786,65.79681,18.29413,5.5855637,111.066124,111.283585,110.993805,111.55987,1.5375558,0.7,-111.692986,-32.69341,0.0005877421,-353.29333,15.54996,14.974258,12.627398,12.250548,5.6735008e-08,0.3,-54.31023,85.02139,84.98547,85.02718,85.080086,0.072767496,0.4359375,0.11167240142822266,24.496278949578603
75,750000,-0.25592870448608046,-86.59021,0.03103663,0.48440787,2.7963686,-8.605568,49.70949,566.78284,1.2466316,110.82275,110.96005,110.97695,111.050644,3.9149957,0.7,-110.87257,-26.671854,0.00033156062,-625.67194,6.5559897,8.274473,5.950623,6.0426626,8.6838264e-07,0.3,-71.702545,85.51924,85.51022,85.69251,85.671165,0.09080394,0.403125,0.06951284408569336,24.809069470564523
76,760000,-0.33362939222375076,-87.4816,0.03071181,0.2609238,1.131098,-14.467823,42.231297,49.19804,3.529217,111.58562,111.36751,111.289604,110.90359,8.0262165,0.7,-112.08819,-44.702,0.00069698156,-489.18216,13.361162,14.185489,9.790633,10.599063,2.8501265e-06,0.3,-61.371716,86.56515,86.66116,86.62805,86.53174,0.18092549,0.515625,0.10801386833190918,25.121161274115245
77,770000,-0.3388937366498772,-87.814285,0.030882997,0.43483055,1.1191933,-10.186096,63.36564,72.45331,3.1443925,110.070496,110.02473,110.090164,110.756775,47.13067,0.7,-110.671295,-61.921413,0.0001017201,-632.5503,8.811949,9.216776,8.700099,8.931902,4.172325e-08,0.3,-70.47163,86.684006,86.64489,86.9252,86.93184,0.30677184,0.45624998,0.10991048812866211,25.434677251180013
78,780000,-0.33282516904862425,-90.817215,0.030901652,0.45750463,0.7438344,-23.502169,55.01274,11.644379,6.324918,110.0879,110.20757,110.48941,110.5135,2.991107,0.7,-110.688484,-27.1878,0.00043403456,-609.1807,23.151182,19.332115,22.716732,23.401724,3.228779e-08,0.3,-58.832863,89.92465,89.8808,90.118195,90.02585,0.10328327,0.421875,0.10216999053955078,25.745347742239634
79,790000,-0.33169422637896623,-87.036354,0.031526454,0.44743204,1.0280032,-3.4528937,59.813705,35.9541,2.3178709,111.475464,111.38892,110.78843,110.47592,2.0344357,0.7,-112.17104,-36.385864,0.00015485159,-830.20734,3.7620337,5.7459126,5.9425287,5.5490656,4.0233136e-08,0.3,-70.72859,86.04622,86.02516,85.70337,85.83594,0.09785448,0.4203125,0.11469697952270508,26.054691620667775
80,800000,-0.3343941245936988,-85.927895,0.031327687,-0.8648964,1.4112189,-21.136915,62.097885,57.666977,2.410521,110.67507,110.53396,110.59928,110.677505,5.4094744,0.7,-111.301605,-36.549175,0.00046583556,-667.5197,20.46575,20.27164,20.203747,20.102253,4.364745e-07,0.3,-74.16664,84.70008,84.65769,84.61879,84.62214,0.17090207,0.503125,0.11034345626831055,26.368094674746196
81,810000,-0.3262462615613845,-86.68405,0.030722566,-0.63613904,0.88494426,-15.389876,56.88628,49.459034,5.8042994,111.40509,111.57481,111.40193,111.28324,2.651317,0.7,-111.660446,-42.201805,0.00039092876,-408.4411,12.72452,14.628122,12.989986,12.843016,2.0655616e-05,0.3,-61.31473,85.825195,85.95779,85.87512,85.94075,0.08089145,0.4265625,0.11464929580688477,26.675410183270774
82,820000,-0.3158218188013641,-88.26376,0.03025153,0.030351996,0.68892694,-9.556503,63.573097,19.972984,3.7938097,111.014534,110.770874,110.956245,110.79664,33.640236,0.7,-110.82955,-32.25176,0.0023634965,-451.64398,8.414054,4.919426,5.7155533,8.1456375,1.3201498e-08,0.3,-62.23409,87.48971,87.3793,87.25503,87.26145,0.23917614,0.45625,0.11457324028015137,26.98688571850459
83,830000,-0.3363585791547815,-86.607414,0.031089207,-0.6087855,2.8416252,-15.683455,60.773308,476.97516,2.7759094,110.782684,110.5366,110.40216,110.2546,3.4675004,0.7,-110.78163,-28.490149,0.00031272892,-490.35388,12.861588,12.262859,14.793331,13.298727,4.776445e-06,0.3,-57.52471,85.640915,85.65538,85.74916,85.788925,0.0992659,0.4546875,0.10947966575622559,27.30133505264918
84,840000,-0.3138006924853744,-86.404144,0.031027546,-0.7865648,0.64507985,-21.339895,72.98072,11.940792,1.4639735,110.154816,110.268745,109.98351,110.06376,1.517095,0.7,-110.78505,-37.06825,0.00033401477,-560.3123,20.788733,20.29324,19.789228,20.138432,3.194302e-07,0.3,-68.853714,85.49371,85.49434,85.44199,85.50578,0.06564714,0.51874995,0.10814285278320312,27.61560879945755
85,850000,-0.3441067575013186,-86.81819,0.030176671,0.906206,0.7601326,-2.8195632,66.691765,34.43416,2.4667406,110.47036,110.53022,110.40483,110.2014,48.235683,0.7,-110.32569,-40.111588,0.0013632351,-406.2519,2.946431,3.4368806,3.62434,3.973771,6.041257e-07,0.3,-60.8993,85.7383,85.699196,85.64876,85.67511,0.26280817,0.46875,0.11070132255554199,27.925379236539204
86,860000,-0.3249332682147452,-87.65644,0.030075353,0.78289104,1.0238179,-4.8256793,59.365032,37.231674,6.9932957,110.76298,110.49974,110.65618,111.02263,15.508043,0.7,-111.31522,-26.93831,9.962141e-05,-766.48865,4.579672,6.3192716,8.256283,6.7464423,2.0186418e-08,0.3,-65.77684,86.62133,86.59975,86.60234,86.55568,0.17922314,0.4375,0.10820960998535156,28.234867548942567
87,870000,-0.34341974623946353,-88.33067,0.030109383,-0.9447877,0.5008123,-13.526035,53.91254,8.703401,4.899222,110.74704,110.807556,110.48219,110.96383,37.74871,0.7,-110.65699,-30.963648,0.00018914056,-353.65625,13.1596155,13.416862,13.2473955,12.992931,1.2730016e-08,0.3,-51.87414,87.642136,87.66176,87.8912,88.04068,0.22831199,0.365625,0.11452341079711914,28.547565762201945
88,880000,-0.32290710935477257,-85.575134,0.03004447,0.30697054,1.5645089,-4.7165537,69.93078,231.37604,2.8693483,110.48965,110.41016,110.660614,110.84461,8.722156,0.7,-111.06354,-35.700047,0.000782854,-549.25323,5.875293,6.77353,5.301574,3.9119883,4.43717e-08,0.3,-59.760597,84.77281,84.71445,84.755875,84.85795,0.15635629,0.3640625,0.11272883415222168,28.86145899295807
89,890000,-0.34202423878507027,-88.3757,0.029625352,0.3176911,1.1531751,-15.346247,61.92206,18.113266,3.664127,111.795784,111.70087,111.087975,111.41781,5.8837705,0.7,-111.78382,-35.706474,0.0016733429,-349.6456,14.950738,15.951769,16.051556,16.985706,1.174165e-07,0.3,-57.644142,87.477425,87.60902,87.18396,87.30394,0.13075496,0.5015625,0.1099700927734375,29.172367179393767
90,900000,-0.3357899311732566,-87.890015,0.029952258,-1.5229149,0.5390596,-8.301036,49.89542,12.576559,3.6423664,110.59572,110.591835,111.06909,110.675446,1.6926181,0.7,-111.79268,-35.75818,0.00048240327,-520.65607,7.7723913,6.4189095,7.750593,6.7274723,1.6093254e-07,0.3,-59.625347,87.06699,87.01207,87.28244,87.03851,0.06351273,0.5,0.10866355895996094,29.487616141637165
91,910000,-0.3298395369348838,-87.119446,0.029592535,-1.1889904,0.6906141,-17.947124,40.259754,28.82869,9.629702,110.47588,110.47291,110.47626,110.405525,3.5003366,0.7,-110.58692,-38.42034,1.1357595e-05,-842.461,15.808528,14.981564,16.12112,14.787467,2.4314505e-07,0.3,-70.03279,86.13312,86.21718,86.20595,86.21403,0.10009526,0.4265625,0.10784554481506348,29.800719940662383
92,920000,-0.3139260007897025,-85.30244,0.028409021,0.013061881,0.64329654,-9.640113,49.71496,26.750805,8.460009,110.524445,110.60761,110.32147,110.3583,7.033883,0.7,-110.874435,-32.70441,0.0003632431,-919.0059,7.402944,8.572112,6.4089355,5.9245396,1.123182e-05,0.3,-65.602356,84.31529,84.32884,84.22806,84.22794,0.1361336,0.5234375,0.11349201202392578,30.112005106608073
93,930000,-0.31052823715569167,-89.06645,0.027632365,0.032378376,1.3110099,-8.15095,67.17648,128.25139,9.243976,110.87002,111.11273,111.04777,111.122154,5.155973,0.7,-111.779564,-36.04814,0.0023326282,-693.60925,7.7375154,7.7326226,8.784963,8.704967,2.0262262e-06,0.3,-73.14427,87.92848,87.946495,87.66145,87.83451,0.08866318,0.453125,0.10809612274169922,30.431528572241465
94,940000,-0.3115944365483796,-86.44894,0.029500162,0.52626973,0.8124747,-0.4861699,60.14378,25.565317,3.3911328,111.808525,111.69596,111.65733,111.96713,2.409806,0.7,-112.1298,-32.802826,5.9798826e-05,-604.3732,2.243643,3.9833941,4.4943523,4.43626,1.0481745e-06,0.3,-64.98033,85.462296,85.462585,85.31263,85.44724,0.07908797,0.3890625,0.10691595077514648,30.743024138609567
95,950000,-0.3167193231336543,-86.96689,0.027365502,1.5100867,0.8726326,-5.8810887,101.74881,62.967514,0.4494028,111.60832,111.55883,111.41509,111.30658,13.848758,0.7,-111.54363,-31.248522,0.0018434671,-466.59567,3.1135168,3.1140451,5.1807075,4.60228,2.4258159e-06,0.3,-65.10462,86.029686,85.961266,86.04239,85.97969,0.13183072,0.43749997,0.10826706886291504,31.058146524429322
96,955000,-0.3147401680202847,-88.3996,0.028809123,1.3109336,1.457381,-21.576777,70.83529,157.55887,3.362024,111.886154,112.2246,111.404854,111.30944,3.105314,0.7,-111.986534,-33.913326,0.0031447096,-433.4538,20.859285,20.861366,20.032242,20.235733,2.2883296e-06,0.3,-68.57539,87.58884,87.59652,87.23801,87.41705,0.09842922,0.4984375,0.11021256446838379,31.213160161177317
97,960000,-0.31109642587904046,-89.01692,0.029557152,-0.5208388,0.7664128,-6.575139,66.11898,44.157715,5.178961,111.80364,111.71275,111.74407,111.867805,2.8158593,0.7,-111.858635,-44.674652,0.0014952217,-725.4453,5.2911663,4.7994723,5.9108114,5.678262,6.974861e-06,0.3,-59.181072,88.103836,88.1478,88.08264,88.21228,0.07488445,0.37656248,0.10651493072509766,31.369561350345613
98,965000,-0.3112954040936262,-86.804756,0.026562031,-0.05307959,2.7304082,1.8242567,78.69061,337.15714,3.8606956,110.72471,110.83822,111.13474,110.995995,15.946069,0.7,-110.76337,-27.169851,0.0007754388,-814.2132,-1.9074115,-2.3362503,0.8708315,-0.6016788,1.5493424e-06,0.3,-66.56267,85.68201,85.78778,85.76201,85.84299,0.25785396,0.47968748,0.11350011825561523,31.525983770688374
99,970000,-0.3125599549111517,-86.12236,0.028773636,0.6646333,1.1310805,-2.9585783,47.973568,58.63203,4.559647,110.76739,110.75338,110.49431,110.52798,4.6599274,0.7,-110.93541,-28.364733,0.0004082863,-935.4645,4.033306,2.342853,4.141163,3.4697814,3.7550925e-07,0.3,-63.418068,85.1413,85.195984,85.22435,85.18615,0.14454016,0.50468755,0.10535955429077148,31.685258332888285
100,975000,-0.31657858989207105,-89.27933,0.027780063,-0.41323745,0.6753655,-1.8424145,68.076515,28.311546,5.4867053,110.93333,110.764336,110.640366,110.71418,7.2035775,0.7,-111.23159,-38.12577,0.0012419538,-1147.2426,1.4710906,2.5055864,1.5800407,2.273695,1.0086224e-07,0.3,-64.07904,88.49921,88.51209,88.324875,88.312225,0.11326661,0.49843746,0.10995793342590332,31.843204979101817
101,980000,-0.3148999062637834,-85.88359,0.02813347,0.34615058,0.63580036,-7.4293175,63.907856,17.9328,5.7910585,111.103386,111.22776,110.97469,110.98667,2.6612418,0.7,-110.86134,-29.328812,5.675573e-05,-448.23868,8.873827,7.816382,8.830495,9.243245,2.2694048e-06,0.3,-68.23953,85.043304,84.9908,84.82852,84.883316,0.08989659,0.46875,0.11119985580444336,32.001160792509715
102,985000,-0.3156007782449053,-87.19731,0.028256897,-0.3678336,1.5123125,-17.62353,50.433544,97.62152,3.4107673,111.101845,111.59761,110.49591,110.99943,3.8632102,0.7,-112.42011,-46.85257,0.0032678926,-560.1555,13.316831,12.229399,13.275169,11.979106,1.2777745e-07,0.3,-66.47532,86.18615,86.16344,85.84458,85.99448,0.097068265,0.478125,0.10797905921936035,32.16227330764135
103,990000,-0.31343604549934156,-85.82751,0.029607773,0.63629436,1.0780243,-10.262861,51.064953,59.35476,1.9538898,110.85957,111.236244,111.48607,110.83921,3.949293,0.7,-111.54342,-31.29347,0.00012096681,-390.44388,9.502048,10.080101,9.871621,10.244806,1.7881394e-08,0.3,-59.448048,85.072266,85.07715,85.22098,85.167465,0.073067814,0.465625,0.1121513843536377,32.32096522649129
104,995000,-0.31127257300059424,-87.23513,0.0284459,2.3845067,0.5409835,-10.740253,60.904034,15.197988,3.6512597,109.767265,109.98848,109.85588,110.18698,9.057561,0.7,-110.24774,-32.9914,0.00014434481,-924.8955,11.517418,11.196397,12.657458,12.791579,1.6298145e-08,0.3,-74.013695,86.27443,86.322014,86.37992,86.38692,0.09642505,0.44062498,0.11198186874389648,32.48718241850535
105,1000000,-0.31249435507122286,-87.30493,0.026992219,0.08695795,1.1766474,-18.873745,65.66274,93.35958,3.659082,110.90344,110.72776,111.24249,111.235985,43.939693,0.7,-111.34702,-37.510323,0.0010045473,-704.0446,17.488337,18.272577,17.9723,17.42965,2.0186417e-06,0.3,-64.99115,86.51082,86.58999,86.72412,86.72618,0.36726588,0.39374998,0.10777139663696289,32.644767955938974
