Xixo99/comfo/relaxed_iql/20230321_5seed_mle0/walker2d-medium-expert-v2/riql_s4_20230321_030221_walker2d-medium-expert-v2_-0.37.csv
,step,reward,actor_loss,alpha,alpha_loss,critic_loss,max_actor_loss,max_alpha_loss,max_critic_loss,max_mle_prob,max_q1,max_q2,max_target_q,max_v,max_value_loss,max_weight,min_actor_loss,min_alpha_loss,min_critic_loss,min_mle_prob,min_q1,min_q2,min_target_q,min_v,min_value_loss,min_weight,mle_prob,q1,q2,target_q,v,value_loss,weight,eval_time,time
0,0,2.4377795818533654,,,,,,,,,,,,,,,,,,,,,,,,,,,,,,,,,
1,10000,-0.19814053533982282,-33.351635,0.057636976,-15.27465,0.29750144,-6.0368743,6.170271,4.38439,2.3791294,43.92161,44.12023,44.202515,43.348255,0.92889357,0.7,-44.7865,-33.19543,2.7454898e-05,-64.25299,5.466543,5.5691223,5.584483,5.266468,2.3194407e-07,0.3,-13.546023,32.839413,32.82934,32.677284,32.210205,0.026320778,0.496875,0.4824960231781006,1.3386188785235087
2,20000,-0.09523465066606773,-53.61433,0.026908917,2.9076703,0.89193726,-14.504925,68.34315,47.02117,3.867262,70.667984,70.669304,70.14743,69.85452,2.0328982,0.7,-71.57846,-32.80219,0.00048474432,-208.23611,2.426069,3.191989,-2.0245957,0.16456787,4.541944e-08,0.3,-34.912865,52.486053,52.49431,52.431896,52.15474,0.05269421,0.46249998,0.11271834373474121,1.6728766957918804
3,30000,1.2122527250693529,-69.16927,0.032459922,-0.33640268,2.2820687,11.874606,105.89537,389.19904,3.2192621,86.60064,86.6893,86.30259,86.19685,4.511661,0.7,-87.17696,-37.840145,5.069474e-05,-417.513,-25.514395,-27.430191,-40.38926,-27.196558,2.6077032e-09,0.3,-35.05228,68.14615,68.12987,68.210915,68.11499,0.0718022,0.41718748,0.5508880615234375,2.0193036516507465
4,40000,0.7200898870905857,-75.99444,0.03733592,0.41144416,0.88533163,-17.79962,58.14878,33.660038,3.710042,96.56302,96.56778,96.608185,96.41147,4.8342376,0.7,-96.3517,-32.509823,0.00067294977,-194.56473,14.226069,14.717399,14.730717,14.67261,1.0058284e-08,0.3,-33.28085,74.6497,74.73631,74.64833,74.62971,0.13241121,0.52031255,0.5205221176147461,2.358361554145813
5,50000,-0.23707755499127345,-83.0604,0.039195787,-0.90175074,1.3441006,-23.720648,45.05467,152.84601,4.708143,102.5027,102.74742,102.95231,102.71352,9.7967825,0.7,-103.515945,-36.03853,0.0027543786,-263.68365,14.78065,15.440604,16.894157,15.959315,2.9967052e-07,0.3,-36.8524,81.77173,81.820755,81.716156,81.709595,0.10473161,0.43124998,0.11387443542480469,2.682069102923075
6,60000,-0.08068414113435235,-84.261765,0.040861823,-0.41632512,2.42622,-21.031683,32.29003,208.82635,6.8639975,107.079445,107.30294,107.439735,107.340034,10.370006,0.7,-107.59496,-34.784573,0.00040130602,-332.9942,16.302917,16.701818,16.863338,17.152153,3.7005306e-05,0.3,-37.491325,82.88606,82.871284,83.11914,83.17558,0.20322615,0.434375,0.11270260810852051,3.014005208015442
7,70000,-0.3312156969707936,-85.84804,0.041612957,-0.7878887,1.1247178,-12.078485,65.14905,38.82705,2.4057,108.034424,107.99872,108.25678,108.10121,2.5913014,0.7,-108.27466,-36.020042,0.0006148057,-184.78877,9.407314,9.406949,9.227147,10.240001,4.8700605e-07,0.3,-36.454624,84.462814,84.54605,84.759384,84.75582,0.10607706,0.4421875,0.10186219215393066,3.3408796548843385
8,80000,-0.22635360119026543,-87.30501,0.040478356,1.0579182,2.251367,-5.7069325,57.518707,172.92776,5.9972696,110.51953,110.33601,110.09552,110.67006,6.344385,0.7,-110.97086,-35.785526,0.0025439356,-295.48395,2.9711938,6.49116,0.70369226,7.7033153,1.8672262e-06,0.3,-40.846733,85.99391,86.02078,86.31671,86.35658,0.16635968,0.43124998,0.13133502006530762,3.6660465677579244
9,90000,-0.32688353951685006,-89.23282,0.041122828,-0.018595994,0.6478435,-17.008648,62.384018,29.410412,4.8643475,110.79924,110.5976,110.57693,110.60044,0.8706293,0.7,-111.29546,-29.106375,0.0018920025,-214.92209,11.471252,11.539642,15.340032,10.215159,3.727223e-06,0.3,-41.10576,88.0721,88.00758,88.048584,88.13098,0.062629,0.425,0.1051480770111084,3.9938308795293174
10,100000,-0.32220225721208373,-88.61657,0.04120188,-0.75194824,0.7110675,-1.0969353,55.21035,21.895607,5.6966305,110.97569,111.290955,111.7514,111.21996,4.4628124,0.7,-111.41048,-27.005846,0.0020128572,-221.199,2.4930296,4.36103,0.2528453,-1.0364969,2.9438525e-07,0.3,-39.38681,87.44872,87.50215,87.62104,87.58232,0.10412429,0.4484375,0.10237979888916016,4.320814422766367
11,110000,-0.3528862399219418,-89.53714,0.039884724,0.40337783,0.63992,-9.907113,102.97497,21.297667,9.198441,110.94108,111.465706,111.74922,111.1724,6.131579,0.7,-111.08368,-31.559782,0.0020974,-420.44464,10.252447,7.467584,9.384376,8.70629,1.3886719e-06,0.3,-40.857178,88.39162,88.39691,88.47087,88.61911,0.10460153,0.4109375,0.10834908485412598,4.647719975312551
12,120000,-0.36656999994568956,-87.52844,0.044484492,-0.17937744,1.2677703,-7.4370985,56.36586,55.89528,9.032833,111.20546,111.19833,111.77082,111.447495,17.962654,0.7,-111.32445,-30.585876,0.0013370281,-187.6134,5.558317,7.2850924,5.9925337,4.1701446,3.1393022e-06,0.3,-39.976845,86.204994,86.25879,86.06825,86.05,0.17597504,0.4671875,0.11406397819519043,4.975443168481191
13,130000,-0.345072579765082,-86.572784,0.04554571,0.11245549,0.70239383,-17.649603,91.61965,21.997456,4.9488335,110.84661,111.25279,110.81414,110.78742,10.526383,0.7,-111.55876,-34.355637,0.0012585432,-219.5798,16.282488,15.831982,16.019293,15.45559,2.6077032e-09,0.3,-40.816063,85.223175,85.25044,85.37912,85.22067,0.16240856,0.5171875,0.11996269226074219,5.311056574185689
14,140000,-0.2694939015853618,-89.43355,0.044943925,1.0784204,1.110627,-1.346981,116.89627,109.536804,7.2853456,111.48991,111.471985,111.318146,111.74517,16.667282,0.7,-112.25616,-40.18958,0.0008289321,-205.56506,2.0449479,2.197053,2.6489086,3.1630957,8.840289e-07,0.3,-37.58645,88.23123,88.25928,88.29995,88.39663,0.17311826,0.45625,0.074371337890625,5.6366971413294475
15,150000,-0.3605741266591349,-87.020325,0.043888524,-0.21630922,1.5220294,-1.2781341,42.822334,50.16097,7.1712646,111.151985,110.99908,111.28315,111.22183,19.703945,0.7,-112.189644,-33.350224,0.0004967494,-251.10544,3.2500377,2.9096673,7.6241407,6.7150126,1.7968704e-08,0.3,-44.62881,85.86278,85.76453,86.1938,86.1067,0.19495277,0.47656247,0.1097097396850586,5.964481763044993
16,160000,-0.3557177254241929,-86.79765,0.0451551,0.56662196,4.581177,-17.656414,67.46257,815.82043,1.8831997,111.30401,111.3633,111.276886,111.15524,5.432972,0.7,-111.81483,-32.07413,8.4074214e-05,-188.47246,15.957576,16.534033,14.737756,16.081305,1.0268468e-06,0.3,-42.664795,85.41966,85.33262,85.30795,85.26477,0.13878205,0.47812498,0.10102176666259766,6.2937714695930485
17,170000,-0.29431887174527105,-89.87065,0.044485968,0.82066154,1.46748,-10.035826,65.94762,75.977295,5.6771774,111.25086,111.186676,112.708565,111.87263,5.9219246,0.7,-112.05271,-36.201736,0.0018089237,-292.59637,9.088095,8.804634,9.640347,8.644346,3.22744e-07,0.3,-43.995567,88.63489,88.61462,88.99702,89.049805,0.17742702,0.3421875,0.08935761451721191,6.62485462029775
18,180000,-0.26672269944630206,-87.36991,0.044693977,1.1408358,1.1798098,-10.426481,61.07097,104.96141,8.643726,111.76472,111.899025,111.814606,112.48293,3.2786558,0.7,-112.51184,-36.36922,0.000568275,-234.92235,8.842723,12.57701,10.72518,12.238926,4.9051597e-08,0.3,-40.41672,86.149796,86.25472,86.11638,86.12673,0.12885323,0.5125,0.08068156242370605,6.954987347126007
19,190000,-0.2606259309596728,-88.88652,0.043581296,-0.12691867,1.08996,-1.4614544,61.652237,79.74881,5.8668323,112.02237,112.236916,111.97918,112.53605,11.964331,0.7,-113.20444,-36.830883,0.00042332953,-312.4347,4.249339,3.0294893,3.9431458,2.8811715,3.677269e-07,0.3,-42.66526,87.70851,87.74901,87.72524,87.65329,0.18379143,0.45937496,0.06934928894042969,7.279702977339427
20,200000,-0.26617225139224326,-88.76316,0.04412456,-0.40001824,1.260046,-14.758622,52.31754,53.884422,8.161545,111.29817,111.30982,111.22371,111.29791,1.7510298,0.7,-111.40985,-32.41238,0.0024737571,-225.09341,11.581808,10.270301,12.099175,12.103389,2.3469328e-08,0.3,-38.144775,87.70351,87.81778,88.07966,87.94153,0.088749796,0.47031248,0.06646847724914551,7.60054277976354
21,210000,-0.2579334933620925,-91.11001,0.04373446,-1.0671966,1.4356798,-0.23798308,43.99287,100.2106,10.704228,111.685905,112.00724,112.12979,112.380486,2.1777914,0.7,-112.296524,-28.809416,0.00091598183,-188.83014,-0.36142027,-1.8295717,0.84418654,1.8818514,2.5060028e-06,0.3,-37.26444,89.97556,90.01482,90.02736,89.97786,0.10176659,0.4140625,0.06813836097717285,7.916742583115895
22,220000,-0.2588087665948076,-89.94789,0.04211456,1.5702089,1.2762232,-18.568148,50.201313,92.67882,5.3683558,111.144325,111.20519,111.62873,111.31952,4.7185736,0.7,-111.632614,-27.187397,7.75606e-05,-670.5236,15.081151,15.167741,12.178173,13.688593,1.7290702e-06,0.3,-46.57193,88.57272,88.6342,88.77168,88.79965,0.1231582,0.45312497,0.07093596458435059,8.239847691853841
23,230000,-0.2582958922241195,-89.687454,0.042036716,0.21888036,2.026166,-19.24929,63.414726,273.89923,5.556857,111.7063,111.52324,110.885155,110.94084,1.9043537,0.7,-111.79612,-30.147003,0.00041211589,-349.21387,19.178486,19.187977,18.781462,18.809374,1.2777745e-07,0.3,-45.33511,88.62784,88.57782,88.612625,88.66204,0.09410769,0.421875,0.06676578521728516,8.560962323347727
24,240000,-0.25273348598150147,-90.23932,0.04105673,-0.23594174,0.88724506,-19.336687,48.909355,22.505096,5.3944383,111.19938,111.20498,111.5081,111.085365,5.7465754,0.7,-111.46518,-26.805382,8.3437015e-05,-167.29706,16.319326,17.053942,17.006475,14.580119,2.4457404e-06,0.3,-42.56122,89.02027,89.12319,89.37583,89.16626,0.13740352,0.509375,0.06843996047973633,8.859975576400757
25,250000,-0.2526785975950021,-86.51184,0.04043037,-0.648457,1.0059952,-11.829127,43.51244,45.624336,1.9167633,111.402466,111.49373,111.720604,111.77481,1.4176239,0.7,-111.93503,-28.016603,0.0006212434,-472.06268,7.308978,7.3727717,7.8589597,7.9038134,1.8218242e-06,0.3,-49.159714,85.462685,85.39682,85.69537,85.77322,0.07158316,0.42499998,0.06855511665344238,9.175386035442353
26,260000,-0.2463534289497909,-89.75432,0.040313058,0.9192499,2.0950146,-14.501441,71.99762,165.33368,9.492686,111.85787,111.792946,111.48795,110.76536,18.66532,0.7,-112.46652,-34.23819,0.00044090638,-260.31216,14.197151,13.129284,13.524174,12.834096,1.7114799e-07,0.3,-49.375504,88.59143,88.46225,88.55153,88.187485,0.34590095,0.54999995,0.06714415550231934,9.494385306040446
27,270000,-0.25104779020576257,-88.80357,0.037912115,-0.83825105,0.615666,-17.218212,40.67348,16.06203,3.0257897,111.426704,111.27208,111.281136,111.36242,3.6649613,0.7,-111.25225,-40.987698,0.0026948121,-347.26624,16.561129,16.98151,17.286034,16.809359,8.451753e-09,0.3,-45.78627,87.677444,87.77209,87.75776,87.85939,0.09534133,0.4109375,0.06993365287780762,9.812713142236074
28,280000,-0.2455959574863796,-90.30092,0.038440887,0.28985855,0.9479258,-18.783026,91.59736,49.264275,3.7601357,111.31305,111.03081,111.04397,110.889565,13.285752,0.7,-111.42618,-32.568142,0.0035155604,-327.65762,18.55477,18.382072,18.863796,18.605803,2.0664186e-06,0.3,-48.36364,89.32949,89.221146,89.41272,89.38498,0.16235125,0.403125,0.06997108459472656,10.127553264300028
29,290000,-0.2529054796938254,-86.43579,0.0383187,0.7592953,1.2193319,-12.786343,51.688015,70.03959,2.2740908,111.43663,111.53041,111.19412,111.11412,24.845575,0.7,-112.25985,-41.9176,0.0005638009,-358.10825,10.408546,10.9422245,12.252832,12.882159,1.8290594e-07,0.3,-52.901394,85.133194,85.15979,85.06741,85.22521,0.28789943,0.4796875,0.07788825035095215,10.414551603794099
30,300000,-0.3041494288264298,-88.239716,0.038075864,1.5872064,1.3551491,-2.7052703,45.2689,70.306274,3.510581,111.810394,111.82272,111.14802,111.42274,22.258884,0.7,-112.065155,-24.869513,0.00021178913,-216.66673,1.9178853,3.862667,6.819364,7.167352,5.2823456e-08,0.3,-51.9131,87.08832,87.165695,87.28186,87.43118,0.32598782,0.37031248,0.0864250659942627,10.729848663012186
31,310000,-0.3074841845219696,-89.91649,0.03832023,0.24749659,0.6741315,-14.131333,34.46906,36.861984,1.9524589,112.144775,112.17092,112.32953,112.358116,5.931291,0.7,-112.20929,-32.441498,0.0007980194,-752.39325,13.7098875,14.486664,13.216178,13.524056,2.6153111e-06,0.3,-56.01872,88.93348,88.87568,88.76526,88.678444,0.14523593,0.51406246,0.09375977516174316,11.048252594470977
32,320000,-0.26228772881022966,-89.800766,0.036704086,0.009647682,1.126762,-3.6332204,32.62155,66.29224,4.85966,112.19247,111.87553,112.236084,112.38475,8.056203,0.7,-112.222755,-32.220062,0.00018881337,-265.00867,2.994984,2.7327948,1.0114703,2.8095684,6.6174134e-06,0.3,-47.665005,88.80896,88.74996,88.80252,88.87587,0.15688807,0.3953125,0.08011865615844727,11.365004841486613
33,330000,-0.2668786362018289,-88.814316,0.03636222,-0.4022822,1.1519209,-16.124594,63.23271,31.994606,3.6744657,111.25964,111.341156,111.04477,111.41147,4.589285,0.7,-112.29379,-31.10189,0.00034907483,-303.91226,8.7782,9.929505,11.287195,10.301414,3.6714485e-07,0.3,-58.318142,87.55306,87.585754,87.45334,87.6084,0.14115328,0.3796875,0.07445693016052246,11.682065558433532
34,340000,-0.25318309838090736,-89.41843,0.036367226,0.47500587,1.1585214,-5.962961,54.516056,54.393326,4.5015774,110.41198,110.404816,110.80219,110.7564,6.8178344,0.7,-112.00183,-34.318474,0.0012722891,-375.43707,-1.7331762,-2.0508018,-4.3733435,-6.250124,1.233241e-06,0.3,-52.215485,88.25987,88.21747,88.36938,88.48723,0.123164594,0.4265625,0.06974434852600098,11.99962204694748
35,350000,-0.26630154189073607,-87.63072,0.035527173,-0.64388293,0.9486088,-18.551598,80.655594,32.210594,3.1278915,112.075966,111.33785,112.155106,112.55402,5.964738,0.7,-111.73167,-31.0438,0.0004123958,-305.78452,15.811318,16.193293,14.40027,12.574196,1.5103143e-07,0.3,-53.661564,86.629654,86.607544,86.61612,86.690636,0.1369471,0.46406248,0.07828259468078613,12.314490187168122
36,360000,-0.30709375882975565,-89.71705,0.034465272,-0.020128906,1.04878,-16.08107,70.85817,35.814407,2.6832228,111.82826,111.84642,111.24851,111.647766,11.69103,0.7,-111.894394,-31.918913,0.00070760405,-422.3597,11.133095,11.241085,10.086219,10.403381,5.57804e-08,0.3,-58.74177,88.46423,88.47334,88.47029,88.62822,0.15498313,0.46249998,0.08744239807128906,12.633247419198353
37,370000,-0.323923898085364,-89.28298,0.036071677,-0.21181342,1.0387195,-10.149185,46.088417,34.047863,7.0312543,110.41948,110.86629,111.19393,110.84891,48.49168,0.7,-111.17575,-32.177666,0.0024362276,-287.02985,10.40239,8.555897,11.379251,10.436932,2.08111e-06,0.3,-51.168686,88.20475,88.13403,88.38449,88.402275,0.26591,0.41875,0.10692620277404785,12.952530614535014
38,380000,-0.272276518146137,-87.64808,0.035315245,-0.07648659,1.2059548,-5.3958783,85.90617,54.188522,5.1145716,111.60708,111.401505,111.50837,111.56739,19.789368,0.7,-111.55612,-33.03795,0.00032627978,-467.37695,3.7246044,2.2089455,4.4585724,3.544134,5.673384e-07,0.3,-59.238876,86.62294,86.63956,86.46066,86.58391,0.1914127,0.4484375,0.08256697654724121,13.268545496463776
39,390000,-0.3335631535689563,-90.65281,0.036175117,-0.6266339,0.5636306,-20.95634,69.90663,19.480453,8.655147,111.37077,111.47503,110.99404,111.81932,1.7453877,0.7,-112.11789,-36.398884,0.00037255703,-371.367,19.560152,19.296295,19.552195,19.605415,2.9046962e-06,0.3,-48.22587,89.5219,89.54956,89.48082,89.47743,0.10131822,0.4578125,0.0871429443359375,13.580303053061167
40,400000,-0.3600647115372542,-86.782,0.0341006,-0.059666708,0.46645212,-19.400099,52.4059,12.319261,4.056808,110.82607,111.07731,111.04139,111.31048,26.387,0.7,-112.33611,-27.954638,0.0005909368,-399.9973,16.472927,14.29804,13.892162,15.071846,3.60026e-07,0.3,-63.082695,85.64177,85.63448,85.644485,85.70348,0.17795387,0.39999998,0.1039738655090332,13.896716491381328
41,410000,-0.3718225107443449,-89.22235,0.03410913,-0.56873107,0.43322355,-7.613703,50.497704,13.637954,8.256252,110.989815,111.350815,111.25363,111.18905,1.3324999,0.7,-112.167984,-41.049046,3.6237354e-05,-313.69922,7.641887,6.7451873,7.6533394,7.361808,8.5565266e-10,0.3,-55.726547,88.27445,88.28554,88.36867,88.37219,0.05561821,0.434375,0.1031944751739502,14.214397696654002
42,420000,-0.28103768989509476,-91.33543,0.032368813,-1.4781537,0.9830033,-20.763752,55.1317,47.951576,5.6088357,111.55903,111.61808,110.66128,110.801865,3.8497763,0.7,-111.47028,-27.056564,5.5671495e-05,-348.75793,18.986933,18.91949,18.860718,18.89254,7.01737e-06,0.3,-58.017597,90.28817,90.29785,90.18014,90.227356,0.115095064,0.47031248,0.07523441314697266,14.52911528746287
43,430000,-0.33197667726962016,-85.222015,0.03420847,1.8500831,1.9512904,0.9344337,68.89802,116.542145,4.512495,111.60509,111.23327,112.45391,112.46879,23.765942,0.7,-112.023186,-29.244652,0.0006814406,-673.89417,-1.5163238,-1.1806921,-1.2325532,-0.17255127,3.8402095e-06,0.3,-67.36531,83.9411,83.8464,84.029724,84.05142,0.24178547,0.40625,0.10043025016784668,14.84243202606837
44,440000,-0.2870235194198058,-88.72781,0.034659654,-0.2647907,0.90128154,-20.255781,45.246616,62.060375,3.1437464,112.42216,112.93625,112.24159,112.38208,8.624042,0.7,-112.24961,-40.6585,0.00031761848,-425.11993,17.684315,17.659384,18.264189,18.285069,7.1874815e-08,0.3,-62.936626,87.68463,87.8418,87.641655,87.68881,0.10410324,0.44062498,0.08094310760498047,15.162446582317353
45,450000,-0.28857375685474806,-88.48871,0.034246143,-0.056843936,1.2859769,5.695089,60.49467,65.90433,4.9985085,111.09131,111.49512,111.55826,111.316414,11.318037,0.7,-112.23635,-32.905952,0.0017175185,-385.69656,-5.476812,-4.6437087,0.5983605,-6.956305,2.377684e-06,0.3,-60.633884,87.34903,87.28706,87.36235,87.16694,0.15597096,0.4921875,0.07759356498718262,15.47641326189041
46,460000,-0.3211045002174451,-86.341484,0.03432101,0.6951556,2.552908,-4.613672,62.86346,287.9641,6.6987605,111.840294,111.99807,111.1329,110.76093,11.3825245,0.7,-111.77989,-34.313946,0.00076494744,-808.7138,3.9693422,3.7531009,7.962497,7.975231,5.867332e-07,0.3,-59.731476,85.05789,85.08419,85.27675,85.28085,0.23364162,0.40937498,0.09053349494934082,15.792966441313427
47,470000,-0.28488995646770016,-86.46052,0.033006225,-0.2387951,1.1933019,-0.5643293,43.176846,39.959805,4.3584433,110.5841,110.545456,110.826584,111.11996,4.9432254,0.7,-111.55971,-36.873936,9.33705e-05,-898.76605,0.9043844,0.38703597,3.4318402,3.11283,1.6350998e-06,0.3,-65.11498,85.447525,85.51293,85.45803,85.488976,0.106314585,0.4296875,0.07452154159545898,16.11005516052246
48,480000,-0.3586726158885331,-87.54883,0.032511614,0.7149559,1.6707656,-19.0574,75.848816,106.15907,6.2559524,111.24657,111.6249,110.373375,111.573105,4.6534433,0.7,-112.78303,-30.779078,0.0024236895,-361.4787,16.855734,16.535923,17.103863,17.206993,5.657785e-09,0.3,-53.393585,86.37758,86.46141,85.93115,86.109924,0.12073882,0.5015625,0.1030120849609375,16.426631947358448
49,490000,-0.3015124697944705,-88.34647,0.031736657,0.897849,1.4603083,-20.244366,64.2246,50.085808,3.06884,111.03451,110.87662,111.09102,111.00422,10.622986,0.7,-112.15076,-28.416042,0.00014946761,-678.3359,18.29182,18.658268,19.44562,19.084143,3.2061217e-07,0.3,-70.78474,87.292175,87.306595,87.16121,87.13338,0.17700842,0.49062502,0.08917903900146484,16.745630915959676
50,500000,-0.3649427459594412,-88.736435,0.033006042,-1.0218692,1.054075,-9.682714,71.74569,36.689163,4.6899195,111.59983,111.70984,111.9214,112.26613,7.1511493,0.7,-111.73629,-29.73895,0.0004086357,-524.41943,7.2456894,9.281683,7.5013165,7.0897636,1.3014477e-06,0.3,-63.65129,87.7748,87.82007,87.91889,88.0031,0.12837853,0.3734375,0.09969186782836914,17.065676065286002
51,510000,-0.36966558873170885,-87.77583,0.03148473,-0.6869812,1.0104779,-19.457874,45.009552,50.841927,4.8674784,110.6885,110.55495,110.93602,110.95674,4.487374,0.7,-110.49865,-39.547794,0.00032968613,-534.2866,18.17318,17.850487,18.787392,19.47699,1.301878e-06,0.3,-67.47809,86.794205,86.77707,87.053635,87.06053,0.08795142,0.41718748,0.10524606704711914,17.380020209153493
52,520000,-0.3703372432539559,-86.5629,0.031418957,-0.131827,0.71427,-10.109846,68.98986,24.42708,2.2242475,111.79214,112.31838,112.15422,111.38451,4.7967324,0.7,-113.186935,-32.649788,0.00086465944,-539.69617,9.400563,8.95901,6.631786,8.124109,3.3738908e-07,0.3,-65.44211,85.484245,85.570496,85.31178,85.38321,0.09795691,0.484375,0.1089024543762207,17.692291005452475
53,530000,-0.37458314600270765,-87.21797,0.03199446,-0.07821369,0.84890574,-14.443076,56.949074,47.124535,4.8411813,112.53382,113.08658,112.167656,112.05266,13.149945,0.7,-113.868835,-29.33564,5.8632868e-05,-1176.6466,14.764302,13.815111,14.006945,16.193167,7.0412355e-08,0.3,-63.654682,86.22632,86.24517,86.15289,86.15971,0.16573595,0.43593746,0.1048133373260498,18.007950405279797
54,540000,-0.36160703628254626,-86.670044,0.030390741,-0.96721065,1.0902553,-10.791845,61.618465,38.31477,8.150839,111.43785,111.37555,111.14882,111.35374,7.0479755,0.7,-112.0175,-25.98103,0.0019354015,-660.746,7.167275,8.545485,10.938919,9.982002,1.6171835e-07,0.3,-59.461716,85.65973,85.68529,85.45735,85.54855,0.12108654,0.4671875,0.1136026382446289,18.323084112008413
55,550000,-0.3585676336189093,-87.39834,0.031083833,0.58774954,0.808344,-4.887212,60.35138,30.239359,5.704625,110.21595,110.13867,110.150734,110.2585,28.29316,0.7,-110.9617,-29.41032,0.00042521424,-1371.4554,2.987864,3.9685712,5.0918465,4.72381,3.277499e-07,0.3,-64.46161,86.41897,86.42707,86.507965,86.45581,0.20281509,0.4125,0.10975909233093262,18.643107497692107
56,560000,-0.37358862734595377,-88.06753,0.03010051,-0.8147352,0.49287963,-19.976664,35.769753,27.825562,5.8250937,112.156105,112.33705,111.67795,111.9598,26.817451,0.7,-112.83748,-34.629158,0.0010131388,-437.2864,17.9491,17.395557,16.710182,16.673565,4.0233136e-08,0.3,-59.883553,87.09164,87.14532,87.11313,87.15908,0.18091658,0.39843747,0.10254693031311035,18.96156627734502
57,570000,-0.36006166857555577,-87.014755,0.031096568,0.90697765,1.6487586,-19.4709,66.8157,107.333084,5.5557227,113.06794,113.2291,113.09727,112.681786,2.6715932,0.7,-114.103455,-33.596996,0.0045755655,-754.8044,17.96861,17.838522,16.933504,18.435654,3.4030934e-06,0.3,-76.176636,86.03264,86.08039,85.98135,85.94945,0.14454544,0.50468755,0.10565400123596191,19.28215081691742
58,580000,-0.3746224454252064,-87.363075,0.031008998,-1.218532,0.6731682,0.10587102,80.28551,21.835583,2.4279337,110.60443,110.8972,111.001144,110.63079,21.420828,0.7,-111.2702,-33.474915,0.00013737124,-664.6725,-2.2553613,-2.1369934,0.84563553,3.226267,1.9398867e-07,0.3,-61.320557,86.458206,86.40101,86.53117,86.54883,0.20310049,0.4671875,0.10292673110961914,19.601873421669005
59,590000,-0.3656005790998182,-87.430374,0.030750517,-0.44996303,0.72695506,-17.3662,60.396217,35.77364,3.868156,110.85898,110.89796,110.898705,110.820625,1.6213586,0.7,-111.722664,-28.471796,0.00315376,-702.4278,14.292969,11.1132345,13.195349,12.767997,2.861023e-07,0.3,-66.21888,86.523254,86.56993,86.43646,86.385605,0.090975404,0.45156252,0.10181403160095215,19.91819305817286
60,600000,-0.36207117230351593,-87.205345,0.030459095,0.31990343,6.061499,-13.79305,46.763416,1350.0355,4.1270022,110.978455,111.124435,111.8635,111.22103,23.286491,0.7,-111.83947,-34.240692,0.0012223725,-462.29938,9.961956,9.759982,9.710872,6.9924994,2.4728362e-07,0.3,-69.71014,86.28096,86.24424,86.229416,86.32162,0.22400904,0.521875,0.10918068885803223,20.235537362098693
61,610000,-0.3605750701980343,-87.46776,0.030263737,1.0293977,1.0977833,-5.3904467,58.88023,26.731155,4.323786,111.42554,110.863266,110.81624,110.97306,3.4962819,0.7,-111.86617,-33.894135,0.0025513838,-880.63025,4.4048424,3.5197647,3.6066916,3.4398398,7.4824203e-07,0.3,-84.00523,86.516266,86.54451,86.239685,86.29155,0.113463745,0.47187498,0.11006736755371094,20.566757635275522
62,620000,-0.37241009205169023,-89.52657,0.030442461,0.034755528,0.43811354,-20.300234,47.90564,9.652422,5.504175,110.25006,110.33775,110.28385,110.47376,2.5630589,0.7,-110.60061,-36.39935,0.00011796766,-576.9054,11.608229,9.8827505,10.013559,11.835872,1.8834544e-06,0.3,-66.052414,88.59819,88.62604,88.67744,88.71184,0.08109107,0.44375,0.10158753395080566,20.883792833487192
63,630000,-0.3696959467056607,-87.086334,0.029973447,-2.0212893,0.8784411,-17.385319,38.167786,57.049847,5.176242,110.49547,110.47179,110.52895,110.77642,5.5456142,0.7,-111.35877,-30.937798,0.0002050905,-576.4869,15.60126,15.84228,15.43596,14.863122,3.426685e-08,0.3,-69.33554,86.19307,86.187904,85.99667,86.039314,0.104906656,0.45156246,0.10840582847595215,21.202053133646647
64,640000,-0.37129591537424406,-88.811966,0.030642355,-0.026577473,0.4890894,-18.673883,47.46986,10.508186,3.8104906,111.17111,110.44027,111.95441,110.92511,1.7675905,0.7,-111.81493,-46.002598,0.0010138379,-929.99817,13.579141,13.500063,11.774451,11.968781,1.9118743e-05,0.3,-74.351906,87.86594,87.86859,87.8513,87.74118,0.08695406,0.5078125,0.09987473487854004,21.52299897670746
65,650000,-0.36661996037199396,-90.02821,0.030008612,-1.0704994,0.7699174,-9.066074,57.733807,26.593885,5.862503,111.81447,112.206375,111.21744,111.335304,1.5636647,0.7,-111.541405,-30.60882,0.00074686727,-766.96484,8.5759945,8.225683,7.937058,8.246974,4.7379112e-06,0.3,-74.685745,88.95285,88.97367,88.69835,88.812485,0.08039059,0.4421875,0.10111117362976074,21.84385460615158
66,660000,-0.38045307075845897,-89.252304,0.029458884,1.351793,1.0169913,-6.95761,65.853004,45.705223,5.117182,110.82734,110.767876,110.38635,110.63423,34.15852,0.7,-111.40295,-26.539867,0.0004850331,-551.1514,3.4268925,4.4611087,3.6804368,3.5878434,9.2375565e-09,0.3,-78.446625,88.26713,88.27377,88.026764,88.17441,0.23547126,0.471875,0.10396242141723633,22.167131419976553
67,670000,-0.3626712028792064,-86.89287,0.03061411,0.3037654,0.61360824,-8.906389,45.007267,23.320654,10.270899,110.96326,110.81689,111.29553,110.69918,19.809605,0.7,-111.36626,-33.20174,0.00020684378,-674.3014,8.834654,9.78095,9.278714,8.84153,2.3093891e-07,0.3,-70.04787,85.90668,85.90091,85.83244,85.798065,0.23565194,0.42499998,0.1050105094909668,22.491523492336274
68,680000,-0.36174370576481485,-86.29353,0.02942825,-0.4505669,0.9212869,-19.992624,69.24903,30.602459,3.3335288,111.162056,111.0152,111.508224,111.2922,1.5554186,0.7,-111.411415,-40.32378,0.0001587717,-620.6129,19.414646,17.340137,17.440252,16.436943,1.7462299e-11,0.3,-73.719826,85.403175,85.3895,85.65523,85.36727,0.08220835,0.43906248,0.1093747615814209,22.81240748167038
69,690000,-0.3628476852432972,-87.11371,0.029836524,-0.19278562,0.7703643,-4.5695863,74.04066,62.049255,4.867954,111.223946,110.95626,111.59654,110.97822,3.8027594,0.7,-111.379684,-44.948402,0.00031237007,-450.94373,4.3323045,4.0193386,4.889646,4.669524,5.280599e-08,0.3,-70.34703,86.22128,86.16591,86.384254,86.33392,0.090167314,0.45937496,0.1140909194946289,23.127443329493204
70,700000,-0.36544370154225375,-88.61893,0.03013609,-0.45556557,0.96197873,-6.1457415,100.85648,31.028927,3.5247717,110.5625,110.47537,110.239685,110.27578,48.22375,0.7,-110.76326,-32.348988,0.000548637,-776.6948,5.8876534,5.826187,6.064402,6.789137,4.8682095e-06,0.3,-72.59503,87.58513,87.57883,87.67489,87.63809,0.3213889,0.46406248,0.09675431251525879,23.44662091334661
71,710000,-0.36682073182647523,-87.2062,0.029328436,0.7571772,0.93065083,-1.4854522,63.59547,39.780464,4.415425,110.67887,110.73129,110.19286,110.379135,4.6483426,0.7,-110.95573,-29.558771,0.0005036519,-1361.633,2.6889505,2.0073864,1.6193395,1.7624869,3.4424477e-06,0.3,-86.21419,86.325745,86.33468,86.2464,86.3851,0.10072522,0.40937498,0.10177993774414062,23.765602525075277
72,720000,-0.3647371403318191,-89.40327,0.029440818,-0.59522855,0.718233,-19.913317,55.428493,18.219662,5.0175023,111.33993,111.934494,111.64597,111.22173,12.100234,0.7,-112.443375,-35.03176,0.0001692737,-1674.2971,19.172352,19.492325,19.810469,19.822598,1.2777746e-05,0.3,-83.371155,88.362,88.42209,88.1967,88.27422,0.18333742,0.5453125,0.1010744571685791,24.08172878821691
73,730000,-0.3663448666293571,-87.6039,0.029308664,0.75389713,0.8217499,-5.576521,58.968002,32.080425,6.0116954,111.271225,111.317314,110.87615,110.95847,19.968365,0.7,-111.74142,-29.343712,5.7588855e-05,-994.6308,5.345607,6.544017,3.7161365,2.339205,3.228779e-08,0.3,-79.88162,86.73674,86.65697,86.50143,86.55417,0.2102881,0.4953125,0.10139894485473633,24.396378588676452
74,740000,-0.35907780556843993,-88.293396,0.028899644,-0.45059097,1.2577662,-19.879349,88.34134,18.136534,4.047245,110.4219,110.16861,111.24657,111.1027,46.31157,0.7,-111.65072,-38.6723,0.0017262995,-634.9061,17.128218,17.735983,16.948933,17.609924,1.8659746e-06,0.3,-82.907875,87.28298,87.37163,87.826065,87.76337,0.3129778,0.4453125,0.10171341896057129,24.7103174328804
75,750000,-0.3739310373821072,-86.51485,0.029654002,-0.07809189,1.0535301,-21.749483,53.81484,58.016346,4.4817657,111.233185,111.25727,110.82937,111.099945,7.168772,0.7,-112.4316,-29.53446,0.00084031036,-792.86725,13.570264,15.55493,13.311903,14.717904,2.2694003e-07,0.3,-65.44382,85.62484,85.691956,85.466125,85.465294,0.09870489,0.46406248,0.11037421226501465,25.027981968720756
76,760000,-0.3584340776170862,-84.979576,0.029808255,0.8185228,1.5738217,-5.2740884,60.847855,132.62286,6.3125997,110.92698,111.01213,110.57429,110.83143,26.693338,0.7,-112.74913,-27.68525,0.0003926466,-810.6613,5.1929936,5.609484,3.743972,3.5946493,1.8218242e-06,0.3,-86.6086,83.9864,83.94953,83.85403,83.91043,0.2274583,0.403125,0.10536670684814453,25.344253106911978
77,770000,-0.36954200939966914,-90.46945,0.028562238,-0.9847671,0.83398753,-10.921151,52.064064,47.59752,6.6040115,110.84095,110.48414,110.74582,110.67428,6.599095,0.7,-111.610344,-42.002388,0.0008167374,-543.7878,11.049227,11.484823,8.93993,8.796496,5.8743172e-08,0.3,-73.49574,89.45692,89.326965,89.49982,89.46586,0.10145428,0.44375,0.1094052791595459,25.659119979540506
78,780000,-0.37118929045853305,-85.54665,0.029207433,0.15162563,1.2383194,-2.3777862,55.349724,89.07774,6.534245,110.35675,110.700935,111.72864,111.295074,43.377586,0.7,-111.08814,-28.912855,0.0007752372,-1184.0885,4.8736334,4.1416497,-0.16152668,-1.5434167,1.878664e-06,0.3,-83.6501,84.563736,84.63759,84.51336,84.57519,0.37628344,0.50625,0.10544466972351074,25.976928023497262
79,790000,-0.36312713879636566,-87.417725,0.028560646,-1.0820844,0.59368974,-4.883138,57.986885,36.3965,7.7712984,111.771736,111.71163,111.21003,111.392365,7.443938,0.7,-112.32395,-47.79995,3.853184e-05,-974.01605,4.246531,2.802197,4.1063333,4.2317476,1.754769e-06,0.3,-84.65926,86.531425,86.480896,86.513336,86.49338,0.11065963,0.48125,0.10252594947814941,26.288588599363962
80,800000,-0.36405473666130506,-86.46527,0.029463485,0.73301786,0.65975034,-2.4889905,53.503033,37.173885,6.0458846,110.11898,110.29397,110.23161,110.1918,1.2066936,0.7,-110.7586,-30.831398,0.00082853466,-1185.8893,2.001975,1.9718022,2.2021234,2.1435354,8.074567e-08,0.3,-93.287994,85.61711,85.690994,85.6947,85.65152,0.051806614,0.4734375,0.1070711612701416,26.603687493006387
81,810000,-0.35806483529082717,-87.85994,0.028008118,-0.4531623,0.8100751,-7.2748475,62.7884,22.657887,5.553027,111.03112,111.289986,111.052475,111.3118,1.521194,0.7,-112.219,-35.632282,0.0007814786,-2091.4424,3.3323307,3.0072894,4.2578816,2.8305116,9.387731e-08,0.3,-85.52485,86.99452,86.94039,86.80193,86.83624,0.06735058,0.4125,0.10099625587463379,26.919759221871693
82,820000,-0.3681355572920626,-89.653786,0.028992785,-0.45809874,0.60838604,-15.134048,52.472534,12.7154045,5.735844,110.92891,111.056244,111.07459,110.6796,1.9819874,0.7,-111.41507,-38.62352,0.0008225183,-965.34015,14.65763,15.632401,16.9822,15.57483,1.2730015e-06,0.3,-86.8051,88.75405,88.61481,88.63048,88.57956,0.07157624,0.4734375,0.10154294967651367,27.229786070187888
83,830000,-0.3706128097530919,-88.82112,0.02865446,0.70500094,1.2183719,-18.079798,65.74211,42.056503,2.3173108,111.07735,111.025826,110.53032,110.58339,9.128643,0.7,-111.34699,-34.062435,0.00017930014,-591.68115,16.863655,15.999912,15.445971,14.832908,1.8672262e-06,0.3,-92.82301,87.75447,87.79161,87.383484,87.45116,0.1351437,0.4765625,0.10125589370727539,27.546835883458456
84,840000,-0.36232904016456235,-84.7937,0.027394298,0.051865578,0.6861448,-3.8652806,65.64031,13.344778,4.1210666,110.53518,110.82265,110.14039,110.185936,5.2021527,0.7,-111.49004,-32.16831,0.0003460169,-1016.3481,5.293636,3.4243329,5.78068,4.8640385,1.0380307e-05,0.3,-83.50911,84.036835,84.07941,84.01665,84.008026,0.08204335,0.42343748,0.11081790924072266,27.86157430410385
85,850000,-0.3658838102746425,-88.63841,0.028444612,1.1890094,1.8823981,-20.941923,56.11411,268.46698,5.6205916,109.851585,109.9039,109.98306,109.78817,8.100616,0.7,-110.266205,-30.383902,0.00023842166,-1266.0194,18.98451,18.737217,18.997461,18.689093,4.2391474e-07,0.3,-90.324486,87.617966,87.64328,87.76738,87.73009,0.18195942,0.509375,0.10016489028930664,28.170838673909504
86,860000,-0.3630048588625523,-88.385544,0.027345259,-0.79290164,0.79290867,1.2306516,69.66909,34.75996,4.2433105,110.52003,110.48675,110.36008,110.41165,2.3969119,0.7,-111.22487,-40.360825,0.0005299845,-1291.5057,-2.4660983,-3.7689486,1.0001976,-0.82137495,4.928559e-07,0.3,-89.320755,87.36962,87.31852,87.34978,87.344536,0.08207196,0.4640625,0.09956574440002441,28.48372330268224
87,870000,-0.3594311187177329,-86.73262,0.028726147,0.57575476,1.8737743,-4.8018885,54.410885,148.96933,5.7219205,112.01339,111.42409,111.203674,111.3838,39.387566,0.7,-112.35464,-30.382944,0.00056867674,-1735.0054,4.576031,3.9517102,-0.11117828,-0.8009438,1.2871853e-06,0.3,-89.512505,85.94293,85.9355,85.713776,85.67863,0.25121254,0.5109375,0.10157084465026855,28.795063654581707
88,880000,-0.363444386530494,-87.59787,0.028050099,0.102524966,0.6114152,-4.2810693,61.641605,20.42788,3.9975438,110.39502,110.122955,110.46569,110.40715,5.5571575,0.7,-110.21137,-37.407787,0.0003757031,-777.8088,3.6618257,1.6220009,4.4099717,6.866126,1.1986821e-06,0.3,-83.67476,86.7805,86.806595,86.74498,86.835846,0.11267749,0.44843748,0.10052680969238281,29.109409443537395
89,890000,-0.3702691456993952,-86.726944,0.02962835,1.2071496,0.661309,-15.767907,51.869114,33.959766,4.4601045,111.264275,111.27509,111.16049,111.29121,2.5257661,0.7,-112.0695,-36.593235,1.9261905e-05,-989.46027,15.313035,14.188602,14.357968,15.555949,7.3162374e-07,0.3,-94.584465,85.720215,85.63754,85.74579,85.63308,0.115046754,0.49062496,0.10711193084716797,29.425961577892302
90,900000,-0.3705662117671209,-87.004265,0.027877364,-0.0273152,0.8145675,-6.99645,84.7473,48.42023,4.4461675,110.09148,110.35169,110.43483,110.590164,1.9305688,0.7,-111.09859,-36.118534,0.00061948155,-1963.271,4.5309,3.264833,5.594606,7.084486,4.739984e-06,0.3,-90.42586,86.32733,86.304886,86.402954,86.358765,0.07173753,0.428125,0.09852147102355957,29.742197978496552
91,910000,-0.3725475104108036,-88.85698,0.030220274,0.20774943,1.0841646,-12.997069,66.515976,66.84532,3.6068819,110.43994,110.47326,110.42413,110.42492,10.763212,0.7,-110.36082,-34.07293,0.0008603028,-724.49133,12.567165,12.7729,12.712487,11.840699,6.780436e-07,0.3,-76.588066,87.91249,87.92522,87.93472,87.9382,0.16252178,0.4515625,0.10056400299072266,30.057206130027772
92,920000,-0.3762808174849849,-89.02849,0.02905719,0.80147344,0.79938996,-5.446213,49.292637,38.278545,4.132766,110.109634,110.01915,110.43101,110.158394,23.3651,0.7,-111.26685,-35.89924,0.0015652475,-669.42706,4.54286,6.841934,2.707191,2.2074118,0.0,0.3,-87.14529,88.18266,88.23143,88.32512,88.225945,0.17931089,0.4453125,0.10963892936706543,30.369960339864097
93,930000,-0.3737497062567219,-86.15013,0.028585318,0.8341738,0.5882182,-12.546829,66.60425,9.607815,5.456555,111.39885,111.557236,111.95993,111.38955,2.8296342,0.7,-112.02482,-29.20803,1.7967599e-05,-820.46295,11.39736,9.515234,9.245288,9.137498,1.0869732e-05,0.3,-80.6146,85.33635,85.29187,85.3573,85.471466,0.08907209,0.3875,0.107818603515625,30.685170539220174
94,940000,-0.3683739728037681,-88.07316,0.029183036,-0.26248348,0.4429507,-18.848654,63.760513,9.206045,5.6824884,110.77932,110.87315,110.84755,110.83554,41.87823,0.7,-111.41728,-31.405018,2.533663e-06,-1073.4049,17.19303,17.10233,16.868578,17.036964,5.5546875e-06,0.3,-73.11724,87.22069,87.22323,87.12743,87.14899,0.24737927,0.40156248,0.10555601119995117,31.00030336380005
95,950000,-0.3711485324276892,-88.1511,0.027246794,0.6308164,0.6041897,-13.988749,64.4014,20.274687,3.8168826,110.81232,110.71645,110.42701,110.90227,1.8648287,0.7,-111.393845,-27.269989,0.0005621319,-910.9804,16.14342,13.422364,17.266037,17.052431,6.712508e-08,0.3,-97.1001,87.33294,87.24803,87.25545,87.29939,0.071724795,0.3828125,0.10883760452270508,31.324723239739736
96,955000,-0.3768724857045225,-87.782364,0.02702519,0.15291628,0.6184409,-3.166889,57.852695,26.071135,3.0444446,110.56569,110.55223,110.964714,110.68171,10.801442,0.7,-111.74896,-31.907097,0.0011276961,-640.22174,1.2317634,2.3007426,2.7761457,3.4894352,6.885966e-09,0.3,-74.33599,86.81279,86.91461,86.851654,86.903595,0.14438573,0.475,0.10691642761230469,31.48326004743576
97,960000,-0.37490111711824037,-86.3319,0.027593916,-0.7922107,1.0120544,-13.840598,51.846493,34.833076,5.7991576,111.65625,112.28489,111.61298,111.4624,2.0752025,0.7,-112.348335,-30.66854,0.0003651441,-1548.675,12.303749,13.621778,11.75081,11.913973,8.919044e-07,0.3,-88.771385,85.3575,85.46682,85.12464,85.137985,0.09373988,0.45,0.10693883895874023,31.64023539622625
98,965000,-0.3710615458048791,-86.9638,0.028120603,1.2115437,0.41483134,-15.330402,58.847645,8.04772,5.725713,110.26615,110.28852,110.346466,110.58302,24.514793,0.7,-111.09949,-31.60888,0.0005870448,-1504.1925,13.566949,14.096112,14.519078,14.223932,2.2694003e-07,0.3,-84.393524,85.86238,85.8076,85.958466,85.94715,0.18686268,0.39375,0.11007213592529297,31.79797380765279
99,970000,-0.3751955046583863,-86.036865,0.02790707,-0.17865707,0.8747127,-1.0511619,42.44399,42.198074,4.4518747,111.68511,111.174255,111.41923,111.28694,23.239813,0.7,-111.4683,-43.54494,0.00014484534,-843.9636,2.996059,-1.0519006,0.965032,-3.3289304,8.998148e-07,0.3,-88.55683,85.07548,84.99935,85.32822,85.168846,0.19889972,0.45624998,0.10941290855407715,31.959636294841765
100,975000,-0.37317184755187793,-87.65925,0.029332263,0.5229238,0.86812454,-17.496485,94.32631,25.903679,7.1424685,110.44335,110.42656,110.32754,110.43768,13.855412,0.7,-110.77307,-35.600346,1.0296935e-05,-994.811,16.817495,16.685183,17.883526,17.707983,6.164366e-07,0.3,-88.10397,86.53307,86.569855,86.42373,86.57883,0.20300671,0.4421875,0.10429787635803223,32.11745908260345
101,980000,-0.3759344204223639,-89.02956,0.027113637,-0.2009318,0.8432896,-19.140816,58.33512,51.091446,4.936927,110.811165,110.94998,110.66748,110.475044,2.004532,0.7,-110.88406,-43.607555,0.0004990066,-967.3529,14.541743,16.739653,15.106952,15.497706,6.437302e-07,0.3,-81.23304,87.95331,88.08009,87.90238,88.02881,0.092233695,0.40937498,0.11186408996582031,32.274308296044666
102,985000,-0.37410315939129696,-89.02439,0.026386822,-0.998121,0.7855958,-16.666174,52.601994,37.57487,4.481693,110.80071,110.23295,110.01413,109.97418,4.4135,0.7,-111.39503,-34.629097,0.0005563465,-951.6999,14.7757225,15.040807,14.531749,17.841923,6.1406e-06,0.3,-75.48435,88.20238,88.14143,87.90696,88.04271,0.10104515,0.51093745,0.10442280769348145,32.43496563037237
103,990000,-0.3713065902083665,-88.470856,0.026192611,0.3013093,0.8724658,-10.191011,59.69822,44.92015,6.635307,111.06506,111.14525,111.01158,111.137115,8.918601,0.7,-111.21008,-32.44268,0.000180998,-1028.1906,7.7569156,10.367823,9.931654,9.353728,1.69985e-06,0.3,-74.42856,87.59981,87.65352,87.65017,87.64046,0.13288224,0.43125,0.10300827026367188,32.596955653031664
104,995000,-0.3747966551026974,-87.82306,0.026631217,0.77566755,0.9345447,-15.514327,61.053226,19.332571,6.542637,110.10403,109.74169,110.06824,110.25068,2.0052578,0.7,-110.3513,-49.147408,0.00060190057,-2139.6467,15.503041,15.364945,14.204393,14.990812,6.759754e-07,0.3,-86.14678,86.9337,86.95833,87.190025,87.177986,0.08462481,0.4640625,0.10116457939147949,32.753398891290026
105,1000000,-0.3723444818765973,-87.08774,0.0286555,1.0626516,0.9809277,-8.894757,75.782005,46.410366,6.017721,111.55641,111.55063,111.2537,111.264366,4.3233747,0.7,-111.50322,-24.612389,0.0014090496,-1026.1002,10.049624,9.684267,5.3157516,6.6585865,1.4889055e-06,0.3,-81.36413,86.142746,86.121414,85.82031,85.92417,0.119543135,0.475,0.10445570945739746,32.912469418843585
