Xixo99/comfo/relaxed_iql/20230321_5seed_mle0/walker2d-medium-expert-v2/riql_s2_20230320_232335_walker2d-medium-expert-v2_-0.39.csv
,step,reward,actor_loss,alpha,alpha_loss,critic_loss,max_actor_loss,max_alpha_loss,max_critic_loss,max_mle_prob,max_q1,max_q2,max_target_q,max_v,max_value_loss,max_weight,min_actor_loss,min_alpha_loss,min_critic_loss,min_mle_prob,min_q1,min_q2,min_target_q,min_v,min_value_loss,min_weight,mle_prob,q1,q2,target_q,v,value_loss,weight,eval_time,time
0,0,2.8283714477382738,,,,,,,,,,,,,,,,,,,,,,,,,,,,,,,,,
1,10000,-0.14405419065765043,-32.879284,0.05757734,-15.004385,0.7199043,-6.491778,29.837183,93.9778,4.270062,43.542545,43.894012,44.06521,42.77206,1.1442064,0.7,-44.016125,-36.36984,0.00037041813,-224.2836,2.3721569,1.7873509,1.9947228,1.9037999,1.695109e-07,0.3,-15.45907,32.215977,32.18087,32.25055,31.728376,0.036599427,0.4921875,0.20110177993774414,1.3249163667360941
2,20000,-0.220881973559267,-55.494843,0.026092604,0.66469646,1.0311668,-13.759491,49.707104,100.30776,6.422534,70.59199,70.58204,70.25184,70.18709,12.724792,0.7,-70.82407,-36.455246,6.690089e-05,-126.33124,10.247674,10.689577,11.042931,10.255844,2.2694003e-07,0.3,-33.586266,54.516296,54.53485,54.595192,54.24889,0.14509855,0.4515625,0.22184419631958008,1.6583582957585652
3,30000,-0.15360441556889654,-69.29921,0.03393071,0.31787628,1.3290374,-17.98088,36.837975,108.46985,8.290863,86.05794,86.08946,86.32428,86.05356,3.0282297,0.7,-87.3717,-34.079258,0.0012791243,-148.22081,7.5044694,6.758611,9.667301,10.052581,3.9156294e-08,0.3,-30.362467,68.33549,68.36045,68.62646,68.34662,0.06795433,0.471875,0.10301899909973145,1.9945912082990012
4,40000,-0.09859561099554248,-76.25308,0.038479563,1.4171402,0.8815675,-16.18327,52.48537,30.365726,8.967129,96.448555,96.84378,95.826645,96.21635,2.0567975,0.7,-97.19479,-25.33432,0.0011696784,-152.68274,12.617012,12.957651,10.334186,12.631954,4.69666e-07,0.3,-34.279797,75.19589,75.217514,74.88797,74.894806,0.09973477,0.4265625,0.10463953018188477,2.3260657866795857
5,50000,-0.0411633009230103,-81.13101,0.039634116,-0.5222061,1.4555484,-7.7251167,38.107628,160.83939,11.124798,102.64714,102.67318,102.63233,102.537346,3.804153,0.7,-103.202805,-36.390038,0.00040268904,-269.1223,5.3847218,6.526622,5.5242376,4.3603196,1.252761e-05,0.3,-38.145035,79.82515,79.86935,79.68438,79.702255,0.102080375,0.45,0.12950968742370605,2.6565858642260234
6,60000,-0.02955211668889781,-85.14933,0.039779756,-0.353971,0.95223415,-19.674984,58.37598,52.516125,8.0462265,106.1129,106.30172,106.008644,106.33192,9.405968,0.7,-106.512535,-31.69321,0.00030615483,-228.96696,12.400429,9.658615,11.669196,10.942696,1.18813475e-07,0.3,-36.706406,84.00954,84.04828,84.29274,84.24423,0.15136,0.41875,0.1253960132598877,2.989387941360474
7,70000,-0.04932954888638806,-86.79841,0.039526414,0.94105625,1.2089326,-4.088857,44.03918,54.536976,10.723462,109.791046,109.567024,109.529335,109.15451,10.644804,0.7,-109.75913,-30.148035,0.0019218717,-156.09541,3.2281592,4.7744765,0.9778775,1.4941401,2.1981725e-05,0.3,-36.87923,85.590034,85.62017,85.69014,85.60525,0.12107628,0.45156246,0.12231278419494629,3.318858738740285
8,80000,-0.23939891650935244,-87.59056,0.039495148,-1.5493269,0.78936076,-17.898321,42.35641,36.375496,10.294443,109.9121,110.038666,109.4724,109.9019,6.0638204,0.7,-110.19289,-35.393936,0.0003571518,-209.44543,14.141344,14.810345,14.861311,14.467326,2.46875e-06,0.3,-32.246124,86.45261,86.42554,86.353195,86.39384,0.099813744,0.440625,0.12905383110046387,3.6585188150405883
9,90000,-0.23350890911583866,-88.549225,0.039701328,-0.80992925,2.0861347,-7.6242304,48.93808,320.9378,8.658018,110.777145,110.24433,111.76272,111.071724,3.313159,0.7,-110.83078,-47.1133,0.00056716875,-201.73694,6.815261,8.129836,6.8749995,5.0634823,3.1553208e-07,0.3,-36.45844,87.397194,87.44426,87.590744,87.56436,0.10425803,0.45312497,0.13757634162902832,3.989879051844279
10,100000,-0.25038648206628916,-89.415054,0.038829945,0.8131683,0.92530704,-18.725975,54.92189,33.40911,9.18046,111.141106,110.98436,110.60953,110.807465,10.464054,0.7,-111.479744,-34.674587,0.00044489244,-198.147,15.254015,15.500442,15.894621,15.943939,1.7797981e-06,0.3,-34.45096,88.33421,88.42476,88.18669,88.23366,0.14214396,0.48125,0.11852550506591797,4.317065540949503
11,110000,-0.3162326586270684,-88.80975,0.038955238,-1.2854497,0.59161174,-18.78223,62.96994,9.391787,7.5125523,111.905876,111.86592,111.68023,111.224266,1.7031206,0.7,-112.11833,-28.334381,0.0006602204,-230.06349,16.629093,16.366686,16.165943,15.969918,1.478009e-07,0.3,-34.56402,87.79964,87.873566,87.641884,87.57852,0.08292828,0.503125,0.10932803153991699,4.648470679918925
12,120000,-0.31919140932405476,-87.25439,0.03947408,0.84515846,0.9407344,-10.739716,81.14653,14.466738,5.7208104,111.959145,111.95547,111.75972,111.83071,5.3265495,0.7,-112.00476,-33.888023,2.6152702e-06,-190.12552,8.816308,11.882013,8.139244,8.246071,4.3655746e-08,0.3,-39.366158,86.15743,86.03059,85.75343,85.856026,0.10192746,0.478125,0.11460304260253906,4.978825426101684
13,130000,-0.357678739755587,-88.643936,0.038843982,-0.44482213,1.0405234,-17.693773,47.685825,27.963177,3.3013659,111.16647,111.25765,111.60628,111.66277,5.7831664,0.7,-111.33357,-33.61531,0.0002891483,-346.1788,14.030384,14.328254,10.689193,13.486974,2.8748718e-06,0.3,-45.4492,87.54153,87.51838,87.6514,87.513306,0.15320471,0.4359375,0.10477328300476074,5.322367831071218
14,140000,-0.3418326032197408,-91.74356,0.040810443,0.37196708,1.0255721,-22.425793,70.60937,20.223354,10.679658,112.036476,111.97249,111.55336,112.12526,6.1594195,0.7,-112.30272,-25.556204,0.0019241127,-265.879,20.387766,21.418314,19.379217,20.387417,7.862243e-06,0.3,-35.023582,90.73212,90.68564,90.89084,91.066864,0.18568033,0.37343746,0.11424040794372559,5.658256316184998
15,150000,-0.32622742423095513,-89.38757,0.038298544,0.3553157,1.0000746,-14.737509,81.01723,46.982033,7.2715445,111.25344,111.30202,112.82987,111.566574,23.693556,0.7,-111.191956,-33.38996,5.806447e-06,-235.69128,15.623361,14.840633,14.980178,14.9935665,9.808399e-07,0.3,-41.864426,88.39971,88.4088,88.61796,88.359634,0.19696392,0.56093746,0.11857104301452637,5.994086436430613
16,160000,-0.35584244698374573,-87.72893,0.039441016,0.14581594,1.5967216,-9.539401,54.090874,90.29405,5.1120977,111.93051,111.96965,111.934814,111.658325,2.0998194,0.7,-112.86753,-34.75962,0.0020747448,-273.28183,7.2214828,7.3840303,9.124615,7.5484624,1.4383521e-06,0.3,-38.825752,86.68826,86.690765,86.272644,86.40616,0.092705384,0.5015625,0.10645389556884766,6.330340139071146
17,170000,-0.35964142562930296,-91.13104,0.039957155,-1.0336506,3.5313466,-7.123841,60.66901,593.6743,7.556225,111.55558,111.98409,112.456665,112.503296,37.481834,0.7,-111.99913,-34.486412,3.6019133e-05,-249.28728,7.46514,5.987238,7.4669337,5.4064374,2.256832e-06,0.3,-37.23231,90.25331,90.16916,90.152596,90.24711,0.28156683,0.45312497,0.12060761451721191,6.6661886930465695
18,180000,-0.35015262263225944,-89.62661,0.039124902,0.22083987,2.688345,-19.220507,49.099007,425.41803,3.122149,112.98742,112.76059,112.09611,112.21228,5.2011104,0.7,-113.56449,-35.84434,0.0006405795,-368.36514,18.774015,19.114677,19.534239,19.087624,4.0745363e-07,0.3,-41.476086,88.637535,88.61804,88.58203,88.80008,0.14132866,0.37031248,0.11611104011535645,6.998184502124786
19,190000,-0.3604234331836291,-87.92384,0.04037511,-0.85873824,1.2872185,-9.178077,74.659676,99.30467,2.0789032,111.85566,111.64026,111.758194,111.72504,3.2698014,0.7,-112.0125,-38.878666,8.107396e-06,-209.5078,8.246122,7.64696,8.408534,8.244332,6.437302e-07,0.3,-39.5467,86.84711,86.827545,87.10386,87.16995,0.09607892,0.440625,0.12075209617614746,7.3351044734319055
20,200000,-0.3895802501326224,-90.10358,0.03852701,-0.7590889,1.4237444,-18.273804,50.986755,61.586185,6.892738,112.07507,112.00173,111.54658,111.91182,6.9551473,0.7,-112.702614,-37.598858,0.0005170252,-300.9889,17.581335,18.29974,16.993078,17.725935,1.695659e-06,0.3,-36.21097,89.10033,89.04207,88.90777,89.0143,0.11704876,0.42343748,0.11264705657958984,7.6726393580436705
21,210000,-0.3577850819580186,-89.81349,0.037044283,-0.07907605,0.9984641,-12.408965,50.763107,31.335075,8.771519,111.44131,111.46184,111.428925,111.391914,3.7562885,0.7,-112.34651,-30.873856,2.9438233e-05,-276.6327,10.466103,10.300002,11.91656,10.2112875,1.1089259e-06,0.3,-40.049202,88.78793,88.6082,88.60092,88.60185,0.14747664,0.4359375,0.11318516731262207,8.005138198534647
22,220000,-0.4007046940651045,-88.10211,0.037764303,-1.7036011,1.438545,-16.629797,57.321194,67.2398,4.367076,111.70156,111.384476,112.5832,112.21111,5.112201,0.7,-112.188705,-46.900307,0.00048756425,-466.9966,15.429982,15.2812395,14.656493,15.71145,1.370674e-07,0.3,-43.243813,87.00975,87.0219,87.41271,87.386475,0.1647327,0.40156248,0.10652995109558105,8.341540030638377
23,230000,-0.33306462875991816,-87.97057,0.036971156,-1.0864081,0.96979725,-7.170153,61.460575,45.642723,7.665531,110.964645,111.25969,110.92588,110.930695,11.3567095,0.7,-111.34418,-39.261223,0.00072851154,-292.86963,7.0975513,4.1329546,6.048046,5.0424213,2.2694003e-07,0.3,-43.423542,86.99425,86.912125,86.99773,86.98619,0.15793556,0.4734375,0.08841609954833984,8.671612985928853
24,240000,-0.3584869536032169,-88.69087,0.037247956,-0.11576144,1.0645887,-9.659013,60.389046,44.85567,5.310214,111.13256,111.40595,111.34198,111.39291,13.573636,0.7,-111.44131,-33.500927,1.179846e-05,-256.82266,12.046474,11.672967,10.9333515,9.576401,9.6400445e-06,0.3,-34.17698,87.82605,87.86749,87.68088,87.56115,0.16394472,0.4953125,0.11487030982971191,9.005912828445435
25,250000,-0.3164849168849611,-85.76274,0.037316013,0.7380558,6.146473,-18.78571,66.46662,1236.6995,2.4758313,111.153305,111.13649,111.04746,111.096405,29.820871,0.7,-111.4562,-30.149796,0.00047247118,-277.37738,14.444656,14.036908,15.920254,15.766211,5.388574e-07,0.3,-45.58087,84.54614,84.51728,84.43448,84.683784,0.27550977,0.434375,0.09048891067504883,9.34791765610377
26,260000,-0.3195916922334178,-86.79697,0.036545187,0.54872215,1.7434655,-17.960537,38.278015,245.04172,6.4031477,111.73943,111.16623,111.86707,111.69431,6.5120234,0.7,-111.08289,-32.071995,0.00024391647,-315.88013,17.688688,17.849094,17.959053,17.536934,8.605491e-06,0.3,-47.78576,85.77869,85.837135,86.12584,85.9857,0.109272644,0.4296875,0.08165645599365234,9.69746109644572
27,270000,-0.31089441707753257,-86.73224,0.036457848,0.45819044,1.5481067,-1.7598588,58.776264,57.742622,3.0011492,111.319626,111.62297,111.58493,111.69708,2.7042959,0.7,-111.59186,-31.20859,0.00036405458,-256.42502,1.7465487,1.7214463,2.2401385,2.4913511,3.4226106e-09,0.3,-44.791187,85.731705,85.72824,85.44766,85.460915,0.115291744,0.48281246,0.08669877052307129,10.04251123269399
28,280000,-0.30545216621149884,-89.56236,0.0365399,-0.7139812,2.1278381,-13.023359,69.88937,106.73695,8.115435,110.48699,110.3528,111.21218,110.839676,4.588614,0.7,-111.3082,-37.05762,0.0033965698,-421.70593,11.323444,11.02836,9.622002,9.630926,1.446053e-07,0.3,-42.511948,88.56058,88.60141,89.08061,88.81074,0.108660296,0.3890625,0.07910442352294922,10.37390140692393
29,290000,-0.32418644064166463,-90.92691,0.03634445,-0.18137166,0.99005187,-17.386585,45.498928,44.699867,7.3478627,111.48151,111.032715,111.12006,110.938225,1.6287047,0.7,-111.22179,-31.982504,0.0006550001,-410.67303,13.934287,14.337251,13.33613,13.864391,2.9438525e-07,0.3,-38.88152,90.04352,90.061844,90.0547,90.06813,0.075356565,0.49375,0.07731175422668457,10.707807111740113
30,300000,-0.3222316632435921,-90.0097,0.03522921,0.7389336,1.2406521,-11.999047,100.06339,73.67763,4.3173294,110.72017,110.71648,111.16577,111.20252,11.727664,0.7,-111.09576,-38.86908,2.7156086e-05,-957.4073,8.383067,8.373621,10.783156,8.972696,1.7462299e-09,0.3,-42.992477,89.01959,89.05191,89.152756,89.17952,0.13063416,0.4453125,0.08597111701965332,11.041694470246632
31,310000,-0.3255764248245585,-89.16496,0.035414316,1.7794251,1.858881,-3.7749162,72.97242,194.66199,3.1135917,111.02168,110.95186,111.50595,111.30487,6.3056607,0.7,-111.43881,-31.847042,0.0005807348,-330.97284,3.0237794,4.005479,2.1518755,2.4337254,4.4282314e-07,0.3,-47.119217,87.93779,87.862015,88.05812,88.02469,0.13389952,0.45624998,0.07906222343444824,11.380482455094656
32,320000,-0.3256796869399791,-88.102234,0.034721635,0.8495619,1.0929528,-13.706027,68.16289,40.815826,10.428266,111.02869,111.341705,111.310646,111.247055,2.2852077,0.7,-111.16723,-34.66322,0.0008451054,-380.934,12.142524,13.0846815,11.462598,11.808773,2.5883492e-06,0.3,-50.96285,87.00713,87.02843,86.99245,87.09297,0.08594479,0.421875,0.08188390731811523,11.710283827781677
33,330000,-0.3264039926045356,-90.113396,0.035739318,0.3901757,1.0247053,-18.330002,60.363655,76.638054,3.748506,111.55169,111.415634,111.44952,111.50587,0.9482306,0.7,-111.55438,-37.024372,0.0004770999,-322.77783,10.026,11.965936,8.850602,10.829917,3.277499e-07,0.3,-46.91014,89.07256,89.08916,89.12277,89.14635,0.058023535,0.4375,0.08256173133850098,12.046504414081573
34,340000,-0.3720558518331054,-87.61556,0.034992874,-0.84755373,1.6682162,-13.099943,58.909004,230.70486,2.8361034,110.68792,110.42508,110.44306,110.54701,2.2022517,0.7,-110.64581,-34.822796,0.00040510483,-418.91476,12.730598,13.225687,12.996173,13.411113,2.405973e-06,0.3,-48.86291,86.69176,86.643616,86.563034,86.60414,0.07386923,0.46875,0.09368038177490234,12.380810630321502
35,350000,-0.2800984163003073,-87.009865,0.035058863,0.25803804,0.7315235,-19.693895,50.923496,12.277201,5.3579597,112.03237,112.03953,112.25276,113.16006,2.3955681,0.7,-112.32147,-34.74071,9.1721595e-05,-471.27194,19.573992,18.94521,20.145645,19.286898,2.6077032e-09,0.3,-51.12143,85.953705,86.01222,85.9732,86.09748,0.09901954,0.3890625,0.07711100578308105,12.711521176497142
36,360000,-0.3890971423705413,-87.66786,0.035252918,0.039160967,1.1083431,-2.333097,54.78317,41.288254,6.2688217,111.064735,111.20737,111.16362,111.77968,14.0474415,0.7,-112.33401,-33.87926,9.796076e-05,-463.28015,1.677657,1.75493,1.4972259,1.3922738,2.4556357e-06,0.3,-48.84722,86.61311,86.59291,86.51536,86.56276,0.20081028,0.396875,0.09130525588989258,13.050536274909973
37,370000,-0.3495124161717923,-87.3028,0.034583975,0.15307583,0.96214104,-13.790566,56.85188,21.961908,5.1829786,111.293564,111.598076,111.12048,111.66529,2.461288,0.7,-112.29518,-33.12748,0.00031523925,-493.3927,14.2505455,13.41858,14.27893,13.782826,5.894591e-06,0.3,-46.698452,86.15645,86.19429,86.30165,86.13922,0.11137678,0.540625,0.09025406837463379,13.3807075937589
38,380000,-0.37725227982955956,-88.196304,0.034183912,1.0967501,1.5527265,-16.928644,79.539444,72.14935,10.124676,110.43706,110.91426,111.51778,111.15973,8.235798,0.7,-111.36451,-28.633514,0.0010570048,-311.66315,14.779144,15.797807,15.478093,16.22089,3.3807012e-08,0.3,-45.29162,87.139366,87.200066,87.47453,87.37089,0.14892364,0.43906248,0.0942080020904541,13.71350435813268
39,390000,-0.379625263232224,-88.82285,0.033659846,1.25454,1.4140077,-11.609748,55.789886,71.63371,6.1500897,111.19894,111.15402,111.00166,111.26789,41.97759,0.7,-111.28987,-41.470528,0.0010694241,-463.09702,8.174357,8.329432,9.367554,8.711352,7.377821e-08,0.3,-45.487793,87.718956,87.69706,88.087494,88.02792,0.3627704,0.4453125,0.10410809516906738,14.046075654029845
40,400000,-0.37147087684309643,-88.71269,0.035129264,-0.6440245,1.2355335,-20.875214,53.333096,104.59836,5.0487804,111.476326,111.18149,111.05754,111.04123,42.045357,0.7,-111.42089,-30.165646,0.00021614472,-339.5713,19.26429,19.032175,17.962835,18.736597,4.192698e-08,0.3,-48.441734,87.74114,87.73184,87.55964,87.8868,0.33697215,0.39999998,0.09317374229431152,14.380941657225291
41,410000,-0.31003697110887124,-85.99211,0.034547202,1.6016598,0.6741512,-2.8622723,84.74694,12.766396,3.795072,111.44915,111.65498,111.71483,111.74163,5.426856,0.7,-112.50029,-27.082619,0.0006824143,-369.02557,3.3534303,2.3461325,1.0532783,2.663362,1.7288113e-07,0.3,-54.70684,84.778595,84.86895,84.84266,84.89093,0.13532864,0.41718748,0.08461689949035645,14.714501941204071
42,420000,-0.36342805857271243,-86.744835,0.034330174,1.0621762,1.2819667,-6.19567,57.352913,90.39888,1.9126472,110.69163,110.94326,110.574005,110.34613,4.5652447,0.7,-111.150795,-29.533659,0.00065638014,-294.55594,7.0167336,4.940532,5.238372,4.893125,8.287648e-06,0.3,-51.05654,85.63509,85.66872,85.72362,85.59742,0.13901675,0.5171875,0.10690641403198242,15.04368486404419
43,430000,-0.35916103114504366,-88.72754,0.033343412,0.2465663,2.102737,-11.838482,54.646843,305.07364,10.967968,110.72819,110.89659,110.67647,110.67941,24.109726,0.7,-110.87443,-51.17943,0.00011721277,-465.8418,6.2537436,7.2852554,6.3496413,4.840498,6.325147e-06,0.3,-59.131943,87.4321,87.50279,87.65521,87.72504,0.33658093,0.4734375,0.10501432418823242,15.376964886983236
44,440000,-0.3553429816708709,-86.77528,0.034269407,0.3545197,0.71595156,-12.603967,72.28131,23.831913,5.1947937,110.88642,111.31762,111.648964,111.37659,12.081127,0.7,-111.72234,-25.664675,7.703493e-06,-426.37698,11.199956,10.538073,12.168281,10.1535635,9.387731e-08,0.3,-52.065742,85.86594,85.8958,86.1075,86.01134,0.12820646,0.465625,0.09753870964050293,15.710674126942953
45,450000,-0.3753466156114116,-87.382095,0.03407077,0.13277975,2.3893328,-14.187972,43.524296,244.17755,8.167456,110.76484,110.62473,111.365166,111.06385,31.942287,0.7,-111.46706,-35.721706,0.004654005,-460.11703,11.640006,14.3753805,12.798288,12.134327,6.265007e-07,0.3,-53.300064,86.47129,86.40451,86.884155,86.62898,0.22625676,0.46406248,0.10593867301940918,16.044446523984274
46,460000,-0.3624349392857574,-86.839966,0.03392115,0.99845827,1.3242595,-16.700691,56.912556,45.18615,6.721823,111.14761,111.35935,110.96159,110.79751,10.979626,0.7,-111.73004,-29.624578,0.00046836335,-411.76752,13.086306,13.880884,11.482428,11.503626,3.60026e-07,0.3,-57.040665,85.81651,85.852974,85.724396,85.65308,0.17274603,0.5140625,0.12311840057373047,16.383246994018556
47,470000,-0.32939532497571944,-88.44139,0.03420918,-0.4468566,1.2614316,-16.272337,62.06668,102.27486,7.686193,110.90196,110.75177,111.05299,111.285736,3.5636287,0.7,-111.30989,-33.478775,3.7258724e-05,-350.82144,10.281772,11.038982,10.708901,9.82419,2.4157924e-07,0.3,-52.28702,87.47243,87.49115,87.49565,87.608086,0.1056976,0.44062498,0.0923471450805664,16.72423998117447
48,480000,-0.30913525113802165,-91.1283,0.034483224,-0.5205828,0.8538303,-9.754741,81.26441,17.103027,4.706024,111.84533,111.717575,111.43824,111.58992,20.80468,0.7,-112.176254,-31.666576,0.00049890584,-547.26404,5.66094,4.6915073,4.3124228,4.478834,1.1895493e-06,0.3,-52.666977,90.0789,90.10448,89.79569,89.83928,0.18170509,0.4375,0.08384561538696289,17.068282624085743
49,490000,-0.2626267464626191,-89.19635,0.033924412,1.9432192,4.978631,-13.822036,81.79992,806.2043,3.813517,111.39771,111.42123,111.0412,110.929146,34.574554,0.7,-111.773796,-34.43898,0.00047968474,-461.62704,12.93318,12.919227,13.056779,12.638255,4.2808097e-05,0.3,-58.269157,88.02669,88.03234,87.74519,87.77269,0.32086098,0.5203125,0.07566094398498535,17.405815692742667
50,500000,-0.29348164864014487,-91.24013,0.032611534,0.7224685,1.0819384,-5.963278,66.95044,62.152714,5.41576,111.08143,110.7882,110.25876,110.4252,44.48741,0.7,-111.44953,-24.559769,0.0009805016,-384.42383,5.03531,5.7640147,2.4302907,1.530695,1.4864315e-06,0.3,-52.888367,90.2337,90.17676,89.98203,90.174774,0.29111072,0.4921875,0.0793752670288086,17.744636336962383
51,510000,-0.3583605299777707,-88.002365,0.03306692,0.66431636,0.6777436,-7.287558,52.87076,30.040318,7.3297286,110.679726,110.69228,110.44063,110.344734,7.1385026,0.7,-111.5127,-44.34829,0.0027921784,-356.37726,6.296025,6.553549,6.9393067,5.9025745,6.041257e-07,0.3,-52.66487,87.05506,86.98367,86.94624,86.99457,0.12492235,0.3984375,0.11416149139404297,18.092648192246756
52,520000,-0.38361810220202874,-89.34413,0.03259647,-1.0376663,0.5586287,-20.778069,41.191788,20.571712,3.5046694,111.12604,111.13628,111.03631,111.77538,38.57596,0.7,-112.34673,-31.019798,0.0011346492,-647.0149,19.80943,20.013617,19.675945,19.870588,2.3469328e-08,0.3,-52.065384,88.46858,88.491844,88.4279,88.55788,0.24063799,0.37812495,0.11847376823425293,18.44123015801112
53,530000,-0.3087725726381947,-87.85633,0.033908844,-1.11509,0.9649955,-4.552563,35.9605,60.105297,3.9073966,111.83158,112.20241,111.81347,112.40588,3.668146,0.7,-112.13397,-30.774385,0.00027408416,-706.9336,4.0261645,6.5377455,4.1126943,4.5387077,9.782961e-08,0.3,-57.73974,86.94027,86.95731,86.74782,86.901566,0.10854449,0.4109375,0.08015084266662598,18.780308028062183
54,540000,-0.3886284093143938,-89.374695,0.034190945,-0.3207783,0.5414529,-8.466316,65.830795,16.861353,4.312146,110.95272,111.0026,111.01031,110.837776,3.592462,0.7,-111.33846,-33.1417,4.5884226e-05,-435.2249,6.6821775,5.6920886,5.667719,5.7353206,6.9849196e-11,0.3,-55.649117,88.370346,88.430725,88.36795,88.40263,0.09313944,0.415625,0.11820101737976074,19.117360830307007
55,550000,-0.3937034545009991,-87.46905,0.03265139,1.3487042,1.7432413,-7.1367507,52.719875,81.9301,4.0838656,111.4969,111.180336,111.34995,111.52527,6.5932994,0.7,-111.39647,-36.859146,0.0019890976,-477.45593,6.07807,6.575751,6.240194,6.4659,8.5287616e-07,0.3,-63.620964,86.335014,86.307755,86.21196,86.228226,0.16940668,0.5203125,0.11278176307678223,19.454329224427543
56,560000,-0.39260046204222243,-87.88835,0.032646295,0.2801995,0.9205071,-5.2400565,40.050327,20.351633,5.5313087,111.386185,111.1415,111.672356,111.69096,1.3815211,0.7,-111.09403,-31.736897,0.00042550202,-904.07495,0.74464405,0.47838587,1.332618,0.32269984,9.305659e-08,0.3,-59.85103,86.83147,86.85155,87.22427,87.08855,0.06321955,0.4734375,0.11659002304077148,19.791836682955424
57,570000,-0.3891730079257832,-85.48803,0.032893028,2.628206,0.8276166,-1.3031753,57.158085,17.417425,5.334058,110.79967,110.48977,110.634575,110.569954,3.1926134,0.7,-111.90199,-34.50147,0.00032402977,-399.92627,-0.5675804,0.001390934,-1.1561723,-0.8165952,5.202775e-07,0.3,-60.8715,84.54807,84.61606,84.71334,84.651825,0.08327511,0.45156246,0.12333369255065918,20.12836132446925
58,580000,-0.40032278805106114,-89.44284,0.03335718,-0.07500905,0.9157207,-4.3724504,60.888588,30.10143,8.829264,110.58051,110.43144,110.532394,110.74916,4.281128,0.7,-110.69517,-34.769558,0.00031179108,-521.2141,2.8094687,1.9073769,-0.11463389,1.6279056,6.8459195e-07,0.3,-58.147713,88.44479,88.35658,88.37959,88.5317,0.109918006,0.421875,0.11649179458618164,20.464755845069885
59,590000,-0.39673312997689564,-88.369606,0.033053152,0.24558681,1.0903006,-20.681704,63.367634,45.67878,6.057831,110.46824,110.359245,110.18949,110.531975,3.227743,0.7,-110.765076,-28.032278,0.0004105108,-271.09668,17.886065,17.563334,16.886162,16.970005,1.2194679e-06,0.3,-49.68937,87.35637,87.3306,87.0083,87.22478,0.12708005,0.42343748,0.1195974349975586,20.797307944297792
60,600000,-0.26770101596416457,-85.03859,0.032105945,0.9279196,0.9140214,-2.8294458,65.86902,56.836666,5.0161266,111.92565,111.740425,111.647545,111.21178,6.621907,0.7,-112.41511,-37.23639,0.00019952573,-671.87506,1.8933847,2.044244,1.0105363,2.7500691,1.7968704e-08,0.3,-58.411743,84.11214,84.11241,83.95218,83.99791,0.17954457,0.45468748,0.07349920272827148,21.126967513561247
61,610000,-0.39956955144161144,-88.14102,0.032403924,-0.28842348,1.1396385,-18.620821,64.67366,43.27797,3.3654337,111.14694,110.99142,110.50095,110.7223,9.212537,0.7,-111.67174,-47.28965,0.002334571,-406.57803,18.009972,17.692781,17.784279,18.35154,7.647497e-07,0.3,-54.246662,87.27717,87.21469,86.94002,87.005844,0.1251075,0.44843748,0.10892653465270996,21.451956721146903
62,620000,-0.3943792145660772,-86.84602,0.032336872,1.2893682,1.857268,-18.809952,74.01833,139.29257,6.7207923,111.17337,110.90904,111.24065,110.73931,37.999943,0.7,-111.862015,-28.431324,0.00090195576,-389.42166,19.812819,17.586529,19.857248,18.855272,2.542918e-07,0.3,-59.95337,85.726974,85.69895,85.61217,85.66518,0.40075496,0.49218747,0.10928773880004883,21.780102451642353
63,630000,-0.28664550809140993,-87.009766,0.03218822,-0.713429,0.70675063,-6.307762,61.573925,23.00975,6.3434725,110.79076,110.95449,110.67147,111.03431,48.017796,0.7,-111.67331,-37.390865,0.00029944192,-431.0073,6.434496,6.576755,5.812832,5.566145,6.30389e-09,0.3,-53.264606,86.06384,86.00624,85.85255,86.0243,0.27647588,0.45468748,0.0737159252166748,22.11018649339676
64,640000,-0.39524523374869397,-89.22078,0.031375524,-0.118415415,1.0478911,-4.506398,52.126736,49.204147,5.763624,111.16249,110.876724,110.60197,110.8733,4.2902985,0.7,-111.360596,-36.194916,0.0012352305,-514.28705,3.6804628,2.3786743,5.648097,5.6057496,8.3138005e-08,0.3,-56.60347,88.32164,88.251495,88.10724,88.219345,0.122360855,0.45156246,0.10877680778503418,22.448316240310668
65,650000,-0.3943597257544314,-89.9243,0.031761426,0.97681653,0.79994863,-15.273881,48.038803,30.625292,4.722909,111.59432,111.56729,111.10213,110.95751,2.5238595,0.7,-111.85023,-28.64196,0.00074719836,-491.25165,14.9150715,14.600475,15.588857,15.061247,1.6093254e-07,0.3,-58.071953,88.90233,88.913826,88.88577,88.89485,0.101447485,0.50624996,0.11525130271911621,22.784222026666004
66,660000,-0.30897512064512356,-87.31072,0.030905372,0.38668,1.2363467,-9.76182,46.979416,38.145638,4.2717886,111.37681,111.43564,111.33645,110.78611,4.6894083,0.7,-111.76697,-35.94549,0.0020605582,-548.9056,4.959198,5.6598344,4.5329967,4.555751,7.0549436e-07,0.3,-63.983402,86.13835,86.13683,85.805405,85.76384,0.11576898,0.5390625,0.08225703239440918,23.115477844079336
67,670000,-0.40221003279418227,-86.057625,0.031450428,0.29454473,0.99163485,-19.169983,54.619488,57.84757,3.256689,111.71223,110.91193,110.96468,111.26364,29.803368,0.7,-111.38929,-25.206741,2.5918998e-05,-676.9121,18.63591,19.554626,18.639624,19.110498,8.1005857e-07,0.3,-57.908585,85.25493,85.25851,85.27044,85.139305,0.26077485,0.403125,0.11798620223999023,23.444667160511017
68,680000,-0.32737912766563776,-89.32567,0.032556787,0.85089207,1.964318,-17.290682,49.692093,139.23009,9.393565,111.74708,112.631325,111.794876,112.24968,1.4261246,0.7,-112.39453,-30.62288,0.0029431111,-676.4857,15.593978,16.249878,19.672781,18.887932,2.3013634e-05,0.3,-58.44683,88.4286,88.42248,88.78171,88.697754,0.08740556,0.39999998,0.08693170547485352,23.78689515988032
69,690000,-0.39864550625613016,-87.55939,0.03132927,-1.132383,0.9109535,-7.023336,34.491425,47.06451,3.6234913,111.00073,111.07905,110.872086,110.923256,3.3852537,0.7,-110.71319,-41.23423,3.2946933e-05,-476.40714,5.5114884,5.3909044,6.8320823,6.3454795,6.468734e-07,0.3,-62.10736,86.55683,86.44954,86.54234,86.47529,0.094778016,0.50624996,0.11813735961914062,24.119166735808054
70,700000,-0.34238063850809725,-87.88107,0.031334963,0.19045487,0.782371,-21.500046,70.74982,51.898216,5.173839,110.541855,110.30506,111.392654,110.86346,2.2775264,0.7,-111.061516,-34.20714,0.00027741614,-610.19415,20.386705,20.06516,19.882805,19.964735,5.0466045e-09,0.3,-70.61224,86.767456,86.77502,86.917435,87.00501,0.09430641,0.40156245,0.08804750442504883,24.447316388289135
71,710000,-0.28355957827161987,-87.87056,0.030981569,0.8619588,0.7646582,-19.54018,57.2063,25.09861,4.2594137,110.60664,110.53419,110.09808,110.32594,38.765553,0.7,-110.98303,-34.708282,0.00087299244,-619.6935,19.494978,19.528345,20.088003,20.0993,3.9156294e-08,0.3,-72.99306,86.52073,86.59349,86.55929,86.69225,0.3361258,0.459375,0.07234501838684082,24.77835928996404
72,720000,-0.3838276423828489,-87.084984,0.030704428,0.9302567,1.1905338,-7.24031,54.634212,83.975945,5.420346,111.31098,111.44135,111.59282,111.33959,6.0015397,0.7,-111.85438,-40.28786,0.00074776314,-748.96344,8.0673485,8.84353,8.703694,9.518967,1.1457014e-07,0.3,-65.00215,86.1387,86.08826,86.026146,86.17646,0.10735759,0.36093748,0.10634779930114746,25.10832321246465
73,730000,-0.3920209682579458,-85.90996,0.030934595,1.448848,1.2164207,-3.49003,60.974472,91.27999,5.6872854,110.784744,110.74733,110.4086,110.426926,1.8352227,0.7,-112.0782,-39.690533,0.0010051999,-767.32733,2.0632844,3.205071,7.0745587,6.765235,2.8722098e-07,0.3,-64.13365,84.89223,84.85254,84.62681,84.52997,0.10062548,0.5484375,0.11618685722351074,25.448965322971343
74,740000,-0.3309832597230741,-88.673355,0.0315461,0.4955972,0.7417904,-21.712866,45.971535,24.149155,5.9066005,110.67693,110.870575,111.23479,111.22735,6.136072,0.7,-110.861855,-26.653572,0.0023097522,-354.00787,20.88632,21.033371,21.008543,21.092463,3.3738908e-07,0.3,-57.789352,87.68953,87.67032,87.868164,87.789764,0.10524671,0.4734375,0.09192585945129395,25.785042210419974
75,750000,-0.3874663818709622,-86.56238,0.030259654,-0.2638703,0.6610371,-9.847405,55.652893,54.79055,3.0283785,111.05193,110.79603,111.31537,110.82223,3.0370004,0.7,-111.2303,-36.77367,0.00019174308,-515.71576,5.5696054,5.08679,5.05369,6.44062,3.1838836e-06,0.3,-61.10205,85.806854,85.755066,85.78028,85.74704,0.08702929,0.509375,0.11875009536743164,26.116675059000652
76,760000,-0.37887975946762215,-86.787575,0.030577905,1.7863104,1.0405602,-20.722546,52.805515,45.39464,3.7157261,110.914444,110.87779,110.35493,110.59804,40.05589,0.7,-111.09397,-33.642265,0.0010291883,-410.1665,20.507914,20.02982,18.68236,19.047308,6.486702e-06,0.3,-54.89672,85.82559,85.86409,85.550156,85.79978,0.28456673,0.44843745,0.10807180404663086,26.446635405222576
77,770000,-0.3703638105951014,-89.50621,0.031060252,-0.42205846,0.8996562,-11.92904,50.817795,35.57599,4.2682257,109.96358,110.126175,109.87841,109.81809,3.0114605,0.7,-110.49358,-31.94581,0.0021259496,-407.3781,10.870125,10.808275,13.96778,10.658296,4.0233136e-08,0.3,-56.075504,88.540665,88.71776,88.51628,88.435394,0.09964256,0.521875,0.11073970794677734,26.774938599268594
78,780000,-0.3830012355891032,-86.072,0.030948028,-0.3791117,0.8100058,-5.0288095,55.242798,23.151615,4.892865,112.104935,111.69636,111.065704,111.61597,1.5571547,0.7,-112.656906,-37.046837,0.0005900827,-582.4382,5.384843,4.774359,4.0224442,4.272951,7.627707e-07,0.3,-67.24955,85.201744,85.1071,84.85084,84.84563,0.082979456,0.46875,0.11286497116088867,27.10821857055028
79,790000,-0.39168352623802055,-84.675835,0.030701537,0.3138643,1.0452266,-20.834505,68.922226,45.24396,2.5980864,112.285,111.93018,112.13613,111.97755,5.194236,0.7,-112.33595,-37.13157,0.00062262756,-673.1314,19.80777,19.48248,20.452782,20.02479,1.502037e-06,0.3,-67.9943,83.82808,83.8385,83.8171,83.76846,0.10134311,0.45937496,0.11823892593383789,27.44036217133204
80,800000,-0.35440433730050946,-88.14079,0.029646665,-0.058781847,0.4502362,-16.55517,46.664696,15.816679,6.4990563,111.130844,111.09481,110.73132,110.905876,4.375464,0.7,-111.79423,-36.08303,0.0024941687,-388.36557,19.494919,16.408827,17.350388,18.730713,3.3255202e-07,0.3,-63.457832,87.43817,87.356766,87.33422,87.41091,0.0986081,0.421875,0.09301877021789551,27.77324271996816
81,810000,-0.39630266640985196,-86.1137,0.030125862,-0.63032573,3.1959295,-15.020817,56.221767,436.38998,3.836866,110.52397,110.694916,110.39245,111.0947,12.773425,0.7,-111.33698,-38.331196,0.0013164834,-626.3895,11.939418,13.571942,12.779066,12.909043,9.561656e-07,0.3,-63.632072,85.12006,85.04999,85.21241,85.154816,0.13859962,0.4796875,0.1114957332611084,28.10708082516988
82,820000,-0.3817191584816317,-89.354195,0.030432193,-0.08153102,0.8892517,-11.607364,58.646782,35.20616,5.5554447,110.386566,110.74737,111.170654,111.176796,1.8587904,0.7,-111.4724,-39.135555,0.00064066437,-502.78372,11.507798,10.356307,10.57912,10.062655,3.3737185e-06,0.3,-58.62728,88.38191,88.41903,88.80441,88.76059,0.11976557,0.35468745,0.11539196968078613,28.43997839689255
83,830000,-0.38943080229649935,-90.52064,0.029585056,-0.66642535,0.51611114,-17.775116,40.49443,24.905102,3.0167422,110.69572,110.3686,110.55207,110.62152,1.5209551,0.7,-110.69454,-27.806984,8.573808e-05,-477.26266,18.82212,19.480282,18.431595,18.50206,1.7968704e-08,0.3,-49.03125,89.89053,89.83022,89.87607,89.88016,0.057743393,0.44687498,0.1192786693572998,28.771660975615184
84,840000,-0.3829211009163879,-87.101456,0.029277043,-0.1833564,0.7995275,-20.854074,41.8767,25.489197,4.7644,110.9058,111.22033,112.17316,111.75826,11.349234,0.7,-111.339195,-44.749905,0.00090327347,-409.74014,19.457182,19.544361,19.517187,19.292646,5.657785e-09,0.3,-59.50378,86.127014,86.11072,86.321144,86.38873,0.16544607,0.3875,0.11499214172363281,29.101863396167754
85,850000,-0.3804916863954294,-88.49123,0.02907184,-0.09182106,1.0837994,-19.174452,54.677235,81.40965,10.748602,111.04328,110.77447,110.7892,110.96326,4.9583335,0.7,-111.171425,-30.437283,0.0008855626,-474.0571,18.936102,18.455591,18.30308,17.68859,1.1227792e-06,0.3,-58.66967,87.56097,87.62036,87.6293,87.66194,0.10912119,0.42968747,0.11620616912841797,29.432445009549458
86,860000,-0.37485685490148357,-87.03445,0.030516058,-0.10366759,0.8521252,-2.4140148,44.40319,16.561953,5.3510103,110.78721,110.48609,110.29482,110.4681,10.1732855,0.7,-110.66424,-41.06393,0.0047735316,-419.6868,2.5720541,4.2771797,3.6857018,2.8941355,9.725802e-07,0.3,-61.31936,86.06645,86.03675,85.7975,85.94035,0.13813221,0.4765625,0.11361503601074219,29.766029032071433
87,870000,-0.3845393354432279,-86.608665,0.030333374,0.750711,0.86429137,-15.220712,53.650455,52.21878,5.6728277,110.584335,111.14027,110.491425,110.74689,2.4889877,0.7,-111.23436,-33.73416,0.0013205546,-651.5498,15.133165,14.680472,15.730153,15.183578,2.6560157e-08,0.3,-59.15495,85.84725,85.91934,85.96365,86.05561,0.07785404,0.4234375,0.11983203887939453,30.09644481341044
88,880000,-0.39203363581564993,-88.08939,0.029163642,-0.48725158,0.8472186,-10.126769,46.126297,110.72586,3.1532326,111.225006,110.67627,111.13797,110.80095,7.662253,0.7,-111.34792,-34.006805,0.00039810274,-595.7711,10.057088,11.243539,9.516835,8.618257,2.1269254e-06,0.3,-60.20244,87.07675,87.16365,87.21496,87.2405,0.07633209,0.4390625,0.11460065841674805,30.41955211957296
89,890000,-0.38190001949478114,-87.47383,0.029291973,-0.056967914,0.7183201,2.7615967,51.22257,63.33051,5.3332376,110.441,110.49664,110.61695,110.60919,9.788672,0.7,-110.58184,-47.318386,0.000124808,-421.1846,-0.3065822,-1.8228172,1.0008287,-0.9039784,2.3093891e-07,0.3,-63.948547,86.56257,86.608925,86.697014,86.64465,0.122988075,0.4859375,0.12169504165649414,30.74725544055303
90,900000,-0.3945226725512723,-88.61577,0.028428582,-2.0267081,0.8049523,-20.025103,47.407482,40.934242,2.9771695,110.3448,110.45558,110.98615,110.842514,1.7967664,0.7,-111.47937,-34.39891,0.00036947575,-778.7972,20.456232,20.361681,20.08857,20.035742,3.3807012e-08,0.3,-54.144398,87.81961,87.78075,87.822495,87.84407,0.06642172,0.4359375,0.12433338165283203,31.094125576814015
91,910000,-0.38319083231602524,-86.127045,0.028428312,-0.08988693,0.6461015,-1.944828,48.5769,14.298797,6.2600193,111.7101,112.24165,111.71584,112.07939,34.52619,0.7,-112.27617,-34.796837,0.0002645639,-495.98856,1.6788372,2.3091636,0.79133666,-0.9298558,2.7543864e-08,0.3,-64.89383,85.1884,85.313774,85.298775,85.36748,0.23056915,0.4609375,0.12211346626281738,31.442186188697814
92,920000,-0.4050276339031028,-88.24962,0.027695445,0.12352818,1.3481175,-10.737712,49.51117,35.59908,3.4471166,110.13846,110.55961,110.666115,110.40529,20.593998,0.7,-110.20538,-29.48335,3.0256415e-05,-393.48993,9.923061,9.6965885,11.722756,10.586355,9.623892e-06,0.3,-58.61785,87.25685,87.2791,87.63516,87.581894,0.19649753,0.4140625,0.11652541160583496,31.778875199953713
93,930000,-0.3883571845599873,-86.36777,0.029626941,0.9894414,0.5867893,-13.112793,56.43111,19.445892,5.5951614,110.96978,111.09861,111.04673,110.83221,8.408485,0.7,-112.10463,-28.223429,0.0007266845,-560.05115,10.6123495,11.047647,9.641671,10.245016,6.519258e-10,0.3,-60.405388,85.54419,85.539566,85.51021,85.55498,0.12199038,0.434375,0.11833024024963379,32.10998651981354
94,940000,-0.40306290608364853,-86.02111,0.027802158,-0.16720405,0.7986564,-18.27866,54.017235,14.368759,6.0215874,110.4477,110.58796,110.839226,110.74029,5.0736723,0.7,-111.021454,-41.928463,0.001905127,-409.51605,17.658844,14.930569,17.543148,17.566994,6.0992493e-06,0.3,-65.30279,85.16211,85.21883,85.36848,85.382385,0.115053676,0.453125,0.1233365535736084,32.43853927453359
95,950000,-0.3904421304289562,-87.87431,0.029317552,0.31994218,0.8034493,-6.8250136,53.11294,33.754467,13.484861,110.82507,111.324776,110.74942,110.835945,4.18634,0.7,-111.734604,-35.170967,0.001115115,-505.7617,7.2710133,6.994133,6.1506095,6.4054713,5.847949e-07,0.3,-61.081764,86.88277,86.92035,86.91731,86.93813,0.098297544,0.3984375,0.11608004570007324,32.76864130496979
96,955000,-0.396338783870366,-87.18707,0.02709726,0.35404313,0.6958456,-21.919718,74.218765,13.148705,5.9139624,110.53036,110.53916,111.16291,110.13996,27.673729,0.7,-111.11459,-31.418505,0.00086193235,-386.96353,21.349817,21.041857,21.171066,21.323341,4.4703485e-09,0.3,-59.493233,86.198814,86.16594,85.99358,86.1131,0.22329885,0.4109375,0.11359786987304688,32.93339591026306
97,960000,-0.39979209121338194,-86.752045,0.029430501,0.40368497,0.8670025,-8.38017,56.316074,59.247726,4.978916,110.82295,110.7481,110.619576,110.68546,27.38976,0.7,-111.197845,-38.24107,0.0023906936,-1587.8682,8.682847,8.022053,8.631409,7.6984434,1.446053e-07,0.3,-67.84065,85.8483,85.8317,85.79577,85.92465,0.2881331,0.403125,0.11123442649841309,33.10018715063731
98,965000,-0.3944360467342222,-87.05552,0.030572308,0.03152296,0.59845376,-11.93726,50.530163,35.3341,5.337759,111.07761,111.032364,111.11159,111.22274,1.1371431,0.7,-111.14778,-37.726173,0.00041220756,-380.75708,10.91097,11.275654,10.766696,11.45348,1.7214916e-07,0.3,-60.047173,86.19423,86.227516,86.23691,86.34506,0.06442178,0.38437498,0.11783146858215332,33.272622275352475
99,970000,-0.3838083561425481,-86.607254,0.027648887,-0.43997836,0.7407967,-4.1504145,57.83662,28.955872,8.697132,110.620766,110.70261,110.30715,110.230576,4.0073695,0.7,-110.719696,-40.61976,0.0010931448,-469.46454,5.9122844,4.1753826,1.5782572,4.597732,1.678127e-08,0.3,-62.12964,85.834015,85.77791,85.65781,85.7281,0.094319634,0.4265625,0.11584353446960449,33.44090411265691
100,975000,-0.38940991782991874,-86.80534,0.028622542,-1.5650299,0.68672395,-13.72972,46.280823,42.265602,6.0425434,110.42135,110.466515,110.353584,110.44059,2.4431574,0.7,-110.52155,-38.607918,0.0006597461,-1179.078,14.121213,13.441992,14.094606,13.951994,1.5429687e-07,0.3,-60.671597,86.02358,85.96056,85.91945,86.010086,0.07509923,0.4109375,0.11261391639709473,33.60939007202784
101,980000,-0.3994215548906493,-85.877304,0.028386308,0.78512627,0.8207208,-19.833454,54.965652,44.22529,6.917789,110.693855,110.55112,110.77637,111.258575,6.153934,0.7,-111.532715,-39.24229,0.00058052095,-786.69495,19.351027,19.270931,18.949617,18.875849,8.840289e-07,0.3,-64.21937,85.04055,84.98842,84.95382,84.94907,0.09361406,0.4921875,0.11645269393920898,33.77592255671819
102,985000,-0.3936346853622091,-90.064384,0.02886672,0.011240974,0.7931017,-7.0000386,77.19675,25.462673,5.4236946,111.01615,110.75104,110.70862,110.6118,5.6152835,0.7,-110.87088,-35.242737,0.00051297346,-465.28064,3.7459598,6.4944444,6.4242563,6.2443004,8.802745e-08,0.3,-54.670906,89.08931,89.21649,89.429054,89.36219,0.08421406,0.40781248,0.11367464065551758,33.945449352264404
103,990000,-0.39260219583378014,-87.94789,0.025971787,0.07667961,0.85193896,-5.8047266,51.61596,24.390522,6.6093345,111.174736,111.18535,110.62366,110.90664,1.3915492,0.7,-111.37468,-46.44705,0.0043426957,-392.38754,4.150485,4.2509947,2.9367511,3.7774985,4.9051596e-06,0.3,-57.680626,87.0617,87.078545,86.70187,86.71076,0.0834661,0.50468755,0.11090087890625,34.11317641735077
104,995000,-0.3957416968973876,-86.543335,0.026861316,0.018984318,0.7439846,-10.171695,44.473804,36.091232,5.329972,110.44525,110.37916,110.63009,110.75463,3.9825642,0.7,-110.88088,-41.58884,0.0014533224,-367.01297,11.071616,9.674979,10.681951,10.525547,3.6670825e-10,0.3,-58.395004,85.76869,85.84537,85.82941,85.92268,0.09734687,0.44375002,0.10995936393737793,34.280186132589975
105,1000000,-0.3874081105344073,-88.52222,0.028809447,-0.346221,0.465676,-4.8504305,61.552948,15.232149,4.149588,110.56814,110.74377,110.741745,110.81042,12.925296,0.7,-110.91358,-33.35435,0.0007437237,-395.0289,5.453732,5.0348644,2.492533,3.781408,8.6852816e-07,0.3,-58.42936,87.79495,87.72353,87.76886,87.75271,0.14373377,0.5046875,0.11609387397766113,34.451051052411394
