Xixo99/comfo/relaxed_iql/20230321_5seed_mle0/halfcheetah-medium-expert-v2/riql_s0_20230320_190819_halfcheetah-medium-expert-v2_4.83.csv
,step,reward,actor_loss,alpha,alpha_loss,critic_loss,max_actor_loss,max_alpha_loss,max_critic_loss,max_mle_prob,max_q1,max_q2,max_target_q,max_v,max_value_loss,max_weight,min_actor_loss,min_alpha_loss,min_critic_loss,min_mle_prob,min_q1,min_q2,min_target_q,min_v,min_value_loss,min_weight,mle_prob,q1,q2,target_q,v,value_loss,weight,eval_time,time
0,0,2.255396098232025,,,,,,,,,,,,,,,,,,,,,,,,,,,,,,,,,
1,10000,0.28809920076769246,-28.313839,0.062469598,-9.612263,0.36788815,-7.702659,15.0652895,9.001287,7.1045094,41.77153,41.83982,42.324238,41.295113,0.58309627,0.7,-41.89012,-34.277245,0.00022851962,-60.42531,8.00265,7.73223,8.038137,7.90469,2.4108886e-07,0.3,-8.896437,27.914398,27.932304,27.983984,27.521366,0.03418053,0.465625,5.590731620788574,1.537400762240092
2,20000,-2.6173203806716048,-46.21157,0.06390087,-0.73216546,1.0558032,-17.35753,27.52741,41.422333,8.872947,69.78128,69.74757,70.43658,70.03475,4.624058,0.7,-70.23522,-32.507668,0.001114365,-106.93881,17.59021,17.352432,16.456415,15.298894,1.756723e-05,0.3,-18.518324,45.11698,45.096313,45.23497,45.19568,0.15153094,0.3875,5.800511598587036,1.9664917866388956
3,30000,-2.626161198473099,-59.92221,0.07876904,-0.19549735,0.9500439,-8.081649,39.629093,17.12222,11.012123,88.01869,87.994736,88.42264,89.08677,3.9696984,0.7,-88.14444,-23.694132,0.0007086663,-100.49557,7.351277,6.9824657,7.867608,7.3751674,3.1838836e-06,0.3,-20.599289,58.536224,58.52018,58.823643,58.737648,0.13063456,0.44687498,6.033900260925293,2.3977995912233987
4,40000,-1.2505647980545183,-64.91233,0.0868452,0.20475245,1.0664635,-8.838062,24.033726,12.674149,11.23509,100.40033,100.40068,99.58105,100.117615,1.5045903,0.7,-101.001045,-23.966589,0.00015300774,-115.200806,6.755684,6.927699,7.592037,6.7048564,1.1713885e-06,0.3,-23.583029,63.210335,63.164467,62.87883,62.996178,0.10563451,0.4359375,5.6555335521698,2.8250089406967165
5,50000,-0.9519815077608493,-71.51184,0.08986824,0.19533265,1.4169483,-3.892438,21.048594,22.051058,11.496728,108.13034,108.28586,107.84119,107.80381,1.6824023,0.7,-107.708015,-29.286226,0.0042069927,-155.41534,1.9914899,1.0885041,2.6124055,2.3121014,2.4818992e-06,0.3,-25.363688,69.64491,69.6701,69.80754,69.83611,0.14343505,0.42499998,5.8015594482421875,3.2605098366737364
6,60000,-0.9638120559035644,-74.03337,0.090791926,-0.26692832,1.2025242,-11.578488,35.39424,20.221592,10.453361,111.2035,111.12404,110.723526,110.29494,3.3823414,0.7,-111.24987,-33.92828,0.00090662093,-136.82193,9.000172,10.006162,9.300811,9.144263,0.00015486412,0.3,-26.178322,71.89925,71.90393,71.76289,71.73723,0.18503585,0.46875,5.74923849105835,3.6889614621798197
7,70000,-0.6705202269103849,-78.34538,0.09145291,-0.5821707,1.4804618,-14.613198,19.824856,35.18068,10.960301,112.7806,113.16537,113.28732,112.93099,6.035791,0.7,-113.14024,-21.83694,0.000771012,-199.28516,14.74193,14.106074,13.828536,14.194937,1.1001423e-06,0.3,-27.442276,76.46778,76.45305,76.66998,76.69177,0.1365223,0.43124998,5.886449337005615,4.116437911987305
8,80000,-1.3817563530475716,-77.34389,0.09161465,-0.16025719,1.7873358,-8.718929,21.579208,42.179893,10.512545,113.7809,114.10755,112.91928,113.48197,27.05293,0.7,-113.7608,-32.471134,0.0005310841,-180.36783,9.624697,8.844624,9.431861,9.405491,2.673303e-07,0.3,-35.388973,74.676445,74.57966,74.408676,74.527084,0.3084795,0.428125,5.864391803741455,4.5463606516520185
9,90000,-1.4088102189696605,-77.896126,0.0913896,-0.35335994,1.3289118,-5.717164,22.1707,18.127272,12.284071,114.745735,114.69543,115.31624,114.856964,18.365744,0.7,-114.84278,-27.455906,0.0019535806,-236.45242,6.354106,5.0805492,5.495397,6.3087673,5.912036e-07,0.3,-38.835953,75.09914,75.070625,75.13689,75.25127,0.24964285,0.434375,5.901999235153198,4.9759629209836325
10,100000,0.940796938451899,-80.49519,0.09324985,0.11726916,1.6976821,-7.486741,26.263617,27.28967,10.725768,115.66176,115.64853,115.947,115.67577,20.48706,0.7,-115.67265,-20.192608,0.0023675987,-346.96262,5.6885195,5.3571854,7.9400425,7.0941215,1.6942359e-07,0.3,-39.68982,77.626595,77.599205,77.39594,77.51236,0.2820264,0.4421875,5.746910095214844,5.399454851945241
11,110000,2.0755458919331615,-79.60869,0.0943727,0.31625387,1.4088213,-10.780552,17.915258,28.487913,10.573166,116.45321,116.08697,116.12619,116.71761,4.7016616,0.7,-115.72354,-21.51647,0.0009215764,-247.6803,9.363791,7.4316697,6.9925513,8.869826,8.802745e-08,0.3,-40.86453,76.50241,76.51872,76.49185,76.55974,0.18671922,0.44374996,5.722935676574707,5.8288672049840295
12,120000,0.5939601996391727,-81.12277,0.0932879,0.59118223,1.5170616,-6.865739,15.829744,26.911394,13.108829,114.98411,114.87158,115.466125,115.47784,2.015863,0.7,-115.28688,-21.478764,0.0005451264,-409.11844,7.348717,7.2904935,5.7291937,6.296862,1.2146845e-05,0.3,-44.046177,77.94508,77.92719,77.86775,78.07774,0.13812849,0.42499998,5.727108955383301,6.252189179261525
13,130000,3.2254834759977036,-82.5193,0.09391893,-1.0630509,1.0084169,-5.8498425,16.539799,12.813363,11.442896,115.044525,115.0192,115.35341,114.7479,1.9092886,0.7,-114.67292,-29.36004,0.00013893728,-206.83705,4.728235,5.489183,5.8481817,6.0212474,1.6248934e-05,0.3,-39.48727,79.35023,79.35002,79.60283,79.49647,0.12235246,0.425,5.741478443145752,6.6780780037244165
14,140000,0.9056575215435323,-77.08581,0.091307774,0.6289892,0.91659236,-40.519302,21.340357,14.960429,11.133913,113.17982,113.0134,112.87064,114.03103,2.180474,0.7,-113.29281,-24.349913,0.0031999345,-386.44717,40.499535,41.18666,40.710293,39.955273,2.046243e-05,0.3,-61.537674,72.77721,72.952896,73.05748,73.18918,0.16179933,0.36874998,5.752434730529785,7.104992560545603
15,150000,1.6505353281698658,-82.73945,0.09233363,0.062705904,1.5210687,-41.701332,20.584648,116.32524,14.162861,114.05625,114.10075,114.08055,113.91401,1.5612354,0.7,-113.94628,-28.25714,0.0008535419,-411.0999,41.869717,41.349846,40.433186,41.73644,1.3570752e-06,0.3,-49.950386,79.2704,79.19898,79.11797,79.134094,0.12987332,0.49531248,5.80604362487793,7.53039036989212
16,160000,1.1131869602377773,-81.26395,0.09129175,-0.21707092,1.7801931,-4.9081397,21.422005,52.890472,9.856173,114.12716,114.14705,113.51254,113.80136,4.229393,0.7,-114.273155,-21.277407,6.279175e-05,-350.0906,2.609247,4.2349677,4.4772706,4.711373,3.5361156e-10,0.3,-49.24684,78.05629,78.00052,77.55193,77.668686,0.20714004,0.47812498,5.719485759735107,7.9562577366828915
17,170000,0.20462607759445312,-81.972855,0.08925081,0.05029732,1.274203,-19.09863,18.452581,16.02079,11.29204,112.6821,112.70002,113.278175,113.09791,2.9088209,0.7,-112.54989,-20.68227,0.00023537461,-518.02484,16.816795,17.501932,16.875948,18.494167,3.392688e-05,0.3,-52.421265,78.8707,78.87627,78.848015,79.002846,0.18281968,0.43124998,5.743221282958984,8.376804228623708
18,180000,-0.6928352007534605,-83.277954,0.088014185,0.5165906,2.1579022,-29.186756,19.63125,147.89883,11.785955,112.8577,112.731834,112.62447,112.64497,1.9779184,0.7,-112.01046,-26.927603,3.9600767e-05,-385.76398,26.37185,26.549314,27.3032,27.437082,1.6673177e-06,0.3,-52.294792,79.9113,79.870605,80.24136,80.094635,0.11639491,0.49062496,5.792280435562134,8.80618226925532
19,190000,-0.08951735510241636,-78.5692,0.08976536,0.928984,1.705107,-4.325023,23.60491,19.195095,11.636248,112.9255,113.43543,113.01554,113.23805,64.33333,0.7,-113.02178,-19.431086,0.0015148707,-465.46994,3.4733152,3.943264,4.805077,3.6120758,2.8505558e-06,0.3,-68.446335,74.043915,74.15139,74.2345,74.16756,0.4731884,0.46718752,5.7613043785095215,9.233526380856832
20,200000,2.0295180652117786,-79.54385,0.08866586,0.41030002,0.8548058,-6.4358745,19.450829,6.9402275,12.121685,111.84389,111.89825,112.11936,112.57347,9.251559,0.7,-112.13867,-29.892561,0.0014077653,-446.93524,4.905859,5.594317,6.0295644,6.725511,9.9836325e-06,0.3,-73.55014,74.833176,74.8772,74.92893,75.006584,0.22879517,0.421875,5.724153280258179,9.656165369351704
21,210000,-0.5835826293448232,-79.08902,0.08705913,0.99247193,1.5379363,-34.618546,22.280422,56.036095,11.249216,113.03981,113.003395,113.84564,113.19455,6.0146503,0.7,-112.63307,-28.326233,0.0029345427,-448.5213,33.812263,33.727303,33.1483,34.26004,1.3886719e-06,0.3,-76.65976,74.94579,74.984535,75.28711,75.27325,0.16970162,0.42968747,5.6823108196258545,10.09073707262675
22,220000,-0.37254820823803697,-84.14572,0.08777577,0.35587686,2.0166976,-7.259818,20.563656,85.18453,12.544636,111.570564,111.73877,111.430046,111.37773,2.2771301,0.7,-112.044044,-26.372572,0.002621786,-577.3698,7.323135,7.8630924,5.6687794,6.398058,4.0429586e-06,0.3,-60.51539,80.23897,80.1455,79.92839,79.91564,0.13510375,0.55156255,5.648290395736694,10.513594973087312
23,230000,-3.0408105921395814,-81.442535,0.08743673,0.0075344145,1.3603739,-44.191586,20.115818,128.5143,11.94782,112.02543,111.95077,112.12646,112.22675,22.885725,0.7,-112.61962,-30.262272,0.001085078,-502.01837,43.18663,43.58683,43.106686,44.266594,1.2919307e-06,0.3,-63.724754,77.25262,77.292465,77.19997,77.29376,0.35832193,0.4546875,5.662213325500488,10.937526778380077
24,240000,-0.86623596743026,-80.638405,0.0872646,0.19643736,1.3572263,-6.0107684,19.90959,47.61207,11.437625,111.90232,112.057396,111.79681,111.50238,74.91068,0.7,-111.99442,-22.708763,1.5104219e-05,-522.1426,5.542448,5.7492476,5.8100343,5.2897663,3.3003744e-09,0.3,-66.4686,76.54939,76.54791,76.48566,76.622055,0.4655296,0.4265625,5.641495227813721,11.36678762435913
25,250000,-2.7554460811212547,-83.03462,0.08570195,-0.390903,1.8867882,-4.7663975,22.39148,168.11044,12.425091,111.91512,111.94257,112.18567,112.43103,15.244075,0.7,-112.12206,-22.842154,0.002864893,-774.454,4.1662564,5.1401873,4.6690164,5.7519064,1.4096265e-06,0.3,-80.28926,78.792984,78.62457,78.53694,78.79047,0.27669218,0.378125,5.805695295333862,11.79673710266749
26,260000,-2.065494016234987,-81.60487,0.0867078,0.1572906,1.2534727,-40.307365,24.656097,18.88643,10.679951,110.76507,110.91885,112.4275,110.80164,53.15474,0.7,-110.52747,-28.983725,0.0027692665,-475.03323,38.385254,39.301903,37.198975,41.042572,2.5262532e-06,0.3,-57.742367,77.93523,77.95117,78.1895,78.060196,0.4413185,0.465625,5.6114606857299805,12.219893896579743
27,270000,-0.260260264057232,-80.05845,0.08625604,0.056571186,1.7926034,-4.0321646,21.678143,92.68213,10.687188,113.27534,113.149284,113.98429,113.16827,12.013999,0.7,-113.00845,-28.100542,0.002650175,-576.16833,3.715421,3.6412966,4.1740103,3.9444451,1.517724e-06,0.3,-74.57213,75.254715,75.16149,75.45075,75.49585,0.2764842,0.3984375,5.759680509567261,12.646269237995147
28,280000,-1.769506299568785,-82.12255,0.08643809,-0.07762307,1.190758,-42.841118,22.7409,52.770973,9.764659,111.4653,112.006874,111.39571,111.53086,26.034184,0.7,-111.40265,-26.01879,0.002164099,-564.5864,42.26012,42.248226,40.677464,42.296352,4.3655746e-08,0.3,-71.94714,77.33278,77.36594,77.23487,77.36658,0.2538768,0.40625,6.15334153175354,13.085872880617778
29,290000,-1.7623090385458138,-82.51979,0.08475756,-0.88420224,1.0041878,-7.06931,20.381256,30.68861,12.183733,110.5641,110.471535,110.54829,110.28862,66.99006,0.7,-110.12627,-31.222477,0.0007852489,-762.7098,6.1659827,5.852167,6.307838,6.9455576,1.4428766e-05,0.3,-78.46286,78.0939,77.98434,78.26073,78.24704,0.3827436,0.453125,5.6775431632995605,13.512798551718394
30,300000,0.8667928766993533,-80.68858,0.085416354,-0.17283928,1.7158972,-3.9632258,27.244202,57.55132,12.938612,111.172874,110.95101,109.86804,110.69191,3.31484,0.7,-110.89547,-23.353743,0.0010962369,-1061.9255,3.0915632,3.2366536,2.486271,3.8412604,1.2262899e-08,0.3,-74.554665,76.14072,76.096596,75.83545,76.0856,0.15035768,0.434375,5.721251726150513,13.937550052007039
31,310000,-1.938318295096795,-80.285675,0.08452069,-0.13865484,1.1373245,-6.442861,23.456762,23.141214,11.005231,110.19881,109.807556,109.63246,109.74692,37.46457,0.7,-110.739075,-27.36763,0.0019216475,-785.24414,4.8745313,5.640385,3.8427207,4.2299566,4.8700605e-07,0.3,-89.716705,75.24144,75.289734,75.133514,75.07121,0.3876541,0.4828125,5.81203031539917,14.370030589898427
32,320000,0.7333655537996833,-81.15653,0.08414219,-0.12029272,1.2015162,-31.989597,29.75418,21.743454,12.2520075,111.09938,111.10654,111.09356,111.8408,21.373055,0.7,-111.42959,-24.478579,8.473662e-05,-861.3827,28.954588,28.966227,32.23186,30.454185,1.5403319e-06,0.3,-85.22917,76.633545,76.683044,76.96272,77.007225,0.27310407,0.3515625,5.890796184539795,14.796149237950642
33,330000,0.4059823225342283,-80.031006,0.084791735,-0.36986864,1.4945846,-9.156158,23.351524,26.845821,12.717172,112.02503,111.74334,111.72336,111.37625,15.19975,0.7,-111.80315,-29.151194,0.0026710825,-527.6795,8.510249,9.241178,7.6944304,8.775832,1.177541e-08,0.3,-80.08305,75.45572,75.334366,75.39163,75.42387,0.25363126,0.4671875,5.726586818695068,15.220200363794962
34,340000,-0.27703058810532444,-83.057144,0.08429855,-0.3388473,1.0296926,-45.885506,27.035381,67.22708,11.758902,109.98735,109.82212,109.926865,110.09814,23.317638,0.7,-110.21102,-36.9495,0.00013644971,-456.88412,41.988674,43.2053,42.396862,45.459103,1.3494874e-05,0.3,-77.610214,78.10364,78.134094,78.08721,78.20577,0.29265726,0.4421875,5.626727342605591,15.645068959395092
35,350000,1.5020107950011563,-79.68189,0.085854664,-0.49989492,1.3618854,-5.4107943,24.279093,66.75197,11.590184,112.27985,112.0439,110.720314,110.840576,22.093729,0.7,-112.332,-26.10752,0.0009086235,-515.38385,6.119638,5.215767,6.0168467,6.1937075,6.9162807e-06,0.3,-77.94835,74.67886,74.59665,74.590225,74.77417,0.26832664,0.4546875,5.693483114242554,16.06998659769694
36,360000,2.200378557160492,-81.53441,0.08360473,0.4610435,1.3346326,-24.78808,24.218891,40.95479,12.428958,110.29429,110.01612,110.60675,110.64349,6.143614,0.7,-109.50908,-25.301641,0.0015810274,-735.5933,21.835808,25.684385,27.252455,28.193907,2.0664186e-06,0.3,-83.408035,76.6709,76.70395,76.85211,76.910095,0.159708,0.42187497,5.696361064910889,16.494723864396413
37,370000,0.48292252768240934,-80.91071,0.08614494,0.5860925,1.5583489,-6.5251904,24.328667,75.51366,11.015353,110.23741,110.1187,109.093094,109.54402,47.079273,0.7,-109.43152,-30.3428,6.51367e-05,-538.56714,5.4396687,4.945263,5.128728,5.939617,1.0958872e-06,0.3,-71.94862,75.88432,75.89097,75.70151,75.99246,0.5409603,0.4375,5.5966901779174805,16.91800822019577
38,380000,1.4543220360537914,-80.90506,0.08518498,-0.15002085,1.3292577,-7.514376,33.830734,79.0408,11.17971,110.798454,110.71658,110.895645,111.246315,11.090025,0.7,-110.91768,-26.677393,0.0009892334,-573.62744,7.16025,5.9829807,5.041412,4.909274,1.7968704e-08,0.3,-78.69893,75.52586,75.488914,75.46481,75.66355,0.21201006,0.41562498,5.723920583724976,17.341310902436575
39,390000,1.3503496693674968,-82.44594,0.08439051,0.22319427,1.2513058,-7.0079665,25.966288,39.704823,11.888533,110.71882,111.05547,110.17697,111.43664,10.764929,0.7,-110.981384,-28.464706,0.00017130107,-817.37604,5.7907953,7.583007,5.834405,6.3338594,4.930189e-05,0.3,-70.91669,77.66362,77.611694,77.3562,77.48809,0.20326531,0.471875,5.594073534011841,17.760524948438007
40,400000,0.56578151681101,-82.06029,0.083363354,0.66628325,1.0491941,-43.392906,23.062716,39.070934,11.787703,110.88229,110.925285,110.250725,110.50901,9.988978,0.7,-110.74378,-25.474077,0.0039832797,-823.6024,39.495907,41.462547,40.516872,40.420403,1.1914351e-06,0.3,-77.44174,77.56512,77.511246,77.46525,77.53362,0.18796411,0.425,5.591067790985107,18.18216011921565
41,410000,2.427875900414592,-82.47813,0.084461,-0.31689286,1.23737,-44.46382,27.734337,58.414387,12.273565,110.68887,110.734,111.107155,110.938065,32.265553,0.7,-109.96395,-22.8726,1.842939e-05,-485.67194,42.928226,44.15764,38.173637,44.38977,1.11758716e-07,0.3,-75.057045,77.71265,77.76596,77.74664,77.795265,0.40388954,0.4140625,5.4849889278411865,18.600332820415495
42,420000,1.422402487370711,-80.573265,0.08408073,0.53595126,1.2675071,-37.868977,22.031904,30.507092,9.276941,109.14889,109.106384,109.02068,108.96751,27.46049,0.7,-109.34426,-19.942356,0.0011428234,-532.2322,37.532238,37.33922,36.991776,38.154175,1.0913936e-06,0.3,-68.588104,75.394356,75.46944,75.23015,75.67813,0.38857776,0.42499998,5.648572206497192,19.018696220715842
43,430000,2.292906082157968,-81.68374,0.08351204,1.4802269,0.86358345,-26.187622,26.540106,47.833687,13.348183,109.08565,109.053276,109.32417,109.68616,8.174799,0.7,-109.00693,-26.156023,0.00043381623,-853.44806,25.706215,25.577667,24.263378,25.21207,1.5759724e-07,0.3,-81.055,76.11575,76.204445,76.15985,76.318985,0.1813524,0.365625,5.5479326248168945,19.437299903233846
44,440000,1.3857034502069443,-81.925735,0.08184183,-0.32622814,1.558157,-39.882626,32.479748,62.656677,11.650399,110.97822,111.02773,110.132545,110.531235,15.55403,0.7,-111.100174,-26.514717,0.00015499687,-612.7131,39.984158,39.03389,39.691418,40.913757,5.5776326e-07,0.3,-71.381035,77.365746,77.35225,77.10291,77.37161,0.22064507,0.42812496,5.167114496231079,19.84804506699244
45,450000,0.6736468145548856,-82.698326,0.083195634,-0.97173464,0.87193346,-45.51544,20.06932,29.145279,11.632756,109.235435,109.61101,109.43299,109.59441,42.10868,0.7,-108.76904,-30.90013,0.00062107464,-521.86426,43.065266,43.21667,43.04377,43.43137,1.4135422e-05,0.3,-64.99033,77.54314,77.603874,77.60744,77.7887,0.2877971,0.3796875,5.527061462402344,20.267019375165304
46,460000,0.8312249977242642,-82.967606,0.08187592,-0.7384317,0.8493889,-5.2260084,30.284101,23.00587,8.513625,109.46263,109.323166,109.76684,109.608406,21.440273,0.7,-109.48026,-28.754742,0.0011315059,-474.44308,6.2936144,5.0368986,5.8592362,5.6096444,1.1870875e-05,0.3,-72.57679,77.790955,77.81606,77.7381,77.81271,0.32159722,0.4640625,5.596820116043091,20.69356121222178
47,470000,1.9891216483474552,-83.60801,0.08204708,0.25228837,1.9282722,-4.2356224,41.94066,217.57765,11.155792,109.76621,109.7604,109.75798,109.965645,45.61258,0.7,-109.714966,-30.945484,7.3616975e-05,-567.5405,3.3987174,3.3212543,4.0354733,4.2590494,8.413379e-07,0.3,-67.44834,78.66462,78.66093,78.86072,78.82278,0.39268118,0.465625,5.62915301322937,21.108321460088096
48,480000,1.9032745977597534,-82.22313,0.082326286,-2.0732136,1.0850648,-44.00129,25.356724,21.635048,9.91098,110.573326,110.910225,110.86449,110.65553,5.5233927,0.7,-111.08753,-26.566416,0.0005335838,-710.5894,42.044704,41.572136,43.003704,42.338673,2.1713204e-07,0.3,-64.91455,77.31038,77.255615,77.32609,77.34817,0.1739429,0.4453125,5.660995244979858,21.52921175956726
49,490000,1.6213365962205912,-82.35927,0.082942605,-0.6292994,1.5294712,-45.274647,25.228354,90.37903,12.349522,109.43581,109.60545,110.34855,109.93131,20.942156,0.7,-109.79992,-28.875853,0.001569037,-529.4669,43.932842,44.992188,43.792496,44.71995,8.250936e-10,0.3,-80.782394,76.98155,77.0246,77.24188,77.125275,0.24805808,0.43124998,5.54696798324585,21.947247060139976
50,500000,2.0112851387744195,-81.72535,0.082910754,0.68952894,1.2917327,-38.574547,25.427042,36.92692,10.183642,108.4404,108.4934,108.38339,108.146866,9.792444,0.7,-108.44411,-29.434761,6.303657e-05,-473.50284,29.456156,30.759596,30.590725,30.826387,3.9131845e-07,0.3,-77.46402,75.55685,75.621895,75.3102,75.3414,0.17477831,0.484375,5.623637437820435,22.369788030783337
51,510000,1.3366004544246914,-81.2061,0.084034756,-0.79218835,1.0237386,-5.8064985,30.251827,29.460468,11.548584,108.55193,108.58577,109.166245,108.83037,2.0413797,0.7,-108.49349,-26.864902,0.00020500687,-892.3882,5.758964,6.095631,5.6391315,5.50759,3.4226105e-07,0.3,-83.557465,75.431854,75.506744,75.2567,75.40172,0.11763239,0.471875,5.528806209564209,22.78926332394282
52,520000,3.3397011650444024,-82.59249,0.0800655,-2.170061,1.8936827,-43.902493,27.067156,197.99779,13.384933,108.795746,108.71044,109.45922,108.90195,111.31791,0.7,-108.55118,-45.69096,0.00047752896,-514.5788,41.31703,42.039425,42.140785,41.553234,6.8459195e-07,0.3,-67.52901,77.643585,77.59206,77.73892,77.71425,0.60848,0.396875,5.624057769775391,23.213590423266094
53,530000,1.5683946419926578,-78.515656,0.08261677,-0.32772034,0.9796645,-7.633087,25.825747,18.048117,8.813821,110.18894,109.998474,110.07932,109.95455,6.1147294,0.7,-109.95327,-27.896503,0.00096292014,-646.69403,7.7508907,7.13778,7.1695256,6.119583,4.550854e-06,0.3,-91.48936,72.55925,72.54302,72.72748,72.80846,0.239811,0.45,5.599445581436157,23.636480943361917
54,540000,0.8085474519875756,-80.07106,0.083750136,-0.028929979,0.9748612,-4.25118,28.06179,19.679138,14.598352,108.81643,108.84301,108.57941,109.259056,27.402052,0.7,-108.34679,-29.006308,6.6703244e-05,-1033.4695,4.153633,3.9704409,4.782848,4.5983343,2.7969247e-06,0.3,-87.54611,74.35248,74.440735,74.38928,74.69153,0.36694196,0.4109375,5.512922286987305,24.057373225688934
55,550000,1.4665664354121737,-82.73695,0.08392407,0.31828308,1.1861908,-43.709187,26.556551,54.62478,9.027046,109.25597,109.1134,108.67261,109.03438,7.399244,0.7,-108.91665,-40.001923,7.8717785e-05,-716.1584,41.52533,40.187675,39.706787,41.797592,9.643554e-07,0.3,-79.479004,77.60732,77.50304,77.6655,77.82222,0.18716912,0.40468746,5.649413585662842,24.48127875328064
56,560000,0.16015123336714024,-79.5488,0.082999915,-0.35654107,1.0977869,-39.178703,28.312141,21.245037,12.408487,107.90298,108.05813,108.207794,108.91178,6.792526,0.7,-108.28927,-24.516504,0.002613962,-447.21356,40.91662,42.566975,42.83847,42.40477,1.6942359e-07,0.3,-79.35729,73.82045,73.80993,73.73297,73.83592,0.21413416,0.45624998,5.67503809928894,24.902492793401084
57,570000,1.1445984900644024,-80.36669,0.08442205,-0.15190351,1.1353049,-6.649759,24.433815,39.55835,11.002179,109.17914,109.16761,109.7128,109.96863,31.067026,0.7,-108.64477,-25.111721,0.00065708125,-802.84467,6.3157916,7.109791,6.0924053,6.736415,2.521556e-08,0.3,-95.57652,74.48607,74.44446,74.600006,74.55195,0.2903468,0.41562498,5.7321131229400635,25.327129491170247
58,580000,1.8735775907023817,-79.4404,0.08356832,0.5247358,0.90390396,-7.061142,21.75637,23.71441,10.138542,108.54186,108.59403,108.10586,107.95324,9.701912,0.7,-107.89601,-28.274944,0.00012904522,-964.1604,6.7652893,6.5892763,5.1263633,6.329231,1.1227792e-06,0.3,-97.43846,72.86778,72.85425,72.77521,73.079865,0.18724282,0.390625,6.358407735824585,25.773339800039928
59,590000,0.8491339318052666,-80.418625,0.08199383,0.85312104,0.8127596,-48.95367,27.661465,23.710428,8.387196,109.72478,109.56706,109.85435,109.117355,7.316724,0.7,-108.88128,-26.29755,0.0007183797,-941.96924,47.08376,47.418873,46.566837,46.382248,1.466833e-07,0.3,-94.66786,74.64049,74.62991,74.61903,74.687996,0.15219787,0.44843748,5.70042610168457,26.21072897116343
60,600000,0.4026087540273747,-78.645996,0.08321724,1.009979,0.96907496,-4.651857,29.323854,28.237064,9.532054,108.438934,108.52554,108.50071,108.85751,15.793953,0.7,-108.303444,-27.363459,5.391502e-05,-515.8966,4.899714,4.1613903,5.426451,4.69325,3.014505e-06,0.3,-81.67799,73.22632,73.243965,72.9615,73.20087,0.23904051,0.47187498,5.7320661544799805,26.645748670895895
61,610000,0.29280604326768606,-81.07058,0.082108036,-0.92703795,1.6676464,-6.2597218,23.478157,115.49313,12.932339,108.08506,108.18205,108.152664,108.15628,11.876951,0.7,-108.07406,-25.210604,0.0010304444,-444.36096,5.9390335,6.0933294,5.4146156,5.1341925,4.3568607e-06,0.3,-70.58649,76.139786,76.12569,76.206024,76.31915,0.26550817,0.43281248,5.843425035476685,27.079743655522666
62,620000,0.9799782162972583,-81.40134,0.08148067,-0.20972493,0.85555494,-6.344119,37.56835,28.223026,14.191327,107.95734,107.92347,108.00274,107.67872,12.717645,0.7,-107.693275,-22.176897,0.00011428172,-486.4297,6.1096315,6.293818,5.843404,6.2409935,8.14129e-06,0.3,-77.22716,75.90861,75.86902,76.01782,76.008286,0.1962611,0.4296875,5.732784271240234,27.515576763947806
63,630000,2.2174853689090654,-82.08456,0.082717635,-0.63309455,1.1087031,-5.618203,28.63771,71.75289,11.040233,108.47951,108.54037,108.620834,108.174614,8.139305,0.7,-108.42396,-25.55709,0.00031212554,-694.3772,6.156337,5.3209834,5.124256,4.9251037,1.8417993e-05,0.3,-79.0184,77.20929,77.10596,77.19391,77.09975,0.21658045,0.4734375,5.685653209686279,27.94427829583486
64,640000,1.9014013553707136,-81.594055,0.08059291,0.13508704,0.8387916,-4.3703275,29.72879,43.931942,13.054686,108.27127,108.16419,109.26582,108.70279,88.417816,0.7,-108.441376,-29.861609,0.0007544191,-564.6035,4.0760565,4.4828596,7.0257897,7.774159,5.1349343e-06,0.3,-75.67558,76.135605,76.149704,76.21955,76.39589,0.50865614,0.39218748,5.725483655929565,28.37347631851832
65,650000,1.2849046752629636,-81.91266,0.08218955,-0.00037328526,1.2472849,-6.1589346,27.477076,14.37208,10.756096,109.0085,109.203896,108.15948,108.436874,6.550898,0.7,-108.86891,-35.482365,0.00344585,-982.9492,5.814328,5.402006,5.710677,5.730156,1.6533204e-05,0.3,-86.126205,76.24185,76.21112,75.8706,76.15346,0.20666245,0.390625,5.669253349304199,28.8069655974706
66,660000,1.356762108278232,-82.74362,0.08187934,-1.5815547,0.6877027,-3.6859155,21.087515,13.721207,11.89469,108.70857,108.837906,109.0506,108.78498,18.974829,0.7,-108.73781,-26.654995,0.00020636816,-439.99194,3.57033,4.152094,4.4525485,4.372288,2.6287278e-06,0.3,-71.78386,77.12592,77.16049,77.05528,77.03809,0.16406769,0.4921875,5.775783538818359,29.22433938582738
67,670000,2.821605047801316,-82.102264,0.08093805,-0.5607537,0.9158058,-40.661892,24.017698,25.32565,13.173302,108.516945,108.24479,108.85064,108.68239,4.2127786,0.7,-108.9518,-30.944338,0.0009538933,-544.4548,40.67075,40.723217,42.98453,41.566307,1.1445372e-07,0.3,-79.42239,76.53558,76.539894,76.66235,76.75708,0.12377376,0.43124998,5.8224427700042725,29.652338115374246
68,680000,2.385292390458289,-82.703094,0.08039014,0.6547986,0.99367154,-5.3497376,29.040096,47.84092,13.735544,107.99007,108.12414,107.78615,108.49326,5.398497,0.7,-107.626945,-27.045649,3.4413883e-05,-587.4175,5.5558853,4.2229013,4.0877013,4.1687384,2.2883296e-06,0.3,-82.04121,77.34164,77.35678,77.323135,77.45843,0.13105513,0.41875,5.830582141876221,30.084104088942208
69,690000,2.897977287008291,-82.34683,0.081973344,-0.5217358,1.5756373,-35.250412,25.573853,106.42735,9.68066,109.21179,108.963524,109.26996,108.688644,21.655924,0.7,-109.34684,-29.039421,0.0004690115,-650.5596,32.912613,35.6961,32.501884,33.688297,7.01737e-06,0.3,-89.79911,76.24284,76.21263,76.07054,76.110146,0.3434059,0.50625,6.082387208938599,30.52080543041229
70,700000,2.143878896297368,-79.45047,0.080418915,1.0781322,0.92498547,-3.9716055,21.83146,51.588688,13.224288,107.55949,107.430786,107.46131,107.43937,12.213186,0.7,-107.75418,-23.079845,0.00027678034,-913.95605,4.3414316,3.9611137,4.700361,3.994397,2.256832e-06,0.3,-100.946915,72.82165,72.81093,72.81813,72.842255,0.24695039,0.4515625,6.133397340774536,30.963643515110014
71,710000,2.2381570501882564,-82.711,0.08200657,-0.20848349,1.2860543,-47.826977,27.484697,66.40127,12.235349,107.94941,108.054245,108.29773,108.152245,23.477623,0.7,-107.892006,-34.969715,0.00045445032,-703.1879,45.423237,46.2204,46.7499,46.217262,5.8836303e-08,0.3,-83.42736,77.023224,77.01545,77.079605,77.187164,0.25308645,0.425,6.00516939163208,31.409982764720915
72,720000,1.7101344723311978,-82.16217,0.080669686,-0.5956553,0.77929676,-2.835659,28.590017,26.442905,12.666527,108.44148,108.5221,108.76139,108.90518,20.838478,0.7,-107.82538,-21.410604,0.0010333364,-647.1297,2.9733582,3.242495,3.0397542,2.4323606,1.6770792e-07,0.3,-78.98468,76.371864,76.302155,76.34439,76.56772,0.36284712,0.37812498,5.939845561981201,31.83985771735509
73,730000,2.829702217223957,-79.56862,0.08087289,0.78986007,0.86038375,-5.0524025,33.456863,27.388609,10.755144,107.67202,107.73381,108.002846,107.927124,5.3832135,0.7,-107.53313,-31.236687,0.0012323579,-818.7709,4.4021125,4.3417354,3.8400767,4.274003,9.782961e-08,0.3,-97.79157,73.15024,73.11793,73.242516,73.38785,0.17188494,0.44375,5.860109567642212,32.2830771168073
74,740000,4.37555048020735,-83.744446,0.08143681,-2.0052545,0.83305126,-3.867315,22.465746,32.245296,11.001595,109.20216,109.22777,109.08859,108.59973,28.068365,0.7,-108.71592,-29.512482,0.00071451283,-825.62646,2.606629,2.7832813,3.1174645,3.176819,1.8226317e-06,0.3,-73.12138,78.6984,78.65173,78.7791,78.71174,0.23346484,0.4875,5.675317287445068,32.71386212507884
75,750000,2.701139374510544,-83.84583,0.08032885,-1.5527009,0.77267027,-4.294191,30.12304,10.761938,11.291771,107.42731,107.531944,107.43176,108.08255,16.682707,0.7,-107.84595,-31.785154,0.00088082545,-765.2647,3.929576,3.2151728,2.8798177,3.8818836,1.7658575e-06,0.3,-80.42877,79.29709,79.24866,79.30355,79.54773,0.19389926,0.3875,5.713353395462036,33.13618252674738
76,760000,3.8650438727825214,-79.824135,0.079145715,0.41555855,0.82515085,-38.671352,27.456564,28.039783,12.44952,107.772896,107.8557,108.18637,107.77538,5.1781583,0.7,-107.56059,-28.46599,0.0017721427,-833.2732,40.082054,38.841244,36.895676,38.857773,6.9849196e-11,0.3,-106.849785,74.13771,74.13542,74.09508,74.20079,0.14307764,0.4421875,5.8028244972229,33.563348575433096
77,770000,3.3665826461493804,-81.58911,0.08078292,-0.7523736,0.7673159,-4.165262,26.36058,16.671724,11.48932,108.66684,108.57324,108.2531,108.566895,4.5296984,0.7,-108.72441,-28.980019,7.016242e-05,-719.80676,4.893832,4.7473755,5.548491,3.2063985,2.4035282e-06,0.3,-82.60343,76.45623,76.39487,76.455864,76.383545,0.14611152,0.496875,5.7719645500183105,33.98607262770335
78,780000,3.625037321323832,-81.95911,0.079665154,-1.2446024,1.3452376,-31.952583,27.25783,27.788567,11.919895,108.59332,108.66018,109.70934,109.01338,61.67268,0.7,-107.71207,-29.071545,0.0021058333,-858.75806,30.330355,30.435457,30.05802,29.65435,1.3005379e-05,0.3,-80.6667,76.57427,76.64495,76.78102,76.74111,0.5136241,0.478125,5.667957782745361,34.405484235286714
79,790000,3.490019565657439,-80.86723,0.08087642,0.68724287,1.1336987,-40.78294,22.348671,98.750626,11.846647,108.19724,108.0697,108.16157,108.5838,20.948557,0.7,-108.233025,-24.222893,0.002308814,-899.68164,43.510796,43.130615,42.34373,43.290356,8.54691e-06,0.3,-83.4238,74.56238,74.52345,74.62004,74.7446,0.33690664,0.38437498,5.722973108291626,34.823882786432904
80,800000,1.421395354243373,-80.744934,0.080519676,0.26083115,0.99117607,-43.791092,32.284866,17.104496,12.926895,108.7456,108.83293,108.36258,108.52342,15.18915,0.7,-108.68485,-24.631681,0.0012571625,-962.4585,44.694313,44.759674,46.06487,45.13087,6.880539e-07,0.3,-104.955696,74.01305,73.94066,74.04798,74.05156,0.19836205,0.4921875,5.52607274055481,35.23660632769267
81,810000,2.920231095724647,-81.18623,0.08019973,-0.29519564,1.3625009,-5.4563265,30.080317,19.7858,13.041943,108.86069,108.55775,108.197365,108.02619,5.045588,0.7,-108.37327,-26.829514,0.0007635496,-648.8988,4.130704,4.90623,2.9288714,4.499131,1.8218242e-06,0.3,-87.270195,75.497574,75.33997,75.28612,75.46695,0.17197117,0.43593746,5.734310150146484,35.6412065466245
82,820000,4.26377312179406,-82.792564,0.07944919,-0.52095187,0.98961717,-4.1266394,26.937616,42.824104,11.529362,109.19048,108.84772,108.71257,108.85638,13.373469,0.7,-109.1892,-29.447306,0.00041277363,-1287.2267,3.4815567,3.8886948,3.9478955,3.7334516,2.978527e-06,0.3,-96.83399,76.5444,76.56015,76.64062,76.7432,0.2611804,0.3953125,5.720458269119263,36.06815022230148
83,830000,4.558548883358231,-82.53539,0.08032025,-0.280833,0.7533411,-5.5692706,33.49789,18.094921,10.0096035,108.658005,108.5581,108.85391,108.41329,1.2359061,0.7,-108.36868,-31.322285,0.00033831876,-628.88306,6.30307,6.2596664,6.817544,5.222223,1.5429687e-07,0.3,-79.373276,76.741806,76.73413,76.74072,76.74973,0.10626951,0.5015625,5.7564568519592285,36.50046914021174
84,840000,7.710015026105145,-82.60664,0.08150153,-0.75370735,0.6905313,-28.904573,38.127945,13.171028,9.907512,107.42675,107.27111,107.61176,107.45142,18.392376,0.7,-107.3003,-33.335983,0.00031507912,-962.28296,29.26775,30.540941,30.347902,31.820488,1.418346e-07,0.3,-89.99579,76.65573,76.65975,76.578064,76.52749,0.2712345,0.47812498,5.665804862976074,36.92271647453308
85,850000,4.566705505333564,-80.856384,0.079423465,1.0029899,0.7151124,-46.22415,30.284225,17.615917,13.326428,107.42966,107.15096,107.367645,107.132126,11.591511,0.7,-107.19195,-23.104774,0.0005108133,-1081.2284,42.94644,45.052696,43.7557,41.308716,3.6950225e-06,0.3,-106.06404,74.21068,74.17281,74.268486,74.30233,0.19523618,0.40937498,5.7258453369140625,37.34565022389094
86,860000,4.917585082600121,-81.46222,0.08017916,-0.09133303,1.9226305,-6.962026,32.68511,257.678,13.824042,108.536514,108.6835,107.74951,108.1047,47.618553,0.7,-108.512955,-33.81162,0.0008355068,-720.1247,6.606145,7.3287477,4.119919,3.7682886,2.514571e-09,0.3,-76.813705,75.88864,75.86453,75.80575,75.70341,0.40718523,0.5,5.629232406616211,37.764268763860066
87,870000,5.308896259418903,-80.00328,0.080666594,0.5477492,1.5530081,-32.634346,32.72231,212.32419,10.277482,107.8359,107.76018,108.152756,108.53409,78.43893,0.7,-108.13892,-37.279625,0.00033161748,-748.172,34.089085,32.669327,33.48859,32.100456,1.9016444e-06,0.3,-92.45026,74.08374,74.06557,73.96638,74.03124,0.4018587,0.4453125,5.705431699752808,38.183591373761494
88,880000,7.680918525995224,-80.388885,0.0777359,0.2525778,0.6761123,-3.9107738,27.823349,50.204315,9.142416,110.50167,110.52049,109.93893,110.20212,33.006496,0.7,-109.9711,-28.115564,4.253548e-05,-1143.0803,3.7572236,3.801818,3.826556,4.6472516,6.9849193e-07,0.3,-103.33199,73.99663,74.03822,74.02356,74.21016,0.2970505,0.4359375,5.632095813751221,38.60834137996038
89,890000,4.774004574845512,-81.43153,0.078316234,0.2935955,0.9041603,-31.738855,29.3139,40.79339,13.098108,106.8692,106.9413,107.027855,106.95024,3.274704,0.7,-106.79168,-34.03816,9.662454e-05,-990.34644,29.383747,28.421822,28.884117,28.091019,1.6625737e-06,0.3,-87.42496,75.92853,75.9777,75.75707,75.83469,0.10790452,0.465625,5.779897689819336,39.03129430214564
90,900000,6.641651291441354,-81.50809,0.080094926,0.20629293,0.6735091,-5.2065926,30.257437,5.614013,13.341945,107.7772,107.82259,108.50218,107.91918,1.4569501,0.7,-107.46434,-26.433104,0.0002202667,-699.0761,5.000211,6.2008467,6.1132574,6.0855703,4.172325e-08,0.3,-90.81224,75.47215,75.508606,75.594185,75.709885,0.07730698,0.41875,5.661738395690918,39.450388308366136
91,910000,6.170760523164247,-82.17987,0.0786218,-0.7066647,0.9905465,-20.3664,23.804209,24.395191,12.261442,108.14241,108.0491,107.73861,107.800354,10.181324,0.7,-107.66533,-23.856508,0.00026396342,-674.7978,14.548124,14.351666,13.751611,16.222176,6.7776245e-06,0.3,-82.95275,76.41897,76.392395,76.320755,76.39458,0.24567488,0.50625,5.752514123916626,39.87647138039271
92,920000,4.642724416308293,-81.656265,0.078921795,-0.2982445,1.196408,-5.1395597,25.510225,43.913525,11.750686,108.12425,108.339745,107.898094,108.14543,8.66827,0.7,-108.11571,-27.674726,0.0009100739,-1538.5198,5.088402,4.4779863,4.565086,3.981813,0.0,0.3,-96.58623,75.23239,75.164635,75.055595,75.11163,0.19801554,0.5078125,5.6886961460113525,40.30284218788147
93,930000,7.707339493790055,-79.802,0.07793074,-0.048962235,0.8768292,-40.649677,32.64809,41.10311,10.224541,107.64472,107.423134,107.1306,107.366,8.989738,0.7,-107.36954,-31.50206,0.00015534938,-783.7874,39.929176,38.467247,39.498123,39.720364,1.1445372e-07,0.3,-99.99715,73.729095,73.64882,73.39209,73.58725,0.14320712,0.475,5.624412298202515,40.719808113574985
94,940000,4.759733721361463,-81.64639,0.07807419,0.47150448,1.5518107,-38.571945,34.01887,76.83507,8.647167,107.95138,108.19858,108.71897,109.00565,57.54339,0.7,-108.37229,-28.36483,0.001994263,-1067.9858,34.929405,35.61429,33.903885,36.90015,5.0466045e-09,0.3,-85.77446,75.99872,76.0367,76.1346,76.21857,0.40816212,0.3875,5.636913061141968,41.13930456240972
95,950000,4.411727339490168,-80.46645,0.08083147,0.86159277,0.6757809,-5.169715,30.759598,13.614318,9.787046,107.430824,107.52167,107.30618,108.021454,113.3706,0.7,-107.2715,-30.359505,0.00094790536,-971.83514,4.2646804,4.6376295,3.4728246,4.1810856,2.3469328e-08,0.3,-118.25865,74.113884,74.18189,74.10037,74.37317,0.55426085,0.38437498,5.7127439975738525,41.56127334038417
96,955000,6.596096250479862,-81.782364,0.08132646,0.35766768,0.91764957,-3.3414893,25.009848,24.090794,10.509708,107.656006,108.005,108.19475,108.318245,13.892595,0.7,-107.79577,-30.112461,0.0010579901,-589.70795,3.8284004,3.3542204,4.516176,5.1964073,2.514571e-09,0.3,-85.585144,75.56442,75.67675,75.79048,75.728,0.15215838,0.45624998,5.655133008956909,41.82214910189311
97,960000,6.382159535415043,-79.22852,0.07585917,-0.011529125,1.0846611,-5.1734242,31.28658,51.18074,13.910249,108.55804,108.695854,108.01904,108.153824,9.151049,0.7,-108.456375,-26.915897,0.0019727156,-612.9258,4.917131,3.9051476,4.1667194,4.2463236,1.5662518e-07,0.3,-92.10556,72.7666,72.78198,72.5551,72.72225,0.16587555,0.4609375,5.677877426147461,42.08409906625748
98,965000,7.150937537255922,-81.466354,0.073799565,0.22989467,0.726401,-4.3491697,41.56349,19.438936,12.737207,108.31117,107.91493,108.1801,107.81309,9.996867,0.7,-108.52822,-27.785519,4.045578e-06,-589.6881,3.9901996,4.2604423,4.3314238,3.8993459,4.249625e-07,0.3,-81.16342,75.64908,75.681114,75.71037,75.67676,0.20585482,0.4421875,5.787146329879761,42.354016145070396
99,970000,2.7114518394453233,-81.022,0.07835476,0.34266275,0.9456623,-2.527119,33.12773,22.055162,11.418958,107.61954,107.285194,107.56422,107.57919,38.6809,0.7,-107.79863,-32.371853,0.0004190416,-1086.6154,3.328452,2.8724713,3.0522745,2.8580306,4.4357034e-06,0.3,-90.871956,75.27484,75.24428,75.297386,75.33397,0.27117273,0.4328125,5.745940208435059,42.614155344168346
100,975000,5.2907184135887855,-81.67344,0.079785645,-0.06445211,1.089515,-3.7030118,27.906982,50.613224,12.494417,108.3071,108.20906,108.37228,108.47033,3.3706894,0.7,-107.72601,-20.386688,0.00016868871,-699.5233,2.518978,2.9813685,4.4520082,4.4439964,2.9703369e-08,0.3,-92.57083,75.643524,75.61535,75.83551,75.79892,0.09596855,0.465625,5.6480607986450195,42.871070118745166
101,980000,3.264780674755605,-80.68188,0.08128132,0.23875082,0.71088314,-3.7603674,31.19731,27.621014,13.870864,108.59185,108.49659,108.87713,108.55042,14.039689,0.7,-108.27361,-28.862822,0.00055877754,-1338.352,3.7122388,3.3757143,3.754746,3.841992,2.1129383e-09,0.3,-92.31648,74.40715,74.44423,74.48695,74.50032,0.24240321,0.4765625,5.531360626220703,43.127059702078505
102,985000,4.409248208553977,-80.86449,0.07642024,-0.61566925,0.7369126,-4.3214674,31.030819,24.481306,12.45629,106.80593,106.893425,106.92129,107.0323,2.1515136,0.7,-107.388794,-30.721813,0.0019350983,-1119.6514,3.4242418,3.7518442,3.8535895,3.492434,1.2549673e-06,0.3,-101.99425,74.86958,75.01546,74.99471,74.950066,0.11008253,0.5,5.5208656787872314,43.38696624437968
103,990000,7.372072697311056,-81.33084,0.077166066,-0.54099,1.0253087,-3.237717,33.85699,77.54106,9.895343,107.70226,107.51127,107.74958,107.66245,7.8520575,0.7,-107.46841,-24.732485,0.0010354448,-1051.3644,3.452509,2.9374766,3.914298,4.0088673,3.4979487e-06,0.3,-90.45763,76.22247,76.24069,76.302216,76.30684,0.13972156,0.48125,5.680392265319824,43.64449840386708
104,995000,2.554747983357204,-80.26335,0.08390924,0.8593355,1.0886829,-4.436938,26.649174,53.911636,11.310067,107.708824,107.490585,107.862404,107.574524,9.812992,0.7,-106.94209,-25.360205,0.0004862441,-583.10785,4.4137526,4.311161,4.246023,4.5619893,4.2786996e-06,0.3,-91.83539,74.04528,73.96979,74.09262,74.10865,0.23504958,0.42343748,5.643322467803955,43.90163807074229
105,1000000,2.6032422377874096,-79.92656,0.08361327,0.97707534,0.82063115,-13.999794,35.242622,39.38374,12.551258,107.66499,107.70045,107.927666,107.88802,3.7168908,0.7,-108.21902,-29.068316,0.0004138624,-1125.1644,7.2362947,8.000816,8.155324,6.798985,5.8743176e-06,0.3,-107.07991,72.897865,72.868164,72.88449,72.98784,0.11444397,0.41562498,5.67507266998291,44.160140454769135
