Xixo99/comfo/relaxed_iql/20230321_5seed_mle0/halfcheetah-medium-expert-v2/riql_s3_20230321_014646_halfcheetah-medium-expert-v2_2.63.csv
,step,reward,actor_loss,alpha,alpha_loss,critic_loss,max_actor_loss,max_alpha_loss,max_critic_loss,max_mle_prob,max_q1,max_q2,max_target_q,max_v,max_value_loss,max_weight,min_actor_loss,min_alpha_loss,min_critic_loss,min_mle_prob,min_q1,min_q2,min_target_q,min_v,min_value_loss,min_weight,mle_prob,q1,q2,target_q,v,value_loss,weight,eval_time,time
0,0,2.2551704909590264,,,,,,,,,,,,,,,,,,,,,,,,,,,,,,,,,
1,10000,-0.7506393774812843,-28.171486,0.06313062,-8.750052,0.48033443,-1.5637071,12.133276,19.070406,8.956387,42.777588,42.548252,42.62092,42.04125,1.542249,0.7,-43.163494,-36.353283,0.00016076156,-94.41598,1.0402192,0.823528,0.4506478,0.35758954,3.4226106e-09,0.3,-10.563204,27.697311,27.69293,27.748596,27.35866,0.048923723,0.4578125,5.446726322174072,1.456518002351125
2,20000,-2.6260528106594307,-47.275818,0.06671307,0.47964168,0.8444317,-7.7506504,30.904291,18.342539,11.673686,69.461464,69.34594,69.84926,69.37676,4.8097367,0.7,-71.36391,-31.767641,0.0002493159,-115.12424,5.3485184,5.1413126,5.4110785,5.092539,6.939037e-07,0.3,-17.056023,46.26323,46.236137,46.22833,45.925117,0.11573963,0.4828125,5.340054988861084,1.8641624768575034
3,30000,-2.4671349877323454,-58.382298,0.08022888,-0.05571851,0.6081744,-27.460354,21.00851,7.6980896,10.50833,85.991844,86.04806,86.074745,85.66448,2.3565161,0.7,-86.93587,-31.62639,0.00029528496,-102.682594,27.179176,26.972511,26.975872,27.309343,1.2407064e-06,0.3,-20.344872,56.991528,56.94937,57.02183,56.717148,0.15195492,0.55,5.425212383270264,2.272658415635427
4,40000,-2.7865190342462607,-66.41031,0.08439466,0.37734434,0.9619365,-8.669004,19.848904,17.421654,10.811907,100.15673,100.11445,100.31147,100.83717,11.07778,0.7,-100.01225,-20.21655,0.0010589401,-131.25085,7.3200555,9.18166,7.4589314,8.99383,4.4641024e-06,0.3,-25.51649,64.81751,64.794395,64.75444,64.665794,0.1754926,0.48125,5.439743518829346,2.684502124786377
5,50000,-1.6442083307045539,-73.72217,0.085625835,-0.21875393,1.2952257,-7.5773125,19.32507,25.964205,8.335556,107.16957,107.04478,107.12176,106.81133,5.2601733,0.7,-108.25989,-28.016174,0.00069055194,-127.59538,7.5916333,6.7363987,10.674024,6.7323647,2.1944916e-06,0.3,-24.608744,71.96471,71.875565,71.97908,71.830246,0.21713388,0.4921875,5.48046088218689,3.091019078095754
6,60000,-2.7986959537242697,-72.55692,0.08755184,0.25979245,1.3377144,-7.758845,20.69332,20.666218,11.42136,110.52149,110.847755,111.9414,111.650116,6.9644933,0.7,-110.97298,-32.46791,0.0011931065,-141.98969,8.524826,7.4268456,9.532666,6.646699,7.745531e-06,0.3,-27.290676,70.4989,70.48438,70.85664,70.91626,0.19752555,0.4265625,5.506056308746338,3.497645652294159
7,70000,-1.5981161452348476,-76.61726,0.08837486,0.5441045,1.0643399,-16.638039,21.745075,26.456871,9.897621,111.41598,111.44461,112.02712,111.87177,7.464927,0.7,-111.22639,-21.653753,0.00023315335,-195.42737,17.446795,15.964196,16.710827,16.252798,1.9541883e-06,0.3,-27.49221,74.59058,74.54775,74.7191,74.68121,0.1835711,0.47187498,5.453903913497925,3.9050554990768434
8,80000,-0.4842367681066264,-81.39648,0.08927505,1.3263314,1.8017273,-6.6851025,19.920578,91.405365,10.53993,113.649124,113.87357,114.57201,113.58422,2.9974947,0.7,-114.428055,-23.174255,0.0005877304,-234.2826,6.297976,6.329166,7.2234464,6.318404,3.2172945e-06,0.3,-28.780193,79.32465,79.43016,79.17873,79.198975,0.13434254,0.43593746,5.655149936676025,4.314956243832906
9,90000,-0.40086209400600514,-81.83152,0.08988776,-0.04379949,1.5786202,-6.2069006,16.23395,53.442486,10.716799,115.48965,115.38136,115.54374,115.48161,14.051012,0.7,-116.808556,-21.363657,0.0003455985,-229.80804,6.1683984,5.493633,5.8332787,3.844031,1.774868e-07,0.3,-31.36198,79.36938,79.360275,79.03185,79.25729,0.2674567,0.46875,5.557681322097778,4.721898925304413
10,100000,0.07227125803550317,-74.75896,0.091601215,-0.33782566,2.1155496,-5.3616242,18.63596,133.14607,10.394878,114.59973,114.65458,115.14972,114.881935,4.694841,0.7,-114.24755,-23.191917,0.0010978265,-272.83707,3.3250613,4.4899225,5.280872,3.4960341,1.8167776e-07,0.3,-40.446552,71.552536,71.540344,71.81654,71.69982,0.19305052,0.4453125,5.622009754180908,5.12925884326299
11,110000,0.7958873982471195,-82.32402,0.090642124,1.4735508,1.7616868,-27.606318,21.301987,59.74476,10.193834,114.385994,114.34578,114.75152,114.36641,16.646404,0.7,-115.60865,-31.517584,0.0013166452,-314.2786,24.939041,25.847815,28.447966,27.050034,1.4889055e-06,0.3,-39.96472,79.42232,79.4212,79.7877,79.79738,0.25123146,0.421875,5.5328733921051025,5.540215690930684
12,120000,-1.0150104510260463,-81.126526,0.09251103,0.28210494,0.93503606,-40.962418,18.541254,13.066734,10.526199,114.10564,114.0176,114.19082,114.032074,1.3946232,0.7,-114.47256,-22.460707,0.00072412455,-317.33698,39.69777,40.42703,39.755295,40.048306,9.983632e-08,0.3,-37.125237,78.04993,78.026764,78.01008,78.16636,0.12709127,0.4375,5.673835039138794,5.948238503932953
13,130000,0.8047360323237664,-82.06784,0.09288449,-0.10684278,1.1057829,-6.537332,20.861258,22.615229,8.554633,115.89592,116.0208,115.89957,115.80365,6.0555906,0.7,-116.07453,-27.265211,0.0019561197,-468.7724,4.892872,6.095415,6.6162887,6.618249,6.4977215e-08,0.3,-42.68877,79.032234,79.03818,78.97105,78.98932,0.18282855,0.45625,5.672728538513184,6.360653785864512
14,140000,-1.2438935756434242,-80.734406,0.09169692,-0.46776727,1.1830585,-5.4494724,20.69104,25.04487,11.04162,114.08273,113.94705,113.287224,114.69696,12.448209,0.7,-115.36473,-27.394213,0.0017823873,-246.49231,6.1524754,4.5787497,5.175741,4.7903814,3.319513e-06,0.3,-42.902977,77.262596,77.22505,77.20097,77.35502,0.2661395,0.45625,5.547859191894531,6.77189279794693
15,150000,-1.1166818009407815,-81.594124,0.090034656,-1.2993287,1.6732371,-38.17492,16.532816,62.112007,12.415988,113.893936,113.79056,113.59488,113.52325,4.4700117,0.7,-113.94262,-28.368256,0.0016995075,-658.1196,37.44311,36.443813,36.546562,36.14204,7.1532963e-06,0.3,-47.900562,77.766335,77.73203,77.815765,77.86526,0.18445306,0.453125,5.572592258453369,7.18132453362147
16,160000,-1.1059967852758141,-83.19878,0.089932226,0.46919066,1.7148714,-36.56328,19.566877,46.337326,9.621569,113.70384,113.33287,113.18558,113.47362,14.968636,0.7,-113.16777,-25.084095,5.7753932e-05,-269.03278,37.808136,37.477474,37.697426,37.63095,2.3391797e-06,0.3,-40.147213,79.6261,79.60639,79.45207,79.58821,0.22365151,0.4671875,5.684433221817017,7.593196622530619
17,170000,-1.3261075596655343,-78.87493,0.08906411,0.2826969,1.2618811,-12.188327,18.213207,24.805584,12.29936,113.87926,114.1894,114.15427,114.65438,14.811794,0.7,-114.114105,-25.090223,0.0018375189,-420.71747,11.7456665,12.243481,9.240381,9.881118,9.203959e-06,0.3,-57.79438,74.49075,74.423996,74.41255,74.30533,0.24458006,0.5046875,5.7151219844818115,8.003740763664245
18,180000,-0.737931100398648,-81.80888,0.08846193,-0.5324871,1.2744012,-6.565644,17.03051,30.503935,10.370995,112.5191,112.51236,112.3168,112.30678,21.024292,0.7,-112.221275,-27.712086,0.0014780806,-318.52014,5.734567,6.61905,6.020426,5.9690385,2.542918e-07,0.3,-47.98947,77.93074,77.99896,77.948105,77.763504,0.3016626,0.4875,5.692431688308716,8.415241690476735
19,190000,-1.0415166066064419,-80.91502,0.08795595,0.61033297,1.5585654,-6.372306,19.74572,30.888773,12.084187,113.15521,113.03519,112.705284,113.26431,46.93997,0.7,-112.3576,-23.69214,0.0006144709,-331.6319,5.8074775,6.191215,5.4861712,6.82767,1.6171835e-07,0.3,-51.20095,76.95799,76.90248,77.10637,77.31033,0.44749206,0.47968748,5.649641513824463,8.825211930274964
20,200000,2.334310191790942,-82.63727,0.08792401,-0.31650212,1.6206537,-34.20752,19.290792,95.94806,7.947115,112.388725,112.3092,112.966736,112.532234,52.39905,0.7,-113.13421,-21.764084,0.00083656295,-479.18115,34.416122,35.525997,28.066998,31.027718,4.249625e-07,0.3,-50.83841,78.95967,78.91359,78.81937,78.91737,0.44482392,0.4078125,5.520321846008301,9.232128957907358
21,210000,-0.5001863835522944,-81.445145,0.086546786,0.3764866,1.4439694,-46.012653,29.304659,57.38923,11.235272,112.38195,112.64579,111.60745,112.59262,2.5834699,0.7,-112.262314,-24.590248,0.00016810006,-879.2137,45.787216,44.57162,44.584816,44.96688,3.426685e-08,0.3,-58.60934,77.04852,77.02315,76.99351,77.13137,0.15028383,0.45468748,5.618601322174072,9.64302690823873
22,220000,-0.24719048417850797,-81.70467,0.08858993,0.16762109,0.96221995,-31.059935,21.859783,9.198729,15.150791,113.122635,113.23959,112.76551,113.11128,3.0617049,0.7,-112.92192,-27.001291,0.0012022068,-301.5988,30.978226,30.731176,30.530693,29.526167,2.46875e-06,0.3,-51.539215,77.16228,77.08836,76.89528,77.06348,0.16895118,0.46718746,5.483584642410278,10.046700338522593
23,230000,0.45898099910094153,-81.39511,0.08842867,-0.28844318,1.428411,-7.4166346,28.346626,110.037155,14.368483,113.87094,114.053955,113.78645,113.69165,24.822586,0.7,-113.58258,-26.03889,0.0005147151,-348.8095,6.313183,6.8029165,6.104157,5.493293,4.8700605e-07,0.3,-47.499676,77.314896,77.32547,77.406204,77.5416,0.34004617,0.459375,5.73106837272644,10.455176484584808
24,240000,0.6173562514552872,-82.33736,0.08913194,-0.31829825,1.2984021,-6.902349,17.296844,52.34606,11.722881,110.288,110.28059,110.550156,110.61371,11.495916,0.7,-110.76634,-26.407274,0.00047086753,-447.36722,6.629391,6.5160093,8.706983,8.614597,6.106391e-07,0.3,-52.417393,78.23956,78.180176,78.38876,78.31028,0.23843542,0.45625,5.425783157348633,10.857701027393341
25,250000,1.5141419858141216,-82.7298,0.08841121,-0.7549365,1.3781612,-5.428177,23.477715,60.75094,12.127379,111.829094,111.930534,111.47993,111.22514,17.83635,0.7,-111.40228,-24.402773,0.00033148204,-317.3977,5.3906207,4.9242687,4.200586,6.0374107,1.3205864e-08,0.3,-50.493267,78.05376,78.09747,77.822205,77.98292,0.2379391,0.50625,5.64090371131897,11.259044949213664
26,260000,-0.14550313035283055,-81.95053,0.08697683,-0.5955473,1.0616506,-5.939455,25.097178,28.297474,11.268336,111.2514,111.26329,111.39634,111.340065,10.699902,0.7,-111.166,-23.11954,0.000109099085,-317.35864,6.1059375,6.5303946,6.8313456,6.6703014,3.8083354e-06,0.3,-54.600136,77.57314,77.59531,77.836334,77.82647,0.19095406,0.440625,5.558839321136475,11.661870833237966
27,270000,1.9824708291690802,-81.976685,0.086964086,-1.0273404,0.79297334,-6.50605,26.257523,13.59387,12.282125,112.65945,112.58562,112.24887,112.481804,4.354232,0.7,-112.59773,-23.529535,0.00038845057,-249.1104,6.9385667,6.297077,6.254751,6.755868,2.4314505e-07,0.3,-47.751358,77.70364,77.712006,77.63487,77.678566,0.13737611,0.4765625,5.726699352264404,12.06973071495692
28,280000,2.3499753772191503,-81.75946,0.08742453,-0.35870522,0.72102,-3.9075508,21.81034,9.56268,9.980216,110.89505,110.75677,110.35977,110.575905,3.568559,0.7,-110.12141,-24.510937,0.0009859125,-481.01352,3.915025,3.6287966,3.873917,4.4571753,5.280599e-08,0.3,-56.340485,77.52601,77.5099,77.53848,77.530045,0.14785582,0.471875,5.728558778762817,12.47956051826477
29,290000,-0.35794574162527537,-80.63019,0.08668436,0.62413585,1.0768266,-6.0029902,24.169575,61.478027,10.050913,110.09107,110.17003,110.09984,109.72403,3.6804895,0.7,-110.26227,-25.06634,0.00013216544,-366.40738,5.355669,5.619144,5.5715127,5.3977613,6.1973694e-08,0.3,-60.4162,75.78659,75.80968,75.72682,75.77046,0.16389325,0.4734375,5.544558048248291,12.88288919130961
30,300000,0.7552944129928225,-82.438,0.084537484,-0.06252815,1.0304394,-30.585268,23.080938,20.962488,9.11291,110.78055,110.88907,110.43561,110.58538,3.3982673,0.7,-110.9365,-22.913927,5.3314725e-05,-362.81284,29.02712,30.376457,30.634954,31.16597,3.7734281e-07,0.3,-61.61587,77.92996,77.92145,77.75969,77.84836,0.16764641,0.4625,5.532576322555542,13.290706245104472
31,310000,0.17412502535490035,-83.72063,0.08642441,-0.8071005,0.7701741,-42.447906,28.485216,16.338398,12.576564,110.72229,110.25754,110.7292,110.6464,14.259011,0.7,-111.18787,-27.328875,0.0007664957,-415.16968,42.862206,44.04939,43.786823,43.910275,3.182504e-09,0.3,-53.62605,79.251785,79.20273,79.164505,79.2793,0.15929681,0.465625,5.557431936264038,13.69546191294988
32,320000,-0.07902550599517744,-82.520065,0.0841741,-0.30325,0.9702286,-45.48766,24.901735,23.910263,10.95444,110.698204,110.71414,110.80966,110.08469,23.75089,0.7,-110.59575,-26.158377,2.6732276e-05,-313.38025,41.288795,41.454468,37.915005,43.715233,1.4631761e-06,0.3,-51.762672,77.90014,77.87306,77.83408,77.81366,0.34757406,0.490625,5.560128927230835,14.100485098361968
33,330000,0.6678464596577323,-84.05856,0.08325731,-0.28751737,1.3270228,-6.746001,23.135244,26.164948,10.86465,111.1546,111.11294,111.16658,110.91478,70.19296,0.7,-110.71912,-28.560509,0.0016288881,-543.5484,6.8224316,5.961236,8.408589,5.972729,3.6548693e-06,0.3,-62.488316,79.20932,79.24472,79.17774,79.19319,0.5531521,0.4828125,5.982836008071899,14.522578839461008
34,340000,0.35785312173428324,-81.9825,0.08427374,0.82581246,1.0140636,-46.322853,22.009457,32.813103,11.429443,110.06057,110.08404,110.59404,110.81695,60.489246,0.7,-110.52519,-20.835066,0.00060898403,-525.3379,44.3652,44.881386,45.37692,44.83039,6.82121e-08,0.3,-66.49476,76.89033,77.00415,77.139,77.22397,0.46727765,0.47812498,5.5952441692352295,14.943204152584077
35,350000,1.8057377523445928,-82.476974,0.08494469,-0.19943826,1.6794399,-35.271664,19.929178,174.80264,8.117334,110.93529,110.70902,110.4286,110.65281,17.274185,0.7,-110.87661,-22.849165,0.0046425946,-539.704,36.483242,34.396366,34.94252,35.74203,1.2194679e-06,0.3,-62.953068,78.04669,77.944824,77.98629,78.18859,0.325535,0.403125,5.718625068664551,15.36030033826828
36,360000,0.9308124832967322,-83.186005,0.08302066,-0.7693849,1.2127541,-46.66283,23.029448,42.55187,12.155603,110.55056,110.54002,110.32346,111.10461,14.427067,0.7,-110.11434,-33.386963,0.0013249894,-721.84424,43.44962,43.23938,42.885933,43.4861,2.9738732e-07,0.3,-61.490196,79.207214,79.1626,79.322845,79.5289,0.21474084,0.4109375,6.03876256942749,15.784979486465454
37,370000,0.5166664742881519,-83.051926,0.08346504,0.46475202,1.5715878,-6.57859,25.66306,74.15924,12.219962,109.65702,109.325195,108.996086,109.648125,24.24324,0.7,-109.5695,-24.81353,0.0007582212,-393.75635,6.214581,5.473039,6.613066,5.942993,2.9703369e-08,0.3,-51.06956,78.816956,78.83727,78.58186,78.82966,0.30269206,0.4375,5.81639838218689,16.207954136530557
38,380000,1.4850323660907594,-82.115875,0.08081642,-0.39388645,1.1818132,-43.324654,23.129679,13.371112,10.657778,110.93624,110.699234,110.47388,110.174904,21.088701,0.7,-110.84241,-28.138264,0.00033354142,-654.7843,42.040985,42.849453,41.714283,43.19301,2.6970347e-06,0.3,-66.16221,77.225266,77.23869,77.365974,77.09953,0.27857107,0.52968746,5.564530611038208,16.623672044277193
39,390000,-0.1061280454256442,-80.50121,0.08178166,-0.40306124,1.0784639,-5.532176,22.730879,35.620422,9.836423,110.87356,110.91183,110.50641,110.35711,12.169502,0.7,-111.508606,-32.70577,0.0011056281,-991.86285,5.5095463,4.40365,6.071483,5.378118,6.237708e-07,0.3,-68.45345,75.41332,75.41934,75.23532,75.33571,0.16356856,0.47656247,5.857312917709351,17.043136370182037
40,400000,-0.33235962662071983,-82.800705,0.083127275,-0.38927346,1.3323073,-33.06634,22.5109,23.948019,13.752739,109.69837,109.762344,109.6346,110.12561,32.260044,0.7,-109.60865,-32.886948,0.0011343914,-492.18762,30.84815,31.03484,30.187063,31.532867,1.5103143e-07,0.3,-59.58997,78.06123,78.01438,78.29573,78.359085,0.5573646,0.43124998,5.835600137710571,17.462826283772788
41,410000,0.21911323198642121,-80.29668,0.08121238,0.1465115,0.8663458,-42.356018,25.373945,9.643811,15.138006,109.636,109.60484,109.41124,109.64179,14.32478,0.7,-109.591995,-29.554203,0.00020505983,-449.9522,43.110558,42.414635,42.02419,40.69597,1.5662518e-07,0.3,-69.449135,75.621086,75.59243,75.882065,75.78451,0.17441368,0.43906248,5.79558801651001,17.885584537188212
42,420000,0.04420965491828087,-83.13085,0.08166305,-0.5891694,1.4634901,-5.568574,26.72166,40.257126,14.047127,110.98726,110.4962,109.7202,110.425354,6.0979285,0.7,-111.09825,-26.029657,0.0019320988,-281.17993,5.669809,6.393189,5.953674,5.4882374,5.9764716e-07,0.3,-57.754326,78.29931,78.223526,77.85475,77.99349,0.17513362,0.47812498,5.975845098495483,18.30963354508082
43,430000,-0.3208578547242295,-81.11063,0.08078452,0.03010042,1.1801649,-5.267755,23.899738,30.31533,9.185328,109.222115,109.384796,110.20485,109.72785,15.713078,0.7,-108.76288,-27.50573,0.00059608486,-489.5818,6.3993645,5.044295,4.1019554,6.326062,1.4787249e-06,0.3,-64.200356,76.43268,76.39735,76.43313,76.76463,0.22846325,0.40468746,5.814655303955078,18.730312995115916
44,440000,-0.23291284119552227,-80.19445,0.080280766,0.7384658,1.0607588,-6.0148444,29.374916,67.285934,11.872352,108.864586,109.08061,108.44688,108.88582,5.6505513,0.7,-109.00184,-30.614809,0.0007011483,-806.65485,6.1874814,5.909015,5.8126497,5.404377,2.728484e-07,0.3,-73.856155,75.13414,75.10422,75.039276,75.23623,0.17645116,0.41875,5.9565722942352295,19.151694103082022
45,450000,1.56854700493827,-80.776726,0.08119184,0.7405395,1.1923475,-32.09705,27.876934,58.845062,14.53956,109.73047,109.83771,108.966644,109.110794,11.478934,0.7,-109.81591,-32.383026,0.0011474224,-643.3771,33.633873,31.555655,31.499235,32.037052,2.9068442e-06,0.3,-73.77539,75.438446,75.44183,75.233025,75.419,0.19470915,0.46718746,5.8500049114227295,19.579275091489155
46,460000,-0.1256946329082036,-81.07442,0.078920044,0.40603617,1.6517797,-25.846313,30.687603,58.896065,12.622396,110.747055,110.91813,109.87295,110.32008,8.85017,0.7,-110.602715,-23.104113,0.0004150218,-456.7811,26.175743,26.703966,26.663229,25.998646,6.9849196e-11,0.3,-72.638306,74.94714,74.938705,74.53214,74.75828,0.1892328,0.4578125,5.576192855834961,19.994253774483997
47,470000,0.4296505760380667,-82.67404,0.079953186,-0.54958606,1.0416733,-6.0364423,26.09879,13.829765,12.112728,108.742226,108.8252,108.96135,109.36326,23.482527,0.7,-109.029465,-30.083622,0.0011669487,-630.0686,5.719563,6.2731376,4.8685074,5.6973157,2.899724e-06,0.3,-61.454357,77.66892,77.65391,77.83597,77.787994,0.22953479,0.42968747,5.871122360229492,20.415742886066436
48,480000,0.1533490762750271,-80.547066,0.08216802,-0.34726185,1.1490681,-6.5147486,25.131788,24.467709,11.633184,109.39761,109.30619,109.069466,109.49315,22.85979,0.7,-109.164825,-28.462341,3.6808487e-05,-799.45074,6.0022306,6.4762187,5.8059487,5.387875,1.6565435e-06,0.3,-58.076996,76.112946,76.14337,76.32109,76.38098,0.3056364,0.40625,5.978201866149902,20.847390866279603
49,490000,-0.01998706829029033,-84.312325,0.08088382,-1.4708614,1.2135646,-46.914986,27.100943,81.37196,8.579452,109.26412,109.11712,109.16922,109.315475,4.081503,0.7,-108.63485,-31.886023,0.001338027,-417.63788,47.23021,47.597088,47.429893,46.282475,1.7968704e-08,0.3,-58.23931,79.73126,79.681274,79.7071,79.763504,0.17703846,0.39218748,5.999085187911987,21.272206366062164
50,500000,0.16645395220574102,-79.27015,0.08091125,0.35945782,0.9875403,-5.9571404,32.66445,21.533504,11.270331,109.307106,109.20634,109.69599,109.8159,43.382343,0.7,-109.00787,-30.13591,0.0019170431,-697.01514,4.4541774,6.065734,5.9761944,6.1500425,9.725802e-07,0.3,-71.442764,74.47206,74.4512,74.49045,74.622375,0.35654634,0.37812498,5.5959389209747314,21.682837518056235
51,510000,-0.24706925009731667,-83.19883,0.07940226,0.961754,1.3972211,-28.077328,26.742004,101.30478,10.288379,109.854965,109.841545,109.65485,109.64665,6.3790493,0.7,-109.84601,-26.039223,0.0015978911,-482.59567,27.259747,27.531994,20.280123,21.842525,9.12805e-06,0.3,-63.025784,79.13801,79.063576,78.89025,79.05849,0.19816035,0.47812498,5.6103527545928955,22.091135350863137
52,520000,-0.6767770718490225,-81.34943,0.079543255,0.46620375,1.1624986,-30.521465,28.489372,49.57762,11.939896,109.8125,109.98261,110.172844,109.93852,49.826458,0.7,-109.323044,-26.605484,0.0013662837,-414.25076,29.990124,29.315449,29.439135,29.37559,1.6031962e-06,0.3,-61.31824,76.09148,76.10289,76.282776,75.99849,0.34841228,0.45624998,5.386157751083374,22.49743405977885
53,530000,1.9858700865025214,-81.162224,0.07994158,-0.0371899,1.3640332,-44.415287,21.72334,63.378777,11.898731,108.09382,107.920654,107.80178,107.56763,10.118127,0.7,-107.94026,-28.966501,3.7844438e-06,-655.8091,43.22662,43.51913,42.135956,44.163094,2.7939678e-10,0.3,-83.460724,75.40636,75.433945,75.405685,75.35552,0.228612,0.540625,5.490171194076538,22.900567416350047
54,540000,0.5187573668619635,-80.98247,0.07992766,-0.39118928,0.8767116,-47.383656,24.703981,14.869827,10.024702,109.436935,109.132416,109.28434,109.4047,13.502192,0.7,-109.10537,-24.225456,0.0005232362,-521.44965,46.747574,46.248272,47.33401,47.76684,3.1944364e-08,0.3,-73.16711,76.06027,76.04376,76.18475,76.14417,0.23343436,0.45937496,5.623319864273071,23.310800139109293
55,550000,1.9135735698125882,-81.71048,0.0799691,0.7055746,0.92576265,-25.318192,27.711353,47.12986,10.581806,108.287796,108.17017,109.18377,108.737595,17.402142,0.7,-108.281425,-29.79597,0.0014974123,-443.7061,23.985641,23.889664,25.978338,26.134064,1.7326967e-08,0.3,-67.24272,76.86762,76.83135,76.96595,77.03157,0.23052444,0.4375,5.513370990753174,23.716719873746236
56,560000,0.9252035351350838,-79.742546,0.08071621,0.004853517,0.9328718,-31.625847,28.701225,20.63501,13.616045,108.915405,108.71374,109.21171,108.76863,2.6584413,0.7,-108.23672,-29.382204,3.8096798e-05,-567.1657,31.806328,30.769405,31.355473,30.647196,1.6458042e-06,0.3,-78.459274,73.940285,73.917145,73.75989,73.80601,0.14998594,0.4953125,5.420559406280518,24.122586111227672
57,570000,1.6363178103359177,-79.74671,0.07934337,0.9206264,0.9620259,-4.6440454,45.70793,25.394215,12.697743,109.782005,109.9234,109.71039,110.00603,107.43418,0.7,-109.737236,-27.779118,0.00080330385,-441.00156,4.563637,4.2680044,5.554645,5.245643,1.2483278e-05,0.3,-79.88257,73.50148,73.494576,73.404045,73.44584,0.6224222,0.45,5.451300382614136,24.523616047700248
58,580000,1.2805807391219943,-82.06577,0.07995848,-1.2742674,0.75575,-33.785313,26.26223,24.252142,8.648121,110.1095,110.0619,109.80974,110.207375,14.795758,0.7,-109.70141,-35.04598,0.00035528466,-490.86682,29.289633,30.045004,28.526129,29.35687,1.3201497e-06,0.3,-63.874756,77.10516,77.09474,77.09463,77.236565,0.18270633,0.42343748,5.386366367340088,24.926270838578542
59,590000,1.4372753669941902,-80.1225,0.07792807,0.2639656,1.1968935,-33.771828,25.703005,24.650997,13.016425,109.40628,109.54018,109.338326,109.35982,8.573298,0.7,-109.050705,-43.228592,0.0005649135,-521.4858,34.340515,34.056866,36.098373,38.08552,2.3862115e-06,0.3,-69.4961,74.83258,74.83956,74.87999,74.900055,0.17803124,0.44375002,5.387804269790649,25.32587103843689
60,600000,-0.2975156487389688,-81.11327,0.07894111,0.64006025,0.8628123,-42.76807,25.967306,43.841026,8.876258,107.87589,107.71216,107.85266,107.97861,3.7895045,0.7,-107.87911,-24.885244,2.5014451e-06,-544.86676,43.303375,44.132607,43.235302,44.948917,2.5752087e-07,0.3,-74.95824,75.86026,75.826225,75.89247,75.95317,0.11943743,0.4125,5.378184795379639,25.728553378582
61,610000,2.482291101209896,-80.90808,0.078400694,-0.66174054,1.7033725,-4.8730288,26.734032,213.0882,12.266343,108.66556,108.62408,108.72724,108.92969,2.1606257,0.7,-108.4284,-33.778805,0.001246451,-628.03925,5.1742773,5.2642612,4.5345116,5.690677,3.229827e-07,0.3,-72.988495,75.884926,75.86029,75.96112,76.13631,0.11079965,0.4109375,5.380650520324707,26.13549222946167
62,620000,2.245356700026484,-82.43445,0.07728882,-0.8684101,1.3916416,-33.972145,23.271034,33.126503,11.03038,108.03926,108.273796,108.14898,108.02962,17.863937,0.7,-107.99287,-29.640043,0.0011704837,-1084.4739,33.87773,32.32612,34.15075,30.509995,1.5821017e-06,0.3,-77.810165,76.99957,77.00493,77.421165,77.09273,0.3373316,0.521875,5.483736515045166,26.541528336207072
63,630000,2.161836544755271,-83.974075,0.07809001,-0.46324977,1.2584692,-31.63521,38.11819,91.98848,7.9245796,108.768684,108.754036,108.458336,108.57109,148.66977,0.7,-108.81145,-24.69021,0.0013384167,-555.98224,30.836622,31.047756,31.619705,29.34406,2.7543864e-08,0.3,-66.814896,78.73909,78.78436,78.60987,78.62977,0.7146116,0.42343748,5.492093563079834,26.947890520095825
64,640000,1.9379520853452685,-81.74956,0.07861589,-0.09288037,1.1076262,-8.093888,33.793682,25.148216,14.5601015,107.67183,107.57338,108.69274,108.81215,12.724218,0.7,-107.93216,-28.227407,0.003081079,-491.7238,7.5493617,7.6556864,7.6931553,8.693897,1.5716069e-10,0.3,-75.625946,75.8874,75.85324,75.95381,76.287285,0.25848415,0.37656248,5.464498996734619,27.3549200018247
65,650000,1.7379753567474756,-80.47097,0.077467255,0.7417368,1.2984145,-5.4988613,32.22119,30.882233,10.910315,107.94926,108.131584,107.40558,107.98125,15.487287,0.7,-107.84999,-34.267063,0.0007580126,-710.82635,5.146268,5.402833,5.650958,5.8125234,3.5941077e-06,0.3,-71.367096,74.65449,74.72836,74.35408,74.57532,0.24915683,0.4671875,5.353101491928101,27.76212033430735
66,660000,1.1320336963404798,-85.095856,0.080165535,-0.5688137,0.98748636,-6.4811287,25.8833,13.613218,9.982369,108.860825,108.81142,108.82137,108.316536,17.12801,0.7,-108.667854,-26.554998,0.0016986849,-596.3778,5.7375803,5.768034,6.574954,5.431893,1.3111083e-05,0.3,-61.04747,80.94955,80.90223,80.72914,80.6702,0.22710663,0.55625,5.379304647445679,28.16486635605494
67,670000,1.469037379159111,-81.908516,0.07831707,1.1670955,1.3796483,-5.8891916,34.246593,93.32352,12.365219,107.69914,107.70826,107.30876,108.05245,23.522272,0.7,-107.80338,-29.638271,0.00012674095,-1143.3973,4.7514462,4.8730106,6.082246,7.373979,3.1355304e-07,0.3,-86.623505,76.46253,76.468185,76.26812,76.38547,0.2741028,0.46875,5.371266841888428,28.57070999145508
68,680000,0.7711032402642144,-84.27684,0.07899753,-1.0485798,0.8221688,-48.00701,29.833143,25.74065,12.974004,108.70747,108.346954,108.542145,108.510574,13.683518,0.7,-108.394775,-42.6985,0.0005285482,-670.0017,43.695396,43.48079,43.435974,44.101467,1.18813475e-07,0.3,-60.790764,79.19824,79.1934,79.268684,79.273865,0.2578471,0.4421875,5.372965097427368,28.97215965191523
69,690000,1.627547298858822,-82.64756,0.080247566,-0.38582492,0.9566087,-37.261677,33.134403,30.923668,10.470776,108.45208,108.829895,108.41742,109.0322,4.1063137,0.7,-108.46485,-23.672771,0.00022990542,-833.82477,37.663124,36.252678,33.089504,38.64886,2.263114e-08,0.3,-83.87191,77.53902,77.56972,77.43157,77.55916,0.1150471,0.44687498,5.375163793563843,29.376815585295358
70,700000,3.316682858961374,-81.858505,0.07887185,0.3728863,1.0952592,-6.817505,29.920935,50.64053,10.154506,107.864555,107.97102,107.75742,107.84365,6.4383297,0.7,-107.50443,-22.450384,0.0028378353,-609.83325,5.8396425,5.951745,6.6057234,6.893009,7.533817e-08,0.3,-70.96389,76.64745,76.72185,76.70333,76.811935,0.15821542,0.4453125,5.366077661514282,29.783113300800323
71,710000,1.9246709148110992,-79.66878,0.079414,-0.5778792,1.2087779,-5.297712,28.338428,55.24965,10.496508,107.3641,107.343506,108.16207,108.58174,8.716072,0.7,-107.70174,-25.99044,0.0004177816,-785.13257,5.6114597,5.1522784,5.678248,5.334005,3.426685e-08,0.3,-79.05025,73.88772,73.83894,74.157845,74.384544,0.22817397,0.3890625,5.518343687057495,30.18726501862208
72,720000,1.2537636339942941,-80.62904,0.079229616,-0.44713005,0.97869533,-7.6620836,23.910799,24.839672,12.793656,108.65709,108.51773,108.82002,108.70012,13.311986,0.7,-108.45344,-34.739876,0.00011299038,-565.4255,7.8148575,6.398576,6.6649594,8.289834,2.6806742e-05,0.3,-76.05326,75.00275,74.97653,74.90386,75.13747,0.23261794,0.475,5.461747646331787,30.593200349807738
73,730000,2.994463699939887,-82.28634,0.08042729,-1.0708256,0.7781036,-6.1623683,26.717527,33.032646,11.213533,108.067276,108.24086,108.25341,108.27321,7.3595586,0.7,-108.26414,-25.13057,0.0005486592,-677.3018,5.306254,5.53703,5.361028,6.704,1.0086224e-07,0.3,-72.62388,77.42708,77.450066,77.53169,77.57443,0.13863552,0.48749998,5.605847358703613,31.002421168486276
74,740000,2.907129509740027,-80.35816,0.079545155,-0.13967995,1.382277,-3.933551,29.081896,82.26221,10.392664,109.04949,109.01011,108.19283,108.919876,6.4015517,0.7,-108.78452,-29.564426,0.0014216828,-652.5404,4.279256,5.200979,4.250038,4.9792256,2.4425565e-06,0.3,-83.88635,74.28777,74.38896,74.243416,74.423386,0.18493523,0.39218748,5.517131567001343,31.409068552652993
75,750000,2.334449106718294,-79.70664,0.07908258,0.842512,1.3238201,-5.9517016,57.23009,47.6294,10.65137,108.09541,108.18263,108.976906,108.69033,6.0713444,0.7,-108.14542,-27.878296,0.00033520558,-793.77374,5.7258215,5.376848,5.342143,5.933023,1.8840656e-05,0.3,-75.95497,74.478226,74.44751,74.49371,74.58841,0.18348494,0.41875,5.369167804718018,31.817352334658306
76,760000,1.2225155259857285,-82.5692,0.07829678,0.9283782,0.67217344,-5.442818,31.32768,10.710701,9.508717,108.62335,108.69333,108.66521,108.13577,42.64779,0.7,-108.42582,-33.266212,7.3881645e-05,-774.9407,5.544119,5.286047,4.8595886,5.4706187,7.01737e-06,0.3,-80.76084,77.24475,77.21144,77.193214,77.0509,0.33553752,0.50312495,5.3838911056518555,32.22156829039256
77,770000,1.7495907481892632,-82.7581,0.07803512,-1.1930094,0.72017586,-43.598286,27.299461,14.76029,14.1466465,108.27521,108.20646,108.043274,108.00819,15.72761,0.7,-107.41416,-28.304937,0.0018663525,-1369.8162,43.542183,43.352394,42.993443,43.0261,5.9764716e-07,0.3,-83.68732,77.56284,77.55125,77.4612,77.55669,0.22640267,0.45624998,5.438152551651001,32.62522603273392
78,780000,3.076874080872025,-81.08294,0.07644798,-0.34765434,1.3453796,-4.9355216,24.082275,31.911291,12.589674,108.66658,109.140144,108.1651,108.34522,7.982083,0.7,-108.6839,-28.838337,0.000117702875,-677.6132,4.940769,4.6054835,5.9033074,5.892394,4.3592883e-07,0.3,-78.10349,75.31189,75.31366,75.06117,75.2823,0.17331012,0.42499998,5.470523834228516,33.030360368887585
79,790000,3.4239966212368445,-81.38216,0.078112,0.8545759,1.0977237,-21.262524,24.352621,21.526562,10.158508,109.593216,109.46603,108.74853,109.42592,8.029626,0.7,-109.4537,-27.24772,0.00025008642,-786.06305,20.949314,21.910095,22.073357,21.948212,8.193747e-08,0.3,-93.495895,75.6047,75.64656,75.60213,75.656,0.1497733,0.46718746,5.530226707458496,33.4437202612559
80,800000,2.828386911363606,-80.61108,0.07765697,1.6342481,0.7376734,-6.2258644,29.552267,12.177578,12.804103,108.68581,108.47172,109.06443,108.23173,20.1409,0.7,-108.20417,-24.321867,0.0005597152,-526.56665,6.736985,5.798813,6.0948586,6.484514,3.3500373e-06,0.3,-89.13668,74.38142,74.33147,74.38581,74.47902,0.3129157,0.4328125,5.2848241329193115,33.84508426586787
81,810000,2.4225614714990766,-82.061035,0.07656284,-0.09865949,0.95723665,-49.16624,26.388853,45.778175,10.321598,108.35938,108.41775,108.093124,108.038994,24.15142,0.7,-108.142624,-22.849428,0.00029192242,-698.64935,44.482742,43.35759,47.072258,43.86241,2.1930784e-06,0.3,-75.095,76.94444,76.91577,76.83583,77.08749,0.2825045,0.46875,5.4594666957855225,34.24951351086299
82,820000,2.417687384805683,-80.437256,0.07862234,-0.05878657,0.8694755,-6.6600595,24.187956,19.191278,12.951092,107.94026,107.825294,107.30928,107.13796,89.878944,0.7,-108.544586,-31.995455,0.00083075656,-684.3481,6.8350277,6.301553,6.2781954,6.139047,3.042631e-07,0.3,-81.1794,74.479385,74.44762,74.262726,74.31583,0.5466595,0.5,5.472381114959717,34.656422555446625
83,830000,2.406676491266362,-78.62703,0.077656575,-0.035005882,0.93155706,-6.430496,36.1108,57.28717,11.736841,107.39509,107.623634,107.72938,107.46439,85.52492,0.7,-107.52978,-27.66393,0.00075851195,-741.2235,6.3816156,5.348051,5.4762588,5.5096083,3.4226106e-09,0.3,-81.61408,72.90309,72.87864,72.855774,72.97807,0.43942147,0.39999998,5.4532670974731445,35.06505813995997
84,840000,2.4876573039583945,-79.58255,0.07731652,0.5747403,1.4613459,-6.961703,30.806139,61.711,9.290012,107.860245,107.97249,107.65145,107.694405,14.425628,0.7,-107.78976,-29.382765,0.0003372648,-970.32446,5.8025355,6.313783,5.5374064,5.2728643,3.3255202e-07,0.3,-93.60697,73.6598,73.671906,73.40245,73.56207,0.21846893,0.4328125,5.3825318813323975,35.467913472652434
85,850000,2.668114081020034,-77.82678,0.0798429,0.98859465,1.2407762,-4.1900163,31.053123,69.215454,10.448684,107.990875,108.04802,108.067276,107.934135,7.368585,0.7,-107.73273,-28.532045,0.0011275832,-961.8521,4.0938997,4.67175,5.4609356,4.996811,2.1129383e-09,0.3,-97.59302,71.33374,71.380295,71.18623,71.3922,0.24947937,0.42812496,5.858810901641846,35.88295195500056
86,860000,1.9704897634410103,-80.254684,0.07973032,0.26676962,2.0579076,-43.779472,33.684086,291.9055,9.215136,107.98397,107.82236,107.37669,107.50753,24.840744,0.7,-107.656456,-25.557446,0.0027030532,-824.4684,43.059486,41.994923,43.393303,42.236275,5.638506e-06,0.3,-84.01456,74.5643,74.59007,74.47693,74.61939,0.3349502,0.4390625,5.445449590682983,36.28993770678838
87,870000,2.1653829242745557,-82.34499,0.07539417,-0.089590505,0.68693674,-6.135607,26.6608,9.350252,11.665097,108.18994,108.10355,108.82924,108.2452,7.4331675,0.7,-108.24506,-26.90465,0.00046270178,-1250.2412,5.386436,5.597975,5.5810018,6.1047125,1.710764e-06,0.3,-82.33795,77.68846,77.60724,77.669235,77.65648,0.16787145,0.4328125,5.402725458145142,36.6931608080864
88,880000,2.9281637761344785,-82.15037,0.07799643,-0.39221066,1.6893799,-4.785456,26.366741,55.64785,11.252251,109.138214,109.03601,108.404526,108.87267,12.326049,0.7,-108.892456,-28.133327,0.00047180557,-1050.3376,4.9333014,4.7840796,5.19888,5.2568345,1.9247645e-06,0.3,-86.62906,76.362946,76.38234,76.22948,76.214584,0.17206657,0.453125,5.374532699584961,37.097495472431184
89,890000,3.6006145275154022,-81.277084,0.0810452,0.1005349,0.8711673,-46.296066,29.628448,31.002121,12.754469,108.056366,107.78031,108.33904,108.29178,46.738083,0.7,-107.792595,-29.547922,0.00011168665,-875.2226,44.946117,44.584023,45.14614,45.158943,8.6852816e-07,0.3,-86.080284,75.469284,75.412094,75.66579,75.729485,0.302003,0.3984375,5.463361024856567,37.4992107629776
90,900000,2.6020092105019454,-81.44575,0.07587826,-0.1016987,0.942672,-7.2099295,28.533268,49.934616,13.141785,107.03273,107.162186,107.343605,107.425064,10.949171,0.7,-106.85187,-35.241753,0.0021207794,-740.82025,6.4690523,6.6213975,5.5486264,5.1268005,8.8402885e-09,0.3,-93.88124,75.73465,75.7094,75.882675,75.887886,0.18152128,0.4296875,5.26667332649231,37.89633518060048
91,910000,2.66648365060333,-80.254715,0.07975825,0.914668,1.1992022,-6.548681,50.721786,37.296192,13.755882,108.0073,107.96068,107.76496,107.44661,7.0055203,0.7,-107.46909,-27.600157,0.0015828568,-722.0251,6.193748,6.7023706,4.946779,4.4047794,1.0430813e-08,0.3,-93.9607,74.56928,74.51847,74.15297,74.47307,0.16985622,0.4265625,5.316088914871216,38.297478795051575
92,920000,2.5574755124596713,-80.56232,0.0788171,0.78389907,0.9746598,-5.0675907,32.53014,69.71382,11.171253,107.068886,107.13483,107.779526,107.35485,23.252523,0.7,-106.92813,-26.165009,0.002186558,-724.1693,4.8276234,5.3585105,4.4809,3.969429,1.9992586e-07,0.3,-94.457924,74.10339,74.06427,74.07289,74.156715,0.31337988,0.40781248,5.28254246711731,38.697272117932634
93,930000,2.9062374192028293,-82.15842,0.07816521,0.20422864,0.8461205,-45.194572,31.207832,52.050575,11.178024,106.93276,106.9656,106.72161,106.77433,1.632851,0.7,-107.17249,-28.361126,0.00042177225,-690.6618,43.41294,43.22856,43.741474,42.13017,1.478009e-07,0.3,-84.22533,76.218834,76.17575,76.22689,76.22991,0.079241455,0.4140625,5.30119776725769,39.097431457042696
94,940000,3.5886950315507344,-79.09097,0.07748963,1.2740295,1.2847438,-4.5347395,28.086882,40.37496,10.561579,109.05443,108.90395,109.41294,109.424545,112.49947,0.7,-108.92233,-27.004465,0.00097335735,-1030.9825,5.290224,4.46052,4.270455,6.133438,8.9852693e-07,0.3,-100.2017,72.66341,72.62073,72.87119,72.81705,0.6833689,0.39374995,5.469889402389526,39.49713828961055
95,950000,2.824840354050707,-79.97746,0.08012588,1.6787171,1.1380677,-46.439262,28.576231,103.876816,11.392397,107.78148,107.916176,108.55532,108.51261,8.511908,0.7,-107.81563,-24.007233,0.00028902595,-699.1362,43.375095,43.003513,43.382416,43.54307,6.727976e-07,0.3,-90.916115,73.334015,73.3329,73.34301,73.50096,0.17851645,0.44843748,5.475967645645142,39.90062063932419
96,955000,2.907248151792875,-79.57884,0.07813111,0.8001101,1.4121661,-5.0836043,23.489836,150.1846,13.863373,108.49607,108.60584,108.446075,108.52939,103.61927,0.7,-108.44075,-25.27325,0.00044242013,-973.1981,4.691447,4.6427107,5.8717074,5.595361,4.2391474e-07,0.3,-93.38223,74.14861,74.16818,74.234856,74.26912,0.5026241,0.4140625,5.285488605499268,40.143793034553525
97,960000,2.8015998413706757,-83.087006,0.07606463,-0.9466032,1.0233822,-4.377732,23.230148,58.509155,10.373005,107.59235,107.58189,107.40911,107.377975,14.141712,0.7,-107.47967,-24.446905,5.2136616e-05,-659.7803,4.7292743,5.038275,4.5576386,5.0912886,8.451753e-09,0.3,-72.82518,77.97943,78.00513,77.98648,78.1736,0.213914,0.40624997,5.3885862827301025,40.39164184729258
98,965000,3.2352265381296945,-84.4593,0.0737509,-0.80843365,0.90744877,-47.246273,26.718811,15.867663,12.9821415,108.06301,107.916695,108.260506,108.703766,22.00733,0.7,-107.87664,-37.89265,0.00070378714,-690.20856,45.717434,46.438,45.581768,45.665546,2.1930784e-06,0.3,-82.29041,78.883965,78.91013,79.037636,79.18059,0.2697667,0.43124998,5.3646063804626465,40.63498935699463
99,970000,2.511444680230689,-81.58691,0.0739473,0.21573195,2.7088203,-47.630047,29.329403,276.90997,12.267848,107.548615,107.550705,108.50772,107.75704,30.814293,0.7,-107.377914,-24.960012,0.00054899376,-1048.019,45.313873,45.375473,44.189026,46.1803,1.4248245e-06,0.3,-91.74629,76.08204,76.03839,76.263916,76.26268,0.55167127,0.43125,5.414815187454224,40.88420738776525
100,975000,2.46645698143294,-83.13629,0.077312656,-1.4883711,0.8641416,-4.5727115,35.7456,25.471489,10.00655,107.3736,107.29436,107.14469,107.77093,59.864677,0.7,-107.21966,-26.527283,9.204623e-05,-1753.8726,4.9431105,5.2038527,4.3255754,4.2083483,1.1457015e-05,0.3,-77.55488,78.22902,78.18772,78.33255,78.45884,0.36755565,0.38437498,5.410417556762695,41.132928756872815
101,980000,2.685337042620044,-82.02989,0.07242604,-0.4372316,1.3567282,-6.1371374,27.723404,104.00731,12.314333,107.55514,107.35573,107.47212,107.42165,10.279134,0.7,-107.3486,-30.829836,0.0009682999,-854.53424,5.8360186,4.990799,5.021518,5.328931,2.6354315e-05,0.3,-86.873276,76.38031,76.34865,76.48715,76.46689,0.21332574,0.4640625,5.3391969203948975,41.38060046831767
102,985000,2.6257441435886113,-79.41651,0.08049451,1.6710378,1.9368958,-43.648876,23.663258,130.53712,11.646686,107.88414,108.02585,107.78512,108.242165,4.961834,0.7,-107.674034,-34.081238,0.0001762945,-537.12897,44.34821,44.04598,43.302544,44.472057,5.867332e-07,0.3,-94.13023,72.94643,72.920425,72.92153,73.005646,0.17861709,0.421875,5.232069969177246,41.625300498803455
103,990000,2.396056942773707,-80.50261,0.08087847,0.16486216,0.9304909,-4.777302,32.352,32.407467,13.536037,107.783424,107.77341,107.82662,107.98255,21.364046,0.7,-107.1067,-32.332047,0.0030996625,-522.58685,4.6962776,5.0351176,5.1565814,5.410691,2.3519797e-06,0.3,-77.60045,74.49318,74.538536,74.333374,74.48845,0.26729575,0.4921875,5.388869762420654,41.87076890865962
104,995000,2.403437637239756,-81.813896,0.07527796,0.028511092,0.66274285,-4.761364,26.620773,25.432072,12.068217,108.29224,108.26051,108.31498,107.96079,6.8173585,0.7,-107.69674,-28.648321,0.0013510275,-675.2332,4.8150625,4.630627,4.929871,4.814404,1.571607e-06,0.3,-76.47548,76.19141,76.1608,76.26753,76.3338,0.12510234,0.41562498,5.2804906368255615,42.11655490795771
105,1000000,2.264334281899921,-82.518,0.06907141,0.14299196,0.8437881,-45.785275,27.081814,24.387197,11.719081,108.63058,108.778625,107.82357,108.43902,24.03397,0.7,-108.13913,-28.112354,0.0016102386,-572.40625,44.623238,43.85663,43.133636,42.32886,1.4483929e-06,0.3,-69.86624,76.73856,76.70364,76.4025,76.41469,0.20890415,0.50468755,5.248022079467773,42.36208220720291
