Xixo99/comfo/relaxed_iql/20230321_5seed_mle0/halfcheetah-medium-expert-v2/riql_s4_20230321_033525_halfcheetah-medium-expert-v2_2.63.csv
,step,reward,actor_loss,alpha,alpha_loss,critic_loss,max_actor_loss,max_alpha_loss,max_critic_loss,max_mle_prob,max_q1,max_q2,max_target_q,max_v,max_value_loss,max_weight,min_actor_loss,min_alpha_loss,min_critic_loss,min_mle_prob,min_q1,min_q2,min_target_q,min_v,min_value_loss,min_weight,mle_prob,q1,q2,target_q,v,value_loss,weight,eval_time,time
0,0,2.257590693260748,,,,,,,,,,,,,,,,,,,,,,,,,,,,,,,,,
1,10000,-1.189060205176609,-27.393192,0.06212455,-10.317688,0.42137605,-5.8159895,12.960854,3.861683,7.063648,41.671253,41.633373,41.987816,41.455814,0.4096875,0.7,-42.375137,-33.574417,0.00044639187,-56.452675,5.1841836,5.9825306,6.257205,4.144653,9.561656e-07,0.3,-10.030567,26.9889,26.96636,27.1917,26.73328,0.033303283,0.459375,5.274323225021362,1.4521968722343446
2,20000,-3.3764920101897413,-47.69065,0.06194067,0.13596398,0.68189263,-17.869999,24.8238,9.865705,11.86763,70.30362,70.47676,70.98694,70.08335,1.0507088,0.7,-70.89376,-30.455725,0.0009244338,-91.285126,16.77619,17.029787,17.173376,16.773827,5.3546228e-06,0.3,-16.16528,46.758812,46.728294,46.796993,46.5224,0.08815173,0.39687496,5.380389928817749,1.861913001537323
3,30000,-3.8519116599178544,-58.292236,0.07698915,-1.05316,1.2128627,-6.9106627,21.876709,21.128792,13.339355,87.37606,87.164894,87.59905,87.296326,2.623142,0.7,-87.96373,-31.231316,0.00071131025,-120.9377,5.801284,6.301077,7.1102057,6.3924274,2.2694003e-07,0.3,-21.752777,57.065094,57.07453,57.167366,57.104168,0.11778507,0.39687496,5.449122905731201,2.2715670148531597
4,40000,-2.1580682605178803,-68.577774,0.08369668,1.007255,1.0648439,-31.037138,22.480686,19.303583,10.648916,100.554726,100.32199,99.76724,99.76235,3.1037736,0.7,-99.88594,-29.90553,0.00033612485,-143.84906,30.843319,30.929316,30.055058,29.860212,2.861023e-07,0.3,-22.70935,66.85839,66.917244,67.05381,66.885475,0.1365776,0.4734375,5.528758525848389,2.6887433687845865
5,50000,-2.021097512686308,-75.378296,0.08523957,-0.988896,0.8911823,-5.1950235,21.775965,22.680304,11.2310705,105.34618,105.285866,105.425255,105.033066,8.050189,0.7,-106.87258,-23.108318,0.0010161708,-157.61218,4.104104,2.8340182,5.328235,3.3014355,7.019076e-06,0.3,-20.764507,73.80938,73.80249,73.81376,73.68674,0.136448,0.45624998,5.347558498382568,3.101489233970642
6,60000,-1.1792467396644597,-75.75667,0.08536377,-0.62745786,1.840683,-6.6850853,20.065687,42.5234,12.780695,111.94863,111.76369,111.21334,111.077324,8.319008,0.7,-111.28257,-29.05021,0.0003535222,-114.49835,4.706725,5.176725,6.419036,6.442948,3.4741126e-06,0.3,-26.750755,73.81052,73.87942,73.45908,73.60752,0.16681641,0.47812498,5.412864446640015,3.513191485404968
7,70000,0.3281578060906344,-78.227066,0.08515559,0.09677079,1.9564828,-10.174615,19.865137,39.492558,9.643717,112.77084,112.771255,112.86664,113.259796,4.235066,0.7,-114.77787,-28.078869,0.0006083308,-177.53838,10.100725,11.665414,13.458952,11.06662,1.2262794e-05,0.3,-29.345066,75.97033,75.95498,75.71777,75.86842,0.14825925,0.46406248,5.482673168182373,3.9248812794685364
8,80000,0.8557443559569918,-78.41987,0.0844197,0.6278952,2.1687865,-7.636905,24.88095,72.3618,9.345549,113.7287,113.96505,113.9608,113.72792,4.9471374,0.7,-113.32646,-24.989653,0.0006971455,-234.13599,8.219243,7.371267,7.129554,6.6621714,4.0233136e-08,0.3,-37.065407,76.01256,75.9988,76.2379,76.14465,0.16620752,0.47187498,5.390981912612915,4.335582880179087
9,90000,0.24960011615685374,-79.9195,0.08360492,0.9496703,1.1214242,-34.60491,22.488222,20.187733,11.455343,116.147736,116.3577,114.52411,116.379005,4.8080287,0.7,-115.365875,-23.419815,0.00092187955,-203.80597,32.8837,28.409115,32.902153,29.318003,4.7947283e-06,0.3,-32.126404,77.637405,77.675545,77.53039,77.55732,0.18641022,0.4890625,5.373476505279541,4.746311275164286
10,100000,0.8925319964127836,-81.168434,0.08446497,0.4167471,1.5019512,-5.866259,21.018028,32.05728,10.595221,115.295235,114.95897,114.97184,115.10387,3.3480208,0.7,-115.05651,-25.95603,0.0011330137,-227.7865,5.509153,5.746518,5.5373645,5.6072717,2.0186418e-08,0.3,-33.454185,79.04984,79.01335,79.06562,78.99865,0.15013054,0.5234375,5.406494855880737,5.153590416908264
11,110000,-0.10343147264725058,-79.93741,0.083166145,1.006194,1.6408594,-7.618003,20.377924,35.66887,11.064835,114.889305,114.915276,114.209946,114.02184,10.099535,0.7,-115.468834,-36.417377,0.0007308154,-363.429,7.5033245,7.0925155,5.051941,6.6643844,6.712508e-06,0.3,-42.36988,77.02388,77.05612,76.99097,77.04024,0.23547533,0.44843748,5.430376768112183,5.568390468756358
12,120000,0.45066154399650216,-81.76447,0.08364702,-0.35941386,2.858593,-13.035157,22.75015,207.65277,11.546268,114.63164,115.08599,114.64263,114.675064,8.501681,0.7,-114.39609,-29.47638,0.0031754472,-252.50435,13.631291,13.004721,9.778399,8.485375,4.6214407e-07,0.3,-39.36209,79.20384,79.20415,79.39167,79.47899,0.20399664,0.4109375,5.38176965713501,5.979757575194041
13,130000,0.7288955710445524,-78.07532,0.0860019,0.26200813,1.9904938,-5.006132,21.7675,50.60589,8.761423,113.75492,113.91898,113.69339,114.1882,7.9037275,0.7,-113.78262,-24.547972,0.0051770317,-220.38779,3.964408,4.250502,3.0550067,3.3353136,1.5716068e-08,0.3,-46.83502,74.75923,74.78223,74.860565,74.81128,0.23623264,0.44687498,5.367697238922119,6.388692569732666
14,140000,-0.49031797949359085,-77.81842,0.0865969,-0.56514883,2.0728493,-8.5856495,18.161234,53.39211,12.165474,114.56484,114.21938,114.73046,114.43351,8.524945,0.7,-114.56007,-26.569239,0.004891746,-550.22046,7.480605,8.03885,6.8052135,9.104399,2.46875e-06,0.3,-52.348816,74.28616,74.210045,74.76355,74.46422,0.22828846,0.49531248,5.7594687938690186,6.807408034801483
15,150000,1.1531266567834217,-80.37326,0.08859135,-0.24352881,1.5788989,-5.8162804,23.821304,23.41853,14.821756,112.91657,112.78575,113.54968,112.995605,36.7216,0.7,-112.954735,-32.55247,0.0021683204,-260.85092,5.518363,4.853821,5.2542667,5.452457,6.9307866e-08,0.3,-45.507584,77.207214,77.131546,76.94836,77.00131,0.41211483,0.478125,6.10651421546936,7.244583380222321
16,160000,-0.10230293679365152,-83.20126,0.08838539,-0.07989204,1.2828019,-6.0371304,21.038235,17.773542,12.590113,112.81951,112.53153,113.10251,112.53623,8.429437,0.7,-112.40834,-24.240637,0.0008408154,-308.62766,4.318506,5.108305,4.715041,4.3441944,9.038992e-06,0.3,-45.76387,80.18941,80.19208,80.455605,80.38651,0.25560045,0.48437497,5.881909608840942,7.672789986928304
17,170000,-0.7206536216796905,-81.129105,0.08905424,0.71954596,1.2570667,-35.541767,22.494299,21.847666,12.406284,113.494514,113.65119,112.92221,113.656525,8.815271,0.7,-112.96757,-32.53808,0.00014549459,-382.51093,33.83732,33.121586,32.670044,31.83591,4.330254e-06,0.3,-50.732155,77.29707,77.27879,77.02995,77.100426,0.26784462,0.46875,5.615436792373657,8.088248193264008
18,180000,0.48669777539710946,-82.62209,0.0897195,0.3249464,1.1723468,-35.05719,24.068066,17.858425,11.111261,113.6228,113.83919,113.45991,113.45177,81.08395,0.7,-114.26372,-28.66831,0.002422158,-273.69836,33.616077,34.960953,32.687546,33.641823,1.0300835e-06,0.3,-48.52927,79.435074,79.40587,79.53432,79.51007,0.46699202,0.44843748,5.8480517864227295,8.522299297650655
19,190000,-1.794228450125772,-79.43756,0.0901849,0.9658569,2.0470653,-24.254177,18.746973,88.88725,11.453276,112.76026,112.62131,112.127075,111.69409,18.241596,0.7,-113.34529,-20.399042,0.00031357928,-381.70444,24.971647,24.319096,24.707134,26.133219,2.7939677e-06,0.3,-54.248165,75.25647,75.232574,74.94969,74.922874,0.24746639,0.51874995,5.7083446979522705,8.949208343029023
20,200000,0.6845371654969504,-77.77107,0.08959646,-1.0915015,1.1253736,-4.623738,24.175564,30.96526,13.71106,112.12714,112.098465,111.359825,112.23034,6.3012195,0.7,-111.57384,-27.064985,0.00091657887,-317.4611,2.8938224,3.3643198,4.0777082,3.5615907,2.514571e-09,0.3,-49.60962,73.72919,73.65077,73.70337,74.02815,0.23532718,0.39218748,5.565039157867432,9.369463109970093
21,210000,1.6884353840298048,-80.16301,0.09046919,0.31892365,1.3376182,-4.113893,27.879494,19.203066,11.277713,112.18761,111.985405,112.4622,111.87338,7.4620194,0.7,-111.795616,-25.195854,0.0018435917,-380.04037,2.9785929,2.7746608,4.7149496,5.325964,4.588465e-05,0.3,-53.44403,75.82483,75.87628,76.19126,76.36064,0.2055296,0.3671875,5.599654197692871,9.790385174751282
22,220000,0.7869516369822671,-82.259384,0.08979386,1.1265962,1.3538067,-2.676207,21.64851,16.886234,14.048807,110.621445,110.660545,111.10807,110.65925,8.362224,0.7,-110.835464,-23.5441,0.0035220375,-258.2017,3.077376,2.219225,4.894355,4.7962785,4.1075694e-08,0.3,-44.731094,78.33915,78.37187,78.78293,78.781654,0.19509202,0.40781248,5.582793712615967,10.211535493532816
23,230000,2.2544227162265096,-81.25031,0.0897536,-0.7994502,1.1707277,-5.030623,28.956648,82.59936,10.36949,111.570915,111.84594,111.73134,112.14168,4.6493235,0.7,-111.85679,-29.118279,0.00044804264,-309.9522,4.336768,4.1266556,4.2180634,4.942738,6.983592e-06,0.3,-52.986877,76.947174,77.00702,76.88804,76.99841,0.14733718,0.42812496,5.620266914367676,10.630593955516815
24,240000,1.5347335550322618,-83.30345,0.0884965,0.8950245,1.1628504,-5.04023,24.82911,36.29031,9.009977,111.599686,111.688484,111.03967,111.38897,6.2003894,0.7,-111.57117,-21.911697,0.00018972444,-359.9642,3.9911766,3.9304438,4.627233,4.3687367,5.1962606e-06,0.3,-57.76292,78.701065,78.56999,78.67062,78.77492,0.19727448,0.3953125,5.6541337966918945,11.048811717828114
25,250000,2.3503748199044736,-82.85321,0.09122717,0.3856016,0.968728,-21.577757,27.17534,33.951286,8.528712,110.410095,110.315025,111.01943,110.39972,19.921669,0.7,-110.274506,-22.998676,0.00019163768,-355.17584,20.9749,21.08476,21.94805,22.71036,1.2468519e-07,0.3,-53.879185,78.22607,78.21481,78.43521,78.403076,0.28871056,0.4265625,5.636934041976929,11.468464986483257
26,260000,2.5982345232126782,-81.72597,0.08878783,0.23215574,1.4674089,-33.11315,20.420624,33.228542,13.872837,110.35134,110.43429,110.381836,110.61926,9.186902,0.7,-109.769936,-28.139187,0.0057642255,-341.99866,33.915474,34.113754,36.69428,34.258823,1.2730016e-08,0.3,-53.09417,77.377594,77.30237,77.599915,77.55582,0.26290643,0.47031248,6.045440673828125,11.901748132705688
27,270000,2.5450927149475,-81.28043,0.08948696,-0.15854546,0.9871523,-43.362633,25.655218,22.867134,12.44921,111.28474,111.20718,110.636925,111.469376,7.06834,0.7,-111.35614,-31.81645,0.0005680729,-580.0164,45.183994,45.15682,45.232937,44.450054,1.5559301e-06,0.3,-55.649933,77.32277,77.35984,77.365715,77.37383,0.14403619,0.49062496,5.521551609039307,12.326423319180806
28,280000,1.4870666682881462,-80.139145,0.08793022,-0.26365197,0.86225116,-29.56377,19.46592,29.865223,8.846449,110.17012,109.98193,109.498375,110.10202,6.724659,0.7,-110.64899,-23.90778,0.0003734097,-562.7967,28.150751,28.870188,26.35497,28.61772,1.9398867e-07,0.3,-63.739685,75.5712,75.499535,75.36178,75.494965,0.16020918,0.4515625,5.472872018814087,12.740248052279155
29,290000,2.306558383100347,-83.29097,0.08928252,0.7280985,0.98240936,-43.264587,32.05312,17.64001,12.346692,110.54431,110.265854,109.7638,110.26416,5.8821487,0.7,-110.13255,-22.9435,0.0006735151,-397.38446,42.109615,40.591362,39.152287,40.682076,6.538278e-07,0.3,-56.108128,79.125694,79.1779,79.02269,79.070625,0.16848066,0.47187498,5.833815813064575,13.168470128377278
30,300000,1.1548186361519182,-80.37221,0.087979145,1.0650692,1.6539117,-3.4186103,20.843285,60.463867,13.1206,111.30315,110.970924,110.9642,110.01621,10.626855,0.7,-111.02699,-25.065805,0.0009601492,-398.81918,3.1583152,3.165595,4.3128734,4.2269945,5.879949e-07,0.3,-64.61977,75.09994,75.09809,75.07681,74.94095,0.20079333,0.50624996,5.615221261978149,13.607170271873475
31,310000,2.745526073102683,-81.2852,0.085022494,-0.32771307,1.4542317,-5.1689987,27.27761,31.231014,10.41779,111.944176,112.00013,110.42676,111.50608,22.022995,0.7,-112.003975,-32.330452,0.0032673744,-461.16266,4.458476,4.50638,2.8469985,4.340411,5.955622e-06,0.3,-66.473465,76.12744,76.12265,76.023315,76.36774,0.25456795,0.375,5.395956039428711,14.030352596441904
32,320000,0.13946364895219354,-80.93299,0.088270366,0.86441076,2.1584868,-7.760135,25.965683,112.512436,9.768205,110.31243,109.91755,110.25149,110.733986,14.277419,0.7,-110.03502,-23.166801,0.0007407174,-440.96756,6.633875,6.6754994,4.9528165,6.6346483,7.377821e-08,0.3,-64.72597,75.71814,75.5311,75.887245,75.94423,0.27879205,0.45156246,5.379007339477539,14.442650258541107
33,330000,0.9075014556237586,-82.25493,0.08484162,0.5997787,1.3322029,-4.4813004,20.40014,30.215282,11.6031,109.69637,109.7113,109.58342,109.359406,82.751205,0.7,-109.733185,-30.769659,0.00094332465,-346.6323,4.0431156,4.572208,4.319478,4.8472905,1.8564606e-07,0.3,-58.981136,77.38451,77.415115,77.19841,77.11149,0.46439612,0.515625,5.4754273891448975,14.85169865290324
34,340000,3.841512476493208,-81.98778,0.08581764,0.31411338,1.619734,-39.20998,26.082188,97.57303,11.035915,109.0523,108.586464,109.33702,109.039444,16.770447,0.7,-109.08545,-25.927967,0.00027439237,-655.93677,38.70447,38.136024,39.21774,38.08645,4.1953174e-07,0.3,-67.93347,77.32712,77.29635,77.55119,77.61034,0.31844577,0.428125,5.3431079387664795,15.26586872736613
35,350000,1.1633721415089395,-80.65043,0.08290792,-0.3289631,1.6671897,-9.50802,24.901339,147.60237,10.354677,108.80969,108.80586,108.83745,109.36994,9.677144,0.7,-108.80632,-28.781807,0.0005734703,-563.71735,9.09636,9.466819,10.108731,11.05603,6.2654904e-06,0.3,-72.90495,76.003296,76.015305,75.73357,75.936035,0.21376958,0.4609375,5.4806859493255615,15.674861188729604
36,360000,1.5431212615849625,-82.83624,0.08560611,-0.26400533,1.0133443,-6.169795,30.141611,15.634199,11.84986,109.438774,109.459885,109.357796,109.418465,10.698057,0.7,-109.57312,-21.479935,0.00039682083,-465.52817,5.3291426,5.440114,6.6528616,5.4498515,1.7462299e-11,0.3,-63.8967,78.10682,78.11813,78.228836,78.29496,0.21793032,0.425,5.449424743652344,16.085324748357138
37,370000,1.8886386406580518,-82.69611,0.08523987,0.7362763,0.9717609,-35.237118,22.385668,28.048918,10.974689,109.75124,109.7342,109.39384,109.68693,46.362328,0.7,-109.43744,-19.851028,0.00038779032,-391.6683,38.141098,36.609985,37.60762,36.771927,6.604678e-08,0.3,-62.112644,78.04228,78.05315,78.15554,78.107834,0.46367598,0.45,5.332637310028076,16.4919415752093
38,380000,1.780150544481962,-80.21422,0.08197458,-0.6635327,1.2435305,-3.7431107,22.062616,67.70759,10.43215,109.728004,109.63335,109.7809,109.89277,9.978775,0.7,-109.72815,-31.177372,0.0019733778,-523.0058,4.0581255,4.3556356,5.6514225,5.4601617,1.2325472e-09,0.3,-72.80118,74.37677,74.42001,74.29698,74.45476,0.16516727,0.428125,5.364420652389526,16.900435745716095
39,390000,0.9618725418774781,-80.957,0.08513925,-0.444544,1.1242955,-4.277309,20.99098,79.5294,10.843897,110.05787,109.807,110.17101,109.92637,3.9713905,0.7,-109.71429,-24.247522,0.0018278658,-479.23807,3.3124757,4.9573092,2.9701748,2.9413292,2.1264055e-05,0.3,-64.6904,75.938774,75.99891,75.81642,76.051056,0.13933611,0.3953125,5.422816276550293,17.312466136614482
40,400000,2.352263924270421,-79.13401,0.08336718,0.4227978,1.1537895,-4.69593,25.352371,36.597557,8.779088,108.91764,108.80786,108.686615,109.25272,13.106393,0.7,-109.1283,-26.7347,0.0010872469,-381.39664,3.066952,4.406603,3.815865,4.8842072,4.541944e-06,0.3,-62.92842,73.52348,73.62833,73.425995,73.79237,0.31150678,0.40468746,5.370027303695679,17.717266404628752
41,410000,1.266818755486391,-80.752075,0.083079085,-0.5665191,0.78476197,-42.092545,23.014393,15.380048,10.718218,108.559906,108.46182,109.149666,108.66927,16.414986,0.7,-108.06153,-37.18279,9.552186e-05,-561.4973,42.26219,41.48576,42.609215,39.82845,2.3093891e-07,0.3,-66.563705,75.672424,75.66656,75.84561,75.911316,0.3094318,0.4296875,5.3720948696136475,18.12372705141703
42,420000,0.2894039536808408,-84.06489,0.08032433,0.2782965,1.5665834,-46.428806,19.901047,106.22591,12.117252,110.456474,110.325455,110.79772,110.93705,19.38266,0.7,-110.28084,-23.618574,0.002740467,-472.1317,44.607994,43.563934,42.207066,43.773777,3.8508297e-05,0.3,-63.971485,79.64853,79.56195,79.69284,79.848045,0.33448762,0.3859375,5.417985916137695,18.53062797387441
43,430000,1.956433992115427,-81.480606,0.082710356,0.14931192,1.6674849,-3.3195035,36.979973,35.150932,11.562058,110.2056,110.189644,109.26249,109.29005,7.0192313,0.7,-110.048416,-29.756569,0.0033404427,-485.03033,3.1278396,3.9956832,3.9473093,5.1297417,2.7939678e-10,0.3,-68.61302,76.12706,76.15973,75.67171,75.99086,0.18499628,0.4375,5.473106861114502,18.94063611825307
44,440000,2.5836673265727295,-81.74025,0.0817055,-0.26808488,1.5511892,-46.803852,21.044853,44.001675,14.92707,108.429405,108.15339,108.50602,108.3328,15.708174,0.7,-107.93011,-28.316587,0.0001435372,-495.93594,47.137867,46.30131,45.42858,46.35859,7.377821e-08,0.3,-68.876945,76.40526,76.37999,76.68571,76.528404,0.21974589,0.38125,5.512162923812866,19.355910364786784
45,450000,1.9193393289347427,-82.92,0.08218875,-0.45449623,1.1826867,-46.700287,30.13392,49.692528,9.188762,110.41947,110.15667,109.58441,109.10638,10.894137,0.7,-110.22048,-25.42007,0.00036328664,-687.32904,45.62782,45.59717,44.51047,46.733646,5.9764716e-07,0.3,-70.27797,77.20557,77.234924,77.14992,77.248825,0.25305152,0.5015625,5.407772541046143,19.769877084096272
46,460000,1.165400289113099,-83.30417,0.08076734,-1.1513064,1.7469082,-4.131471,23.13328,131.7467,9.441494,109.115074,108.980156,109.25632,109.08257,36.01597,0.7,-108.95192,-30.32619,0.00033992727,-398.30618,3.6790109,3.762971,4.1382346,4.711029,2.521556e-08,0.3,-59.626244,79.022224,78.99201,79.12962,79.18166,0.27012178,0.42499998,5.4325597286224365,20.179110646247864
47,470000,1.9907263271950353,-81.50398,0.08160875,-0.5927247,1.2053024,-1.9080348,27.9871,61.335487,7.3922834,109.077705,109.00299,108.53925,108.73208,13.766121,0.7,-108.70221,-36.318176,7.803069e-05,-418.34192,2.1658683,3.01334,3.085072,1.8164375,6.8212107e-06,0.3,-65.92987,76.17021,76.21492,76.04259,76.05937,0.2329995,0.53125,5.33070182800293,20.58586455186208
48,480000,1.0020596669964366,-80.71035,0.07962908,-0.01491636,0.9932734,-40.361115,27.920448,32.23705,13.0530815,108.991486,109.082,109.199295,108.731606,9.901372,0.7,-109.18807,-29.980198,0.0011858396,-511.38428,40.914425,40.82991,41.85593,41.3949,7.264753e-08,0.3,-73.58554,75.34851,75.382935,75.293015,75.234634,0.20176025,0.503125,4.116640567779541,20.975462341308592
49,490000,1.8941691757454096,-82.41249,0.08106565,0.408862,0.9480356,-45.892365,27.5721,10.42897,9.470381,108.19929,108.090004,108.77574,108.768936,29.247637,0.7,-108.211464,-28.141182,0.00044701993,-547.01294,45.81006,44.907867,45.587433,45.343372,2.806948e-07,0.3,-68.93291,77.025795,76.936356,77.16344,77.154175,0.3287869,0.5328125,5.420042276382446,21.38444057305654
50,500000,1.942200735111541,-81.40213,0.07944792,0.23536578,1.936035,-44.601166,24.744007,127.05963,10.257174,108.881134,108.945656,109.03688,109.338326,14.910986,0.7,-108.69512,-27.358038,0.0006057395,-648.2219,44.53127,44.717106,43.110264,43.929146,1.7214916e-07,0.3,-82.86589,75.680176,75.65677,75.70155,75.80308,0.19733119,0.4640625,5.312013149261475,21.7920361995697
51,510000,1.8424888838148845,-82.48996,0.08071511,-0.34977502,0.8585059,-41.2253,23.343458,19.637154,8.345368,109.325836,109.09888,108.826416,108.980896,3.2787483,0.7,-109.10373,-23.798317,0.005661508,-598.8622,37.113205,38.037563,36.790337,38.186317,1.0300835e-06,0.3,-74.22552,77.49057,77.640656,77.29027,77.30785,0.13345005,0.48749998,5.445544242858887,22.199647963047028
52,520000,3.319295929904987,-81.002525,0.07842631,0.5745855,1.0633115,-25.802317,26.35375,36.68698,11.083027,108.50225,108.39468,108.42823,108.29357,12.651757,0.7,-108.38433,-30.154016,0.0012369417,-645.518,27.67449,25.026539,30.423668,32.507393,4.69666e-07,0.3,-82.25949,75.30022,75.26068,75.2573,75.488266,0.23963502,0.40781248,5.2958502769470215,22.60802199045817
53,530000,2.070319893465207,-79.80621,0.08007667,0.8806286,0.9587744,-46.133705,26.68985,48.085564,11.728567,108.76967,108.97308,108.63002,108.68157,23.91452,0.7,-108.505714,-22.771883,0.00060260604,-496.8582,45.05621,45.167107,45.83629,45.5289,1.3831887e-07,0.3,-86.40833,73.59064,73.581184,73.42253,73.57877,0.2752587,0.484375,5.2425453662872314,23.01200416088104
54,540000,2.3920172456188182,-78.66885,0.07973094,0.3581918,0.8810301,-2.7875605,22.986492,25.473148,13.130587,109.20042,109.367836,107.98836,108.50395,8.755856,0.7,-109.05163,-23.738152,0.0006866084,-735.2356,2.8042016,3.444615,2.528175,3.166287,3.5361156e-10,0.3,-90.33269,72.55458,72.58563,72.29875,72.298004,0.18815151,0.4796875,5.270117521286011,23.37927609682083
55,550000,1.91266010050359,-83.46321,0.077313505,0.32299805,1.1579123,-44.501583,21.891697,47.703106,10.027405,109.27681,109.23544,109.01484,108.68887,11.498558,0.7,-109.15076,-21.668404,0.0006892393,-510.21942,42.707443,43.073452,42.303932,46.83208,2.9785879e-05,0.3,-68.75688,78.07192,78.10594,78.02758,78.15433,0.26837295,0.3984375,5.3470234870910645,23.788150052229565
56,560000,1.9863512008850301,-84.791016,0.0794809,-1.1425244,1.2144473,-3.1225665,22.884565,85.41382,12.211647,108.47981,108.196335,108.33174,108.44171,9.14399,0.7,-108.70883,-26.976377,0.000111878966,-814.9422,2.7078032,2.5698695,3.0876658,3.2321944,8.3138005e-08,0.3,-67.795,80.27733,80.2673,80.22339,80.34488,0.15530525,0.428125,5.404252290725708,24.194853937625886
57,570000,1.6036981871907843,-81.75371,0.07947406,-1.8918867,1.5858318,-2.7792544,32.310196,198.19171,10.881019,109.40401,109.54979,109.25793,109.1552,13.609258,0.7,-109.7462,-33.820255,0.00010201271,-540.53143,2.472953,2.4641552,3.2053266,2.6117363,1.7993327e-06,0.3,-73.24817,76.347176,76.3465,76.33076,76.50273,0.22896749,0.46718746,5.325165271759033,24.59963649113973
58,580000,1.9418031214349127,-82.29718,0.080281325,-1.157338,1.1860092,-4.736379,29.823439,51.03152,10.974644,108.15164,108.295525,109.0328,108.17301,8.521662,0.7,-107.89981,-26.821102,0.00022436125,-544.6942,4.9693565,4.681635,5.6871037,6.3614254,2.2535027e-05,0.3,-69.27049,76.76744,76.706085,76.791565,76.71962,0.14141801,0.53906256,5.3358094692230225,25.008454167842864
59,590000,3.129952128141855,-79.84691,0.07833278,0.058794558,1.273975,-4.018178,32.262527,36.13959,14.022441,108.92479,108.873184,108.88275,109.005424,5.8744087,0.7,-108.755585,-30.207811,0.00088007917,-589.3721,2.9824557,3.9496348,2.8370364,4.5401793,1.1485321e-05,0.3,-72.29818,74.75885,74.85547,74.5395,74.61026,0.18423277,0.4921875,5.295185327529907,25.41658127307892
60,600000,1.8590537082468468,-80.64226,0.07806676,0.20699519,0.8743974,-43.563145,22.426838,21.15395,10.580947,108.735916,108.532265,108.67777,108.64962,11.298117,0.7,-108.50421,-23.296513,0.00049424946,-620.12274,44.586308,44.9259,42.8755,43.12922,1.1259847e-05,0.3,-85.222565,75.436356,75.388855,75.32164,75.45834,0.21044436,0.3671875,5.393046617507935,25.820845047632854
61,610000,2.1841231159768832,-82.775955,0.07951959,0.48452184,1.0615304,-3.9156392,24.03393,34.901333,11.304792,108.55006,108.66969,108.41772,108.3352,134.39455,0.7,-108.60921,-25.491976,0.0003672993,-943.309,3.6334023,3.5799823,4.3531003,4.34508,5.847949e-07,0.3,-83.027954,76.60693,76.645035,76.83635,76.776276,0.77067006,0.4234375,5.296369314193726,26.229860985279082
62,620000,3.558122045106446,-80.44524,0.0809052,-0.34501576,0.93218553,-4.9105,38.4999,29.527761,11.341512,107.91438,107.87741,107.998055,108.01609,13.104108,0.7,-107.52753,-20.531454,0.00012388203,-662.3374,4.978876,5.119578,5.2211623,5.355314,1.5360838e-05,0.3,-73.88506,75.166954,75.16914,75.27345,75.257675,0.19241829,0.4515625,5.4900641441345215,26.641074577967327
63,630000,1.8767447497126821,-83.581474,0.07891148,-0.61213166,0.87457323,-28.848757,32.860664,24.507345,13.294813,108.599846,108.4005,108.360565,108.257515,7.1029115,0.7,-108.43785,-25.53806,0.000680988,-747.217,28.998405,28.18049,27.214512,27.798578,1.3471436e-07,0.3,-80.76081,79.168045,79.17862,79.05535,79.16318,0.17172664,0.4984375,5.362390041351318,27.049698086579642
64,640000,4.156481421718025,-80.89473,0.07865588,0.32042122,1.0446683,-5.5694985,29.083775,33.753887,11.6831455,107.769035,107.80351,108.334496,108.05513,14.0141,0.7,-107.6617,-25.558672,6.453163e-05,-491.42227,4.3562746,4.6172657,6.722257,6.628916,2.0539737e-07,0.3,-74.727875,75.35766,75.40483,75.5441,75.52626,0.24462366,0.40781248,5.379380226135254,27.4569229722023
65,650000,2.281793781207558,-83.63677,0.077982284,-0.31139207,1.0980686,-5.081816,28.563293,40.28943,10.265531,108.02512,108.0064,108.119675,108.524414,10.872215,0.7,-107.971245,-29.20845,0.0014588948,-816.7256,5.006062,4.8401637,5.4338264,5.6204467,3.6714485e-07,0.3,-85.09465,77.8653,77.86461,78.09758,78.27797,0.16650794,0.37812498,5.418793678283691,27.86908235947291
66,660000,1.5892369474408068,-82.063934,0.08080202,-0.81574374,1.2795837,-4.051828,33.15568,21.968185,11.565343,109.35674,109.13199,108.38897,109.08998,39.348946,0.7,-109.5443,-33.452263,0.0002522283,-496.15607,3.969726,4.0729265,4.332937,3.3934565,2.062734e-08,0.3,-70.40782,77.30197,77.23207,76.88743,77.15875,0.322525,0.4578125,5.373576402664185,28.279389532407126
67,670000,2.9835123701147084,-81.64618,0.07956133,0.7093585,1.0339451,-4.650479,32.237198,22.016302,12.77569,107.88502,108.238464,107.354164,107.65623,7.5473847,0.7,-107.650764,-34.76704,0.00060422777,-809.13385,4.6944466,4.43216,4.8101177,4.311415,6.67572e-07,0.3,-82.957504,76.49227,76.60431,76.3336,76.33992,0.14388026,0.525,5.452892541885376,28.690443086624146
68,680000,2.8327503721925997,-82.51087,0.07783083,-0.542252,0.8696994,-5.194905,30.03841,18.85544,9.188234,108.783,108.60671,108.53688,108.76534,10.063834,0.7,-108.007065,-31.10711,0.00096655777,-789.5533,4.5892816,4.6208673,5.607081,6.5244327,2.1129382e-07,0.3,-80.53996,76.70465,76.70853,76.63297,76.75644,0.16894001,0.40781248,5.373060464859009,29.097751692930856
69,690000,2.148087174907425,-81.12277,0.078611016,-0.32082224,1.2832615,-6.3735614,31.152689,36.102943,12.892049,107.99059,108.05947,107.70742,107.85214,8.004992,0.7,-107.84583,-23.285057,0.0007117429,-411.678,4.850396,5.149002,4.6975875,5.811702,8.3138e-06,0.3,-76.10963,75.46014,75.6015,75.57588,75.74408,0.22003153,0.4203125,5.485710382461548,29.51160566409429
70,700000,2.885652272201441,-81.297226,0.07819516,0.39137,0.8527312,-4.471035,31.060364,36.30316,11.333183,108.832695,109.38483,108.76465,108.6711,15.24507,0.7,-108.567345,-22.382904,0.00010990037,-820.6452,3.6571903,4.451438,4.2686677,3.3336265,9.770226e-06,0.3,-94.447,74.86969,74.96615,74.73725,74.863594,0.30509013,0.496875,5.519291877746582,29.932818484306335
71,710000,2.4427312515185142,-81.14507,0.07737622,0.3880676,1.0046448,-45.09326,30.845648,49.783066,10.441001,107.80165,107.466095,108.043,108.21657,3.9729712,0.7,-107.48449,-24.86395,0.00013991678,-497.67615,44.023426,44.48949,43.348495,44.877052,6.7233386e-06,0.3,-83.48686,75.796814,75.70276,75.82476,75.879036,0.15672494,0.41875,5.31767725944519,30.34134775797526
72,720000,2.5237925999032353,-84.41401,0.0772053,-1.7426656,0.94861233,-18.819204,23.307762,23.228306,11.482733,108.05883,108.20621,108.00176,107.96408,5.4655914,0.7,-108.69362,-33.20752,0.002552518,-717.2544,18.301514,19.09458,17.58344,16.838696,2.405973e-06,0.3,-76.88433,79.11675,79.18975,78.96184,79.09221,0.16520971,0.47187498,5.351209402084351,30.745560725529987
73,730000,1.5158534300370488,-78.98572,0.07829183,0.24772972,0.94575536,-4.8771577,26.632502,12.069626,10.944754,107.53963,107.834885,107.64526,107.64713,40.92424,0.7,-107.63708,-30.723846,0.0004527811,-1128.3838,4.9444423,5.429619,4.4704323,4.924168,3.1716597e-06,0.3,-103.31841,72.150894,72.24872,72.29057,72.234726,0.44248393,0.4484375,5.434532165527344,31.156364238262178
74,740000,2.1117334105229166,-81.02528,0.08058547,-0.9149938,1.2870843,-6.7325306,30.47218,121.889656,11.483959,107.963615,108.011604,107.98876,108.15088,6.727722,0.7,-107.588425,-25.8576,0.000604328,-1086.4177,6.045258,5.5999813,5.9242578,7.1663203,4.3655746e-08,0.3,-82.051125,75.69924,75.66213,75.634254,75.737686,0.2043927,0.453125,5.415788650512695,31.568163800239564
75,750000,3.4510178182082525,-79.67078,0.07713215,0.6381371,0.89120996,-4.046978,26.658161,23.666092,11.907408,108.322136,108.2566,108.72862,108.13031,24.341812,0.7,-108.32437,-24.320557,9.4394345e-05,-750.0946,4.1193237,4.0453176,3.6445894,4.2214756,3.5992591e-06,0.3,-85.953445,74.2833,74.23023,74.37388,74.29492,0.30194813,0.4609375,5.653283357620239,31.98229183355967
76,760000,3.0039824155892023,-83.17691,0.07933281,-0.9871979,0.9637331,-45.392097,30.246346,58.999718,9.405096,108.13664,108.044044,107.839775,107.83943,20.142756,0.7,-108.08895,-27.278046,0.00043916563,-1653.7726,43.249924,42.84325,42.802876,43.12622,4.7036624e-06,0.3,-84.06563,77.72287,77.729965,77.68991,77.78938,0.18383014,0.41875,5.527210474014282,32.391535611947376
77,770000,2.359286438604288,-83.350586,0.07767981,-1.2103939,0.85227793,-43.260162,30.151888,23.638597,10.893101,108.32479,108.62549,108.545235,108.87335,9.266185,0.7,-107.68845,-30.715307,0.00050890364,-1202.8899,37.02456,38.707783,34.532856,37.3163,2.3740973e-05,0.3,-87.845726,77.78723,77.83841,77.70146,77.79909,0.15634558,0.46249998,5.273654222488403,32.79681653181712
78,780000,2.7337781081349957,-82.04102,0.07789959,-1.3982918,0.9957987,-3.9310517,38.51418,28.00854,10.099711,108.814514,108.89858,108.943535,108.853455,48.715656,0.7,-108.93241,-28.086113,0.00091930764,-913.04846,3.5333693,2.791744,3.2440696,3.6170888,8.566713e-09,0.3,-80.91093,76.310875,76.36742,76.37764,76.42945,0.39014608,0.44687498,5.486638784408569,33.20861451625824
79,790000,2.3333869362829827,-82.447,0.076617345,-0.9161365,0.9127502,-2.8611307,30.687056,33.90448,11.116068,107.4354,107.49586,108.10857,107.79433,15.862774,0.7,-107.78491,-30.047167,0.0010903446,-1076.8885,3.1213808,2.381094,3.134524,3.42201,6.0580383e-06,0.3,-76.500595,77.59458,77.51814,77.69189,77.77183,0.20584223,0.3953125,5.325531244277954,33.61825617949168
80,800000,2.454447062068923,-83.20911,0.07742169,-0.7947666,0.55248725,-39.411957,32.974865,8.504669,9.579216,108.75864,108.800354,108.26683,108.888054,4.4949102,0.7,-108.71941,-30.183197,0.0005580637,-827.3954,39.057907,37.732227,37.454388,38.589233,2.3845203e-07,0.3,-83.30293,77.97934,77.926895,77.7045,77.887,0.1026652,0.4546875,5.23880672454834,34.02321093877156
81,810000,3.175524565507251,-81.89032,0.079426706,-0.087285206,3.2209692,-3.5903702,28.479496,532.1797,13.825256,108.670364,108.78814,108.77782,108.62141,39.070194,0.7,-108.43599,-36.99251,9.56306e-05,-603.0851,3.616078,2.3748388,2.8196924,2.9497714,3.1171296e-06,0.3,-84.017166,75.526054,75.563545,75.39618,75.49896,0.3578409,0.49062496,5.435590505599976,34.43024754126866
82,820000,2.614023576763461,-79.35782,0.0774189,0.3866902,0.79063094,-29.937843,29.83503,37.58933,9.797311,108.19647,108.19388,108.507576,108.1997,10.864944,0.7,-107.85394,-34.849773,0.0016580871,-1007.3621,30.182632,32.79211,31.40883,31.868385,2.7939679e-08,0.3,-96.34211,72.33035,72.32053,72.53888,72.51173,0.22069873,0.47187498,5.375196933746338,34.83958752552668
83,830000,2.144449260954903,-81.7086,0.07894895,0.32913426,0.6983298,-3.5551393,46.928722,27.661102,10.894764,107.00868,107.0431,107.41204,107.591606,25.807402,0.7,-107.40672,-26.370913,0.00018421983,-642.79565,3.2594461,3.1706781,3.9651763,4.5625815,1.466833e-07,0.3,-86.02924,75.24687,75.20559,75.29625,75.41066,0.20189217,0.4578125,5.434703350067139,35.2480946302414
84,840000,3.05446203742662,-81.06075,0.07775289,0.29031903,1.7878826,-6.9757495,35.111187,80.7576,11.729589,107.59558,107.64985,107.8267,108.02592,19.572777,0.7,-107.12577,-36.20358,0.0007847331,-580.3398,6.499488,6.7861376,1.7326233,2.7824402,2.4657463e-06,0.3,-89.516075,74.850845,74.81414,75.09526,74.82589,0.23978043,0.52656245,5.3213560581207275,35.65418739716212
85,850000,2.472846374705501,-85.08603,0.0770903,-0.010310888,1.0603557,-41.278214,28.192432,80.71398,13.374702,108.72381,108.581375,108.00834,108.25945,21.90279,0.7,-108.01597,-24.820995,0.00089332485,-905.1668,41.707184,41.72467,40.48361,41.69277,1.5103143e-07,0.3,-88.09128,79.04439,79.00151,78.802444,78.88144,0.25555146,0.50312495,5.343741178512573,36.06212145090103
86,860000,3.1971099769744957,-80.53335,0.076184295,-0.0370024,0.67262805,-45.729576,31.11087,23.04914,9.112381,107.3193,107.41982,107.31983,107.14095,44.3033,0.7,-107.306435,-31.241045,0.0010247075,-555.8954,45.318825,45.49038,46.49667,46.00802,9.00065e-08,0.3,-86.99736,73.92209,74.00786,74.0092,74.14051,0.3021287,0.396875,5.351924896240234,36.475939806302385
87,870000,3.0161351531538507,-80.20935,0.07377596,-0.04992135,1.542938,-4.239337,31.97644,211.34125,12.313892,107.05936,106.96816,107.404884,107.39207,14.225994,0.7,-106.9058,-21.866474,0.0033120268,-822.1134,3.9136744,3.341408,4.1305466,4.6282616,1.9398867e-07,0.3,-92.98627,73.545975,73.49797,73.48976,73.55418,0.23484749,0.4421875,5.249481439590454,36.885274406274156
88,880000,1.6879928745608581,-83.22056,0.0755339,-0.4605555,0.9542949,-38.726555,29.504427,49.923004,10.191307,107.451416,107.48851,107.34187,107.485916,47.3144,0.7,-107.164154,-37.152473,0.00029759028,-971.61346,39.060795,38.72471,41.053505,40.03009,3.5204168e-06,0.3,-96.99196,76.94825,76.90863,76.874435,77.009544,0.3937748,0.453125,5.4878764152526855,37.29424365361532
89,890000,2.1765946169092714,-83.18057,0.07640703,-1.2323561,0.8113017,-3.8633046,25.665155,15.583225,12.564004,107.88687,107.78759,107.96117,108.132454,13.400073,0.7,-107.61068,-31.186047,0.00011165743,-662.563,4.563604,4.145727,5.5362077,5.418675,3.6209823e-07,0.3,-78.99033,78.13097,78.14509,78.119835,78.22776,0.17033944,0.42187497,5.30562686920166,37.69766949017843
90,900000,2.566993322978807,-83.13913,0.07660863,-0.67748594,1.0715194,-32.655094,33.300247,12.3559475,12.250561,107.12449,107.200645,107.85663,107.76143,38.403065,0.7,-106.80437,-29.892702,0.00025407143,-694.58466,32.7,33.51443,32.256912,32.489735,6.5718194e-07,0.3,-77.42678,77.34024,77.27161,77.634636,77.559166,0.27418935,0.465625,5.28858208656311,38.10484219789505
91,910000,2.9247227871898223,-83.356,0.074586384,-0.92666095,0.7629702,-4.175582,26.641615,15.729401,11.409706,107.831184,108.03825,107.88074,107.89721,8.177224,0.7,-107.743385,-28.582098,0.00045594462,-855.89075,4.36139,3.384758,4.851403,4.7818007,2.2554024e-05,0.3,-92.45465,77.3224,77.363556,77.22821,77.147385,0.17662886,0.509375,5.659084796905518,38.51801682313283
92,920000,3.363193990716636,-80.87991,0.07505823,0.778644,1.0917485,-42.604374,31.196205,40.001476,11.613157,108.33299,108.34875,108.63182,108.380486,38.336918,0.7,-107.95118,-27.316113,0.00077789987,-968.33954,43.84742,43.77443,44.070793,44.694294,6.204748e-07,0.3,-107.79553,74.53342,74.537094,74.46278,74.523224,0.4118731,0.41406247,5.7476279735565186,38.95899347464243
93,930000,5.455659611259015,-82.053185,0.0746044,-0.2782882,1.0695293,-25.849463,35.308453,25.287664,10.256067,108.0889,108.06476,108.78178,109.14982,31.563967,0.7,-107.87308,-33.426174,0.0019806526,-614.3631,27.123745,27.944872,29.479637,27.613087,1.6350998e-06,0.3,-86.15323,75.33513,75.261,75.58797,75.49831,0.24640206,0.45468748,5.438079118728638,39.374463212490085
94,940000,2.67960315824325,-82.67073,0.0766516,-0.28327122,1.2742624,-47.60765,30.168379,58.446674,9.687431,108.01296,107.868385,108.31664,107.64344,9.271018,0.7,-108.21041,-27.51337,0.0005406855,-879.7191,41.53795,41.522316,42.00473,45.926807,1.559427e-07,0.3,-92.54671,76.12921,76.10168,76.02403,76.25053,0.20213453,0.42187497,5.72894811630249,39.79589495658875
95,950000,3.766225601935977,-83.50696,0.07469492,-0.24871135,0.96397007,-40.466614,32.54111,25.801477,10.026462,107.1402,107.324455,107.59016,107.46378,6.3866205,0.7,-107.02014,-26.043762,0.0012496023,-848.17523,40.43466,39.617847,40.77945,41.89568,7.152558e-06,0.3,-83.89911,77.48506,77.464905,77.74162,77.74717,0.14386907,0.47968748,5.7193849086761475,40.22287854750951
96,955000,1.9516985429044686,-83.963554,0.07881978,0.24695775,0.9039261,-40.258213,35.84183,35.04122,13.571997,107.19323,107.21663,107.681114,107.32075,37.08402,0.7,-106.92794,-26.041502,2.4070789e-05,-782.4923,41.47501,42.54046,41.193592,42.546135,5.106151e-07,0.3,-88.374306,76.984665,77.02947,77.00482,77.02626,0.3396657,0.42812496,5.807761907577515,40.47996778090795
97,960000,2.8086519507212113,-82.4113,0.07744336,-1.302309,0.6708889,-28.13059,33.687733,13.495207,12.875877,107.601494,107.622734,107.259056,107.58675,9.240186,0.7,-107.38095,-29.05669,0.0007091275,-853.0608,27.69667,26.694975,28.10995,26.515743,1.9541883e-06,0.3,-86.33609,76.243835,76.28769,76.07202,76.19395,0.16788417,0.48125,5.373447418212891,40.729252231121066
98,965000,3.1448373495512096,-80.34701,0.0771649,-0.40523416,0.80707264,-4.1042194,32.175583,18.245594,10.449207,108.94798,108.748726,108.55513,107.615234,14.620599,0.7,-108.43566,-30.667393,0.0014028549,-638.4123,4.0547657,4.663955,6.296064,5.0831776,7.4258423e-07,0.3,-87.85162,73.9751,74.068596,73.94987,73.987274,0.24249741,0.4578125,5.509856939315796,40.98632046381633
99,970000,3.0248513795754537,-80.773056,0.08163967,0.7963921,0.7291676,-39.562794,33.444935,8.495638,12.045898,107.94406,107.87155,108.0335,107.79388,269.71625,0.7,-107.48585,-26.323868,2.8284849e-06,-643.24524,40.678886,41.437473,41.810257,42.97739,3.876805e-07,0.3,-98.02266,74.30548,74.25272,74.5903,74.43825,1.1402222,0.4421875,5.604947090148926,41.245084178447726
100,975000,1.923754766163888,-80.663574,0.076102436,0.26207805,1.1117381,-47.321365,41.54353,61.833538,12.957128,108.05714,108.14826,107.61321,108.20061,8.12003,0.7,-108.16545,-26.251432,6.4296764e-06,-547.4291,46.255894,45.923306,45.7623,46.28999,1.2915116e-07,0.3,-87.22688,73.58625,73.59148,73.33861,73.60349,0.19318807,0.4421875,5.635617256164551,41.502104326089224
101,980000,3.466119341459943,-79.44841,0.07346701,0.6521566,0.90277976,-3.8432071,26.12212,38.126152,11.449972,107.18065,107.5509,107.484795,107.60491,24.013447,0.7,-107.17172,-26.759525,0.00016907242,-871.80707,4.9902673,3.4762878,4.7545924,4.1489925,2.6418712e-07,0.3,-105.77104,72.30397,72.22919,72.60768,72.433266,0.24702133,0.409375,5.522492170333862,41.75650574763616
102,985000,2.6030051181328946,-82.60842,0.074901216,-1.2373364,0.79415965,-4.5394173,31.746632,22.172947,10.869386,108.82186,108.98498,108.241165,108.25305,10.64176,0.7,-108.843506,-32.37872,0.0018041218,-599.8775,4.812747,3.9920032,4.60338,4.3053393,2.1391315e-08,0.3,-97.12412,76.1282,76.14427,75.869644,75.9595,0.15125328,0.43906248,5.556678533554077,42.01288701693217
103,990000,1.6781730103914487,-80.87007,0.080259316,0.89266914,0.8438928,-3.6632504,37.02465,10.11027,10.458221,108.12736,107.90879,107.502525,108.352905,23.289999,0.7,-107.69449,-25.703892,0.0009691209,-990.05884,3.5488167,3.5008132,4.4392858,4.4698057,1.4709076e-08,0.3,-97.83702,74.13959,74.06227,74.07285,74.13555,0.2557208,0.4625,5.391851186752319,42.268203866481784
104,995000,2.8596650904870318,-81.54646,0.07486912,0.9118935,1.0939455,-5.7163405,33.80024,23.273506,11.128746,108.03954,107.990395,108.12831,107.7871,16.178123,0.7,-107.892746,-32.22127,0.00030272058,-581.02325,4.3114967,4.1682377,4.8672566,5.0556335,7.136234e-06,0.3,-95.22611,74.714745,74.712204,74.81076,74.83462,0.27260175,0.48281252,5.560815095901489,42.52688355843226
105,1000000,2.8177406436951866,-80.50592,0.07482072,1.1617506,1.2497386,-5.030587,25.181244,39.48992,12.390364,107.19132,107.14325,107.66985,107.49912,12.869174,0.7,-107.19199,-25.040667,0.0004679417,-947.76544,3.5928636,4.4511175,3.9939997,3.6483207,6.325147e-06,0.3,-95.870544,73.97742,74.120476,74.024216,74.18205,0.19980839,0.39687496,5.499141216278076,42.78288435935974
