Xixo99/comfo/relaxed_iql/20230321_5seed_mle0/halfcheetah-medium-expert-v2/riql_s1_20230320_205916_halfcheetah-medium-expert-v2_8.59.csv
,step,reward,actor_loss,alpha,alpha_loss,critic_loss,max_actor_loss,max_alpha_loss,max_critic_loss,max_mle_prob,max_q1,max_q2,max_target_q,max_v,max_value_loss,max_weight,min_actor_loss,min_alpha_loss,min_critic_loss,min_mle_prob,min_q1,min_q2,min_target_q,min_v,min_value_loss,min_weight,mle_prob,q1,q2,target_q,v,value_loss,weight,eval_time,time
0,0,2.2540511626797257,,,,,,,,,,,,,,,,,,,,,,,,,,,,,,,,,
1,10000,-0.5928375249565943,-27.923008,0.063021995,-8.57118,0.5342345,-8.382125,26.462593,25.835762,8.3247385,43.801388,43.671925,44.16989,43.376667,0.4421817,0.7,-43.98159,-31.734324,9.276002e-06,-59.263214,8.441993,8.315038,8.438274,7.9992914,2.7939678e-10,0.3,-9.391948,27.51469,27.512087,27.671818,27.091751,0.03835827,0.53437495,5.662861347198486,1.4881097992261252
2,20000,-2.4350403705155155,-46.377617,0.06428684,0.8720268,0.58558977,-17.676046,24.957973,9.333578,10.998941,71.02107,70.9462,70.924614,70.78903,1.978315,0.7,-71.47125,-30.043444,0.0003820614,-143.81625,15.21083,15.316492,15.315987,16.63746,7.986091e-09,0.3,-20.937073,45.262856,45.28895,45.285995,45.16781,0.10840218,0.42343748,5.7964911460876465,1.9192165652910869
3,30000,-3.6412509801885053,-58.317844,0.07859835,-0.019689247,1.2555814,-23.702988,23.3105,60.874844,7.808306,87.503876,87.781555,88.099106,87.699394,2.4202948,0.7,-87.73334,-27.678442,0.0014633874,-119.88806,22.76757,23.931608,24.470371,24.746971,3.931641e-06,0.3,-20.37336,57.00112,57.0198,57.267525,56.935413,0.13194582,0.47031248,5.64969801902771,2.3444061001141865
4,40000,-3.585295924898963,-66.54869,0.08211365,-0.26774102,1.0552447,-6.6644435,20.130404,31.212883,10.924889,99.940735,99.68665,99.49573,100.19039,5.3927703,0.7,-99.51117,-27.702053,0.0005730853,-125.436646,5.736254,5.319289,5.6271996,6.307918,2.3534521e-07,0.3,-21.423843,65.08705,65.00675,65.017075,65.07265,0.1408921,0.4453125,5.675524473190308,2.773370552062988
5,50000,-2.4494196868931324,-71.82767,0.084683225,-1.2879384,1.439148,-6.0577993,16.314846,22.198013,9.493317,106.247765,106.1493,105.4679,105.7499,19.723074,0.7,-106.857285,-34.516296,0.0032203905,-141.3448,5.2314034,5.0794153,4.7389545,5.7196326,1.2595859e-05,0.3,-24.48608,70.12403,70.132195,70.24356,70.248146,0.21279453,0.4421875,5.635892629623413,3.1990853786468505
6,60000,-1.8823840156372378,-76.46223,0.08575199,-0.12522562,1.9713137,-37.475513,19.708237,92.2592,11.125111,109.73891,110.18257,110.02134,110.35799,2.3865845,0.7,-111.763756,-24.24907,0.0006304812,-126.75238,37.69269,36.463,37.211876,37.155415,1.466833e-07,0.3,-26.460495,74.58561,74.57095,75.01327,74.95056,0.12580287,0.446875,5.6431660652160645,3.6247923493385317
7,70000,-0.34928543307248333,-76.77914,0.08749316,0.45477888,1.9101259,-8.898545,20.920513,29.220856,9.311989,113.47333,113.10082,112.49096,112.87321,4.469581,0.7,-113.98074,-31.64783,0.0018851645,-312.50433,10.29651,10.202874,9.826741,10.234348,7.687468e-06,0.3,-32.376625,74.67817,74.64896,74.08092,74.239685,0.123522006,0.46875,5.654996871948242,4.043408318360647
8,80000,-1.917769614196931,-78.821236,0.088608645,0.21848866,1.8790084,-4.3516946,22.422403,165.72878,9.448903,114.57906,114.401054,114.170815,113.96456,9.807115,0.7,-113.92209,-28.829296,0.0007749233,-217.43723,3.5407975,4.064051,3.533518,5.0404105,2.0830048e-07,0.3,-35.467064,76.474655,76.436165,76.18138,76.31197,0.17691027,0.446875,5.690865516662598,4.4661001841227215
9,90000,-0.11019652675189329,-78.31141,0.08984596,-0.94554156,1.2792954,-3.898483,19.299744,43.151703,12.036079,114.81696,114.48052,114.42551,115.25594,2.3021498,0.7,-114.744514,-32.243553,2.4592795e-05,-300.1863,3.2555761,4.69632,3.6609886,3.9192169,1.8399953e-05,0.3,-39.52688,75.78401,75.782974,75.887436,76.19124,0.2218233,0.33437496,5.664382696151733,4.896549129486084
10,100000,-0.3520525237269864,-77.677475,0.09113384,-1.1018784,1.5315838,-39.397736,21.962719,57.26288,10.34907,114.155945,114.31917,113.75404,113.86113,3.328241,0.7,-114.40602,-22.188492,0.0008883758,-327.1105,38.014465,37.58428,37.337128,37.350784,3.4969346e-06,0.3,-37.744194,75.042404,75.050255,75.00931,75.00775,0.18268865,0.49843746,5.626380443572998,5.321119050184886
11,110000,-0.07345000166121544,-76.83973,0.091439195,-0.189931,1.8374807,-5.5237827,19.592094,47.395386,9.362497,113.55125,113.9323,112.51211,112.948364,2.0853179,0.7,-114.15144,-24.105835,0.0010661031,-527.6352,4.751824,4.900015,2.7849026,3.6333725,2.7314572e-06,0.3,-46.11084,73.31195,73.37479,72.98799,73.193924,0.15188932,0.4609375,6.106647968292236,5.764746248722076
12,120000,-0.41138751483036795,-76.586914,0.09079615,0.41747874,2.113863,-4.207325,19.119974,108.67117,10.965552,114.32947,114.14608,114.276184,113.84494,5.819566,0.7,-113.3432,-30.582577,0.0014306281,-388.0735,3.135696,3.0547926,4.2542696,2.6416123,1.0488293e-05,0.3,-43.725655,73.646385,73.63861,73.8176,73.68458,0.18281509,0.48749998,5.794208288192749,6.207715463638306
13,130000,-1.7225863979721823,-84.84192,0.09314613,-0.5036622,1.5587726,-2.752416,20.659252,32.91353,12.979391,112.849785,113.319496,112.94581,113.45815,10.921923,0.7,-113.079636,-24.440163,0.00072395714,-406.73712,2.6941476,1.4875069,5.9129477,5.283025,2.4409568e-05,0.3,-35.83464,82.07704,82.1539,82.32969,82.456024,0.21864218,0.41875,5.929234504699707,6.644709539413452
14,140000,-1.7646830657065116,-80.80582,0.093055926,-0.3304851,1.8154862,-1.4164133,21.220068,85.368,11.687819,113.47296,113.66816,113.261536,113.30627,11.898955,0.7,-113.655975,-24.963058,0.0010641806,-350.05624,1.1757269,-0.05246079,1.5338277,3.3723154,4.5828057e-07,0.3,-41.224846,77.32593,77.33815,77.26425,77.19793,0.30133605,0.525,5.908055305480957,7.086144868532816
15,150000,0.31330714749029237,-82.27268,0.09299525,0.5960699,1.724673,-7.237744,22.564978,44.708664,11.498428,114.71593,114.6761,114.40291,114.81665,21.524088,0.7,-114.02052,-24.415173,0.00096812437,-566.7675,6.4305043,7.331647,6.701214,5.662125,1.6429549e-07,0.3,-49.32773,78.873856,78.88563,79.05773,78.88148,0.23783809,0.4453125,5.94757866859436,7.529060367743174
16,160000,-1.1423632629040403,-80.5476,0.0916144,-1.2836835,1.8802633,-2.2067862,17.803104,51.31875,8.754986,113.68092,113.43593,112.82853,113.74475,30.89996,0.7,-113.55536,-22.325125,0.00079211063,-303.01068,2.0060875,1.3912123,1.2985992,0.5649382,1.1160256e-06,0.3,-45.78879,77.49292,77.445526,77.39162,77.468124,0.33800462,0.471875,5.77285361289978,7.95698991616567
17,170000,-2.0532765161842614,-80.458595,0.091703214,-0.8443391,1.7524021,-4.790899,20.47352,41.467606,12.403812,113.344345,113.48139,114.1419,113.4052,3.634299,0.7,-113.72384,-23.957249,0.00096097717,-361.89096,3.5029671,3.441341,2.3866832,1.2657919,6.265007e-07,0.3,-49.382595,76.93066,76.94955,77.11795,77.081856,0.18129814,0.44375,5.735488653182983,8.391389310359955
18,180000,-1.1817397434996222,-80.73861,0.09351441,0.408032,1.4021137,-3.2201736,28.818134,71.6458,12.031631,113.22555,113.138435,112.79882,113.072685,2.3985295,0.7,-112.967766,-28.638208,0.0014783741,-464.47592,2.6855192,2.2095065,2.5905154,2.9050045,7.533817e-08,0.3,-51.07285,76.98961,76.96513,76.959366,77.26762,0.19114313,0.38437498,5.796206712722778,8.821687885125478
19,190000,-1.3101036185036588,-81.87477,0.0916612,0.09500021,1.0958717,-43.00047,21.210192,28.625515,12.923135,112.98664,112.77434,112.508865,113.053345,32.43976,0.7,-113.13568,-25.365961,0.00027686032,-565.0085,42.229187,43.14019,42.388683,42.08646,5.4580855e-06,0.3,-53.368946,78.20386,78.23244,78.05913,78.07803,0.3038262,0.46718746,6.17552924156189,9.264263673623402
20,200000,-0.8747071432577724,-82.32686,0.08928071,0.30447066,1.1673131,-43.393314,20.585295,19.274263,11.043173,111.081764,111.35484,110.59255,111.30298,6.5577874,0.7,-111.9056,-29.608767,0.0068859835,-342.1604,44.05192,43.67065,43.648827,43.1153,2.2006861e-06,0.3,-56.082832,78.51694,78.52059,78.21042,78.303055,0.13841262,0.4875,5.871334791183472,9.704431947072347
21,210000,-1.0762517899701542,-82.257355,0.089885294,0.77583575,1.892796,-5.4692225,24.176807,212.57971,9.638554,112.55085,112.18448,112.7265,112.74285,12.3961735,0.7,-112.37245,-22.729237,0.00047461374,-516.4968,5.102785,4.1233025,5.130587,5.8212624,4.752539e-07,0.3,-58.055367,78.05946,78.06163,78.02703,78.24466,0.21362543,0.4109375,5.687670946121216,10.136857457955678
22,220000,-1.8270218119055905,-82.577866,0.08846005,0.19403353,2.1777794,-42.552486,21.828531,101.20621,12.362179,111.11624,111.14062,110.97295,111.07382,15.033149,0.7,-110.98218,-25.29112,0.00067144533,-495.53384,43.94631,43.27359,42.280186,42.399094,1.3831887e-07,0.3,-55.26472,78.58469,78.64519,78.4603,78.53811,0.25291273,0.47968748,5.916384935379028,10.578479886054993
23,230000,-1.5096122349119776,-81.72629,0.08640686,1.423748,2.4761617,-5.8525786,20.403038,36.759468,12.634301,110.91326,110.83754,111.23791,111.62569,32.570477,0.7,-110.96568,-24.905735,0.0014277182,-636.6987,5.433344,4.662355,5.2005944,5.0772486,1.2505404e-05,0.3,-66.80368,77.461586,77.47129,78.00218,77.927155,0.3899964,0.43281248,6.416502237319946,11.019418251514434
24,240000,-1.841215653685257,-81.49682,0.08551669,-0.38936222,1.0133941,-28.87907,18.639492,32.977146,10.742634,111.871124,112.03196,111.37427,111.57112,6.447902,0.7,-112.24671,-32.996895,0.0005147062,-541.1877,26.77494,25.835232,25.658588,27.561249,3.1838836e-06,0.3,-66.79576,77.23862,77.26083,77.007126,77.350525,0.18886954,0.403125,5.695615768432617,11.449996928373972
25,250000,-0.8485225548005595,-80.51044,0.08667469,0.27160835,1.1645839,-19.26803,25.29112,39.263985,13.627042,110.583534,110.60435,110.24583,110.08434,57.430744,0.7,-110.47412,-26.042511,0.00027518306,-533.25256,17.254843,17.724094,19.364458,22.634064,1.5814456e-05,0.3,-67.9211,76.20321,76.199066,76.113914,76.35872,0.48480392,0.4140625,6.012956380844116,11.893281467755635
26,260000,-0.9289937554666702,-80.55175,0.08545601,0.6967834,1.4085982,-4.031884,22.200203,44.367733,11.122811,111.28254,111.091484,110.80881,110.89982,57.941128,0.7,-110.48168,-28.885931,0.0002445702,-675.36816,3.831199,4.218924,4.0464144,3.4076338,7.332489e-06,0.3,-66.41345,76.49554,76.43675,76.406235,76.46978,0.4623227,0.4359375,5.642989873886108,12.328415513038635
27,270000,-1.596522318955558,-79.4356,0.08242633,0.3776555,1.0277524,-4.648296,22.381754,44.31595,11.317516,110.21318,110.402115,110.46944,111.07965,4.8255267,0.7,-110.56132,-26.236073,0.0002937718,-715.81494,4.675123,4.114354,3.1518798,2.465868,1.6770792e-07,0.3,-75.60835,74.89874,74.811165,74.80585,75.06312,0.21136934,0.4140625,5.566482067108154,12.755500535170237
28,280000,-0.9377114267139376,-81.6371,0.08281829,-0.80000275,1.0879741,-41.689793,23.292177,21.575054,9.464083,110.854935,110.996666,111.547104,111.2445,6.7990623,0.7,-110.39613,-23.879547,0.0009793215,-440.5943,41.467743,43.314335,44.750607,44.639027,2.3013634e-05,0.3,-66.88274,77.27409,77.324104,77.563965,77.60292,0.15516686,0.3859375,5.6257429122924805,13.175274010499319
29,290000,0.004608277246641292,-81.12795,0.08216212,-1.5903995,1.5854504,-5.3392906,21.017015,129.02022,10.214717,110.99369,110.84527,110.97582,111.45123,7.8336086,0.7,-110.674446,-32.95813,0.00042889267,-484.87744,5.2063484,4.6795344,6.0312104,4.8458295,1.9016444e-06,0.3,-62.303886,76.751785,76.71648,76.877426,77.05713,0.216168,0.40781248,4.384587049484253,13.574598244826
30,300000,-0.09309370227165853,-81.79277,0.08120595,-0.47293285,1.4078326,-34.20851,28.846348,45.479782,10.79821,109.87425,109.976166,111.06634,111.31104,63.602913,0.7,-110.32189,-26.932152,0.001001768,-797.02716,33.69626,37.25298,31.049992,34.629696,3.543978e-06,0.3,-80.59222,77.09288,77.12973,77.45085,77.499725,0.4192497,0.39687496,5.635577917098999,13.998695007960002
31,310000,-0.16510854539349745,-82.222916,0.081567645,-0.575667,0.888108,-43.139065,19.263134,64.77127,11.561054,110.35881,110.51492,110.14391,110.56194,6.7529516,0.7,-110.391556,-27.013136,0.0011738511,-710.0829,43.230446,43.395172,44.207706,42.04277,2.1742133e-06,0.3,-75.34804,77.66173,77.69599,77.60535,77.86369,0.20473851,0.434375,5.505931377410889,14.415569591522218
32,320000,0.6741213076170786,-82.671165,0.08315176,-0.36789918,1.1545081,-8.085445,23.475903,53.160786,11.153875,109.88769,109.94772,109.32835,109.55985,11.51525,0.7,-109.80299,-24.73778,0.00070312055,-671.30096,7.1772547,6.9875154,6.6557555,6.576382,3.7005306e-05,0.3,-75.759315,77.976074,78.06421,77.997665,78.27115,0.21516842,0.41718748,5.941276550292969,14.85097677707672
33,330000,0.3486915987549381,-81.4523,0.07996193,0.17271529,0.9045077,-45.524776,26.986042,15.4040785,13.595813,109.46629,109.520546,109.424355,109.417114,8.774649,0.7,-109.02419,-25.259104,0.00011727089,-690.5072,44.833485,44.80773,44.95314,45.543552,2.0364926e-06,0.3,-79.907974,76.31757,76.31058,76.24913,76.28078,0.14914966,0.4890625,5.586294651031494,15.280990481376648
34,340000,-0.12181317411024684,-77.93424,0.08039656,0.08145741,1.612355,-5.8452826,28.54899,22.152536,12.336239,110.558556,110.78906,111.44941,111.83938,9.286735,0.7,-110.51772,-29.732786,0.0015360564,-428.38742,5.7129254,5.727887,6.39741,6.5197983,6.3038897e-07,0.3,-79.611145,73.21139,73.210175,73.61532,73.645706,0.31164515,0.390625,5.626568078994751,15.704263277848561
35,350000,-0.08819186702408283,-81.868835,0.0802042,0.96920276,1.9332685,-44.310482,23.669777,53.24563,12.291628,109.473434,109.55338,109.50329,109.834785,5.3747454,0.7,-109.08389,-21.080305,0.0004179707,-783.78,43.798367,44.19734,43.39684,43.201897,5.9655287e-07,0.3,-82.41768,77.23025,77.274666,77.54398,77.52217,0.16650677,0.44843748,5.670535564422607,16.128534801801045
36,360000,0.3788724780785208,-82.667114,0.079448864,0.27722335,1.1635655,-8.030724,24.249151,29.055664,11.732719,109.274185,109.27493,109.206406,109.26782,9.45097,0.7,-109.24979,-29.218287,0.0014500056,-612.8752,8.506868,8.471645,8.192175,7.5152397,1.7214915e-09,0.3,-81.69922,77.55914,77.60078,77.55244,77.683426,0.15989324,0.465625,5.640731573104858,16.553842373689015
37,370000,-0.10631647001280622,-83.62247,0.080967575,-0.5075485,1.0252465,-5.4938765,24.664204,26.773235,12.222838,109.686615,109.666664,110.33119,110.2181,10.853611,0.7,-109.54462,-31.96121,0.0016388411,-780.181,5.234412,5.022155,5.384779,5.8081355,1.559427e-07,0.3,-68.29639,79.57241,79.49632,79.615166,79.84271,0.19983056,0.39218748,5.577532529830933,16.975612552960715
38,380000,-0.15699787718949376,-82.157196,0.078907974,-0.68333375,1.3596797,-32.793232,22.002146,50.431946,12.343464,109.56506,109.455956,109.4673,109.29592,16.745886,0.7,-110.526566,-34.07504,0.0011368238,-1285.739,32.88254,33.120365,29.038378,29.171766,6.349449e-06,0.3,-90.41574,77.10493,77.099335,77.11166,77.30789,0.19769178,0.42499998,5.6760454177856445,17.403971819082894
39,390000,0.7634092595511267,-82.30683,0.078974314,-0.16506818,0.9077295,-6.8982544,22.676844,45.024403,11.179406,109.876785,109.81138,110.08943,109.80948,3.805547,0.7,-109.76001,-26.095272,0.00034376915,-979.2737,7.348183,6.6912837,7.052432,6.568495,2.3700268e-07,0.3,-86.491356,77.32288,77.23314,77.34548,77.39005,0.105571315,0.45,5.5971338748931885,17.82764724890391
40,400000,0.4494852647998735,-80.7739,0.080034204,-0.44054884,3.6996694,-6.797765,20.723131,633.8738,11.6238985,109.65264,109.73043,109.48476,109.00879,11.689529,0.7,-109.50725,-32.040512,0.0022069544,-696.3651,6.414071,5.9199557,5.3550014,5.5198145,1.466833e-07,0.3,-84.052025,75.39365,75.411224,75.29495,75.25417,0.26616794,0.5328125,5.585325241088867,18.25389349857966
41,410000,0.3484700254618223,-84.398224,0.080319256,-1.4114773,1.2554876,-7.8245687,28.48513,62.07833,9.958961,109.81727,109.60958,109.13924,109.52347,6.510932,0.7,-109.91937,-24.387852,0.0002471857,-811.36414,7.6819997,7.8604617,6.778612,7.1603246,6.106391e-07,0.3,-82.250885,79.909744,79.859764,79.50452,79.67506,0.15008509,0.49374998,5.667614459991455,18.676165362199146
42,420000,0.5793473404360173,-80.32467,0.08035036,-0.062695116,1.3042879,-6.4962616,31.848467,28.689524,10.73739,109.19131,109.69771,109.343445,109.45593,12.817133,0.7,-108.91256,-24.870977,0.0012242342,-642.8444,6.7593102,7.822137,7.0722647,7.173996,5.1297948e-06,0.3,-81.94144,75.3569,75.385284,75.5777,75.55451,0.2192326,0.48281246,5.752278566360474,19.110611740748087
43,430000,-0.10484831560583138,-81.910225,0.079512954,-0.421261,0.88684046,-20.202757,36.407852,15.289094,10.314867,109.092445,109.4675,108.56829,109.623215,60.920605,0.7,-108.99992,-30.920828,0.001007976,-1011.3586,22.612507,20.732819,23.941107,21.205397,1.2824487e-06,0.3,-86.448715,77.11182,77.06609,77.25801,77.19205,0.44714248,0.4734375,5.707055568695068,19.53937247196833
44,440000,-1.5683410727130511,-81.507225,0.07915792,0.76470715,1.0875764,-32.16494,23.270218,12.961103,11.342964,108.54406,108.58378,108.13267,108.28426,14.8515215,0.7,-108.80246,-27.429556,0.0028668437,-787.8642,30.709621,29.900822,32.81859,30.311558,9.953947e-06,0.3,-88.341896,76.076904,76.08763,75.92479,75.999756,0.23519395,0.54999995,5.7347846031188965,19.966009147961934
45,450000,2.893426164419706,-80.12801,0.079405576,0.42181337,0.99706006,-7.357908,23.546473,33.04543,13.9849615,110.22391,110.10778,110.1328,110.24296,4.2856436,0.7,-110.07094,-26.842812,0.0011791023,-614.73145,7.166735,7.1338186,5.5074873,5.8925943,5.912036e-07,0.3,-85.00432,74.2785,74.29443,74.295746,74.60626,0.13158384,0.4125,5.665925741195679,20.39080557425817
46,460000,1.3304614605725027,-80.15535,0.07871488,0.3979727,1.1451476,-43.36181,27.834738,64.85515,11.445881,109.94391,109.771545,110.147705,109.8102,17.768263,0.7,-108.93348,-24.430635,0.00032517884,-1203.7482,42.995113,43.086563,43.014034,43.28165,1.0311313e-06,0.3,-87.84297,74.81695,74.866516,74.89638,74.81054,0.23467408,0.484375,5.622301340103149,20.813944248358407
47,470000,0.9632467554140076,-80.94644,0.07971908,-0.4643721,0.8930211,-6.7458076,32.984047,19.001366,12.252178,109.20595,109.16648,109.06407,109.43387,6.2199264,0.7,-108.784096,-33.797775,5.7555968e-05,-826.006,7.438232,7.144117,6.329441,6.7687616,3.5218661e-06,0.3,-80.07493,76.111786,76.0695,76.115425,76.14305,0.1472435,0.4671875,5.588267087936401,21.23548001050949
48,480000,3.340130057510456,-79.916405,0.07701135,-0.23287566,1.0956872,-7.785337,30.824038,37.80626,11.966625,107.63545,107.74301,107.94616,108.04714,28.664562,0.7,-107.73924,-26.508781,0.0018746592,-598.94055,7.521694,7.2624006,6.658085,6.761887,5.8836303e-08,0.3,-76.29363,75.06998,75.069786,75.34983,75.40674,0.3202473,0.3875,4.4584386348724365,21.645124065876008
49,490000,0.39860632000583757,-82.759964,0.07894096,-0.3262873,0.97038186,-4.829494,23.57281,15.036087,10.430718,109.676094,109.91212,109.967026,110.067474,38.7247,0.7,-109.46263,-25.468088,4.7279173e-05,-534.217,4.8011994,4.199464,4.669978,5.3453946,5.163904e-06,0.3,-87.57686,77.47424,77.527275,77.74294,77.68712,0.41271967,0.45937496,5.736630439758301,22.07104389667511
50,500000,2.7232434616861396,-81.797005,0.07555767,-1.1897869,1.0885054,-4.638783,24.823776,32.131973,12.043146,108.51811,108.618996,109.018936,108.857506,100.93706,0.7,-108.641594,-31.400618,0.0017894611,-584.4125,4.648103,5.7931557,6.5080566,6.184722,2.9354124e-08,0.3,-76.01547,76.10663,76.048096,76.34445,76.07945,0.735547,0.43906248,5.932989835739136,22.503423806031545
51,510000,2.5331513842343822,-78.2771,0.07673844,0.7282187,1.9111943,-30.790882,24.537985,137.90186,8.818756,108.571976,108.49641,108.572556,108.21285,54.49504,0.7,-108.50037,-25.060986,4.8304282e-05,-549.24677,28.082397,28.390682,28.781206,28.46436,1.1488839e-06,0.3,-96.726685,72.283905,72.292046,72.2322,72.31472,0.4571892,0.528125,5.615580081939697,22.928182939688366
52,520000,1.35668273421278,-82.50876,0.07747928,-1.3419354,0.8159455,-34.294704,28.388908,19.831413,11.263743,108.9486,108.79587,109.02836,108.61248,44.641293,0.7,-108.93913,-36.471256,0.00088096206,-686.91785,33.139824,29.630888,30.482777,30.993643,2.3391797e-06,0.3,-79.90285,77.39465,77.37676,77.28463,77.300095,0.42614156,0.528125,5.7507524490356445,23.34679973522822
53,530000,1.3200947271000112,-77.48825,0.077706955,1.1608346,1.6398056,-5.2929187,31.456768,80.91052,12.781718,109.3606,109.2021,108.810715,109.137115,3.6895103,0.7,-108.76158,-25.376383,0.001409339,-817.96985,4.869224,5.4029503,4.9514923,5.0073094,5.409122e-07,0.3,-107.90058,70.92166,70.97917,70.64804,70.86702,0.16673988,0.45,6.042739629745483,23.789863566557568
54,540000,2.472403540392892,-81.08266,0.07874949,-0.8868255,1.2082944,-4.367164,33.369473,36.6645,8.494362,107.6081,107.95143,108.26653,107.68435,17.641972,0.7,-107.37673,-28.83359,0.009075355,-430.4062,4.108409,3.7268815,4.8715158,4.498081,2.9929681e-06,0.3,-72.73987,75.76326,75.79906,75.94033,75.85429,0.3424069,0.4921875,6.197420835494995,24.24390776157379
55,550000,6.166545448886784,-81.00851,0.07744327,-0.121983826,0.7580311,-4.3512845,33.810078,12.587477,11.672251,108.67412,108.73385,108.23089,107.96832,3.0652764,0.7,-108.37036,-23.730043,0.00093796087,-567.8652,3.7178369,4.351576,4.2903776,3.747204,1.1457014e-07,0.3,-85.4342,75.20493,75.12897,74.97635,75.020164,0.12088469,0.47812498,5.669096231460571,24.67620623111725
56,560000,3.2704447521386992,-79.26723,0.07891378,1.6476045,1.6136552,-4.0446553,32.777805,74.67407,10.677553,107.71553,107.81358,107.72058,107.94265,61.409233,0.7,-108.62422,-26.934113,0.0008826038,-519.4723,2.6802206,3.0364814,6.0664883,5.595007,1.3985381e-06,0.3,-96.00922,72.42498,72.35228,72.09063,72.33139,0.45497406,0.4484375,5.663239002227783,25.10219825108846
57,570000,2.4929564830196695,-79.894714,0.07734344,-0.3384011,0.6480652,-4.1745663,25.36218,20.240076,11.210548,109.1822,109.20985,108.853806,109.65343,3.2898536,0.7,-109.01593,-25.222818,0.0015910214,-736.16736,3.6362753,4.7444925,4.1343117,4.4491453,3.7550925e-07,0.3,-91.21909,73.77638,73.83186,73.82234,73.94482,0.1562494,0.390625,5.725016117095947,25.52735464970271
58,580000,1.2614665692640656,-82.226326,0.07883664,-0.081759095,1.4905245,-44.1779,36.910152,49.16801,11.516655,108.87388,108.91352,108.24897,108.4311,82.70348,0.7,-108.7456,-20.723742,0.0013311119,-761.7566,42.74454,42.968796,41.242058,42.359936,1.466833e-09,0.3,-67.99051,77.45024,77.48471,77.089966,77.177795,0.5206248,0.471875,5.663252115249634,25.959531740347543
59,590000,2.33603258506082,-79.597496,0.07844164,0.24108483,0.7878032,-45.54658,27.823877,16.87259,11.635411,109.0941,108.89574,110.16598,109.170784,85.197075,0.7,-107.87011,-33.071564,0.00076214003,-527.705,45.54962,44.41367,46.31114,46.984406,7.21977e-06,0.3,-90.033844,73.56536,73.60849,73.61107,73.77062,0.5676186,0.4109375,5.581310272216797,26.38471641143163
60,600000,2.8832389152018556,-78.52533,0.07736566,-0.22497457,1.0455089,-4.44752,38.296795,16.259533,10.853304,108.210144,108.26323,107.52438,108.12342,9.421907,0.7,-108.02517,-26.205774,0.00020042971,-603.38965,4.7396903,5.041807,6.0513153,6.027727,9.782962e-06,0.3,-90.36666,73.37178,73.42599,73.361046,73.51245,0.21200481,0.45,6.03972315788269,26.81478882630666
61,610000,4.99891482140116,-80.27083,0.078939036,-1.470605,0.8868402,-4.1577587,25.72004,16.49882,10.076957,108.30471,108.45685,108.15828,108.94264,4.3828945,0.7,-107.66901,-37.87675,0.0012334208,-1505.1444,3.5612044,4.2646165,4.3034687,4.053065,8.490213e-07,0.3,-88.48268,75.00005,75.04433,75.250885,75.1922,0.21092656,0.515625,6.0442023277282715,27.259879612922667
62,620000,2.6168726895382597,-80.72233,0.07854132,0.051560163,1.1637373,-6.1676335,29.490095,48.919876,9.240242,109.18141,108.984886,108.50208,108.86252,23.029533,0.7,-108.59373,-28.021656,0.0029384075,-794.3941,6.0618114,5.7744074,3.7543046,4.7432837,1.7658575e-06,0.3,-95.18785,74.8905,74.86731,74.65796,74.91622,0.38938677,0.409375,5.7038893699646,27.686504872639976
63,630000,7.281055872743355,-79.78903,0.0786443,0.6793593,0.8971457,-28.649345,26.61608,26.71649,8.461421,107.40979,107.37241,107.581245,107.2463,17.15114,0.7,-107.29369,-28.103025,0.00025117915,-687.3496,30.489668,28.056067,27.232368,30.646399,1.774868e-07,0.3,-96.69769,73.60187,73.553406,73.50041,73.6971,0.2523866,0.4890625,5.61864161491394,28.112680526574454
64,640000,5.439377024635752,-82.1582,0.07729575,-0.18998839,1.3468724,-41.550297,26.452246,61.18142,9.762393,108.33787,108.68757,108.27932,108.921844,10.752152,0.7,-108.288055,-26.303484,0.00023135089,-645.4602,40.550697,40.348557,39.290466,40.57443,1.11758716e-07,0.3,-96.69553,76.21525,76.16191,76.24645,76.53343,0.24438946,0.390625,5.537600994110107,28.5355619708697
65,650000,6.547499685163722,-80.86071,0.07687565,0.77491736,1.171305,-35.26819,36.234882,115.22366,11.911337,108.24795,108.02847,108.97796,108.43936,73.347305,0.7,-107.977135,-25.52156,0.00014787499,-866.6662,38.749878,40.014954,39.90166,37.83313,8.802745e-08,0.3,-94.44602,74.79219,74.80548,74.99711,74.91403,0.51692903,0.40625,5.559798955917358,28.96114532550176
66,660000,5.549756776561114,-79.839905,0.07831801,-0.0008416772,0.8025671,-45.297928,25.610558,28.879637,11.059801,108.78391,108.89875,108.55593,108.63671,5.449484,0.7,-108.6004,-25.581373,0.00043604453,-688.1379,45.661755,45.38666,44.150375,45.375626,7.4809503e-07,0.3,-107.80218,73.38542,73.359436,73.379745,73.3822,0.14438275,0.44375,5.934503793716431,29.395724924405418
67,670000,2.881244137086986,-80.31548,0.07857956,-0.64960945,1.631935,-5.083725,72.19468,86.02926,9.625254,109.19243,109.093704,109.56615,109.84792,14.757993,0.7,-108.779686,-33.370625,5.357692e-05,-578.02576,4.7704706,4.9179096,5.0113363,4.0571537,1.1804514e-08,0.3,-92.29869,74.96333,74.91992,75.35379,75.23648,0.33581495,0.3875,5.673339366912842,29.82758949995041
68,680000,4.901752208702061,-79.97389,0.07966396,-1.0346035,0.796738,-6.653086,34.649185,19.619005,12.421076,108.362785,108.38617,108.51776,108.980545,6.3255897,0.7,-108.3836,-26.26201,0.0006729775,-642.8683,6.4963675,6.1615252,4.2621746,5.4324317,2.1515298e-07,0.3,-87.47572,74.82875,74.82989,74.96518,75.18135,0.14582843,0.403125,5.7383928298950195,30.247316912810007
69,690000,5.412372313387208,-83.963326,0.078320935,-1.1522684,1.7061521,-5.279853,26.855738,169.72914,11.642815,108.03969,107.86508,107.78957,108.106415,36.941147,0.7,-107.852554,-25.135374,7.30271e-05,-662.76764,4.8195195,4.8255577,5.5475917,5.649876,1.774868e-07,0.3,-77.74255,79.0575,79.0883,78.986435,79.14057,0.27655742,0.421875,5.755940675735474,30.674594632784526
70,700000,6.018285750671423,-79.93651,0.07938206,-0.43365353,0.7308717,-31.692852,29.101032,24.240868,14.063183,108.74786,108.735855,109.034035,108.63229,9.05973,0.7,-108.02664,-28.23618,0.0010313564,-1073.2637,29.331917,29.20078,29.232046,28.928787,1.9035102e-05,0.3,-95.30086,74.250656,74.207306,74.22513,74.13646,0.15808049,0.5375,5.586435079574585,31.097764627138773
71,710000,2.2714449298057646,-81.734795,0.07932648,0.2876808,0.7894447,-5.671066,28.304855,8.523368,10.302759,107.877235,107.79323,108.07416,108.323845,4.4357715,0.7,-107.65881,-24.61697,0.00034151005,-858.2201,5.4000487,5.9084325,5.854999,5.8067126,1.7813291e-07,0.3,-85.19954,75.709,75.64724,75.91314,75.8692,0.132888,0.4453125,5.5839996337890625,31.519747122128805
72,720000,5.219835048020248,-80.43759,0.07805915,0.11658889,1.0375097,-7.2043605,49.75988,27.916246,10.99849,107.26916,107.46173,107.72578,107.25649,81.423775,0.7,-107.50779,-25.485626,5.213848e-05,-905.80865,9.5734625,7.214985,9.14784,7.8979096,8.265674e-06,0.3,-86.35097,75.38008,75.35823,75.42916,75.41022,0.46868646,0.4578125,5.640558481216431,31.94611121813456
73,730000,2.3773205630614123,-80.29614,0.07784822,0.46388137,1.0301454,-7.6696124,27.932627,13.4258585,10.885302,108.543846,108.70252,109.36749,109.002,64.37363,0.7,-108.534775,-23.127079,0.00042831554,-910.026,6.3261137,6.1370125,6.7414308,7.5507736,7.359631e-06,0.3,-97.06786,74.5811,74.49565,74.6665,74.55374,0.38453612,0.4734375,5.837730646133423,32.37752825816472
74,740000,5.194814492498622,-81.973434,0.07930383,-0.80981797,0.9583824,-6.9718328,24.482986,28.773638,13.047034,108.18686,108.11248,108.3881,108.001976,11.570489,0.7,-108.23907,-30.940088,0.000505872,-752.0517,7.1209016,6.8016233,7.0470576,6.29842,5.106151e-07,0.3,-88.27391,75.8352,75.748634,75.80783,75.89868,0.21871111,0.403125,5.603692054748535,32.8011985262235
75,750000,10.28990301347346,-80.04847,0.07745228,0.18023196,0.6518234,-6.0227532,34.47104,17.294367,11.843055,108.4974,108.595604,107.6445,108.249756,50.45212,0.7,-108.70652,-27.597725,0.00093394716,-1099.988,5.5916963,5.9144583,6.954569,5.9789133,1.5660347e-05,0.3,-94.522675,74.41842,74.48355,74.33186,74.50719,0.35773844,0.44843748,5.572553873062134,33.2208190480868
76,760000,7.611314429841001,-82.82095,0.07906872,-0.39681688,0.54279596,-5.5746827,27.779827,6.166307,10.6352005,108.26487,108.374275,108.375916,108.23005,4.696459,0.7,-108.05119,-34.583366,0.0012740144,-616.1451,5.9872484,5.9177814,6.1649427,6.4394026,7.700874e-09,0.3,-86.752686,77.69173,77.69838,77.754364,77.736374,0.1296987,0.4453125,5.679747104644775,33.64459501107534
77,770000,4.393790617510147,-81.08311,0.07831414,0.33775818,1.0935724,-46.634293,28.431147,97.49019,10.052977,107.73687,107.66037,107.84065,107.643936,3.1014237,0.7,-107.24485,-33.850945,0.00015958119,-695.2674,43.460712,43.664085,42.287655,42.73985,1.327494e-06,0.3,-102.7628,74.16438,74.08682,74.2116,74.17782,0.12215051,0.46718752,5.644970655441284,34.06964561144511
78,780000,5.8346060291420345,-81.76259,0.08052843,0.22485365,1.0392431,-29.485521,34.993713,79.4975,10.894232,107.65272,107.555405,107.12787,107.266846,19.27621,0.7,-107.4935,-26.664967,0.00034538587,-684.89734,27.970861,29.631964,30.124489,25.921785,6.5718194e-07,0.3,-81.11333,75.972595,76.048836,75.90411,75.956604,0.29261944,0.50624996,5.672014236450195,34.49614300727844
79,790000,4.50735934934538,-79.0163,0.07951678,1.3495874,1.3986135,-4.829843,28.39376,105.63628,8.535782,109.57189,109.644806,109.165436,109.66361,12.150582,0.7,-108.98711,-31.115913,0.0024947315,-784.4786,5.0574074,4.670856,5.1242533,4.515995,3.9934528e-07,0.3,-94.350784,72.655,72.64848,72.793015,72.967735,0.24787818,0.38437498,5.631988525390625,34.92156058549881
80,800000,6.754179149811685,-83.20491,0.07965312,-0.8232491,1.1314967,-48.14345,30.651684,12.344326,9.570249,108.291245,108.208595,108.693405,108.3451,2.8104625,0.7,-108.09555,-24.475319,0.00090379745,-489.6971,46.567043,46.388386,47.49963,46.40809,9.29035e-07,0.3,-84.17848,77.620255,77.63729,77.99606,78.00337,0.12775671,0.37656248,5.581918716430664,35.344635923703514
81,810000,8.997536063598748,-83.73392,0.08010375,-0.5202015,1.0263028,-40.224857,53.475136,36.09704,11.081514,106.87888,106.9241,107.082886,107.253914,11.210662,0.7,-106.82142,-34.58982,0.00060658203,-679.0706,41.612366,40.745644,42.968937,42.34314,5.574402e-06,0.3,-80.193146,77.98352,77.95916,77.854256,77.93933,0.20281139,0.44062498,5.94594669342041,35.77114594380061
82,820000,7.7109604716580264,-82.26786,0.077522874,-0.14942217,1.2124611,-46.748146,28.779408,58.591248,8.558924,108.52061,108.6858,108.73526,108.68617,29.706358,0.7,-108.47975,-24.053833,0.0005409989,-473.49567,46.68437,46.65602,45.809513,46.522926,2.4728362e-07,0.3,-73.30602,77.01982,77.08393,77.27675,77.39397,0.2499134,0.4765625,5.651334762573242,36.200623277823134
83,830000,10.311404624099545,-79.77983,0.07918701,-0.49430788,1.2938151,-6.8667736,34.84575,35.6684,11.724992,107.85567,107.79644,107.56453,108.19267,85.94065,0.7,-107.26277,-29.750006,0.0008195909,-461.33514,7.0886455,6.1958756,5.3880477,5.707656,4.1413588e-07,0.3,-85.836716,73.10748,73.09674,72.826035,72.97865,0.47492522,0.42499998,5.723186016082764,36.62612489064534
84,840000,6.622972203442057,-82.51518,0.079318255,0.7643112,1.7549009,-39.89158,40.317924,151.7247,11.503395,108.70697,108.83631,108.35984,108.18892,32.037136,0.7,-108.49559,-27.936373,8.004537e-05,-704.7804,40.734657,40.353233,39.53299,38.290504,8.451753e-09,0.3,-88.78891,75.95615,75.966934,75.65357,76.049835,0.26712543,0.40625,5.649391412734985,37.056063548723856
85,850000,8.302242374579814,-84.85231,0.07747134,-1.3862059,0.6502764,-8.149582,27.171888,11.1751175,13.294251,108.4326,108.58826,108.82666,108.65127,133.10052,0.7,-108.32519,-28.293661,0.000116238894,-675.21655,8.579134,8.254766,6.287663,8.216776,4.654913e-06,0.3,-71.43762,79.434845,79.37778,79.503265,79.66131,0.8364697,0.378125,5.633533954620361,37.47778910398483
86,860000,8.127442609276422,-81.42803,0.07704016,-0.39634365,1.2417277,-21.214264,24.555935,52.17148,13.249965,107.671,107.668785,107.46358,107.42173,100.250984,0.7,-107.25478,-32.578007,0.00061579427,-640.8766,19.408855,19.787268,20.601025,23.231892,3.1944364e-08,0.3,-86.51523,74.96515,74.94548,75.023026,75.122574,0.7148498,0.45468748,5.59619140625,37.89845186869304
87,870000,7.6821438647004,-81.17926,0.07845717,-0.869768,0.88701165,-6.212376,37.84242,30.647175,9.269554,106.8121,106.9075,107.06396,107.14245,5.5854297,0.7,-106.62053,-29.19232,0.0002240637,-423.5706,5.697425,5.7277145,5.7529116,6.492223,9.782961e-08,0.3,-78.20954,75.427635,75.46952,75.51379,75.46787,0.14209819,0.45,5.653252124786377,38.322237984339395
88,880000,8.236332930841288,-79.4792,0.07837688,1.8387629,1.2959279,-45.322506,35.06453,35.00048,12.497093,107.64883,107.70114,107.644806,107.568596,78.8001,0.7,-107.51499,-36.7562,0.0002454631,-539.3034,43.772854,43.876606,42.705235,44.329357,1.0353397e-07,0.3,-84.645515,73.443054,73.39539,73.41363,73.47528,0.4329811,0.45624998,5.67372465133667,38.74291514555613
89,890000,8.822650042859438,-83.164444,0.07908369,-1.3797482,1.3776567,-6.8596377,27.282328,108.96648,15.234491,107.115654,107.33701,107.35349,107.684265,24.48241,0.7,-107.30357,-33.074375,0.0023484768,-651.9078,5.6821527,6.6220465,6.737213,6.9936013,7.187482e-06,0.3,-71.36089,77.90187,77.952354,78.217834,78.23245,0.24361996,0.390625,5.983834981918335,39.178930739561714
90,900000,10.127982690459016,-81.43613,0.08206899,-0.5575034,2.0339894,-5.199862,30.453558,113.37069,13.183486,107.010956,107.22265,107.196655,106.99449,57.403973,0.7,-106.799034,-26.050472,5.0678223e-05,-591.5562,4.666284,4.659694,4.3605547,4.853395,3.3328076e-06,0.3,-81.84277,75.17298,75.29071,75.3353,75.22356,0.5869396,0.46875,5.941847085952759,39.62250420252482
91,910000,10.98183216833039,-81.1019,0.08050902,0.05139661,0.9246311,-41.389915,34.901806,14.273693,14.214508,106.97745,107.19715,107.52522,107.29775,2.5138843,0.7,-107.02597,-27.928078,4.319992e-05,-638.5842,41.412518,40.46756,41.489662,40.94413,1.2730016e-08,0.3,-98.63417,74.27229,74.24873,74.472305,74.47713,0.11771091,0.41718748,5.574136734008789,40.04986306428909
92,920000,8.236260010975803,-82.65448,0.079107694,-0.24565819,0.7257313,-32.121815,30.42899,13.04385,10.678404,107.735596,107.45148,107.76872,107.42681,8.051287,0.7,-107.7987,-26.28768,0.0005891105,-492.28763,32.512627,33.450195,32.05893,33.04699,2.673303e-07,0.3,-81.548004,76.83507,76.76437,76.749985,76.640045,0.1600785,0.4953125,5.957455158233643,40.48804663419723
93,930000,9.052507993989932,-82.71314,0.0771485,0.07317644,0.9483517,-7.338224,34.893406,59.182816,11.288757,107.24717,107.10313,106.976875,106.67923,18.07871,0.7,-107.04978,-27.124264,0.00037545554,-465.3416,7.4590325,6.8413754,6.953898,6.794076,3.0367112e-06,0.3,-84.50005,76.322426,76.31753,76.14665,76.223236,0.20119101,0.4671875,5.720409393310547,40.93119608163833
94,940000,4.813943885640515,-80.74634,0.07976524,0.39790034,0.78403544,-45.977013,39.900364,40.270226,11.379739,108.25129,107.99949,107.88775,108.04476,125.293304,0.7,-108.02127,-28.669712,2.7769245e-05,-486.9419,44.849205,44.705696,45.334694,44.66096,1.5103143e-07,0.3,-92.309685,74.47686,74.48362,74.57497,74.608635,0.59078705,0.40625,5.584490776062012,41.366286261876425
95,950000,8.600521579729376,-81.42706,0.07896667,0.5288154,0.71597,-5.171757,32.985634,16.04522,12.534666,106.86082,106.6761,107.36795,107.76605,37.19498,0.7,-106.61494,-25.680347,0.00048187602,-619.7734,5.656743,4.957466,6.008121,6.4768353,2.514571e-09,0.3,-84.349525,75.48126,75.475945,75.60138,75.75542,0.3223246,0.4015625,5.720721960067749,41.79911809364955
96,955000,12.08422940950529,-83.18168,0.07710477,-1.2495368,0.9070474,-29.947197,27.82651,46.52713,11.003944,106.86101,107.100945,107.39209,107.08363,2.6596808,0.7,-106.70454,-25.712036,0.0022869038,-424.66022,28.175968,29.519133,31.449392,32.196236,6.833099e-07,0.3,-72.71805,77.743065,77.75815,77.90784,78.00522,0.11067257,0.45468748,5.80661940574646,42.066151622931166
97,960000,4.9861309068127095,-81.54521,0.079249375,0.089910984,0.69702846,-43.24094,29.608788,13.483915,13.304798,107.23299,107.250885,107.15486,107.26565,10.721058,0.7,-107.0045,-28.028063,1.7502127e-05,-861.9421,43.1597,43.48992,44.442818,43.066635,2.1122396e-07,0.3,-81.54245,76.07325,76.023125,75.904144,75.91229,0.17905551,0.540625,5.701963901519775,42.32816870212555
98,965000,6.136220496493793,-80.01582,0.0799475,0.3347181,0.7651449,-35.984303,48.18797,14.415398,11.201324,107.49898,107.689865,107.61187,107.32832,11.644653,0.7,-107.73685,-28.757254,0.0011893478,-615.57043,34.62959,34.42446,32.626083,35.015755,1.3956498e-05,0.3,-93.44109,73.32042,73.31696,73.429184,73.39892,0.20593703,0.46093747,5.746566534042358,42.59121969540914
99,970000,8.729712430596518,-80.637924,0.08034451,0.42784822,1.1415377,-37.306168,30.619555,19.919468,10.477114,107.108116,107.068886,106.93674,106.89358,6.699176,0.7,-106.97556,-28.49582,0.00059086794,-716.6249,36.329414,35.10267,36.72248,37.16489,2.5566553e-07,0.3,-103.53948,73.61206,73.600365,73.3721,73.48609,0.1858239,0.43593746,5.610095262527466,42.85493755737941
100,975000,13.764955703873339,-82.24922,0.08425963,1.7372326,1.8918456,-45.06337,32.16716,118.79907,11.51017,108.12788,108.34305,106.998955,107.734726,42.187202,0.7,-108.15723,-25.122564,0.0014607122,-561.11597,43.900726,43.237957,42.71782,43.64499,2.3274158e-06,0.3,-86.1454,75.79326,75.81732,75.37753,75.52925,0.42669547,0.4515625,6.118657350540161,43.12308381398519
101,980000,10.318538512304675,-81.028244,0.07673127,-0.225656,1.3277466,-46.031467,34.597576,49.872932,10.763558,108.364525,108.2929,108.49331,108.469734,10.4743395,0.7,-107.82531,-25.242218,0.0007686524,-868.70013,45.704544,44.738213,45.381763,46.801025,3.0135269e-07,0.3,-102.23587,74.22121,74.18753,74.372345,74.34249,0.15642221,0.4375,5.698609113693237,43.38850795427958
102,985000,6.971278778315433,-79.59366,0.07746803,1.3932657,0.8505999,-4.0062513,31.954714,17.092972,9.908602,106.28767,106.452705,107.07338,106.971115,9.378542,0.7,-106.26058,-26.378426,0.002718476,-526.7559,3.7220826,4.371681,6.9522204,7.053874,2.514571e-07,0.3,-95.57889,72.69885,72.64688,72.84366,72.73244,0.13086781,0.45624998,5.755291938781738,43.655571432908374
103,990000,7.855581421154331,-81.01766,0.07821504,0.094316304,1.4743253,-5.531889,28.642258,88.448944,8.890373,107.54627,107.66547,107.99642,107.65523,11.798365,0.7,-107.55938,-26.98018,0.000723716,-555.7408,5.404861,5.456693,5.105406,5.2390633,3.1355304e-07,0.3,-92.19418,74.42793,74.49594,74.63995,74.548706,0.16868815,0.5,5.9315948486328125,43.926852734883624
104,995000,7.710453701125594,-79.58499,0.08480035,-0.1659667,0.8711176,-6.1287456,25.624495,40.410675,6.496805,107.96708,108.0136,107.53135,107.73919,31.668701,0.7,-107.909615,-24.117191,0.0014319681,-613.2922,5.772617,5.361663,5.352087,4.0732565,3.1489647e-06,0.3,-96.36003,72.48502,72.53166,72.52955,72.696976,0.24702018,0.4125,6.314064025878906,44.20675547917684
105,1000000,7.334352409548463,-82.1295,0.09111149,0.09462771,0.7375941,-5.023677,30.96622,11.823441,11.235412,107.3039,107.47268,107.247055,107.689865,20.07653,0.7,-106.57593,-27.304031,8.140034e-05,-763.8762,4.7826242,5.4575553,4.281509,5.2807245,1.3944081e-07,0.3,-97.86222,75.224014,75.26192,75.25061,75.28046,0.19323218,0.465625,6.02150821685791,44.474054821332295
