Xixo99/comfo/baselines/comfo7_perterbation_both_actor_and_critic/20230224_alphaQ0.0001/halfcheetah-medium-v2/COMFO7_s2_20230224_162830_halfcheetah-medium-v2_55.66.csv
,step,reward,actor_loss,alpha,alpha_loss,avg_conservative_loss,avg_smooth_loss,conservative_weight,critic_loss,max_actor_loss,max_alpha_loss,max_critic_loss,max_mle_prob,max_q1,max_q2,max_target_q,max_v,max_value_loss,max_weight,min_actor_loss,min_alpha_loss,min_critic_loss,min_mle_prob,min_q1,min_q2,min_target_q,min_v,min_value_loss,min_weight,mle_prob,q1,q2,target_q,v,value_loss,weight,eval_time,time
0,0,2.2541069844709662,,,,,,,,,,,,,,,,,,,,,,,,,,,,,,,,,,,,
1,10000,-2.5263304693584065,-34.457493,0.0899122,-2.925154,-0.00087334216,0.8580777,1.0,0.9525602,0.78958684,17.070057,10.208675,13.804486,41.34589,41.301926,42.33334,41.986908,0.92059344,0.7,-42.968285,-25.192575,0.002378412,-18.502195,-1.9403157,-1.3050656,0.6141491,-1.4193783,2.510831e-07,0.3,3.4067523,33.86964,33.822754,34.19384,33.58236,0.10596786,0.4578125,5.753130912780762,2.9819507956504823
2,20000,-5.983894209837961,-58.839863,0.11281665,0.4881368,0.001050946,1.4784187,1.0,2.0866137,1.5380166,32.956223,52.595238,14.790624,66.581436,66.891,67.001274,66.670296,3.0218542,0.7,-69.3588,-28.18872,0.0014464353,-17.679003,-1.0022045,-1.2378677,-1.7709846,-0.76668084,8.6449296e-07,0.3,2.78027,57.884346,57.871056,58.146126,57.870323,0.18788636,0.3984375,5.8542938232421875,4.022469425201416
3,30000,-0.1886275739439162,-72.139694,0.10805396,-0.4353708,-0.00218165,1.7123543,1.0,1.9407716,2.9983683,26.171255,30.45264,13.881563,81.413414,81.54934,81.45608,82.26283,3.5101688,0.7,-82.12264,-25.486229,0.0006652061,-13.391526,-4.3462315,-2.7150548,-3.7984698,-3.5923746,2.3274158e-06,0.3,3.0343032,71.44072,71.45154,71.10835,71.20321,0.17773698,0.4328125,5.847848653793335,5.06057919661204
4,40000,0.10410937212556241,-79.226395,0.094859414,-0.6958029,-0.003455118,1.9377819,1.0,2.6479788,4.3030977,24.399939,116.136765,13.15867,89.482,89.472466,89.06865,89.04809,5.9853964,0.7,-90.03454,-27.143642,0.0004893288,-13.201593,-4.7242794,-3.4358666,-4.418775,-3.3100169,3.0135269e-07,0.3,3.5707462,78.64874,78.62729,78.420975,78.51935,0.16652423,0.465625,5.877340793609619,6.099136261145274
5,50000,1.0251611942655179,-84.90991,0.082651496,0.89446896,-0.0022663008,2.038593,1.0,1.3083352,4.738306,29.560272,22.463428,13.552259,93.56865,93.51769,93.70391,93.27082,1.0179176,0.7,-93.62323,-26.632969,0.0063044336,-9.158089,-4.010208,-4.552358,-0.94088906,-1.7984042,6.572111e-07,0.3,4.6606903,84.425446,84.37207,84.20694,84.331604,0.12674698,0.4015625,5.838372707366943,7.133446156978607
6,60000,1.8744043200017866,-84.53618,0.06898348,-0.4731031,-0.0029064037,2.1339073,1.0,2.253735,3.7470536,38.554455,56.231686,21.918972,94.08933,94.079216,93.618225,94.9531,15.99923,0.7,-94.08979,-31.2653,0.001103708,-16.077557,-3.7251492,-4.008995,-2.6188593,-2.6992404,2.724555e-06,0.3,4.25676,83.964294,84.063255,84.293755,84.09706,0.19253653,0.45937496,5.797241687774658,8.17033059199651
7,70000,3.1368548142794763,-87.33292,0.058206756,0.2993719,-0.0041166386,2.2265525,1.0,1.4384239,3.2377355,31.61199,47.8648,17.936356,94.97645,95.46565,96.42074,94.93718,2.286619,0.7,-95.945465,-31.46343,0.00034077838,-8.610186,-4.3551235,-2.3857548,-3.2338185,-1.1483362,3.286358e-06,0.3,5.267554,86.799225,86.864235,86.6615,86.74197,0.12519962,0.46875,5.826584100723267,9.211309325695037
8,80000,4.015691243365964,-88.50777,0.051153213,0.56346625,-0.004096948,2.216565,1.0,1.247575,2.5023184,30.87677,17.974173,13.383984,97.756035,97.36024,96.88618,97.33185,3.4052248,0.7,-98.288345,-36.855877,0.0012065513,-11.71251,-2.323633,-2.7998233,-3.7115088,-2.6503704,4.4703485e-09,0.3,4.639206,88.03753,87.96032,87.87405,88.01567,0.098494574,0.4234375,5.928794622421265,10.24546989997228
9,90000,4.622906261859637,-89.806564,0.047285914,0.3545333,-0.005836229,2.4101338,1.0,1.3338561,3.52594,46.020927,83.26628,14.47456,98.27934,98.31359,97.597824,97.532585,1.89428,0.7,-98.94466,-29.835241,0.0005939559,-9.609721,-2.4458792,-2.6740746,-2.053313,-3.6452718,1.08268e-06,0.3,5.3154335,89.37654,89.30719,89.27404,89.12407,0.08613877,0.5046875,6.403292417526245,11.289037497838338
10,100000,17.68342409905346,-89.46598,0.045255426,0.6150752,-0.005190797,2.2031868,1.0,1.0829904,-62.167427,33.44666,17.08916,19.393614,96.727104,97.02143,96.286026,96.965416,4.262064,0.7,-97.49179,-26.086329,0.0002220145,-5.48314,61.7186,61.47483,58.703373,59.205006,6.437302e-07,0.3,5.6631966,88.933075,88.97089,89.20941,89.13914,0.11741678,0.41718748,6.327705144882202,12.331521387894949
11,110000,35.119057561199824,-89.612305,0.044123866,0.10583329,-0.0035222233,2.4051442,1.0,1.2112293,1.3096606,32.284424,32.6886,14.734268,99.530235,99.682106,98.9344,99.00725,5.165861,0.7,-99.928345,-32.011604,0.00092448463,-9.18086,-2.612804,-2.6130807,-0.63802975,-1.1443443,3.228779e-08,0.3,5.3871975,89.0767,89.14687,88.77751,88.96671,0.09117423,0.38593748,6.0375566482543945,13.37059108018875
12,120000,35.82518594259895,-89.95178,0.044191223,0.46929124,-0.0070537315,2.5914814,1.0,0.79256344,-61.299713,50.64761,15.301462,15.125357,96.40025,95.99278,96.05919,95.96546,3.9227138,0.7,-96.33271,-37.48873,0.000496181,-7.3117747,62.51845,64.40579,62.8011,62.498253,1.3201498e-08,0.3,5.922886,89.50972,89.456085,89.56575,89.50955,0.088882476,0.4734375,6.272912502288818,14.416403297583262
13,130000,47.32028665698829,-89.04053,0.04225956,-0.18168744,-0.005933296,2.6848323,1.0,1.5162531,-1.0240693,29.073805,26.799097,15.735144,96.777435,96.83678,97.37376,96.18289,1.3253351,0.7,-97.8708,-38.577446,0.0012935642,-9.037483,1.7825716,1.3408668,-1.5042069,0.89821404,3.1038187e-06,0.3,5.429913,88.52635,88.53007,88.099,88.16153,0.07407548,0.4875,6.101964235305786,15.45377293030421
14,140000,46.183919784141295,-90.15073,0.042531826,-0.8064989,-0.009910814,2.6859093,1.0,1.1321375,-0.50254685,34.637,48.486565,14.882784,96.80283,96.94284,96.911964,96.54992,7.8570766,0.7,-97.239334,-33.937225,0.0016563034,-6.2299128,1.3832756,1.4701043,2.103738,0.3734851,5.847949e-07,0.3,5.3320646,89.609856,89.54176,89.393936,89.541466,0.102613114,0.4734375,6.164663553237915,16.49453400373459
15,150000,52.12672108675209,-89.994225,0.0416338,-0.26202667,-0.004621818,2.734017,1.0,1.4362069,-1.6381447,30.571365,127.56273,15.257198,97.292404,97.14119,96.64344,96.48088,12.920385,0.7,-97.9262,-42.48465,0.0007587134,-8.2876,2.7682452,2.3499093,2.8681479,1.892704,1.0693212e-06,0.3,5.2956033,89.4191,89.47043,89.3219,89.3044,0.12560159,0.46875,5.7470927238464355,17.52785005569458
16,160000,52.33261217437678,-89.87713,0.04111818,-0.7773352,-0.008329574,2.8036735,1.0,1.3385179,0.063838184,31.26513,58.995514,13.911577,97.063065,97.06558,97.46655,97.19883,1.2475755,0.7,-98.06542,-30.662043,0.005013152,-7.4870696,-1.7077694,0.051235914,0.1402451,-0.14609623,1.6362594e-05,0.3,5.8558435,89.321075,89.35207,89.30624,89.51437,0.0757902,0.390625,5.742712736129761,18.56327453056971
17,170000,53.93921920546185,-89.79913,0.040967625,-0.11742486,-0.013148933,3.1538754,1.0,1.0925999,-1.9582393,46.50793,22.423561,20.079144,97.71728,98.066536,98.063,96.895996,1.6353563,0.7,-98.35153,-30.86124,0.0011551531,-6.9213285,3.1206565,2.3489819,3.2226858,1.8636065,1.6193995e-05,0.3,5.6300516,89.309006,89.316925,89.21254,89.18255,0.07474603,0.4796875,5.844038963317871,19.59842963218689
18,180000,52.836022536468505,-90.35878,0.04071953,-0.18477958,-0.0073439092,3.315422,1.0,0.9826753,-2.3836086,28.629946,28.019768,14.080177,97.03576,96.92001,96.59904,96.86168,5.591049,0.7,-97.808495,-32.70509,0.00038161787,-10.1213455,1.5309832,2.2671192,2.230857,1.9534922,2.0305336e-06,0.3,5.6435804,89.73648,89.7477,89.67197,89.82619,0.08997541,0.48593748,5.775414943695068,20.632254008452097
19,190000,53.60503032205247,-89.97925,0.04096005,0.3263782,-0.0066899094,3.0426996,1.0,0.8300948,-4.8158517,28.840956,15.046879,14.83627,96.39048,96.129776,96.84181,97.06678,3.7345834,0.7,-96.818405,-34.01416,0.0026800327,-7.1812086,4.8054557,5.4014387,5.028913,6.3429255,2.9511285e-09,0.3,5.916395,89.51401,89.42605,89.63464,89.52786,0.099454686,0.465625,5.800207614898682,21.663674998283387
20,200000,52.53290341271138,-90.17175,0.040353898,0.71146744,-0.0050200904,3.3886545,1.0,1.5057468,-16.67672,33.058945,62.79158,15.62752,96.407104,95.84823,96.41758,96.681465,10.294088,0.7,-96.45227,-35.75119,0.0010763879,-4.738794,10.114468,12.908284,7.5453596,15.938163,6.519258e-08,0.3,6.223356,89.582825,89.534256,89.504776,89.617096,0.13693167,0.409375,5.848330497741699,22.701468722025552
21,210000,55.63291724954429,-89.18458,0.03956216,-0.53461814,-0.0054915934,2.909367,1.0,1.1023724,-0.09386915,32.29029,10.9658985,14.694317,97.15186,97.148705,98.0161,97.4766,1.2635056,0.7,-98.15207,-36.80907,0.00059574103,-8.466443,0.53801364,1.9194157,1.0844028,1.1950716,7.92247e-07,0.3,5.7978454,88.65213,88.59549,88.79732,88.81683,0.08383556,0.40781248,5.728636264801025,23.738236840566
22,220000,53.412316359767445,-90.12815,0.03807414,1.1144222,-0.009784881,3.1851938,1.0,0.9137739,-2.7623408,46.733536,17.551271,14.765175,97.92469,97.84666,97.78104,97.36477,1.8636762,0.7,-98.08159,-33.02459,5.906314e-05,-10.381029,3.925716,3.0477273,4.039413,4.2314544,4.3226754e-07,0.3,5.652377,89.53158,89.53555,89.561264,89.62344,0.08286582,0.465625,5.818850517272949,24.774393312136333
23,230000,54.65866920076675,-89.67408,0.038494356,0.14437744,-0.0062752785,3.061063,1.0,0.9415862,-3.3351774,27.27555,36.215836,13.872056,97.45171,97.432785,98.27313,97.1346,0.8895942,0.7,-97.97248,-29.018242,0.0014284523,-6.6758966,4.1695685,3.889126,3.2140965,3.4546762,2.1367275e-06,0.3,5.7112293,89.161194,89.15181,89.212135,89.18529,0.06468184,0.49687502,6.112408876419067,25.81865861813227
24,240000,54.34630361115177,-90.71434,0.03880796,-0.115575254,-0.010963671,3.417645,1.0,0.8604692,-4.343883,38.358303,33.853172,13.744231,97.347404,97.47914,97.827156,97.08173,1.0745211,0.7,-98.01521,-41.371593,0.00032491895,-7.432368,3.8494692,4.9778633,3.483209,4.820161,3.9663164e-06,0.3,6.1086426,90.078835,90.15603,90.1552,90.07631,0.10055351,0.5109375,5.797002553939819,26.85731850862503
25,250000,52.60525912633101,-89.72556,0.038342297,0.5896707,-0.01760186,3.3563309,1.0,1.3143989,1.5847712,49.56066,43.98326,20.666023,95.7994,96.15942,96.27816,96.336266,11.29934,0.7,-96.60125,-36.272064,0.000852671,-8.722162,-1.2577286,-1.7158809,-0.25329074,-2.3218956,1.0166009e-05,0.3,5.23509,89.03015,89.07425,89.318375,89.23074,0.15411793,0.453125,5.821065664291382,27.894939204057057
26,260000,54.22926453032907,-89.66554,0.03831862,0.2807036,-0.010648452,3.4541512,1.0,1.0100496,-2.9214244,53.01789,15.56735,16.435642,96.56319,96.64447,97.04862,96.29373,1.7958254,0.7,-97.07254,-44.411274,1.6511069e-05,-9.650159,3.978003,1.4322705,0.22249973,0.72362024,5.847949e-07,0.3,5.846081,89.07523,89.07195,89.07536,89.160484,0.074477196,0.45937496,5.734080791473389,28.930694607893624
27,270000,54.559857172434214,-91.15959,0.03787512,0.7975539,-0.01332702,3.359967,1.0,1.0300484,-67.14352,46.576553,25.799084,16.50154,97.40419,97.188896,96.906235,97.12433,1.2676983,0.7,-98.13974,-35.939484,0.00013563555,-6.6578712,66.74995,68.698746,68.44618,68.17361,2.9059012e-07,0.3,6.0558224,90.51341,90.59377,90.4305,90.517624,0.08956472,0.3734375,5.765917778015137,29.967248638470966
28,280000,54.1798688472522,-89.79145,0.037210383,0.12361243,-0.012991247,3.0959322,1.0,1.5055854,-7.004963,25.501253,66.75797,14.256577,96.31361,95.99431,96.85684,97.164154,1.5680152,0.7,-96.77236,-31.655222,0.0032184836,-11.048663,7.9953594,7.089979,5.086149,6.60614,1.4991209e-06,0.3,5.528349,89.25056,89.25099,89.63521,89.64989,0.0780908,0.396875,5.700531959533691,30.999986358483632
29,290000,55.00244681036073,-90.36852,0.038200565,0.27820015,-0.0065139667,3.525964,1.0,0.98803097,-63.94392,41.85895,25.184612,14.230715,96.08703,96.033195,96.29011,95.624245,4.6108923,0.7,-96.851364,-37.220375,0.000491805,-8.165246,60.324093,58.751053,56.07727,59.3944,5.4957522e-06,0.3,5.8620024,89.78104,89.68414,89.70781,89.72159,0.08838633,0.47031248,5.778656482696533,32.03281979560852
30,300000,53.628303841163785,-90.28204,0.0380469,-1.5748658,-0.011246812,3.4051857,1.0,0.55665076,-5.6173844,32.08906,10.121105,14.187538,97.47656,97.20182,98.128685,97.60823,1.032634,0.7,-97.62305,-31.421682,0.000840087,-8.392878,5.3873744,6.3755636,5.5009556,5.8564005,1.1265977e-06,0.3,5.1669087,89.71656,89.746414,89.83989,89.77649,0.062411845,0.4640625,5.834281921386719,33.067730502287546
31,310000,53.82769630078841,-90.18547,0.037628204,0.93139505,-0.014630586,3.579928,1.0,1.10325,-5.5904636,49.230534,20.122257,15.455057,96.95169,97.0289,97.19934,96.87866,15.981394,0.7,-97.0498,-29.65902,0.0017002714,-5.361651,4.9528465,5.274105,6.3574734,3.0483932,3.4226106e-09,0.3,5.9666395,89.56782,89.547165,89.82309,89.76575,0.15470096,0.4359375,5.786890506744385,34.105580965677895
32,320000,54.03036437468158,-89.885635,0.03745282,-1.289006,-0.0068687485,3.6000326,1.0,1.2661508,-2.338085,32.57933,60.81926,15.7723255,97.07079,97.58594,97.65447,97.08311,1.9425106,0.7,-97.524376,-36.08338,0.0036655264,-9.032989,2.6177416,3.0938978,5.0613146,5.3145013,5.6577846e-07,0.3,5.4902754,89.30934,89.33022,89.1772,89.207054,0.09366213,0.471875,5.860675573348999,35.143016477425896
33,330000,55.93854485277949,-90.4814,0.036677342,0.5551139,-0.012470639,3.6210923,1.0,2.1573534,-68.21909,46.958282,253.63066,15.702311,98.49109,98.15066,98.02826,98.3265,3.300704,0.7,-99.04426,-36.00979,0.0023539355,-10.860401,67.17656,66.955185,66.779205,66.17942,3.241962e-05,0.3,5.8454304,89.926346,89.924995,90.07512,90.15866,0.10274234,0.41249996,5.870487689971924,36.18171453873317
34,340000,54.74141506291872,-90.126755,0.037147693,0.5032237,-0.006479883,4.208693,1.0,1.1723382,-4.0695167,30.43797,25.898636,14.699459,96.7567,96.71644,97.44939,96.87868,2.980136,0.7,-97.156815,-37.13627,0.00058232114,-10.861311,3.994266,4.4396515,5.021821,5.680517,7.1960386e-07,0.3,5.6712523,89.43591,89.44861,89.29124,89.28685,0.11435158,0.509375,5.72978663444519,37.21419776280721
35,350000,53.456553911555446,-90.236595,0.03750245,0.794212,-0.009477334,3.442107,1.0,1.2260537,-52.14715,35.018585,65.809875,14.521401,96.70019,96.98566,96.69899,97.173225,3.1257825,0.7,-97.21533,-36.93107,0.00015691493,-11.495161,49.030186,48.803764,46.62734,50.65035,1.5652738e-06,0.3,5.7762127,89.55336,89.64423,89.44424,89.565475,0.10765855,0.43281248,5.714027404785156,38.24794307947159
36,360000,54.75287728313165,-90.79537,0.037252147,-0.35360318,-0.01237717,3.5669038,1.0,0.8878559,-67.99741,29.792688,50.104153,16.150076,97.57876,97.477455,97.8466,96.95244,6.5954666,0.7,-97.60057,-44.17004,0.00063802866,-6.382612,68.58449,68.075386,67.03589,68.52052,2.8397887e-06,0.3,6.0949454,90.19124,90.203835,90.49307,90.23823,0.1194186,0.5453125,5.688345909118652,39.28309193849564
37,370000,54.02772837149272,-89.773964,0.037416745,-0.12827706,-0.0037758604,3.6897569,1.0,1.0591185,-5.0325685,32.731182,59.715656,13.680948,96.424126,96.42943,96.2982,96.430626,9.660503,0.7,-97.408005,-34.50574,0.0009199861,-6.707306,5.0544925,4.5740223,4.5450253,5.639736,3.890321e-06,0.3,5.7413263,89.14376,89.15831,89.17765,89.29135,0.11271407,0.41718748,6.191102027893066,40.319941441218056
38,380000,53.771506387090284,-90.082275,0.038279902,-0.0043869615,-0.0145789785,3.7034874,1.0,0.9821265,-60.988815,30.52816,37.709827,14.493885,96.9885,96.85338,98.03473,97.68434,3.164571,0.7,-97.418015,-31.253956,0.00014605751,-8.029762,61.17002,60.749935,60.933887,59.909058,6.67572e-07,0.3,5.575604,89.4508,89.54297,89.58183,89.55824,0.091308355,0.44843748,6.467073678970337,41.36549877723058
39,390000,53.98577982367158,-90.773705,0.036506712,0.59952193,-0.010706946,3.2492516,1.0,0.9294453,-4.8129196,32.9727,36.32969,17.659071,97.6227,97.722664,97.89307,97.8555,3.2822964,0.7,-97.929855,-34.50409,0.00048615132,-8.279056,5.2884216,5.353564,5.174147,5.3068924,3.8083354e-06,0.3,6.096788,90.24577,90.24439,90.09929,90.36517,0.09410774,0.36093748,6.305878639221191,42.40573832988739
40,400000,55.1276352206669,-90.47672,0.037271094,-1.1924912,-0.01199055,3.8248665,1.0,1.2162155,-69.76692,32.81618,76.98114,15.650539,96.17189,95.85156,96.10044,96.12485,2.8384418,0.7,-96.13163,-38.413086,0.0019855173,-5.025877,69.39293,69.581924,69.8335,69.52734,4.2391474e-07,0.3,5.7761726,89.92173,89.94925,90.25306,90.25493,0.08268292,0.41875,5.824974536895752,43.44039078950882
41,410000,55.303717893559366,-90.09404,0.037384175,-0.34917825,-0.012930231,3.3702362,1.0,0.7454951,-3.1030192,35.200626,10.618858,13.718315,95.3359,95.31596,95.90827,95.82089,2.7185163,0.7,-96.21581,-35.67316,3.8761296e-05,-8.615673,3.6751904,3.3504558,5.041333,3.9187303,2.673303e-07,0.3,5.648297,89.47671,89.51774,89.72479,89.76694,0.109742865,0.39687496,5.913183689117432,44.47620158195495
42,420000,54.060069058969106,-90.316315,0.036998194,0.4238952,-0.015348111,3.4134119,1.0,0.61208564,-4.846157,26.886744,16.764996,15.092684,96.17783,96.63627,96.88778,95.9486,1.7818195,0.7,-96.78169,-32.068565,0.00063669414,-3.5102375,5.6922936,4.5343723,4.8881116,4.5824785,5.0466045e-09,0.3,6.009015,89.7478,89.73912,89.746796,89.81025,0.08345886,0.5,5.936694145202637,45.508689184983574
43,430000,54.655443715995276,-90.152504,0.0367642,0.12936032,-0.0057709697,4.1659126,1.0,1.2071383,-69.10625,40.9516,63.901333,14.561304,95.39982,95.69298,95.6731,95.53916,6.048538,0.7,-96.29783,-40.641926,0.0009001247,-7.253314,66.60243,66.93514,65.90372,66.4858,1.6298145e-08,0.3,5.638232,89.42297,89.55206,89.53964,89.4516,0.1371804,0.5015625,5.849729537963867,46.545802756150565
44,440000,55.009362762373115,-89.51787,0.037268315,0.16570002,-0.004354371,3.3153305,1.0,0.86967564,-5.1953964,38.777336,10.218005,16.498665,96.42239,96.10925,96.299255,97.08326,2.3545275,0.7,-97.046074,-30.68237,0.0012099065,-10.950991,5.790946,5.2330174,4.295594,4.0232162,8.451753e-09,0.3,5.702882,88.94284,88.94481,89.19897,88.965195,0.09300468,0.496875,5.726208448410034,47.579302763938905
45,450000,54.40205813453197,-89.76938,0.036599893,-0.5542875,-0.02260989,3.8632362,1.0,0.9638302,-3.5763888,42.83675,23.138117,13.672501,97.79987,97.88819,97.473656,97.293465,1.7066487,0.7,-98.28327,-33.29717,0.0013752552,-10.49397,4.916813,3.8547444,5.5302486,4.600076,6.2864274e-08,0.3,5.7901464,89.2181,89.223404,89.43735,89.38747,0.082196444,0.4484375,5.937252998352051,48.62217393716176
46,460000,55.183759276547896,-90.748474,0.036845446,-1.4989494,-0.011938143,3.3671005,1.0,3.347936,-68.15204,30.852417,681.1952,15.685393,95.847725,95.93752,96.2972,95.895706,1.4377508,0.7,-96.80183,-35.347416,0.0015163654,-13.439251,67.06984,66.62833,61.522797,68.49498,1.2321398e-07,0.3,5.4789705,90.15184,90.19769,89.98896,90.22496,0.09641916,0.38437498,5.74207329750061,49.653493376572925
47,470000,54.64460534672641,-89.82266,0.0368406,-0.91762173,-0.010250948,4.363384,1.0,0.8880985,-2.7931416,34.416798,21.653978,15.865295,95.96198,95.63471,96.13362,95.518105,1.527662,0.7,-96.08397,-32.87503,0.00015087455,-7.1277246,3.5677197,3.3581073,3.4311774,3.9553528,2.9059012e-07,0.3,5.735859,89.26702,89.29561,89.4273,89.41263,0.07255711,0.4109375,5.788396596908569,50.69104657570521
48,480000,54.66899997185567,-90.39511,0.03662234,1.2225252,-0.010664304,3.24831,1.0,0.948976,-3.1912885,83.05521,21.686213,16.738178,96.9323,97.06202,97.09928,96.29838,2.2324643,0.7,-97.620476,-39.737694,0.00067610585,-18.255129,3.782862,3.251742,3.384142,4.0720882,1.3217215e-07,0.3,5.728622,89.75392,89.8112,89.68301,89.718414,0.07998774,0.47968748,5.680891275405884,51.72279424269994
49,490000,55.35234303499522,-90.078064,0.037022192,1.1621591,-0.009235611,3.4586353,1.0,0.89179516,-3.0082445,32.861145,23.646097,18.712374,96.28045,95.9707,95.945335,96.474785,2.7246792,0.7,-96.32304,-37.013836,4.633778e-05,-8.329948,3.0814521,2.8783708,4.946242,4.8385377,5.82186e-06,0.3,5.7505674,89.579895,89.50225,89.522064,89.54486,0.08728718,0.3984375,5.783370018005371,52.761378506819405
50,500000,55.039665576750195,-90.497696,0.03609321,0.33094972,-0.016203221,4.1965137,1.0,1.1872196,-5.210611,40.486652,44.884594,16.913944,96.81622,96.63696,96.40432,96.372536,7.914142,0.7,-97.65315,-40.718678,5.0292583e-05,-10.450086,5.267504,4.843444,2.6317816,2.5606256,3.3807012e-08,0.3,5.7726717,89.880325,89.793625,89.57744,89.631256,0.13774964,0.5281249,5.7658820152282715,53.79189330339432
51,510000,54.06791882427142,-90.05666,0.036965836,-0.3217023,-0.012762049,3.6971054,1.0,2.6979303,-3.6231182,31.565788,230.30002,17.835243,97.59652,97.335144,96.92267,97.35935,23.41211,0.7,-97.98869,-33.91027,0.0031950856,-7.96501,3.7319884,4.4948444,3.5525277,3.9610507,3.277499e-07,0.3,5.676961,89.41757,89.45597,89.00818,89.168686,0.18346664,0.47031248,5.680166959762573,54.824885221322376
52,520000,54.58082724903398,-91.104515,0.03675009,-1.4464809,-0.017491112,3.7940545,1.0,0.62027603,-57.387432,27.767925,27.566257,16.71266,96.54347,96.5372,96.50695,96.504555,1.5445772,0.7,-97.22686,-33.617416,0.0005939857,-8.121791,54.14769,55.32444,54.07881,53.56681,1.478009e-07,0.3,5.819154,90.459305,90.48558,90.4243,90.381256,0.07165635,0.45468748,5.768371820449829,55.858893712361656
53,530000,54.667522431426555,-89.9648,0.03711417,0.19585145,-0.010660193,4.0665507,1.0,0.9934126,-4.2650266,27.097048,33.465702,15.378786,96.98747,96.91646,97.01598,97.10642,4.368142,0.7,-97.460266,-32.799835,0.0005835507,-7.8013315,5.2993574,4.55582,6.0800357,6.456713,4.930189e-07,0.3,6.0300317,89.288315,89.38413,89.127625,89.359924,0.11606172,0.4296875,5.7645909786224365,56.892105011145276
54,540000,55.326707441772626,-89.73624,0.03657403,-0.4700061,-0.00530926,3.7403219,1.0,2.7442665,-8.223183,27.655142,436.38925,15.579039,97.003174,96.514984,96.43211,96.42663,1.1631224,0.7,-97.064,-40.568672,0.0010817356,-5.914812,9.880325,9.644531,9.126623,9.612033,1.39451e-06,0.3,5.5146837,89.118004,89.10774,88.83862,89.00514,0.08496755,0.465625,5.661679983139038,57.92628958622615
55,550000,53.99153948500639,-91.06381,0.037517957,-0.29164362,-0.013526231,3.6278534,1.0,0.9729201,-64.52413,73.19525,22.435612,15.165522,96.195,96.278114,96.1171,95.699104,2.6633456,0.7,-96.36478,-34.525665,0.00013225555,-12.117154,64.69813,65.95422,65.21317,65.656364,2.1391315e-08,0.3,6.1874065,90.412735,90.414536,90.136185,90.12434,0.13065043,0.521875,5.716403484344482,58.96110050678253
56,560000,54.40388168774418,-90.31353,0.037306596,-1.4743569,-0.015599254,3.8666322,1.0,0.7913996,-51.990772,33.187798,23.518204,13.5766735,96.53377,96.510956,96.71669,96.3644,3.3844316,0.7,-96.91363,-31.318535,0.0003464932,-10.862827,48.828316,50.112713,49.829433,47.50374,1.38629875e-05,0.3,5.531353,89.73202,89.67624,89.87082,89.83244,0.09042611,0.49062496,5.663648366928101,59.99759312470754
57,570000,54.935844061955585,-90.437515,0.037229337,0.54951346,-0.009080919,3.685332,1.0,1.156598,-59.23853,40.71351,50.18649,16.227678,96.785416,96.64634,96.906784,97.19445,5.025726,0.7,-97.38695,-29.378666,0.00047393475,-8.808885,57.53192,57.713024,52.613976,58.90491,1.00862235e-05,0.3,5.97144,89.81585,89.80795,89.57201,89.83428,0.13804199,0.41718748,5.814896821975708,61.03028266032537
58,580000,55.95059506521809,-90.06873,0.037289992,-0.2814269,-0.005562818,3.4528527,1.0,0.9459229,-67.70723,24.97404,22.136879,13.448315,96.56972,96.75747,96.46601,96.371086,2.2059214,0.7,-97.07784,-45.72577,0.0009389725,-10.578853,65.956505,66.103386,65.96601,66.700516,1.2325472e-07,0.3,5.7658467,89.47612,89.48183,89.74686,89.76111,0.08185886,0.4375,5.821645259857178,62.058586466312406
59,590000,55.896939517823064,-90.08459,0.03694659,-0.5623774,-0.006386017,3.6231408,1.0,0.7365279,-9.022549,64.0021,13.324606,15.49371,96.879074,96.430176,97.10087,97.09267,6.9505587,0.7,-96.88417,-37.83041,9.707292e-07,-15.886572,10.013888,9.951396,8.64386,8.724783,4.754111e-07,0.3,5.954865,89.52432,89.48131,89.69441,89.673,0.091204405,0.4453125,5.695971488952637,63.09161142508189
60,600000,53.708100220066534,-90.02489,0.036808454,0.75355834,-0.008742201,3.6941411,1.0,0.7455909,-4.49886,46.620598,16.683382,14.868187,96.87337,96.60215,96.866264,96.04206,4.244788,0.7,-97.16036,-37.71488,0.00038797152,-10.3545,5.4596386,4.4027653,6.252891,4.6233344,6.078626e-08,0.3,5.552498,89.32353,89.332436,89.28084,89.15608,0.12855606,0.51874995,6.04809832572937,64.12689744631449
61,610000,55.34428537906879,-90.06462,0.03675751,1.6103642,-0.012851874,4.249082,1.0,0.93694115,-4.2035604,36.97546,11.651779,15.423764,96.59448,96.630585,96.35826,96.37171,4.3705444,0.7,-97.126686,-33.444263,0.00072232477,-12.044227,5.365911,4.947286,5.324647,5.273848,1.8850918e-05,0.3,5.9847093,89.42157,89.40356,89.0777,89.14233,0.14508238,0.46249998,5.716094732284546,65.13422416051229
62,620000,54.68367001632711,-90.68034,0.037266217,-0.29782146,-0.017023614,3.9956644,1.0,0.8687564,-67.198524,36.777874,32.877525,14.445774,96.10776,96.21809,96.49218,96.58919,2.347637,0.7,-96.94187,-32.205315,0.00015616167,-5.4013515,65.959076,66.55713,63.81696,68.462074,1.8167776e-07,0.3,5.830943,90.105354,90.135345,90.08621,90.17331,0.11582228,0.39218748,6.532820463180542,66.17316339413325
63,630000,54.950460661873535,-89.04013,0.0367733,-1.2083824,-0.011887964,3.353586,1.0,0.57186043,-4.960693,31.016108,12.211224,16.336254,96.50698,96.347755,96.68189,95.88701,3.2783153,0.7,-96.70867,-36.516407,0.0007382627,-11.890989,3.3749392,5.0305166,3.3828533,4.27642,2.9511285e-09,0.3,5.542746,88.51767,88.45624,88.44229,88.60382,0.115969166,0.38593748,5.981329917907715,67.20808125336966
64,640000,55.64697273127614,-89.62404,0.03646082,-0.5436694,-0.010217497,4.0090785,1.0,1.5607755,-2.4155793,33.32641,90.631165,15.527222,96.636284,96.6222,98.03312,96.49872,4.2680054,0.7,-97.280785,-32.322037,0.00024327502,-10.65477,2.4161944,2.8578029,5.0365896,5.7769723,1.3065729e-05,0.3,5.683039,88.91684,88.98542,89.02482,89.006424,0.12222851,0.546875,5.711766958236694,68.24004832903545
65,650000,54.95140389151767,-90.26691,0.037101015,0.6915939,-0.013354908,4.1585255,1.0,0.7851037,-5.0004377,39.676888,15.476723,16.503899,95.81746,95.97492,96.36262,95.47207,2.3818944,0.7,-96.24411,-41.964924,0.0008403678,-4.720546,5.098952,4.9391136,4.9899297,4.7295074,2.229761e-07,0.3,6.113077,89.66106,89.689644,89.63918,89.56204,0.07112045,0.47187498,5.766284704208374,69.26929128567377
66,660000,54.92090774224443,-90.461365,0.037227027,-0.0792695,-0.005569009,4.048102,1.0,0.83260334,-4.1301146,34.8841,12.606868,16.181747,97.09691,97.228,97.09683,96.511894,2.533927,0.7,-97.7331,-30.882902,0.0007453552,-8.288549,3.736954,4.916338,5.4855824,4.9941936,6.9849198e-09,0.3,5.7776203,89.86043,89.81431,89.746086,89.6475,0.11467219,0.49843752,5.945284366607666,70.30358642339706
67,670000,55.04986153734358,-90.20128,0.03771856,-0.826192,-0.013513354,3.5740688,1.0,0.88475794,-54.21811,31.571196,66.96183,14.824644,95.445435,95.486275,95.88644,95.82264,3.2849317,0.7,-96.10618,-40.970398,0.0017449029,-8.31717,56.510967,55.12632,56.606365,53.24932,7.4103014e-07,0.3,5.849151,89.660965,89.60853,89.49301,89.44269,0.09657331,0.4671875,5.885072946548462,71.33874180316926
68,680000,54.98728609924323,-89.67677,0.03645692,0.7982426,-0.016065985,3.9115784,1.0,0.8856862,-5.0460653,45.790012,19.341034,21.69015,96.84041,96.7352,96.37125,96.59713,1.629407,0.7,-97.50813,-43.38661,0.0007754157,-8.485512,5.1560845,4.910951,4.5115633,5.515112,2.1391315e-06,0.3,5.9412546,89.056015,89.07065,88.66502,88.6201,0.10490712,0.55625,5.9963600635528564,72.37683055003484
69,690000,55.564197808304336,-89.64096,0.03805648,-0.7180121,-0.010687421,3.4736218,1.0,0.5996537,-4.9471087,28.571377,13.177397,15.112511,95.42337,95.42567,95.552025,96.04904,1.6500958,0.7,-96.142876,-38.982014,0.0007887349,-19.683083,5.3139267,5.2357965,5.127791,5.236889,3.833731e-07,0.3,5.315695,89.0441,89.03594,89.15939,89.04369,0.09385889,0.45468748,5.845090627670288,73.40882780551911
70,700000,55.631903444422406,-89.873184,0.03689731,-0.3238669,-0.012898234,3.8108177,1.0,1.0057735,-52.330143,34.549694,17.248167,14.268429,96.54295,96.34507,96.79221,96.60506,3.6874275,0.7,-96.46471,-37.119892,0.0006513429,-7.963217,51.65531,50.481476,50.18048,50.421246,1.0186341e-07,0.3,5.482918,89.26659,89.33592,89.29587,89.27286,0.11311482,0.4765625,5.7043585777282715,74.44628428220749
71,710000,55.32357638473826,-89.92868,0.0372599,-0.32624978,-0.010550202,3.7388642,1.0,1.1655365,-4.3159614,35.242527,57.47029,15.686565,96.46313,96.44108,96.03967,96.47523,1.9774013,0.7,-96.95175,-34.205166,5.529076e-05,-10.423092,5.4162064,4.2980194,3.9908524,4.1850224,5.657785e-09,0.3,5.7973433,89.396675,89.38206,89.38417,89.363144,0.094630525,0.4359375,5.71731972694397,75.4826391418775
72,720000,55.28839210541396,-90.48009,0.037422597,-0.7641101,-0.011582861,3.823179,1.0,0.8996753,-70.62428,30.193552,38.05532,14.482328,96.82301,96.58803,96.95924,96.99316,2.9195685,0.7,-97.42019,-34.70332,0.0011952177,-2.6909323,70.857086,71.10897,71.984825,70.79172,4.3592883e-07,0.3,6.014306,89.93988,89.87204,89.70163,89.72111,0.14053266,0.5203125,5.748211145401001,76.51708367268245
73,730000,56.20762321381553,-89.68689,0.03734403,-0.16922435,-0.017343014,4.0381603,1.0,0.89107114,-4.567836,34.272717,19.880959,14.986206,95.93051,95.759636,96.64823,95.84611,5.094515,0.7,-96.461334,-35.00392,0.00022975844,-9.894944,5.6254697,5.2782006,4.4308286,6.291433,1.9965227e-09,0.3,5.860654,89.164444,89.185135,89.278366,89.1916,0.13790664,0.50937504,5.713489532470703,77.54885715643564
74,740000,55.17089192058098,-90.62453,0.03772585,0.9284966,-0.01667316,4.3275294,1.0,1.0877683,-68.91312,30.92241,41.56979,15.355496,96.260735,96.51226,98.24525,96.50175,4.827248,0.7,-97.479774,-33.803852,0.00044860737,-9.731948,67.402985,66.2889,65.12961,66.98063,6.171875e-07,0.3,6.0125046,89.95719,89.94322,89.792404,90.03804,0.12322194,0.39687496,5.723821640014648,78.58420069615046
75,750000,56.055194483431755,-89.2012,0.037095334,-0.25981122,-0.018166194,3.9495714,1.0,0.8510824,-6.6865535,30.53,24.935461,15.224384,96.35451,96.39155,96.21155,96.17415,2.6380088,0.7,-97.47196,-32.19999,0.0005349627,-6.267145,6.9223957,7.8507075,6.1086464,5.864987,1.446053e-07,0.3,5.610384,88.62375,88.72437,88.70681,88.62192,0.0750267,0.43906248,5.817952871322632,79.62255280415216
76,760000,56.08978195569881,-89.27635,0.036650103,0.6719294,-0.016151298,3.8747582,1.0,0.75574774,-4.817434,55.00976,14.163117,14.436302,96.97845,96.66694,96.44246,96.42733,1.3147486,0.7,-97.1471,-31.661333,0.00031875825,-5.1503677,4.514183,4.6629314,4.8502455,5.1223054,3.5458652e-06,0.3,6.132677,88.65506,88.65407,88.43644,88.38735,0.094241984,0.5296875,5.732362747192383,80.660087343057
77,770000,55.18754746388005,-90.55901,0.03800051,-0.009565622,-0.012471716,4.360731,1.0,1.0876241,-8.900829,36.563866,37.722755,17.67553,96.49674,96.63141,95.92429,95.729996,2.6905622,0.7,-96.627655,-29.494928,0.000607723,-6.8407984,9.659915,10.18334,14.256703,12.790345,4.9874075e-07,0.3,6.1864142,89.90044,89.909485,89.586945,89.69893,0.092156895,0.48125,5.703848361968994,81.69573553800583
78,780000,54.894571643418246,-89.60277,0.03754045,0.38033912,-0.014805851,3.983507,1.0,1.0765548,-6.7230115,28.299887,63.52859,16.921654,95.06971,95.14896,95.297676,95.0923,2.0813067,0.7,-95.89211,-27.970747,0.003681292,-4.8712206,6.9517555,7.163925,6.7213755,7.771519,5.1660464e-07,0.3,5.8120775,88.96327,88.99507,88.953156,89.03757,0.09888737,0.421875,5.753718852996826,82.73474385738373
79,790000,55.57909677011159,-88.683655,0.03811033,-0.47563043,-0.024449756,4.4518604,1.0,1.5240899,-3.829672,45.90153,121.871704,15.842096,95.647606,95.715744,96.04951,95.797585,4.53694,0.7,-96.66807,-37.375717,0.00029002113,-8.809669,4.708721,3.741869,4.577993,5.4080467,6.4339665e-06,0.3,5.544962,88.10791,88.08263,87.949814,88.08208,0.10852612,0.4515625,6.099139451980591,83.7773909608523
80,800000,55.20244206401437,-88.631065,0.037633974,1.0057527,-0.0133669255,3.9618874,1.0,1.5591444,-4.6197753,28.34717,86.64348,14.268179,97.627884,97.24766,96.89164,96.601204,1.5028993,0.7,-97.70354,-33.614777,0.0005997697,-8.280529,4.248357,5.4157033,5.729325,5.6686406,4.0745362e-11,0.3,5.7949753,88.02972,88.05832,88.1145,88.12363,0.1030945,0.42812496,5.727741241455078,84.81207464138667
81,810000,55.655489369579456,-88.50513,0.03676748,-1.3241493,-0.018661363,4.182902,1.0,0.8421618,-4.3374767,35.745007,43.63446,18.833084,95.99513,96.19431,96.1104,95.57327,2.8554912,0.7,-96.43009,-33.87968,0.00026225636,-5.7638307,4.4711514,4.2229824,4.9027677,5.3795853,4.2098286e-06,0.3,5.6459374,87.99517,88.017975,87.8789,87.807076,0.090868115,0.521875,5.887868404388428,85.8500662724177
82,820000,55.53282951264373,-90.567474,0.037369058,0.89052725,-0.017590968,3.8462465,1.0,0.95595086,-62.847843,31.458776,22.460506,15.032445,96.06429,96.859886,96.525566,96.75288,1.9763554,0.7,-96.861404,-37.034607,7.885252e-05,-4.5147724,58.65477,58.596043,59.391323,59.336903,3.3741233e-07,0.3,6.2168684,89.865295,89.94386,89.75185,89.950485,0.096680745,0.42187497,5.7190001010894775,86.88546826442082
83,830000,56.18260912731527,-89.51347,0.037403386,-0.5103551,-0.024850942,4.160289,1.0,1.5615287,-3.272716,30.614965,57.321148,17.409645,95.76102,96.03116,96.28548,96.93075,3.0230668,0.7,-96.54569,-36.984905,0.00034530862,-18.439953,5.676264,4.605826,9.4661875,10.820728,5.1660464e-07,0.3,5.6134825,88.9404,88.93643,89.11644,89.14611,0.11290578,0.40625,6.002425909042358,87.92583397229512
84,840000,55.29748962777046,-89.43262,0.038257066,0.5373402,-0.03044642,4.599849,1.0,0.78752375,-5.559681,30.262794,20.969973,15.072132,95.66212,95.8325,95.44208,95.98158,3.540942,0.7,-96.07346,-43.966343,0.0018749353,-5.685392,6.3583217,6.219679,4.7617683,5.1889095,1.3201498e-08,0.3,6.186062,88.83774,88.77785,88.78564,88.774445,0.09499123,0.44843748,5.6488001346588135,88.95828673442205
85,850000,55.42116532990491,-90.33711,0.03754387,-1.0500699,-0.014379771,4.1020713,1.0,1.2441351,-4.071875,67.41937,23.438902,23.472126,96.8484,97.05862,96.50415,96.492294,2.691753,0.7,-97.730515,-35.512074,0.0005684782,-8.454954,4.342824,5.5934095,5.8629217,6.4822598,9.027328e-06,0.3,5.665416,89.6967,89.71828,89.25209,89.28366,0.09637874,0.5125,5.720559120178223,89.99506820440293
86,860000,55.26049030106848,-88.83885,0.03800247,-1.0478761,-0.015980694,3.5988452,1.0,0.8013694,-5.7134843,32.830273,33.140747,14.225799,97.29517,97.028854,96.73013,96.56377,2.6733763,0.7,-97.46094,-36.642952,0.00037769333,-12.736984,6.0723543,5.9964457,4.972134,5.8511524,6.7494284e-06,0.3,5.76101,88.2437,88.20385,88.16531,88.12581,0.086252466,0.49374998,5.698223114013672,91.03332259655
87,870000,55.848927476814794,-90.01642,0.037051804,0.232891,-0.023748454,3.839009,1.0,0.87305164,-5.435876,26.06901,75.45104,15.21756,96.19293,96.19484,96.38262,96.730835,1.5265758,0.7,-96.97276,-36.22113,5.434692e-05,-6.0065093,5.4034843,5.830334,5.081015,5.1066275,6.712508e-08,0.3,5.8790884,89.454185,89.43088,89.367935,89.362526,0.09088907,0.46249998,5.653604984283447,92.06975421110789
88,880000,55.880474392288946,-90.12708,0.0377617,-0.7481764,-0.025021544,4.14908,1.0,0.87904525,-5.4614077,26.568556,18.6039,15.590641,96.48999,96.680305,97.227135,96.62947,1.6414558,0.7,-96.77146,-37.375275,0.00015001144,-4.508279,6.364421,6.2711744,6.5301785,5.6037393,2.514571e-09,0.3,6.327736,89.599724,89.609436,89.64026,89.515465,0.09645577,0.46249998,5.6286680698394775,93.10477951367696
89,890000,55.622582584859714,-89.41774,0.037363794,0.6511797,-0.013447794,3.4561317,1.0,0.9253274,-5.8853984,67.63254,16.746178,14.811111,97.49035,96.431656,97.07326,96.53271,15.664943,0.7,-98.132484,-29.698448,0.0004161127,-6.6713095,6.125354,6.696662,6.757295,6.7507873,3.229827e-07,0.3,6.1450434,88.86938,88.83116,88.82909,88.83293,0.15706809,0.403125,5.668196439743042,94.14371229410172
90,900000,55.780375980875775,-89.47679,0.037531894,0.57942355,-0.03573538,3.9503038,1.0,1.3703445,-5.2885194,27.122746,116.27569,15.030523,96.59159,97.26677,97.20931,96.52889,2.9279141,0.7,-97.10684,-38.181583,0.00044704613,-18.738354,6.1597524,6.0228186,6.366312,5.920441,5.437131e-06,0.3,5.838686,88.90764,88.97207,88.86626,88.88566,0.09622752,0.4875,5.680558204650879,95.18062487840652
91,910000,55.75792731861225,-90.047386,0.035862666,1.4589853,-0.009579807,3.7877624,1.0,0.7522572,-5.0282364,38.757526,51.58826,16.804108,96.88023,96.96971,96.085075,96.28487,3.7775974,0.7,-97.68047,-35.18646,0.0013461092,-7.983296,5.2106037,6.144111,6.6673613,5.3527675,6.5718194e-07,0.3,5.9713836,89.42499,89.40151,89.468155,89.29921,0.109393716,0.5359375,5.765310287475586,96.2190402785937
92,920000,55.452272605435894,-89.038345,0.036830604,0.3540156,-0.033356633,4.011955,1.0,0.96058095,-6.4345603,31.16888,18.437157,14.122276,95.63944,95.67298,95.541824,95.32907,3.9435432,0.7,-96.16718,-34.737926,0.0008953899,-12.090607,7.139252,6.661831,4.3571625,4.0151834,1.9398867e-07,0.3,5.8371572,88.44062,88.49123,88.51327,88.45187,0.12358241,0.44375,5.745995044708252,97.25452258189519
93,930000,55.6243908943735,-89.60812,0.037576843,1.8510095,-0.017764496,3.5230393,1.0,0.6944123,-4.1167283,42.044582,7.5739713,15.443876,96.6594,96.385445,96.904594,97.45742,6.263169,0.7,-97.41578,-40.548637,0.0049499357,-12.539509,5.187292,4.13675,4.584544,4.6235046,6.0645397e-07,0.3,6.1240735,88.97308,88.982574,89.186905,89.17677,0.10739626,0.43906248,5.732000112533569,98.28847068945566
94,940000,55.946793289006024,-90.29408,0.03616262,1.5041353,-0.03099664,5.1656337,1.0,0.8496201,-0.3375566,29.26156,18.465933,15.864452,96.73686,96.55035,96.463486,96.5744,3.2255511,0.7,-97.0361,-31.922178,0.00059856224,-9.137421,4.3516808,2.6832619,3.8461084,4.4444075,1.05978685e-07,0.3,6.0354714,89.696396,89.70441,89.49557,89.58099,0.08963169,0.42812496,5.702287435531616,99.31982887585959
95,950000,55.46360600175731,-89.99518,0.037087463,0.09754722,-0.032369573,4.300304,1.0,0.7767917,-69.00139,32.72405,15.396631,14.358799,95.861465,95.83011,96.02394,95.72526,4.820242,0.7,-96.12734,-41.383083,0.001528505,-4.674508,69.299324,70.11082,69.54102,68.82447,5.847949e-07,0.3,6.1190596,89.40999,89.43617,89.37713,89.32815,0.09197119,0.4890625,5.756797790527344,100.35406503280004
96,955000,55.31268684828057,-90.07371,0.03759108,0.63100886,-0.02763925,4.6596007,1.0,0.7829299,-4.678199,27.533436,20.901707,14.328957,96.917694,97.29239,96.36866,96.15127,5.080377,0.7,-97.30687,-35.399532,0.00049341866,-4.8939166,4.973679,4.7773952,5.430418,5.0560675,4.541944e-08,0.3,6.376005,89.286125,89.434875,89.25477,89.25884,0.11633071,0.475,5.708285808563232,100.91695593595504
97,960000,55.6585658063932,-90.08887,0.037196107,-0.6283285,-0.05208351,4.6050353,1.0,0.91935074,-4.8157377,33.3257,29.728699,15.626776,96.63409,96.61654,96.43627,96.696106,2.0160065,0.7,-97.34927,-42.830734,0.00054133707,-5.4200563,5.337599,4.393319,7.0739193,5.3569345,4.172325e-08,0.3,5.806723,89.489845,89.49263,89.29208,89.381096,0.0892892,0.49062496,5.732154369354248,101.48119114637375
98,965000,55.785920738392214,-89.278915,0.037961047,0.67989385,-0.05160832,4.617308,1.0,1.0825543,-4.133309,35.096928,49.170925,16.014462,96.80626,96.37299,96.29354,96.416374,1.7822434,0.7,-97.0451,-36.415955,0.0003869951,-3.861086,4.3581076,4.50195,3.812041,5.3563375,1.3205863e-06,0.3,6.6210647,88.6839,88.706894,88.67186,88.792114,0.09061034,0.47031248,5.765578985214233,102.04849693377813
99,970000,55.865459183511135,-89.98549,0.03818752,-1.5392505,-0.053261023,4.1374016,1.0,0.6820473,-65.24311,29.384308,8.810917,16.806343,95.9335,95.777695,95.67073,95.148,1.4170418,0.7,-96.70618,-28.838415,0.0014238512,-9.026225,63.05305,62.651073,63.063744,64.13928,1.7462299e-11,0.3,5.7973633,89.35199,89.42105,89.23811,89.346115,0.06323043,0.46406248,5.8486855030059814,102.61451266606649
100,975000,55.763246190615455,-90.33401,0.038378276,-0.6974431,-0.032083955,4.0985527,1.0,0.6998652,-64.7796,25.55776,10.3600025,13.933565,96.57007,96.635925,96.99417,97.67061,1.7148876,0.7,-97.79117,-46.28621,9.2637376e-05,-7.8289557,67.166306,67.39534,67.72003,67.54196,2.0186418e-08,0.3,6.177121,89.72004,89.75979,89.60701,89.640625,0.06936294,0.46249998,5.625570297241211,103.1770105878512
101,980000,55.689203242549226,-89.73092,0.036969386,-0.1582919,-0.015233005,4.0880365,1.0,1.8970487,-16.136759,29.549526,261.18088,17.097982,97.51834,97.2903,97.72269,97.193275,10.272821,0.7,-97.54679,-27.97862,0.00044311775,-7.644283,11.459749,8.941055,-1.1576114,3.2327824,8.919044e-07,0.3,5.5737386,88.97653,88.954704,88.62304,88.64321,0.16147596,0.4765625,5.752564907073975,103.74153455893199
102,985000,55.71602814865232,-89.86937,0.037295822,-0.10876027,-0.047338534,5.112629,1.0,1.2770213,-5.3166513,28.807613,78.755905,14.945648,97.57149,97.41404,96.97779,97.561485,2.631162,0.7,-98.71506,-34.636143,0.00020716252,-7.7647085,5.4842577,5.5233493,4.4947186,4.709613,5.280599e-08,0.3,5.923359,89.19406,89.20847,88.90021,89.0106,0.095921494,0.45624998,6.1531593799591064,104.31173374255498
103,990000,55.93568216693951,-89.40887,0.036411595,-0.53407747,-0.03144168,3.8719375,1.0,0.9503995,-5.224303,36.737125,11.413664,15.115593,96.29717,96.13162,96.695885,96.95709,2.076583,0.7,-96.77019,-33.969555,1.14740105e-05,-8.806047,5.321027,5.331975,5.3897905,5.0399494,1.8525753e-07,0.3,5.8228683,88.85623,88.81682,88.55,88.70099,0.08162962,0.40937498,5.767866849899292,104.87814432779948
104,995000,55.45591712059081,-89.75346,0.03799022,-0.6024602,-0.019733703,3.351539,1.0,1.366811,-8.330623,40.608063,83.25578,16.102707,95.9996,95.97498,96.87858,95.973755,1.3002776,0.7,-95.9814,-38.87199,9.7537006e-05,-11.261357,8.050152,10.388651,5.139848,6.294137,2.7121744e-06,0.3,5.75206,89.14503,89.136116,89.34495,89.23734,0.06365578,0.44374996,6.005954027175903,105.4514387011528
105,1000000,55.408962637046066,-89.84043,0.03821453,-0.871105,-0.045429766,4.058614,1.0,1.1165177,-51.13349,29.735765,48.843678,16.989544,95.35592,95.384605,95.81878,95.916756,4.010558,0.7,-95.97553,-53.457882,1.7674232e-05,-14.470792,47.528942,46.13633,47.90921,48.17515,1.1359155e-05,0.3,5.895448,89.16792,89.22044,89.37772,89.368484,0.111042775,0.4421875,5.847715139389038,106.01837058464686
