Xixo99/comfo/baselines/comfo7_perterbation_both_actor_and_critic/20230224_alphaQ0.0001/halfcheetah-medium-v2/COMFO7_s0_20230224_022430_halfcheetah-medium-v2_55.27.csv
,step,reward,actor_loss,alpha,alpha_loss,avg_conservative_loss,avg_smooth_loss,conservative_weight,critic_loss,max_actor_loss,max_alpha_loss,max_critic_loss,max_mle_prob,max_q1,max_q2,max_target_q,max_v,max_value_loss,max_weight,min_actor_loss,min_alpha_loss,min_critic_loss,min_mle_prob,min_q1,min_q2,min_target_q,min_v,min_value_loss,min_weight,mle_prob,q1,q2,target_q,v,value_loss,weight,eval_time,time
0,0,2.2534540161096106,,,,,,,,,,,,,,,,,,,,,,,,,,,,,,,,,,,,
1,10000,-2.6088117402308417,-37.244896,0.09329144,-0.27454895,0.00023754062,0.9311326,1.0,1.112043,-2.5869598,19.4299,18.897789,14.13914,44.083794,44.4318,44.359344,43.311928,2.4277017,0.7,-47.296844,-26.314163,0.0008852227,-9.075771,2.9267612,2.2115211,2.8294854,1.6028745,2.2693537e-06,0.3,3.3722768,36.49302,36.483727,36.30203,35.862724,0.123738736,0.43281248,5.513045310974121,2.8761982480684916
2,20000,-2.2287101897689254,-59.688843,0.11218234,-0.6238459,-0.0008646898,1.4053453,1.0,1.7953284,-29.788073,22.569223,34.946747,14.958179,69.16383,69.77985,68.15442,67.36332,19.492205,0.7,-69.14643,-26.864462,0.0024014658,-14.930423,26.719414,25.807705,26.74514,25.236391,1.1092925e-08,0.3,2.5405126,58.863495,58.890545,58.676033,58.561836,0.25057656,0.4328125,5.656259059906006,3.908726076285044
3,30000,-3.17684529417931,-72.70079,0.10724183,-0.425438,-0.0024441725,1.6458428,1.0,1.8064997,2.0142446,18.594133,83.30267,19.284283,82.183464,82.183975,81.520676,82.44626,4.334495,0.7,-83.17991,-24.055384,0.00028710905,-10.318694,-1.6601771,-1.8644586,-1.7369882,-1.9397213,2.3093891e-07,0.3,3.0650535,71.98534,71.99193,72.20006,72.03406,0.15613224,0.46093747,5.544207811355591,4.939156651496887
4,40000,-0.798450104316081,-80.20455,0.09259407,0.5059593,-0.0022270258,1.9439137,1.0,1.8456982,2.8540516,28.956173,51.08518,14.069642,87.25396,87.14062,88.58638,87.38413,2.4070668,0.7,-89.88321,-25.05539,0.0043559372,-9.680559,-3.5769339,-4.043191,-2.1999276,-2.9131696,2.8397887e-06,0.3,3.4405565,79.578575,79.516266,79.58931,79.57858,0.16567045,0.38437498,5.51056694984436,5.966064198811849
5,50000,-0.7123218546206708,-83.56014,0.07738616,-0.064391315,-0.001328604,2.1439939,1.0,1.4350622,3.713484,42.866386,26.169178,13.7723255,91.89973,91.86493,92.6176,92.001755,3.5039945,0.7,-92.546616,-26.704037,9.108317e-05,-9.603662,-3.9780517,-3.521897,-3.5128405,-4.4734836,7.377821e-08,0.3,3.9478192,82.93995,83.01958,82.90605,82.98057,0.13485652,0.403125,5.581243276596069,6.995526178677877
6,60000,0.6348074502037424,-87.02031,0.065936364,-0.099052005,-0.00016993917,2.0554898,1.0,1.2116858,2.0346265,25.333061,39.10357,14.1915245,95.277916,95.449905,95.46942,95.37879,3.1315672,0.7,-95.9445,-36.454403,0.0004098586,-8.885424,-2.6646461,-2.9981349,-2.5538194,-1.0696354,8.827559e-06,0.3,4.212532,86.50086,86.45593,86.49434,86.44237,0.089051306,0.45625,5.541046619415283,8.025634296735127
7,70000,2.238736884547801,-87.102486,0.05840084,0.13602406,-0.0066440674,2.0883467,1.0,1.7598257,4.457574,47.753654,151.70575,16.861145,95.29422,94.718765,95.857414,94.20691,2.0221343,0.7,-97.534035,-35.439632,0.0014082874,-8.03713,-4.4312205,-4.119929,-3.60245,-3.4088912,3.0950353e-06,0.3,5.067627,86.640816,86.593506,86.61746,86.607285,0.10031147,0.465625,5.546772241592407,9.053897261619568
8,80000,1.8002401715004939,-89.1588,0.052725278,-0.56523854,-0.0021805733,2.22733,1.0,0.9971685,-65.79171,36.13677,24.228237,15.660266,95.75789,95.1642,95.73073,95.68633,1.6559627,0.7,-96.215866,-28.78757,0.00076629716,-7.4554424,65.49951,65.9283,64.88566,64.73634,1.878664e-06,0.3,5.306135,88.6373,88.68529,88.57799,88.587036,0.090638265,0.49374998,5.562471389770508,10.082082005341848
9,90000,7.721952466381615,-89.03992,0.04920221,0.6941275,-0.005983908,2.3628576,1.0,1.4605932,2.5426166,32.76159,41.228683,15.040964,97.10989,96.71172,96.755516,96.5099,1.6349922,0.7,-97.15691,-36.32473,0.0053100064,-10.912214,-2.0467358,-2.1859453,-2.18921,-1.2827042,4.3226754e-07,0.3,5.3200283,88.492645,88.50895,88.17287,88.20919,0.092230886,0.50625,5.497873544692993,11.109944307804108
10,100000,10.523894891811468,-89.26222,0.04735678,0.20333654,-0.008811528,2.4343674,1.0,1.1004977,1.9757922,33.232304,27.078854,14.043236,95.717964,95.62096,95.38836,95.405136,0.8940308,0.7,-95.809586,-40.823345,0.0010541969,-6.7031593,-2.4588008,-1.7141223,-3.5954547,-2.742994,4.541944e-08,0.3,5.363588,88.81418,88.784096,88.64985,88.73898,0.06979732,0.465625,5.503350019454956,12.137044072151184
11,110000,28.637395428669148,-89.13045,0.044667885,-0.6626186,-0.0027334497,2.5298302,1.0,1.5009968,3.4333239,31.525885,23.168427,13.630668,95.79241,95.83174,96.483826,95.57386,2.3828008,0.7,-96.103386,-30.61506,0.00068648544,-10.88941,-4.0195804,-2.5085244,-2.6293826,-0.53975016,6.915245e-07,0.3,5.5612974,88.63873,88.67705,89.10996,88.90498,0.11304935,0.48125,5.507410764694214,13.163222682476043
12,120000,47.20405466989412,-88.654884,0.043582015,0.54199755,-0.006958311,2.6341796,1.0,0.83806473,2.0820026,98.721306,11.910433,16.470947,95.90918,95.86041,95.57112,95.92086,6.641409,0.7,-96.42682,-33.8586,0.0015323241,-18.649265,-0.5622852,-1.4451556,0.5629833,-1.7055936,6.9849196e-11,0.3,5.2072654,88.114624,88.16196,88.13336,88.11784,0.10026301,0.4671875,5.49808406829834,14.189456983407338
13,130000,44.34465436818052,-89.34552,0.042994678,-0.240664,-0.008941295,2.969445,1.0,0.8934697,1.9134091,28.125868,58.925602,15.661036,96.40473,96.92709,96.406975,96.2995,1.8243556,0.7,-97.45205,-51.8523,0.00031739566,-12.070953,-3.2091584,-3.1900399,-1.8993065,-1.358032,3.0365018e-06,0.3,5.7648697,88.79503,88.82451,88.81412,88.84979,0.08479193,0.478125,5.565337419509888,15.209604052702586
14,140000,49.35591615781363,-90.036446,0.044140216,-0.8225253,-0.012141752,2.6920607,1.0,0.9660923,-0.21039456,24.35211,58.15463,13.635448,96.63132,96.46467,96.428116,96.245255,4.018018,0.7,-96.895294,-39.408875,0.00093128183,-9.671159,0.074925244,0.23117453,0.57427293,-0.018255353,9.891345e-07,0.3,5.7461576,89.56721,89.46994,89.561935,89.53153,0.10308942,0.49374998,5.475637912750244,16.23360904852549
15,150000,49.828334015858665,-90.05966,0.04230911,-1.0972555,-0.0069594323,2.8507345,1.0,1.8670942,-1.3864636,32.798847,223.13501,15.684839,96.506485,96.30927,96.99977,96.05598,1.5136061,0.7,-97.24564,-32.039207,0.0007058424,-5.911952,1.4351246,0.67082244,-0.21489558,0.18488413,3.9156294e-08,0.3,5.172883,89.50445,89.45953,89.20276,89.19773,0.08227011,0.52656245,5.42779803276062,17.257754302024843
16,160000,50.134445281106125,-89.79643,0.042210773,-0.962183,-0.0074359514,3.0919652,1.0,0.95021987,0.35006934,34.528534,40.840916,16.458265,95.76097,96.32775,96.00454,95.69304,0.97036433,0.7,-96.34894,-38.86937,0.00088684616,-7.168265,0.7280152,-0.13248283,1.0678656,1.5532722,3.71614e-06,0.3,5.609395,89.40036,89.29785,89.41507,89.376205,0.06278327,0.434375,5.463598012924194,18.28350887298584
17,170000,51.8169936958112,-89.6216,0.041982148,-1.3374727,-0.009327344,2.8938997,1.0,1.3279911,-0.017668769,38.38979,59.010498,15.704056,97.33988,97.601746,96.6463,97.018814,2.0078955,0.7,-98.07441,-32.438267,0.00047017494,-13.599834,0.29548752,0.7597232,-0.022941817,-0.5380786,1.5662518e-07,0.3,5.6212173,89.10527,89.10095,88.961075,89.03282,0.09527146,0.46875,5.53291130065918,19.311719850699106
18,180000,51.93279687872195,-89.33617,0.0407916,-0.25138932,-0.007155832,3.087755,1.0,1.2279129,1.051107,28.795519,42.86422,13.424086,95.79778,96.16723,95.79721,96.05127,2.1648414,0.7,-97.103806,-38.16454,0.0008702293,-7.435857,-0.38597357,0.07267463,-0.23300718,0.2788412,1.3238169e-07,0.3,5.7154493,88.72467,88.82747,88.75244,88.84396,0.0930976,0.41249996,5.717520236968994,20.33916591803233
19,190000,52.798080772508236,-90.53855,0.04131064,1.4503167,-0.0026227063,3.1867661,1.0,1.460224,-1.7871405,45.400482,52.29631,15.292845,96.82472,96.97338,97.69292,96.357414,6.1766267,0.7,-97.50993,-34.07816,0.0006284216,-7.6675544,1.6996737,1.6793528,0.48822677,1.9430685,6.437302e-07,0.3,5.973581,89.977394,89.94229,89.75716,89.77473,0.11182011,0.4625,5.552870988845825,21.35972338517507
20,200000,51.388279955567796,-89.3923,0.040580977,0.12210956,-0.014290935,3.3382332,1.0,1.1854749,-0.56779844,26.11374,35.239193,16.142902,96.99651,97.1412,98.46809,97.296555,4.337337,0.7,-97.46666,-35.20659,0.0023924313,-10.092298,-0.47095472,0.37284368,1.772566,2.613609,6.551895e-06,0.3,5.8203773,88.77171,88.805855,89.14679,89.0573,0.11230871,0.46406248,5.807029962539673,22.387716364860534
21,210000,52.16481025156524,-89.4337,0.039578017,-0.376094,-0.0066681304,3.3155155,1.0,0.8333216,2.0311904,36.38177,18.72182,15.303296,97.226875,97.16297,96.92413,97.06615,2.2219756,0.7,-97.379196,-41.159573,0.0013917265,-7.182579,-0.4804923,-1.1207433,0.66571397,-1.050787,1.7954666e-05,0.3,5.6284723,88.78198,88.87294,88.772995,88.80814,0.09119201,0.4578125,5.709559679031372,23.41610066095988
22,220000,52.95291536779556,-90.22752,0.04028926,-1.7770987,-0.006649658,3.3485324,1.0,1.0513035,-0.916467,26.490038,23.917826,17.632244,97.440895,97.57427,96.97337,97.18765,1.0586395,0.7,-97.86742,-68.68373,4.0296523e-05,-7.1962743,1.4041173,0.6720742,0.91383815,1.3033187,5.720824e-07,0.3,5.863489,89.68634,89.68021,89.72174,89.76249,0.0933112,0.4359375,5.727039813995361,24.44502590497335
23,230000,53.429781242887564,-89.37489,0.038847003,-0.10798605,-0.0103996005,3.1025481,1.0,0.94297445,-0.26564753,27.796385,45.177025,14.4180975,96.84227,97.29277,97.14361,97.13842,1.457653,0.7,-97.66895,-33.30056,5.10799e-05,-5.7845325,0.4418341,0.9309139,0.62656474,-0.23109573,1.5299768e-06,0.3,6.0196047,88.88551,88.869675,88.90922,88.914734,0.07056296,0.4296875,5.648442268371582,25.471983472506206
24,240000,54.45083589428737,-89.90413,0.039154466,0.22576162,-0.011156507,3.1307123,1.0,1.1856475,1.3085871,44.46461,121.574295,14.91054,96.85436,97.26447,97.31447,97.70586,1.2478552,0.7,-97.457054,-53.954044,0.0024459315,-6.035139,-0.7885168,0.31005543,2.0864193,2.9151845,4.1245253e-06,0.3,5.7034245,89.34787,89.34476,89.53478,89.54471,0.08532365,0.50625,6.017920970916748,26.506201787789664
25,250000,53.68512241512542,-89.93837,0.039963644,-0.3490604,-0.008120672,3.1160638,1.0,0.6315049,-0.26546407,32.055958,15.834111,15.770831,95.85641,95.91151,95.833405,96.03192,3.0619535,0.7,-96.09255,-34.700253,0.0023641984,-10.935504,1.2430617,0.6369957,1.3993746,1.3862135,1.290976e-06,0.3,5.8383236,89.42973,89.32832,89.44258,89.660034,0.10185513,0.378125,5.503291845321655,27.53384784460068
26,260000,54.49531583191817,-90.161514,0.03833884,0.7392201,-0.023370972,3.8429039,1.0,0.8683289,-0.62769395,30.15781,22.55194,15.671238,97.23421,97.28497,97.1104,96.9942,1.9522492,0.7,-97.98797,-30.996248,0.0007009935,-5.023426,0.97059375,1.0983193,-0.6273167,0.3795783,8.032378e-06,0.3,6.1211042,89.62478,89.60091,89.56992,89.53538,0.10398708,0.46406248,5.463155269622803,28.55911815961202
27,270000,52.23204802929593,-90.44213,0.0389029,-0.033794165,-0.0070755156,3.0468266,1.0,0.9850885,-1.6884475,33.80425,32.565624,16.893707,97.05072,97.20453,96.66928,96.97803,1.3189254,0.7,-97.501595,-44.847496,0.0010480616,-5.663816,2.2865808,3.950745,4.126711,4.0652056,6.9162807e-06,0.3,5.8491993,89.89466,89.849556,89.872894,90.15451,0.09606171,0.36874998,5.471141576766968,29.581746443112692
28,280000,52.88751830930902,-90.55179,0.03942063,0.6192454,-0.010538149,3.2921028,1.0,0.9678084,-63.139328,32.96657,41.443,14.129314,96.29828,96.281654,96.35691,96.51594,4.5691113,0.7,-96.9846,-43.055412,0.0006450829,-4.7354584,63.17673,62.512726,63.314438,63.52717,2.2631139e-06,0.3,6.08366,89.99568,89.98803,90.22604,90.21733,0.09868114,0.45624998,5.416163921356201,30.609334182739257
29,290000,54.12208090349873,-91.04085,0.038907807,-0.7802465,-0.016611608,3.297625,1.0,1.0934787,-65.07074,23.619678,33.121685,14.75868,97.35264,97.70358,96.830376,97.49405,1.9019135,0.7,-97.77843,-29.594156,0.00088965596,-4.544901,62.797516,62.231766,58.85646,63.00706,6.1973694e-08,0.3,5.784417,90.37654,90.41729,90.1104,90.3262,0.08581464,0.371875,5.424389123916626,31.6378533522288
30,300000,52.83220318943662,-89.514755,0.038547285,0.41646495,-0.003414521,3.4011643,1.0,0.8428922,-1.9234138,36.73007,26.92061,15.221815,96.57322,96.86852,96.64678,96.588554,6.2068644,0.7,-96.64311,-38.703724,0.00081282255,-12.762342,2.7244177,1.716938,2.4744592,2.4657826,2.861343e-06,0.3,5.9224477,88.91449,88.956924,88.96825,88.85326,0.15491523,0.51875,5.5140838623046875,32.667197485764824
31,310000,54.708201652460275,-90.939255,0.039386764,0.80261695,-0.009134916,3.462032,1.0,1.1781657,-66.324135,32.51287,128.62953,16.30853,96.18387,95.85817,96.109276,96.252945,19.870352,0.7,-96.4471,-32.140903,0.00035033008,-12.099931,52.073994,53.57906,51.460617,54.988396,3.1553208e-07,0.3,5.650732,90.27798,90.25545,90.0841,90.16817,0.18286231,0.48906252,5.485965728759766,33.69262913862864
32,320000,52.443340094623316,-89.16221,0.038594764,-0.54648644,-0.0147945285,3.3607712,1.0,1.2291998,-4.0162654,49.958557,80.67287,15.532819,99.33938,99.01303,98.53563,99.07633,13.066846,0.7,-99.749954,-30.438803,0.0017090708,-10.8246,4.815736,3.4493678,6.259635,8.499406,4.9628256e-06,0.3,5.2488747,88.549324,88.551254,88.65626,88.90466,0.16255823,0.4,5.584217548370361,34.723423671722415
33,330000,53.53755813684252,-89.60731,0.038321067,-0.42488995,-0.007625243,3.314193,1.0,1.4834025,-0.71095467,28.048904,40.17197,16.55226,96.485115,96.28499,96.507744,96.38249,11.366386,0.7,-96.998344,-34.980087,3.802619e-05,-5.8929787,0.6058753,1.0321448,2.0337987,2.6479526,4.8409566e-07,0.3,5.393035,89.01258,89.0489,88.64859,88.88972,0.15312365,0.43124998,5.657160520553589,35.753470075130465
34,340000,53.396223926506025,-89.97862,0.037910577,0.10316484,-0.0148366755,3.5685189,1.0,0.79100597,-0.43792653,26.027687,16.41728,16.212383,96.421745,96.47517,96.953896,96.23101,1.9063056,0.7,-96.85983,-34.338787,0.00013822748,-10.108547,0.8563,0.7408778,2.7446957,3.686087,6.30389e-09,0.3,5.647645,89.35878,89.34561,89.44691,89.43559,0.08924711,0.47031248,5.5118584632873535,36.77877929210663
35,350000,52.96023138990803,-89.64278,0.039689954,0.7295685,-0.00718226,3.6582742,1.0,1.748189,-1.0727389,32.329308,158.27362,14.0910225,97.312515,97.39895,97.492195,97.32326,2.8855097,0.7,-98.2071,-36.281265,0.0005569091,-10.263482,1.9942958,1.5687926,2.6809678,2.6242971,1.4144462e-09,0.3,5.561632,89.05773,89.058685,89.033516,89.224915,0.08555154,0.4296875,5.531222820281982,37.80602832237879
36,360000,53.24235390897827,-90.062256,0.037353247,0.22506708,-0.011110246,3.3207605,1.0,1.0294685,-3.3506799,29.004076,39.56873,15.612473,96.479965,96.24589,96.46195,96.700874,7.811222,0.7,-96.987,-44.7079,0.0019859541,-13.720426,2.553743,3.6087377,2.270664,2.0149875,4.7218055e-08,0.3,5.8421917,89.55089,89.4305,89.38092,89.38971,0.13338968,0.4375,5.4573893547058105,38.832702207565305
37,370000,52.98037226196897,-90.74682,0.03790735,-0.10583955,-0.015508345,3.4866066,1.0,0.69568497,-69.45896,44.55277,9.490155,14.931146,96.34222,96.445915,96.58712,95.88328,6.333016,0.7,-96.87633,-40.25774,0.0011032657,-6.124957,69.42238,68.90861,68.975815,69.417366,1.418346e-07,0.3,5.6879635,90.21675,90.19098,90.04414,89.99749,0.11801973,0.5125,5.469046115875244,39.85372331937154
38,380000,54.58725010437554,-89.99943,0.037649356,0.23940405,-0.008306081,3.1653128,1.0,0.9384914,-3.1114383,29.066895,35.61025,17.663963,96.88862,96.972946,97.01084,96.67776,17.448454,0.7,-97.694595,-39.79116,0.0009282423,-10.281056,3.8548684,4.0567064,2.4740133,3.1272655,6.1656287e-06,0.3,6.0658245,89.37596,89.378296,89.348465,89.4172,0.13977596,0.440625,5.4879841804504395,40.87411125500997
39,390000,54.219281896062334,-89.874115,0.03771912,-1.0195036,-0.006126349,3.8433857,1.0,1.0721042,-1.3048487,30.206064,49.514923,16.13113,96.78743,96.983665,96.575455,96.41073,3.5677438,0.7,-97.35595,-45.553066,0.00020289572,-6.6504893,2.3107862,1.4877129,3.9575799,3.241367,1.0058284e-06,0.3,6.2390213,89.29665,89.2715,89.13122,88.931755,0.12264482,0.565625,5.950453996658325,41.90416881243388
40,400000,54.6596085870796,-88.44236,0.037508886,-0.2922221,-0.014245309,3.748737,1.0,0.9770631,-3.5753894,34.84244,40.55405,17.976166,96.58952,96.88103,97.835815,96.69038,2.2871919,0.7,-97.27867,-38.87943,0.00089150865,-6.390836,4.472569,3.8328736,2.3579993,2.4527175,2.9024388e-05,0.3,5.7128606,87.857735,87.89089,87.972595,87.98316,0.08468996,0.47812498,5.493779897689819,42.929417649904885
41,410000,54.36834465314981,-89.997284,0.037294265,0.29139614,-0.010945731,3.1964204,1.0,0.7962391,-1.9331813,34.246445,12.792229,15.941696,96.4008,96.31826,96.68669,96.85011,4.8423543,0.7,-97.35341,-35.97044,0.0010787481,-9.094194,2.1672096,2.583564,3.4200537,3.8218672,2.5465852e-08,0.3,5.8461695,89.42518,89.34623,89.23193,89.35406,0.1090218,0.48593748,5.4969987869262695,43.94923879702886
42,420000,55.0845807302485,-90.319534,0.03750944,0.80637205,-0.018189907,3.203392,1.0,0.9646393,-2.8709757,35.806793,30.537167,14.223621,96.69458,96.87001,96.96195,96.92508,7.530558,0.7,-97.415634,-33.582817,0.00047532405,-5.9035015,3.1141758,3.5407405,2.9286802,3.3375008,2.9511285e-09,0.3,5.940696,89.73738,89.76036,89.6786,89.82829,0.118379384,0.421875,5.484265565872192,44.973642992973325
43,430000,54.5656110939039,-89.37768,0.03706221,0.011731684,-0.0074838037,3.6164913,1.0,0.9694166,-1.6605134,33.69193,29.262682,14.807172,96.33063,96.39969,96.15857,95.93298,7.3141017,0.7,-96.835175,-38.36303,0.0026198504,-7.8273525,1.7698016,1.5147698,2.4114394,2.2014732,1.7813291e-07,0.3,5.590629,88.73689,88.73079,88.712326,88.5932,0.13460274,0.4828125,5.490140199661255,45.99873597621918
44,440000,55.19990947227647,-89.68718,0.037453197,-0.56546843,-0.016662583,3.592846,1.0,1.0590785,-2.063901,36.10681,27.134134,16.83717,96.85077,97.07537,96.38402,96.38824,0.87206537,0.7,-97.69959,-40.75772,0.00046270632,-5.511991,2.0398557,2.460868,2.8444452,3.3221445,3.3960853e-06,0.3,5.7885156,89.03384,89.103836,88.82938,88.77675,0.08366407,0.5015625,5.474483966827393,47.02227748235067
45,450000,54.42404140372551,-90.4496,0.03789107,-0.24650374,-0.008365381,3.36801,1.0,1.0218315,-60.80104,42.10935,35.301277,14.31484,95.72968,95.77046,95.79386,95.964195,5.235007,0.7,-96.57664,-36.488922,0.0007744274,-9.635826,58.06191,57.37614,58.940067,56.779095,3.7550925e-07,0.3,5.5601983,89.79382,89.735405,89.588776,89.604294,0.0893079,0.4765625,5.445759534835815,48.0468310991923
46,460000,53.80255962714201,-90.56089,0.03740772,0.7518736,-0.01395785,3.522356,1.0,1.1238842,-55.555416,34.64506,45.974945,16.391104,96.24386,96.29785,95.93968,96.20076,1.3756541,0.7,-97.09722,-32.652363,0.0007047633,-5.149802,53.654224,52.2872,51.17669,52.796417,4.1413588e-07,0.3,5.5723968,89.94707,89.93979,89.65335,89.707436,0.08339179,0.503125,5.510010480880737,49.06882403294245
47,470000,53.78018740535598,-89.796555,0.037335023,-0.48397475,-0.02295732,3.5930893,1.0,1.1000793,-3.9397357,32.248825,29.109097,15.643074,96.33945,95.730446,95.86141,96.09099,4.141958,0.7,-96.505974,-36.581104,0.002548778,-8.534973,4.772972,4.3834257,2.8549113,3.2568808,6.712508e-08,0.3,5.605645,89.28878,89.17562,89.566605,89.432816,0.09308326,0.41875,5.8604958057403564,50.09705013036728
48,480000,55.22005981591006,-89.10936,0.037701868,-0.78419673,-0.010393265,3.4402719,1.0,0.8731409,-3.1488137,39.745102,29.59798,16.57661,95.92037,95.846214,96.24928,95.92501,4.662574,0.7,-96.54602,-32.45955,0.001334864,-6.4784117,3.1169882,3.2023146,4.0127664,3.4274428,5.5327547e-07,0.3,5.72182,88.49622,88.456955,88.75186,88.57097,0.106824175,0.4640625,5.799336671829224,51.12802143096924
49,490000,55.47279409621723,-90.472244,0.037207004,-0.20379467,-0.015057079,3.6997983,1.0,1.2305758,-2.8510058,32.614643,60.818058,14.577381,97.85355,97.832886,97.61989,98.02045,4.1089077,0.7,-98.43752,-35.072556,0.0005798098,-4.190698,3.6264982,3.782494,6.3698263,4.5345407,6.9088014e-06,0.3,6.0313396,89.883896,89.83675,89.988205,90.08441,0.09894691,0.39999998,5.771890163421631,52.15040950775146
50,500000,54.0851668942844,-90.12236,0.036832683,-0.1926485,-0.008579749,4.0175157,1.0,1.4431144,-6.2495685,26.447844,71.897354,17.371609,96.43194,96.714066,96.08423,96.13347,4.1741767,0.7,-96.878426,-42.46834,0.0003665032,-8.310553,7.236661,6.6923018,3.4767108,4.2005997,1.3690443e-08,0.3,5.957241,89.616035,89.56353,89.30647,89.45952,0.10326215,0.39999998,5.644107103347778,53.17478624582291
51,510000,53.313833683862796,-89.55679,0.0366962,0.73561543,-0.01161844,3.7210503,1.0,1.0062102,-2.5045624,28.944277,22.938896,13.040444,96.984055,96.31811,97.08009,97.28696,10.667612,0.7,-96.87164,-32.87912,0.0013003135,-9.271746,2.752955,2.5606928,2.652962,2.748888,9.305659e-08,0.3,5.522229,88.90286,88.964294,89.17723,89.031906,0.13441142,0.45468748,5.748673677444458,54.20505553483963
52,520000,55.39670021500041,-89.59747,0.03665441,-1.7848895,-0.010589458,3.638849,1.0,0.6976632,-1.2590632,28.496962,16.57073,14.486728,96.10455,96.55741,96.9765,96.4035,2.9953842,0.7,-97.39813,-42.707188,5.1302195e-05,-11.873863,2.1074533,1.434281,2.0391164,2.8217523,5.0920065e-08,0.3,5.516198,88.98419,88.981415,88.93722,88.96849,0.10856531,0.478125,5.614767551422119,55.23105170726776
53,530000,55.05657697954911,-90.18768,0.03780883,-0.7270811,-0.005723234,3.2515252,1.0,0.5687907,-1.3381993,30.345535,10.562464,16.837173,96.48163,96.34077,97.00919,96.2848,2.9986315,0.7,-96.68818,-36.247494,0.0007209863,-5.892062,1.7196547,1.1459303,2.3468618,2.198977,2.2886263e-06,0.3,6.225387,89.60341,89.626175,89.613464,89.63447,0.07586497,0.4453125,5.453709602355957,56.256567712624864
54,540000,54.575517947898234,-90.00864,0.037361246,0.14515784,-0.0025602772,3.577634,1.0,0.8686465,-2.6443233,31.867813,18.023155,15.210176,96.78926,96.54838,96.890144,96.604195,1.1906844,0.7,-97.12572,-33.780052,0.00018848135,-7.0753574,2.932519,2.6033583,4.7396965,5.2189217,4.9301887e-09,0.3,5.944664,89.36361,89.37898,89.46394,89.52275,0.06895868,0.47656247,5.441321611404419,57.28343886534373
55,550000,54.7775879080138,-90.27171,0.03700748,-1.289864,-0.005175491,3.8800068,1.0,0.9280701,-2.124722,60.6356,14.8591175,14.7316065,96.78196,97.03611,95.93405,96.05557,2.1902468,0.7,-97.047966,-37.79962,0.00083141366,-7.2866955,3.1511083,2.5106297,1.3893628,3.1645048,4.0944606e-06,0.3,5.545448,89.66347,89.72916,89.42108,89.60603,0.106514975,0.4359375,5.431986570358276,58.31128482421239
56,560000,54.90548129070538,-89.74687,0.037102215,0.59817374,-0.011130708,3.4872804,1.0,0.6040485,-4.3601723,40.97171,15.915226,14.807259,96.88771,96.758125,96.78829,96.797424,1.3713824,0.7,-97.26374,-39.330654,0.00026324322,-10.565519,4.9141006,4.5305386,4.1333427,5.2318435,2.3264147e-06,0.3,6.2720695,89.14566,89.16966,89.10713,89.14748,0.070720516,0.44531247,5.459272623062134,59.337362297375996
57,570000,55.59924342948811,-89.83505,0.03673196,1.9721982,-0.0113752475,3.9777894,1.0,0.8757627,-5.321367,32.146076,21.933165,15.321894,97.02522,96.54688,96.54237,96.7573,2.0007396,0.7,-97.039696,-37.591095,0.0014202478,-6.6992474,5.8984704,6.067939,5.666744,6.1861506,8.298783e-07,0.3,6.3783045,89.22699,89.1899,89.01927,89.014694,0.098381996,0.521875,5.435861110687256,60.35661551952362
58,580000,55.35619900661454,-89.70531,0.03615682,0.40031424,-0.020937419,3.4766178,1.0,0.64793664,-59.16617,34.451538,9.6386175,15.024334,96.75317,96.97422,96.847466,96.675995,1.235479,0.7,-97.6575,-32.62305,0.00049170945,-10.946266,59.079266,58.517456,59.578876,59.976566,3.929017e-09,0.3,5.729967,89.161514,89.08556,89.158745,89.076065,0.09577554,0.5375,5.549987077713013,61.382604646682736
59,590000,54.82072110923964,-90.111824,0.037710812,-0.5290038,-0.014675817,3.6849153,1.0,0.91823685,-2.301532,29.20977,40.323563,15.388896,97.56113,97.653725,98.01021,97.43394,3.2262716,0.7,-98.529106,-40.829773,0.0007835031,-5.733836,2.602579,3.240292,3.5733333,3.6137896,8.8046653e-07,0.3,5.97276,89.535385,89.5163,89.678986,89.726,0.08030679,0.3875,5.408694267272949,62.40655908981959
60,600000,55.07927718289378,-89.93103,0.036518045,0.388077,-0.0011595412,3.653361,1.0,0.67230237,-1.880314,68.451935,16.535778,17.971676,96.00731,96.258224,96.01935,96.124176,19.751574,0.7,-96.704735,-34.900387,0.00048820424,-5.8648024,2.7945166,2.6360674,3.52991,4.272816,7.95626e-06,0.3,5.770264,89.24678,89.21487,89.21376,89.2935,0.15954983,0.4375,5.461867094039917,63.43253217538198
61,610000,54.71647369631805,-89.59548,0.03648784,-0.7756282,-0.016385121,3.723234,1.0,0.586493,-3.9984813,32.33062,6.9253106,16.453964,95.36179,96.104195,95.4482,95.3151,2.9472878,0.7,-96.75724,-37.795547,0.0010194348,-9.892857,4.0703483,3.7740545,3.0710452,3.4963987,3.865268e-06,0.3,5.53071,89.03033,89.0034,89.0361,89.08682,0.08382349,0.43281248,5.47327733039856,64.46533230940501
62,620000,54.72331420626077,-89.21741,0.036241397,0.6017432,-0.021639848,3.7437732,1.0,1.1592035,-2.474144,35.735138,66.37166,14.132262,96.45951,96.80513,97.57997,96.652306,9.35139,0.7,-96.88955,-32.981262,0.00056068844,-10.126816,2.8859076,3.524074,3.5600808,3.5875125,1.3238169e-07,0.3,5.9064045,88.59854,88.55776,88.63991,88.641235,0.15924124,0.4546875,5.460887908935547,65.49328756332397
63,630000,55.12575987651136,-89.411194,0.036722455,-0.21884978,-0.016883617,3.3510778,1.0,0.77118516,-7.3084598,29.34766,40.099297,14.929638,96.85489,96.563255,97.05335,97.2219,2.9300203,0.7,-96.70116,-42.27096,0.0004939924,-4.599737,7.5524673,7.298622,2.9496608,2.7797384,3.3003744e-07,0.3,5.755935,88.86759,88.86697,89.0535,89.03321,0.085753575,0.44687498,5.509352684020996,66.51856035788855
64,640000,54.75703809851819,-90.45809,0.036744587,0.056268707,-0.020909572,3.7796974,1.0,0.8548807,-3.9049468,41.43458,18.954292,13.460331,97.79024,97.83126,97.79939,97.493805,1.2603649,0.7,-98.548004,-40.793213,0.00018653256,-7.435957,3.986342,4.2956333,4.299346,5.3470936,2.728484e-07,0.3,5.7425165,89.84674,89.84773,89.72667,89.830505,0.077839874,0.4515625,5.472055912017822,67.54413596789043
65,650000,55.26888087702866,-89.224014,0.036162015,1.3377473,-0.011620583,3.9899075,1.0,1.2706115,-3.8446412,35.750328,73.491585,14.375894,97.3834,97.41069,96.824165,97.51265,3.1951892,0.7,-98.279396,-37.154118,0.00072291587,-7.3051634,3.989361,4.3847265,3.7702703,3.3285272,1.1804514e-06,0.3,6.0482864,88.559494,88.56215,88.403496,88.56085,0.11580554,0.3953125,5.603072643280029,68.57310603062312
66,660000,54.70385603669187,-89.89526,0.035670493,-0.6134378,-0.020546526,4.2041545,1.0,1.043185,-3.477794,38.876865,36.95479,17.198116,96.058304,96.18516,96.68928,96.23571,2.601909,0.7,-96.76598,-52.3441,4.565809e-07,-17.01674,3.642602,3.760271,4.15451,2.984301,2.5990886e-07,0.3,5.7665863,89.311806,89.34932,89.35465,89.27359,0.09265765,0.44375,5.428423166275024,69.59794259468714
67,670000,55.08513747038452,-89.65001,0.0371499,0.7774755,-0.018516812,3.892318,1.0,1.3641484,-3.61169,57.751743,74.32965,15.917488,96.29779,95.97245,96.096375,95.736,5.519429,0.7,-96.487915,-35.0544,0.0010709176,-9.060641,4.0399,3.8587022,2.9730945,3.091535,4.758197e-06,0.3,5.654319,89.0843,89.11148,88.98451,88.912094,0.16906746,0.48593748,5.467207431793213,70.6195701678594
68,680000,56.18622313969054,-89.65195,0.035785533,-1.4107661,-0.011478314,3.6662846,1.0,1.0336988,-54.315,32.706783,32.243553,15.235405,97.48925,97.365,97.16166,96.68869,18.902008,0.7,-97.833755,-39.648483,0.0025985132,-5.4943504,58.154865,55.013557,55.63292,58.61281,2.0080945e-06,0.3,5.9524755,89.03746,89.06848,89.19353,89.16516,0.18704435,0.5203125,5.416311740875244,71.64312935272852
69,690000,55.291110667347766,-89.23294,0.036437478,0.28600502,-0.0094307875,4.303907,1.0,1.5624851,-3.106297,38.863968,133.89348,16.199469,96.16316,96.34248,96.112274,96.2264,10.199025,0.7,-96.72594,-39.147026,0.00039124984,-8.866683,2.7865753,3.0439858,2.5949092,2.8246346,2.7543864e-08,0.3,5.7896757,88.56658,88.635605,88.525604,88.623184,0.14916886,0.4515625,5.4530909061431885,72.66805026133855
70,700000,55.170776279095776,-90.60109,0.036244206,-0.24092801,-0.020146942,3.925717,1.0,1.0381547,-68.602715,33.515163,54.751526,15.183657,96.93715,96.585266,96.35753,97.22469,6.8442583,0.7,-96.94079,-33.86695,0.0005638236,-18.054216,67.817856,68.06289,67.77103,68.46486,6.106391e-07,0.3,5.708825,90.02304,90.02043,90.08136,90.15517,0.11824142,0.3828125,5.423482894897461,73.69500333468119
71,710000,55.242890736774406,-90.160385,0.035856023,-0.95653874,-0.0082941335,3.9489846,1.0,1.2991927,-2.3086357,44.5182,35.90406,18.173286,96.73411,96.15674,96.1592,96.41671,1.3151965,0.7,-96.72248,-34.834015,0.002314785,-6.538585,1.6584343,2.6700628,3.6588347,3.9831243,1.08982206e-07,0.3,5.606693,89.52336,89.59917,89.28117,89.37126,0.093761116,0.4484375,5.676310777664185,74.69703995784124
72,720000,54.47727697535375,-89.90664,0.03633177,0.2865015,-0.0076491903,3.3734334,1.0,1.1220775,-0.604314,28.529902,31.69527,19.315758,95.847664,96.042435,95.711655,95.03777,1.0174892,0.7,-96.079834,-37.63921,0.0010633082,-5.782799,0.8189373,1.6016406,2.477218,1.8737111,1.9016444e-08,0.3,6.0303164,89.31213,89.29927,88.98477,88.95114,0.08144194,0.55,5.429603576660156,75.69605193932851
73,730000,56.0983635158909,-88.413864,0.03672023,0.3137036,-0.0058187596,3.3513558,1.0,0.94189095,-2.3936956,27.91327,18.669878,16.19138,96.982346,96.908615,96.59659,96.83958,10.270468,0.7,-97.6714,-31.322403,0.0033635462,-10.601706,2.3960385,2.6197362,2.0792787,2.470006,1.1175871e-09,0.3,5.659958,87.73442,87.74713,87.68328,87.84641,0.16642633,0.396875,5.495471239089966,76.72207210858663
74,740000,55.250805656076864,-89.496216,0.036352556,0.18014252,-0.021472616,3.7616272,1.0,0.76713586,-2.0446794,46.360703,33.666267,15.384601,97.3261,97.36308,97.1717,97.38279,2.1746087,0.7,-98.114426,-35.78174,0.0004450528,-6.035374,2.7904592,3.4062486,2.3707888,2.521591,4.0745362e-11,0.3,6.224523,88.93822,88.8924,88.85752,88.84171,0.0762725,0.503125,5.440845966339111,77.74857714176179
75,750000,55.77876262500078,-89.08807,0.03618714,-0.22064114,-0.018167062,3.6124475,1.0,0.77435696,-3.2813048,33.886948,21.40831,15.160934,96.04367,96.066826,96.27035,95.80288,2.3083682,0.7,-96.449295,-36.712383,0.00069393136,-5.706889,3.5748355,3.688861,3.0261,3.2412028,1.0186341e-07,0.3,5.8694577,88.50894,88.49883,88.72408,88.60704,0.06328747,0.44375,5.688366889953613,78.77778559128443
76,760000,55.53606503819718,-90.04373,0.03694898,0.98963267,-0.01153328,3.6672885,1.0,0.9365199,-3.120224,59.158867,20.909538,16.439095,96.911644,96.979095,96.4756,96.48078,2.7145352,0.7,-97.30455,-29.693521,0.0023772547,-11.620986,3.8665884,3.5871692,3.859451,3.876124,3.088906e-07,0.3,6.1249886,89.40922,89.40351,89.188576,89.24257,0.0966547,0.5046875,5.769288778305054,79.81239916483561
77,770000,55.89463132674336,-89.67061,0.035999887,-2.0613558,-0.019305207,3.3888605,1.0,0.84482086,-4.159338,29.738707,21.086405,16.139141,95.96713,95.96337,96.22081,96.29391,3.8035743,0.7,-96.069565,-34.007404,0.0025111875,-15.757702,5.6156745,4.4733505,4.231492,3.6818585,2.0368026e-07,0.3,5.7309003,89.12424,89.09523,89.36009,89.34056,0.111000896,0.4140625,5.804541110992432,80.8466662923495
78,780000,55.104686613290156,-90.16806,0.03696982,1.0494648,-0.020330764,3.6177928,1.0,0.55758053,-4.020597,26.980627,19.463984,16.65416,96.26132,95.9976,96.117165,95.439964,1.2658314,0.7,-97.04521,-34.3818,0.00026193942,-6.7660713,3.8304307,4.5074487,4.8863587,5.0608835,4.8119114e-07,0.3,6.1155567,89.5798,89.57852,89.64559,89.50202,0.07877937,0.4984375,5.623030662536621,81.87770620187123
79,790000,56.100862559173194,-90.37623,0.036263272,-1.2204126,-0.024739726,3.58318,1.0,0.9869663,-59.379864,31.274511,51.090843,15.53666,95.06597,95.18706,94.97279,95.035835,1.2947648,0.7,-95.629875,-36.737926,0.0003399633,-7.7976894,59.655296,60.84685,60.832962,58.331593,8.5667125e-07,0.3,6.030428,89.820816,89.822556,89.645355,89.645065,0.07850466,0.48749998,5.94940185546875,82.90870955387751
80,800000,55.77400162999601,-88.945915,0.0370635,0.9576858,-0.020813424,3.8427303,1.0,1.0418906,-3.0651531,29.507942,22.785038,15.569378,95.80241,96.038704,95.74986,96.81741,11.281845,0.7,-97.182686,-35.913586,0.00082436064,-8.160538,3.4820023,3.3342428,4.827886,4.824486,3.9156294e-08,0.3,5.988538,88.32951,88.39029,88.49265,88.39888,0.17042917,0.4890625,5.64609169960022,83.93799016078313
81,810000,55.23423405979455,-89.96899,0.036755163,0.8744519,-0.02734821,3.969593,1.0,0.8525729,-6.611878,33.509525,56.646324,17.015503,96.4321,96.4969,96.45167,96.55622,2.1366754,0.7,-97.60623,-37.024075,0.0004447606,-8.4958315,7.980831,6.8136554,4.711893,5.9951,1.8167776e-07,0.3,6.061155,89.450745,89.34554,89.36093,89.47564,0.07690373,0.45,5.488874673843384,84.96457710663478
82,820000,55.274961981511225,-89.71264,0.036530133,-0.75552607,-0.023855826,4.0735598,1.0,3.4212315,-68.1141,25.164011,527.92664,16.013956,96.07935,95.950096,96.0579,95.777435,3.6342106,0.7,-96.85819,-37.816593,0.0009367287,-8.880533,67.232864,67.445915,60.41469,67.293076,6.7494284e-06,0.3,5.459316,89.159744,89.12126,89.109215,89.1574,0.07669849,0.45624998,5.471222877502441,85.99266944328944
83,830000,55.1677934985598,-89.892166,0.03686343,0.76824856,-0.018641036,4.006349,1.0,0.9283713,-49.37391,42.34858,57.461468,14.815809,95.82933,95.99334,95.38505,95.63934,11.390773,0.7,-96.080666,-32.512096,0.00018282444,-7.1110225,47.81002,48.737732,48.03404,49.097282,4.249625e-07,0.3,5.815236,89.31853,89.3064,89.267204,89.25928,0.138711,0.4484375,5.480100154876709,87.02368047634761
84,840000,55.432276429181385,-89.46977,0.036427196,0.49107438,-0.018120248,3.6528695,1.0,0.85784286,-2.738502,33.545162,41.882618,16.258093,95.81027,96.052246,96.41623,95.79399,2.545021,0.7,-97.09295,-37.40857,0.00083815795,-4.9711666,4.782913,4.4931464,5.476087,5.347951,7.5835446e-06,0.3,5.8743267,88.79663,88.84825,89.05732,89.011826,0.09179608,0.48593748,4.737304210662842,88.0417136391004
85,850000,55.232933334180544,-88.978065,0.036315497,0.23780409,-0.015670126,4.1743755,1.0,1.0067403,-3.8885536,27.031466,18.751022,14.964174,96.32061,96.52672,96.67518,96.73025,6.018361,0.7,-96.67501,-38.289223,0.0023144085,-12.496283,3.7089245,4.8046308,3.3080726,3.7745712,4.3655748e-10,0.3,5.7955866,88.3864,88.410706,88.70973,88.60156,0.15977392,0.44687498,5.413212060928345,89.07312153577804
86,860000,54.95795018012396,-89.58519,0.03584392,-0.5168054,-0.0142177,4.0226264,1.0,1.3286115,-4.008559,29.13412,97.007355,16.029612,94.94408,95.169876,94.966354,95.10908,23.450907,0.7,-95.795204,-33.193375,0.0010224471,-6.3040886,4.1939883,4.7302895,4.7491584,4.869848,2.728484e-07,0.3,5.9839973,88.949554,88.99681,89.04611,89.14741,0.23290963,0.4203125,5.511651992797852,90.10119294722875
87,870000,55.09620978190903,-89.36546,0.036361232,0.71949863,-0.007773701,3.888749,1.0,0.73806095,-3.0361676,31.188421,39.538242,14.613443,97.33056,97.055595,96.89877,96.54547,3.2013555,0.7,-97.56199,-39.292324,0.0014250288,-7.287225,3.668656,3.9511905,4.0699716,4.3917813,2.0305336e-06,0.3,6.05781,88.72852,88.70624,88.59773,88.59764,0.08379139,0.5265625,5.453670501708984,91.12806086937586
88,880000,55.10407157183238,-88.77111,0.035757504,-2.1091988,-0.015845856,4.046781,1.0,1.1578705,-3.062814,27.579332,52.325794,14.8971,96.61065,96.86663,96.69449,96.50527,5.364336,0.7,-97.10287,-36.939835,0.0007249006,-7.4609385,3.2304118,3.0708907,4.2119575,4.4715834,9.305659e-08,0.3,5.6187935,88.140396,88.112305,88.48366,88.44859,0.11590318,0.42187497,5.456981897354126,92.16032048861186
89,890000,55.16505848067591,-88.85186,0.03646929,-1.2461541,-0.016630597,3.5990968,1.0,0.76823306,-2.105479,28.723198,43.88578,15.286871,97.65874,97.186066,97.14846,96.835266,1.6758217,0.7,-98.17447,-35.142487,0.0011943467,-9.397382,2.741455,2.091494,1.3558414,2.529697,3.60026e-07,0.3,5.8202715,88.29514,88.25151,88.27048,88.26962,0.08794072,0.46093747,5.447960138320923,93.19147129456202
90,900000,55.38853720475709,-90.39644,0.03538216,-0.20193395,-0.014464912,3.8099892,1.0,0.8304466,-71.743164,31.611795,30.025307,15.181584,96.16835,96.22167,96.015366,95.87962,0.9379472,0.7,-96.9437,-39.1902,0.0049768034,-5.447386,72.73094,71.88217,72.0076,72.141495,3.7550925e-07,0.3,5.9512854,89.67193,89.76635,89.73974,89.7173,0.078142636,0.4671875,5.505446672439575,94.21812163591385
91,910000,55.436153987588135,-89.229065,0.036026623,-1.1082304,-0.011779522,4.074989,1.0,1.1008639,-4.2389164,50.749775,32.34297,23.056314,95.49733,95.41235,94.74891,94.88662,9.9593525,0.7,-96.01376,-30.175034,0.00024160987,-13.385101,4.372663,4.492728,4.3056254,4.426347,5.409122e-07,0.3,5.93662,88.630455,88.66046,88.478165,88.67056,0.15811795,0.41249996,5.4901251792907715,95.24719018141428
92,920000,55.335805214101285,-89.432236,0.03504555,-0.97054577,-0.01548578,3.8001573,1.0,0.791555,-3.545645,31.509827,39.55043,15.583672,96.62772,96.801735,96.54059,97.184364,2.16387,0.7,-97.694145,-37.621685,0.0005686887,-6.204088,4.3405304,4.0136857,4.4606347,4.2180667,1.9252185e-07,0.3,5.7577114,88.87128,88.837006,88.87003,88.885994,0.08193338,0.4453125,5.3729400634765625,96.27122948964437
93,930000,55.573791012220575,-89.304276,0.036579322,0.6958791,-0.018161267,3.8557231,1.0,1.021182,-3.4594705,33.92135,13.414701,15.338236,95.577705,95.709694,96.029045,95.57596,6.977251,0.7,-96.26911,-34.44322,0.00032287376,-8.004696,3.9784935,4.015163,4.6853065,4.768779,1.774868e-07,0.3,6.1666613,88.62862,88.692085,88.97264,88.91393,0.11856771,0.459375,5.4797351360321045,97.29729480743408
94,940000,55.1155025014437,-88.91249,0.036375307,-1.2316289,-0.017827125,4.415008,1.0,1.0223346,-3.495674,37.46991,34.33571,16.993904,96.651886,96.27014,96.41423,96.76417,10.5266,0.7,-96.66913,-34.410774,0.00038848654,-11.7514925,3.928258,3.1353126,3.9155505,4.1119,8.5565266e-10,0.3,5.651346,88.26744,88.16708,88.451225,88.54907,0.19588295,0.46093747,5.799950122833252,98.32392439842224
95,950000,55.30555670203415,-89.3111,0.03686745,-1.3549253,-0.017394995,3.6355247,1.0,0.98741746,-4.359054,30.462694,25.389977,14.725258,95.90172,96.05029,95.77385,95.816246,2.283793,0.7,-96.32475,-38.299263,0.00015757425,-10.940475,4.7417545,5.209563,3.625127,4.107625,1.0958872e-06,0.3,6.1879144,88.73299,88.76749,88.80762,88.80582,0.08926842,0.41093746,5.721054553985596,99.35133860905965
96,955000,55.56325265602676,-89.80293,0.03597227,-0.7213473,-0.02092017,3.8195312,1.0,0.77024853,-69.447525,44.320942,24.101744,17.237797,96.03235,96.159615,96.061455,96.35248,5.33868,0.7,-96.30706,-32.085766,0.00045962085,-7.7864976,68.7705,69.582886,69.30781,68.92986,1.7968704e-08,0.3,6.0258093,89.204956,89.19096,89.082,89.18241,0.10193005,0.5078125,5.987629175186157,99.91514990329742
97,960000,55.257987473450584,-89.81069,0.035937097,1.3359997,-0.028641319,3.8507755,1.0,0.5397145,-3.911834,44.543465,8.801367,17.233307,96.42041,96.54237,96.717575,95.48233,5.4323287,0.7,-97.124146,-37.297485,0.00095573283,-11.100744,4.2936063,4.2025714,3.9995792,3.8291755,4.0344895e-07,0.3,6.2670727,89.17229,89.23462,89.30882,89.27748,0.10253918,0.44374996,5.799719333648682,100.47838031848272
98,965000,55.155987334164756,-89.28986,0.035865564,0.5045772,-0.02234444,3.841742,1.0,0.85118914,-3.188055,35.598267,40.9657,15.320522,95.59613,95.508224,96.11368,95.34603,1.4011387,0.7,-96.348625,-38.998596,0.00026811718,-8.023979,3.2308874,3.2357259,3.4047825,3.8131297,2.1904708e-07,0.3,6.0799603,88.68703,88.70301,88.91591,88.94389,0.09268809,0.41875,5.574194431304932,101.03392184178034
99,970000,55.49627437027183,-89.48366,0.036569197,0.47296908,-0.020125255,3.7090313,1.0,0.74181056,-3.6429334,37.96635,19.715204,13.46302,96.217964,96.47571,96.79619,96.34119,11.660172,0.7,-96.609375,-35.26013,0.0003508313,-12.899643,3.8715482,3.7318404,3.5951762,3.8428764,3.168988e-06,0.3,6.1367283,88.973175,88.98918,89.136215,89.15544,0.1459082,0.4453125,5.611187696456909,101.59623471101125
100,975000,55.196164029594996,-88.79219,0.03580264,-1.4821494,-0.01453499,3.6174583,1.0,0.65109986,-7.6800175,33.18895,13.259928,15.959175,95.891335,95.57851,95.45121,95.28875,1.3174477,0.7,-95.989685,-39.151173,7.224857e-05,-7.5970745,0.5397515,-1.0513581,0.7427404,3.3575575,7.1960386e-07,0.3,5.563183,88.20131,88.17995,88.245514,88.22687,0.070420206,0.45468748,5.627244710922241,102.15843886137009
101,980000,55.07986913157148,-90.62698,0.03528091,0.122517705,-0.023783362,4.2084618,1.0,0.8861608,-69.490685,35.308357,33.500626,15.905319,96.881065,96.96933,97.588264,96.52867,2.6144857,0.7,-97.18129,-31.62218,0.0010248707,-4.9580975,67.415146,67.26609,67.12123,68.58011,2.7969247e-06,0.3,6.0577354,89.95662,90.01851,89.8911,90.070755,0.099048026,0.39687496,5.622185945510864,102.71730657418568
102,985000,55.614984682285396,-90.33391,0.03694359,0.23424536,-0.024062946,4.16298,1.0,0.75519246,-69.7269,34.160496,20.765003,15.634773,96.233444,96.00699,95.469215,95.397606,1.7561198,0.7,-96.439865,-37.201088,0.00019233965,-6.208844,69.61289,69.21799,69.305145,69.19894,6.849295e-08,0.3,5.8391843,89.88719,89.74522,89.53853,89.57039,0.082974955,0.459375,5.6817967891693115,103.27880192995072
103,990000,55.03159228226322,-89.846535,0.034680624,1.9413311,-0.030912116,4.0992,1.0,0.7371497,-10.934061,51.607338,24.187094,15.989269,96.30467,96.70517,96.276054,96.27938,1.2563845,0.7,-97.39453,-26.398844,0.00085671025,-4.4918184,10.997046,11.16556,11.860264,9.786926,2.1391315e-08,0.3,6.261745,89.19426,89.198395,89.23775,89.21511,0.08024363,0.40625,5.655987501144409,103.83676532506942
104,995000,55.12801617117822,-88.93869,0.03559659,1.1053172,-0.019578239,4.017959,1.0,0.6715276,-3.0160646,36.107147,15.314489,17.38426,96.391464,95.8947,96.28936,96.315765,7.1555195,0.7,-96.3633,-33.099426,0.0010846937,-9.758323,3.3424656,3.5654387,2.734225,4.3973503,2.212025e-06,0.3,5.8652864,88.269196,88.26782,88.32448,88.265,0.12031826,0.434375,5.814090013504028,104.4014521320661
105,1000000,55.15860629845372,-89.8826,0.037957933,-0.08117044,-0.041635737,4.4124,1.0,0.56044364,-2.8736634,44.49601,11.613625,14.628224,95.782646,95.61396,95.53418,95.495056,3.2133572,0.7,-96.731834,-31.83763,0.0012098375,-4.9071665,3.4116218,3.471305,5.152515,4.303596,5.0168487e-06,0.3,5.957093,89.30181,89.301414,89.332855,89.19917,0.10756524,0.48593748,5.519928932189941,104.95707367261251
