Xixo99/comfo/baselines/comfo7_perterbation_both_actor_and_critic/20230224_alphaQ0.0001/halfcheetah-medium-v2/COMFO7_s1_20230224_144204_halfcheetah-medium-v2_55.60.csv
,step,reward,actor_loss,alpha,alpha_loss,avg_conservative_loss,avg_smooth_loss,conservative_weight,critic_loss,max_actor_loss,max_alpha_loss,max_critic_loss,max_mle_prob,max_q1,max_q2,max_target_q,max_v,max_value_loss,max_weight,min_actor_loss,min_alpha_loss,min_critic_loss,min_mle_prob,min_q1,min_q2,min_target_q,min_v,min_value_loss,min_weight,mle_prob,q1,q2,target_q,v,value_loss,weight,eval_time,time
0,0,2.2547137614901165,,,,,,,,,,,,,,,,,,,,,,,,,,,,,,,,,,,,
1,10000,-2.0242624474970907,-36.71195,0.09223407,-1.2298625,-0.00067642,0.9499016,1.0,0.8494525,-14.106767,21.197704,23.546476,13.077248,43.97387,44.12347,43.840908,43.297646,2.1169457,0.7,-45.683292,-25.306946,0.0001200362,-7.4341288,13.446371,14.078216,13.632499,13.88354,7.0549436e-07,0.3,3.6598263,36.137695,36.14705,36.15127,35.45636,0.10428381,0.5171875,5.946211099624634,3.0781466484069826
2,20000,-2.519703227082792,-59.35187,0.1125191,-0.014560193,-0.00028836096,1.4578557,1.0,1.7231029,1.2733103,20.38325,67.221,14.0683975,68.421776,68.48176,68.339325,67.99696,1.8678585,0.7,-69.25322,-20.272676,0.00074859604,-16.024635,-3.1911151,-3.1409416,-2.885849,-2.4854872,2.263114e-08,0.3,2.8099668,58.700768,58.581566,58.55778,58.263054,0.15945166,0.46875003,5.999467134475708,4.117427829901377
3,30000,-1.1015827905021767,-72.978615,0.108341426,-0.17284882,-0.0037208514,1.8696072,1.0,1.470493,-48.39374,21.930159,25.152,14.149897,80.38473,80.437775,80.65816,80.64382,1.8678315,0.7,-81.22159,-24.79577,0.0008833416,-10.383454,45.674923,45.732613,47.74834,46.934414,3.7222637e-07,0.3,3.2817662,72.351974,72.42668,72.452126,72.54975,0.22769809,0.3734375,5.772143363952637,5.156570283571879
4,40000,-0.10336025503092368,-79.11029,0.094492584,-0.58562607,-0.0034484628,2.1552618,1.0,2.2439382,0.5960261,21.196856,40.30919,14.524581,88.595795,88.48033,88.98459,88.134285,3.1212034,0.7,-89.01109,-27.80553,3.343739e-06,-14.117548,-1.2392215,0.052775115,-2.080841,-1.0855622,1.1444092e-06,0.3,3.6797366,78.55608,78.56861,78.87384,78.59763,0.17049368,0.47812498,5.721249103546143,6.195896852016449
5,50000,-0.1836822223051661,-85.43677,0.08304301,-0.3489182,-0.004132025,2.153242,1.0,1.397259,-60.331993,33.35269,32.081654,16.179361,93.187225,92.823,93.077614,93.3516,3.5921278,0.7,-94.02803,-31.079336,0.0003842623,-8.008699,59.95525,60.405827,59.87148,59.87361,6.1656287e-06,0.3,4.6383777,84.89967,84.88631,84.594795,84.61628,0.11274435,0.4671875,5.610581159591675,7.2315266569455465
6,60000,0.06441203921398259,-86.50377,0.07228936,-0.03237751,-0.0009594854,2.1621232,1.0,1.849652,0.6355908,50.21351,45.862206,15.868681,93.91133,94.42781,95.43838,94.06107,1.2587417,0.7,-95.103775,-36.030514,4.6937086e-05,-6.572971,-0.45062357,-1.0468144,-0.095705226,-0.20201725,2.3905887e-08,0.3,4.465966,85.97109,85.98009,86.16678,86.04798,0.097913414,0.47187498,5.772352933883667,8.268006042639415
7,70000,2.0276163700534946,-87.33689,0.06246271,-0.23751394,-0.0037632168,2.2618341,1.0,1.4369338,3.4834058,129.11716,37.230095,13.327383,95.51026,95.18073,95.5596,95.1427,1.2381928,0.7,-95.442024,-29.346539,0.00076505827,-16.826519,-3.1305258,-2.795801,-1.8342,-2.7954478,8.659245e-06,0.3,4.815622,86.84914,86.805916,86.797676,86.87012,0.115807846,0.44374996,5.615397930145264,9.302217102050781
8,80000,2.116107858353547,-87.89746,0.05412438,-0.89475214,-0.0062142983,2.246352,1.0,1.4870083,6.569954,47.748264,17.525562,15.488219,95.37687,94.94298,95.3632,95.08664,11.132022,0.7,-95.74885,-29.96942,0.0028654195,-14.860314,-6.8702593,-6.884813,-7.2106247,-7.4015274,1.1187699e-05,0.3,4.6725335,87.45148,87.45204,86.96557,87.14924,0.13968578,0.46406248,5.803997278213501,10.343241333961487
9,90000,16.063772699849686,-88.77625,0.052057955,-1.0831509,-0.0047180685,2.4406877,1.0,1.3788731,2.5570922,26.642494,51.846127,13.978113,96.68756,96.50484,96.665596,96.56683,1.0080005,0.7,-97.19997,-31.72368,0.0010831228,-13.010546,-1.1138314,-2.1923013,-1.9946011,-1.1738298,7.359631e-06,0.3,5.011813,88.32423,88.39975,88.13421,88.253914,0.095330834,0.45156246,5.887564420700073,11.377700058619181
10,100000,16.56806584620525,-88.59365,0.048087798,0.24638945,-0.0072410866,2.5973835,1.0,2.146619,6.8087387,29.132193,80.6097,15.348319,96.344864,96.57263,96.11204,96.02055,2.7607353,0.7,-96.97386,-29.283728,0.0030795273,-8.563244,-8.944422,-7.0464892,-9.815996,-8.415159,1.174165e-07,0.3,5.2393827,88.11296,88.13429,87.77646,88.00193,0.10822088,0.41875,5.864144802093506,12.406869784990947
11,110000,38.08626586791318,-89.11995,0.047740657,-0.07464677,-0.0058080507,2.801257,1.0,0.8529021,6.3858037,23.66261,18.646404,14.658074,96.59159,96.740906,96.338936,96.44878,3.496922,0.7,-96.98843,-29.206814,0.00074120355,-17.983164,-6.209955,-6.977441,-6.440975,-7.78267,4.8409566e-07,0.3,5.3424706,88.67064,88.69585,88.587845,88.492065,0.08036959,0.4984375,5.786863327026367,13.44447584549586
12,120000,45.27190514599211,-89.56317,0.045687977,-0.6259912,-0.0035458684,2.5846322,1.0,0.7163074,-3.1372507,31.377728,12.547035,13.69466,95.98432,95.78327,96.25706,97.37401,0.61676073,0.7,-96.97967,-32.45479,0.0012975757,-6.386284,3.2683072,2.7691731,1.5715826,1.2640734,1.0958872e-06,0.3,5.7384443,89.0717,89.132225,89.12699,89.09639,0.06544535,0.45156246,6.317581415176392,14.490091566244761
13,130000,45.13081207718502,-90.29489,0.04652782,0.7509901,-0.0065045566,2.8122742,1.0,1.3621426,-68.9898,22.98045,41.816895,15.334028,96.91523,97.152016,97.70492,96.48345,1.556629,0.7,-98.061134,-32.42744,0.00069531176,-4.747394,69.72092,69.55238,69.54525,68.843094,2.5566553e-07,0.3,6.2886095,89.83271,89.80893,90.20712,89.88989,0.09767288,0.521875,5.897181510925293,15.532254644234975
14,140000,51.763452981676124,-89.660095,0.045075152,-0.47661504,-0.006582433,2.5710695,1.0,0.8471792,-1.2762176,37.735355,17.131418,15.298032,97.14686,97.113686,96.96269,97.05994,1.9067419,0.7,-97.65198,-31.78113,0.00047945074,-10.114072,1.7449076,0.9761207,1.8786678,0.78974026,1.0300835e-06,0.3,5.79385,89.16202,89.12916,89.19603,89.193054,0.07209897,0.42031246,5.844217300415039,16.56950589021047
15,150000,51.440123919434534,-89.33086,0.045270015,-0.68720376,-0.014953836,3.165075,1.0,1.9777849,-2.6558363,38.234303,112.41196,16.02278,95.89533,95.94141,96.23844,95.169495,2.2285175,0.7,-96.5288,-31.77156,0.0035366067,-4.004728,3.2905343,4.047676,3.1700275,2.0540776,5.5776326e-07,0.3,5.7008886,88.814476,88.79891,88.454025,88.42692,0.097334474,0.5140625,5.664069652557373,17.608522542317708
16,160000,52.89183576095648,-90.23704,0.044597037,-0.06433448,-0.004171438,3.2322304,1.0,1.3157665,6.3525877,23.955124,50.95379,15.658246,96.47413,96.48488,96.336105,96.52011,2.1311777,0.7,-97.10786,-32.23345,0.0041592754,-7.849373,-6.447288,-6.227784,-6.127058,-4.8271165,2.6850032e-07,0.3,5.620308,89.67854,89.69333,89.4269,89.58432,0.09650181,0.4453125,5.7971954345703125,18.64592589934667
17,170000,54.374181816553936,-90.79242,0.044312153,1.0792538,-0.014456865,2.855962,1.0,0.7318598,-2.6611214,35.509563,11.3104315,15.411123,98.38962,97.846504,98.29391,98.02412,1.4386032,0.7,-98.58958,-23.630281,0.0013854599,-6.4696593,3.0450454,2.8045125,1.2793125,1.9659,8.802745e-08,0.3,5.9605627,90.193924,90.258354,90.01461,89.948746,0.07800481,0.509375,5.682575464248657,19.686338595549266
18,180000,49.43454803150657,-90.66684,0.04384537,0.9495372,-0.01453432,2.977022,1.0,1.4316685,-1.889168,29.632011,121.93066,14.530736,96.153564,96.11607,96.67011,96.10017,5.0875564,0.7,-96.81614,-27.809837,0.0003608606,-7.13459,3.311242,0.9843733,2.2903123,2.791799,2.231053e-06,0.3,5.854632,90.13014,90.115555,89.83281,89.95974,0.112223364,0.484375,5.749756574630737,20.72029624382655
19,190000,52.72343979102917,-89.34797,0.0433864,-1.451066,-0.010176377,3.1595678,1.0,1.0138825,-0.4374914,46.438118,47.015106,16.210388,97.04793,97.694176,97.429985,97.62175,1.288735,0.7,-97.666016,-33.746876,7.202127e-05,-5.1431055,1.1220517,0.57041055,2.7440524,-0.30858225,2.673303e-07,0.3,5.893298,88.80368,88.80937,88.90073,88.88208,0.084823124,0.43124998,5.6994030475616455,21.758873244126637
20,200000,53.62779826009698,-91.18665,0.043138787,0.25825137,-0.004498041,3.1040947,1.0,0.8762134,-63.401966,35.245335,8.763165,14.389045,97.39863,97.22067,97.23965,97.61244,1.439485,0.7,-97.38782,-41.91054,0.00077776844,-7.815738,66.8884,64.25524,63.94449,64.29224,8.1472103e-07,0.3,6.3126354,90.673515,90.62005,90.81735,90.81298,0.0688106,0.4375,5.738127708435059,22.796387946605684
21,210000,54.003430298322144,-89.9604,0.043616753,-0.4330445,-0.0124803,3.0582397,1.0,1.2333916,-5.0410213,30.96411,65.05036,16.553022,97.14531,97.13055,97.60971,97.48175,3.4261177,0.7,-98.074295,-30.480448,3.269699e-05,-8.272411,5.253253,5.962015,3.5887084,3.3902888,1.1259847e-05,0.3,6.0270753,89.391754,89.38635,89.4881,89.51291,0.085998334,0.43906248,5.875468969345093,23.83844783703486
22,220000,54.3141032971246,-89.88887,0.04286926,-0.20283163,-0.01138389,3.1974256,1.0,1.3293421,8.005689,30.71884,67.22177,15.970326,97.49372,97.33515,96.9396,97.06164,2.1353195,0.7,-98.17215,-41.479763,5.474838e-05,-14.213097,-8.080174,-6.9482017,-6.719734,-6.699591,4.5264025e-07,0.3,5.5265675,89.34049,89.33829,89.254944,89.23538,0.074962065,0.5109375,5.819797039031982,24.87827335993449
23,230000,54.34280502149472,-89.68245,0.04245821,0.3704319,-0.010855037,2.7713642,1.0,1.0193069,6.576852,151.1845,44.19183,15.287649,97.796616,97.73678,97.78439,97.57361,1.1529835,0.7,-98.18559,-34.100212,1.4021643e-06,-8.526945,-13.905533,-13.339712,-11.281509,-14.6383295,1.36769095e-05,0.3,5.5060263,89.074455,89.12772,89.038574,89.02574,0.07928662,0.4671875,5.697889804840088,25.91526679992676
24,240000,53.95602249658019,-90.584755,0.041296262,1.0796117,-0.009927832,3.3960369,1.0,0.79074097,-3.5670075,40.367653,34.386887,16.019955,96.80592,97.05748,97.33261,97.56024,2.3451402,0.7,-97.502235,-40.004654,0.00016318244,-8.34947,3.921986,3.5789557,2.6137762,2.9651859,1.0300835e-06,0.3,6.0968647,90.00026,90.007545,90.16995,90.451164,0.122117326,0.3484375,5.787060260772705,26.95723929007848
25,250000,53.3948038172815,-90.63742,0.04123748,-0.81450963,-0.0077565075,3.2259662,1.0,0.76412225,-61.86371,30.270596,16.396503,14.347438,96.84317,96.70704,97.004906,96.880394,1.1438583,0.7,-97.08408,-38.8625,0.0013878052,-4.1746125,60.970013,61.8235,63.495533,60.05737,3.042631e-07,0.3,5.6902437,90.168365,90.14317,90.24948,90.18341,0.08041852,0.5078125,5.669484615325928,27.994219358762106
26,260000,54.30724879600708,-90.141235,0.0418869,-0.89823717,-0.013546619,3.3089306,1.0,0.69144535,3.451956,43.291725,7.5387483,14.308319,96.421936,96.393456,96.7632,96.28257,7.8052487,0.7,-96.66498,-33.4281,0.0015269415,-6.8157463,-3.9247563,-3.1164389,-4.0203795,-2.8375893,1.9620639e-07,0.3,5.499202,89.56766,89.566444,89.70024,89.605606,0.1231632,0.5171875,6.088449716567993,29.03473938703537
27,270000,54.49383799686406,-90.48285,0.04122609,0.05846125,-0.010539296,3.2963982,1.0,0.83662605,-2.9064643,26.48083,19.22477,14.852941,97.02065,96.79469,97.35295,97.23989,1.4744799,0.7,-96.885956,-35.33515,0.00021558843,-5.0600996,3.2061388,3.7351165,3.9222975,3.8049352,2.7939679e-08,0.3,5.9641843,90.04534,89.9514,90.12098,90.06358,0.07892448,0.44843748,5.94110369682312,30.073965466022493
28,280000,54.607456296152144,-89.217545,0.040075447,-0.77319527,-0.015816841,3.204252,1.0,0.97708434,-3.5347338,42.960033,34.881065,17.539848,97.25859,97.36422,97.398384,97.7533,5.812038,0.7,-97.995476,-37.86735,0.0009847219,-12.377721,4.5312104,3.2287564,3.133647,3.2309573,4.4703485e-09,0.3,5.3571267,88.70671,88.68447,88.80752,88.94841,0.113966644,0.3734375,5.712254047393799,31.105408442020416
29,290000,53.439684093104624,-88.32675,0.0404574,-0.4651932,-0.01769664,3.5726287,1.0,1.1513028,-1.7197049,23.150309,50.12715,15.236004,96.20871,95.97596,97.01317,95.98207,6.262086,0.7,-96.72078,-41.08675,0.0004804114,-9.802183,2.560204,1.7948846,4.3973837,4.186353,8.6217185e-08,0.3,5.7807007,87.74834,87.82173,88.02945,88.09657,0.1668654,0.390625,5.664165735244751,32.140413252512616
30,300000,54.07256897783752,-90.42401,0.04058902,-1.0647519,-0.0029798523,3.370697,1.0,0.79982334,-4.7012143,28.677822,12.079781,14.063784,97.43957,97.52453,97.16512,97.41486,0.82989573,0.7,-97.83249,-35.360085,0.00015163334,-8.762333,5.3511195,4.6598654,3.29488,3.157814,4.3655748e-10,0.3,5.629162,89.930405,89.949425,89.80151,89.85252,0.058081456,0.4640625,6.178361177444458,33.178340856234236
31,310000,54.7646635615613,-89.88051,0.040097542,0.44694853,-0.013038321,3.0333214,1.0,0.98745024,-4.1894965,26.39711,30.407185,14.764138,97.87132,97.368675,97.392105,97.6848,2.4077158,0.7,-98.20562,-38.925114,0.00013318483,-8.600217,4.2605906,4.568369,3.1431558,3.518865,8.074567e-06,0.3,5.7682843,89.37463,89.42633,89.30254,89.430534,0.08169769,0.4125,5.8930182456970215,34.212039625644685
32,320000,54.762003619500696,-89.64485,0.04029402,-1.8341166,0.0012411176,3.862574,1.0,1.8687673,2.768821,25.718277,112.781845,17.54091,97.24355,97.06006,97.18957,96.531624,22.610233,0.7,-97.42725,-35.681473,0.00018763938,-5.9751368,-3.1937013,-3.3287916,-2.8413212,-1.2108126,5.4707635e-07,0.3,5.726856,89.09691,89.08067,89.08922,89.05942,0.17408943,0.47656247,5.704821586608887,35.24660262664159
33,330000,54.84583966657802,-89.762955,0.04063388,-1.3166137,-0.009220205,2.9394572,1.0,1.1490262,-1.8356599,23.304031,29.723455,15.72914,99.11366,98.84856,98.54745,98.45034,1.4945095,0.7,-99.230286,-36.607525,0.0008605575,-7.799005,1.8245901,2.198783,3.02515,3.307059,6.261095e-06,0.3,5.688137,89.31096,89.23037,88.98903,89.1004,0.06602322,0.421875,5.754389762878418,36.278476790587106
34,340000,54.04270963410522,-90.05841,0.040008556,-0.26905632,-0.014646287,3.5962853,1.0,1.5634198,-2.5664835,34.640423,123.22841,14.847956,96.44295,96.55038,96.74371,96.24835,0.8923538,0.7,-97.38039,-38.594902,0.00066838716,-5.691825,2.9229453,2.4385545,3.0958192,3.5160363,1.66893e-07,0.3,6.171667,89.43669,89.4662,89.45204,89.38901,0.07906907,0.46718746,5.97721266746521,37.30804589192073
35,350000,54.83436398053906,-89.994484,0.040770426,-0.7211805,-0.013402387,3.5123444,1.0,0.5792021,0.3207691,29.443348,10.433121,14.732557,97.46652,97.305405,97.60676,97.443504,3.729224,0.7,-98.033936,-34.615963,0.00024172128,-9.873301,-0.2563818,-0.35141933,-1.070434,-1.9751759,2.0905165e-06,0.3,5.7498507,89.49632,89.41556,89.373726,89.48952,0.08168481,0.428125,5.683845043182373,38.323303604125975
36,360000,55.44113317735667,-90.68504,0.039374936,0.10443416,-0.016446691,3.241584,1.0,0.5801488,-0.28263897,33.225334,7.248811,15.077171,97.4209,97.089676,97.440575,97.40762,6.346597,0.7,-98.21886,-34.393986,0.00027063658,-5.867298,-0.09870762,1.608774,2.3725832,0.16198772,1.7114799e-07,0.3,6.0012407,90.109566,90.10564,90.185425,89.99333,0.093580276,0.50937504,5.670520782470703,39.36126795212428
37,370000,54.07406700804406,-90.52124,0.040338613,-0.19498554,-0.01324484,3.5458353,1.0,0.725528,-2.082071,29.395838,18.93446,15.142546,98.59898,98.8685,98.76926,98.30485,4.827167,0.7,-99.19754,-31.42223,0.0010944051,-6.912323,3.4695027,2.4889536,2.5604951,2.4850712,5.4566367e-06,0.3,5.8355427,89.97439,89.953026,89.88925,89.937096,0.12970884,0.45,5.681156873703003,40.404564527670544
38,380000,55.114708462498406,-90.26435,0.039798327,1.248133,-0.013152328,3.4523735,1.0,0.77109706,-4.527286,32.506325,16.816212,14.467897,95.566055,95.588196,95.86228,95.53103,1.494586,0.7,-96.24007,-29.492437,0.0027154044,-8.823418,4.8816853,5.658762,2.396699,2.2097204,1.9965227e-09,0.3,5.715279,89.70061,89.72792,89.607666,89.59004,0.093873605,0.4453125,5.813227891921997,41.449723776181536
39,390000,54.986449432779374,-89.41593,0.039982807,-1.1089948,-0.008805204,3.552023,1.0,0.6383499,-1.6398335,36.194378,8.752176,16.66597,95.63532,95.92161,96.13589,95.63775,8.349915,0.7,-95.81882,-48.886505,0.0010816613,-8.016278,1.1351371,1.7008598,3.4906967,2.768778,3.521098e-07,0.3,5.5840955,88.84802,88.88559,88.955215,89.038376,0.10894787,0.4421875,5.712948560714722,42.48991492191951
40,400000,52.75902772313531,-89.258026,0.039151944,-0.47740018,-0.00972122,3.130636,1.0,1.0896487,-3.325819,31.035732,27.874784,15.072441,96.41172,96.39178,96.28467,95.794426,2.4665682,0.7,-97.14504,-42.630985,0.00013111276,-13.096186,3.821836,3.5713432,3.9457102,3.7156997,6.2864275e-10,0.3,5.439026,88.751045,88.74611,88.85355,88.66823,0.10203337,0.5140625,5.718364715576172,43.52843401034673
41,410000,54.806400248779994,-90.16272,0.039564367,-0.2475648,-0.017992392,4.1984863,1.0,1.7617182,-1.6908956,26.46129,136.60654,15.383103,96.58552,96.60138,97.47718,96.980606,11.33291,0.7,-97.35649,-36.14707,0.002281513,-10.97177,1.834004,1.7426085,3.56463,3.661634,1.3985381e-06,0.3,5.967922,89.595856,89.60626,89.85548,89.948654,0.16952997,0.40468746,5.717825174331665,44.566064568360645
42,420000,54.902975274498274,-89.616486,0.039480772,-1.7467089,-0.0087878555,3.5655515,1.0,0.8563079,-2.9719875,30.26908,18.199253,15.497856,96.449005,96.75199,95.90282,96.19025,2.588282,0.7,-96.58242,-36.394165,0.0007444947,-4.9885654,3.094974,3.005683,4.7665715,4.942439,5.867332e-07,0.3,5.4561825,89.07555,89.04631,88.90018,88.92817,0.08648013,0.5046875,5.719738006591797,45.60524159669876
43,430000,55.507693719365236,-89.61272,0.039980263,0.33359838,-0.0059190425,3.4072168,1.0,0.9198576,1.523483,42.31744,39.153214,16.646622,96.80154,96.848206,96.71312,96.50424,1.8773469,0.7,-97.4863,-32.635445,0.0005850736,-17.444416,2.0531738,-0.3162061,0.42149565,1.9311638,6.3704215e-07,0.3,6.160789,89.080605,89.05749,88.87991,89.07471,0.078861624,0.40781248,5.740541934967041,46.6458115975062
44,440000,54.95828237553929,-90.515625,0.039509136,2.5235517,-0.012223411,3.0690773,1.0,2.2371895,-3.9062157,30.369637,380.4593,15.081455,97.19817,97.362305,97.31696,96.873634,2.150772,0.7,-97.67068,-35.91859,0.00017249497,-7.532445,4.5422215,4.0012794,3.0641537,2.4783456,1.745898e-06,0.3,6.3392444,89.9658,89.987946,89.92108,89.91873,0.08177388,0.4375,5.695612192153931,47.68544310728709
45,450000,54.26463302379118,-88.96206,0.03861461,-0.53965884,-0.013935569,3.2192419,1.0,1.3010739,0.51230955,28.770056,76.99924,16.1074,96.90299,96.4647,96.517166,96.23698,1.8111324,0.7,-97.03792,-32.886597,0.0005695846,-7.161377,0.9524075,-2.3056118,-0.6022774,0.45636523,3.521098e-07,0.3,5.507588,88.4888,88.45064,88.1398,88.25368,0.06270879,0.45468748,5.671882390975952,48.721031641960145
46,460000,54.4213238041284,-90.16722,0.039023984,-1.4572005,-0.0141429845,3.447767,1.0,0.8220347,-3.6878862,31.694649,25.5182,14.676794,96.83351,97.06777,96.439644,96.1526,1.7048312,0.7,-97.754105,-49.02224,0.00032537995,-6.637895,3.8813014,4.0502353,3.7513988,4.226169,6.237708e-07,0.3,6.132024,89.54153,89.55807,89.51587,89.43496,0.08416958,0.453125,5.385678768157959,49.75444805224736
47,470000,55.05489188945402,-90.32291,0.038803063,0.7701548,-0.019573748,3.8437212,1.0,0.9906539,-68.02063,28.62569,99.52398,16.58719,95.551445,95.609695,96.199524,96.08435,5.838357,0.7,-96.15057,-30.673153,0.0010339515,-5.9438744,67.5572,67.32088,68.14268,67.58444,1.09329585e-05,0.3,6.298033,89.64207,89.686584,89.791435,89.96168,0.09610671,0.42031246,5.662251949310303,50.78904718955358
48,480000,55.02662956899326,-91.030365,0.039041307,0.8782743,-0.010982777,3.5507114,1.0,1.0809493,-66.75423,36.283916,69.23483,15.899012,95.94541,96.091545,96.38066,96.12713,3.7845438,0.7,-96.60638,-34.64077,0.0003776789,-9.364178,65.576515,63.991764,68.62719,67.83562,3.551849e-06,0.3,6.38667,90.518555,90.48502,90.388626,90.48605,0.098511845,0.40156248,5.641458034515381,51.82503668864568
49,490000,55.44061402585718,-89.7887,0.03827199,-0.1628623,-0.016509652,3.4066052,1.0,1.1321634,-3.7751877,24.098366,36.594025,15.368263,96.92261,96.48377,96.5448,96.36164,2.3770304,0.7,-97.490425,-35.094147,0.001045536,-5.530319,3.793776,3.8561559,3.7533731,4.0141068,1.2321398e-07,0.3,5.9469395,89.23406,89.23597,89.45032,89.29237,0.09120387,0.49062502,5.725998878479004,52.85579604705175
50,500000,55.39161320988369,-90.497604,0.038710188,1.4463347,-0.013983125,3.656971,1.0,0.9422734,-1.8393956,35.51707,32.369778,16.13057,96.05502,96.28398,96.51369,95.925385,6.680996,0.7,-96.53496,-34.8084,0.00022674643,-6.142985,2.6359048,2.3911543,4.4783344,3.5438027,5.280599e-08,0.3,5.8252506,89.91287,89.89839,89.9258,90.0397,0.13235402,0.396875,5.7023704051971436,53.893153659502666
51,510000,53.10367724264287,-88.2874,0.03747762,0.28289604,-0.014808185,3.5130563,1.0,1.036509,2.151451,32.835785,29.97733,15.374098,98.1627,98.381805,97.831856,97.505264,2.7332397,0.7,-98.36325,-37.414646,0.002515724,-6.0959563,-2.2472334,-1.5418234,1.3371655,-0.9321078,3.677269e-07,0.3,5.9070163,87.82672,87.78705,87.85497,87.90225,0.0708514,0.43593746,5.685458183288574,54.92996886968613
52,520000,55.56202144684558,-90.62184,0.03824275,-1.4769278,-0.016345326,4.0295463,1.0,1.3939507,-69.261795,31.509558,109.32434,16.305124,96.69048,96.76174,95.85483,96.451324,2.190383,0.7,-96.94278,-38.975574,0.0011772739,-4.674709,67.99704,69.2244,66.9365,68.88283,4.0745363e-07,0.3,6.0095983,90.00372,90.066124,90.22645,90.19809,0.0923439,0.41875,5.604550123214722,55.964427800973255
53,530000,54.863751566750366,-89.61844,0.0392784,0.6299277,-0.018806946,3.483278,1.0,0.8642118,-2.3908124,34.464912,21.736254,18.532738,96.28384,96.580025,97.5063,95.96867,1.0136294,0.7,-96.73969,-35.80157,0.0004991988,-5.2153163,2.8998852,2.7187366,4.787924,5.568836,1.718402e-05,0.3,6.173052,89.03929,89.085144,89.251175,89.24606,0.076916456,0.46875,5.746224403381348,57.001022104422255
54,540000,55.13255910179053,-89.38862,0.03803092,0.28319758,-0.016410887,3.9449048,1.0,0.65774894,-6.1010776,27.384026,10.941903,12.937328,96.18731,96.321495,96.436005,96.439285,4.6982803,0.7,-96.939476,-31.833317,0.00035510777,-13.082312,6.440058,6.329731,4.328018,5.1261883,4.303729e-06,0.3,5.7722855,88.82524,88.7531,88.8888,88.899,0.10874677,0.4546875,5.79786229133606,58.03701820373535
55,550000,55.01685790184633,-89.88232,0.038844693,-0.07261552,-0.011830514,3.381466,1.0,0.65845305,-3.820539,28.711573,13.88817,14.988861,96.840546,96.666435,97.0728,96.77456,2.7987754,0.7,-97.466576,-31.294819,0.0006257766,-17.110447,3.518365,4.324136,2.3904517,2.9765553,2.7939678e-10,0.3,5.690213,89.42174,89.35033,89.335365,89.246826,0.07994759,0.4765625,5.673256158828735,59.07398749987284
56,560000,53.346134380754194,-90.17143,0.037861757,0.0990676,-0.013641101,3.1820695,1.0,0.7851286,-67.86132,35.690758,11.602194,16.005747,97.37772,97.634575,97.53647,97.354195,0.8787248,0.7,-97.922745,-31.870825,0.00036604935,-4.6120415,67.27118,66.88938,67.4149,66.7103,4.9422497e-06,0.3,6.2058306,89.57716,89.5318,89.3053,89.36977,0.067414716,0.4984375,5.7706825733184814,60.108820072809856
57,570000,55.042099118712784,-88.27023,0.038346656,-0.95077646,-0.013357169,3.6060407,1.0,0.935014,-2.5345383,29.324078,21.072128,15.671087,95.31245,95.63317,95.34901,95.916046,1.6811273,0.7,-96.35352,-45.92582,0.001075855,-10.379256,3.2736454,2.605627,2.105878,2.9339693,6.849295e-08,0.3,5.7710257,87.75273,87.7222,87.81003,87.96136,0.12035892,0.39375,5.639825105667114,61.14414989948273
58,580000,55.23688346311823,-89.75432,0.038507517,-0.36384836,-0.017530395,3.3882885,1.0,1.121707,-4.8675117,28.093344,55.789825,14.149575,97.023636,97.401985,97.80515,96.32606,13.411478,0.7,-97.16338,-40.614395,0.0016471909,-6.0965805,4.8599854,5.2362366,5.20128,5.6016073,3.60026e-07,0.3,6.2357845,89.184006,89.272156,89.47563,89.29783,0.15043628,0.5453125,5.646559953689575,62.18107297023138
59,590000,54.45694248763297,-89.47116,0.038640607,1.1603769,-0.028850961,3.9619164,1.0,0.9013071,-5.2310133,41.416126,25.968662,15.811919,96.69145,96.56464,96.25468,96.16123,1.0358127,0.7,-97.150986,-32.80084,0.0025438718,-5.6065836,5.735363,5.603136,4.928072,4.76807,6.4218357e-06,0.3,6.1840343,88.9359,88.89464,88.91223,88.84714,0.06759894,0.43906248,5.910213947296143,63.22001987695694
60,600000,54.50130209185101,-89.97299,0.03797525,-0.50701267,-0.013950035,3.435248,1.0,0.6620545,-3.593672,23.338306,8.4560795,14.5801,95.82577,95.91066,96.28325,95.69785,0.8820725,0.7,-96.449615,-34.72258,0.0005022039,-5.6018586,4.602604,5.0899377,3.9004884,4.3458705,6.041257e-07,0.3,6.1235833,89.44632,89.327866,89.505714,89.459045,0.06495424,0.5015625,6.008642911911011,64.25820395549138
61,610000,55.13765393564557,-89.91219,0.03922559,0.27956307,-0.012274568,3.986842,1.0,1.0489391,-2.8488848,32.363148,40.07369,17.419662,96.94246,96.894104,96.35289,96.84839,1.1534123,0.7,-97.333,-35.454865,0.000117422605,-6.8256598,3.3832355,3.2957225,5.7166867,4.4952745,8.3138005e-08,0.3,6.1198554,89.367004,89.36139,89.53956,89.3769,0.08311941,0.44374996,6.200127124786377,65.30180348555247
62,620000,54.78606741259549,-90.49914,0.03820932,-0.0440052,-0.008036777,4.531724,1.0,1.0724621,-52.84023,30.07968,24.218662,14.7124405,96.64826,96.37499,96.42013,96.17431,16.702185,0.7,-97.28105,-27.2935,0.0043133684,-6.118415,53.34319,51.84767,52.436146,52.988132,1.0651322e-05,0.3,5.894988,89.89273,89.89712,89.7388,89.64669,0.20195739,0.4984375,5.933570623397827,66.3454350511233
63,630000,55.31948415384282,-89.59395,0.037896562,0.39817894,-0.013853784,4.006179,1.0,0.9330928,-4.6232405,36.533726,34.18879,14.283621,96.686844,97.24133,97.95318,96.982025,1.966674,0.7,-97.03731,-38.222095,0.0035424083,-10.976213,4.9016533,5.135124,4.568246,4.644841,4.3830546e-06,0.3,5.781535,89.014084,89.036606,89.19501,89.222015,0.07281768,0.47812498,5.952693700790405,67.38914451201757
64,640000,55.30751878970458,-89.75954,0.03834534,-0.7709093,-0.017805362,3.8579285,1.0,0.98907614,-5.8399696,37.245964,25.019302,15.376591,96.03021,96.339905,96.5402,96.07288,2.9906697,0.7,-96.742584,-33.564053,0.0008231505,-8.188057,6.104477,5.9746733,4.9195495,5.009123,7.174927e-06,0.3,5.584767,89.14474,89.21916,89.261246,89.406204,0.122932315,0.39843747,5.888710975646973,68.42758891582488
65,650000,55.3310888290699,-90.276794,0.03728118,1.2917389,-0.011398575,3.6641655,1.0,1.215172,-69.23644,33.776546,110.33155,18.437065,96.82978,96.95663,96.91766,96.9503,1.2459878,0.7,-97.42591,-34.856297,0.00022467138,-5.154172,68.7338,68.835594,68.897316,68.56794,3.9156293e-06,0.3,6.5534534,89.67447,89.66312,89.714386,89.70961,0.06755678,0.475,6.075277328491211,69.46949828863144
66,660000,55.78272766929874,-88.98922,0.037763204,0.7009828,-0.017304972,3.573058,1.0,1.1149863,-5.547128,44.969173,62.555588,14.148195,95.77528,95.64717,95.6688,95.59436,2.095607,0.7,-96.08495,-39.82727,0.0028201141,-11.6931505,6.334002,5.7189937,4.249379,5.1509476,6.67572e-07,0.3,5.9954324,88.403854,88.41492,88.43348,88.58082,0.09440481,0.403125,5.720348596572876,70.5082140048345
67,670000,55.13381952629227,-90.271935,0.038732223,0.2672029,-0.016458366,3.8922424,1.0,0.96767795,-54.166817,67.42813,31.126116,16.071905,96.73297,96.041115,96.934494,96.76547,2.4941063,0.7,-96.584724,-41.70796,0.00011570548,-6.107067,51.193783,52.7926,50.938103,53.402927,2.9438525e-07,0.3,6.4091177,89.750534,89.70932,89.8978,89.87972,0.10360478,0.44375,5.801213502883911,71.54762355486552
68,680000,55.57337343720844,-89.41568,0.038162597,0.06924212,-0.012680414,3.6898892,1.0,0.77586585,-6.1241198,27.47103,39.630676,15.47315,97.69498,98.159134,97.41501,97.58755,12.070888,0.7,-97.70794,-34.894756,0.0009333485,-9.1293125,6.364135,6.315733,5.1232405,5.3506937,8.5565266e-10,0.3,5.606522,88.89514,88.82327,88.73253,88.840355,0.17037024,0.4140625,5.741564750671387,72.58549994627634
69,690000,55.446369864895516,-89.64705,0.0386598,0.8297738,-0.011494149,3.86624,1.0,0.8645258,-5.5491076,36.014244,23.07703,16.466778,96.24439,96.021,96.15114,96.82241,2.1247077,0.7,-96.35767,-39.49931,0.0010839226,-8.284834,5.0377064,5.4489355,5.513836,5.463724,1.3886719e-06,0.3,6.2980413,89.06912,89.06392,89.275986,89.08193,0.09951513,0.484375,6.117480278015137,73.63318887154261
70,700000,55.80347993024017,-89.45791,0.038286667,0.7392508,-0.015010982,3.78256,1.0,0.8940042,-5.205847,27.099737,21.045462,15.26923,95.31656,96.451935,95.83468,95.62795,1.6786796,0.7,-96.35643,-39.078487,0.000942397,-6.5326953,6.2116156,7.104493,3.6115909,3.7687764,2.1129383e-09,0.3,6.385963,88.89365,88.96913,89.15503,89.00912,0.08888476,0.50312495,5.669163465499878,74.66536388397216
71,710000,54.766505064158785,-89.5032,0.037388735,-0.24942651,-0.018324466,4.1858935,1.0,1.2986393,-3.9394155,39.381084,158.05965,17.389128,95.78545,95.15433,96.007126,95.19414,26.308256,0.7,-96.01529,-35.4093,0.00012455793,-5.4456797,4.597286,5.0846267,4.672781,4.527707,1.2505404e-05,0.3,5.825226,88.939896,88.846825,88.89296,88.90172,0.1794278,0.4796875,5.673251152038574,75.70116863648097
72,720000,54.909743829760004,-90.14235,0.037364203,1.2052124,-0.027451912,4.113576,1.0,0.738756,-68.509445,30.928438,13.61476,15.500401,97.12595,97.472664,98.237114,97.13662,1.8101225,0.7,-98.170395,-40.998867,1.7184066e-05,-4.727338,68.09755,68.07911,68.66597,69.136475,3.126351e-06,0.3,6.3926234,89.52515,89.51992,89.705986,89.72781,0.0851737,0.41875,5.719603061676025,76.73872003157933
73,730000,55.13768296819428,-90.07185,0.037847217,0.8438988,-0.018180212,4.2320027,1.0,1.1444588,-5.554576,73.657974,15.78491,23.732464,96.18036,96.37105,96.69077,95.82968,7.5270557,0.7,-97.17841,-43.940853,0.0020488836,-4.9027395,5.5642524,6.713489,6.1218176,5.9872327,4.43717e-08,0.3,6.1571307,89.45791,89.40889,89.31993,89.13699,0.12830403,0.53125,5.758905649185181,77.77953077157339
74,740000,55.03042444068661,-90.17549,0.037896734,0.073809594,-0.016285006,3.804004,1.0,1.813875,-48.913425,39.114662,284.84558,14.523201,96.57894,96.052315,96.30914,95.85201,5.174876,0.7,-96.17015,-38.8682,0.00053122,-10.426539,47.080563,48.206905,48.579273,44.14121,8.3138005e-08,0.3,5.640233,89.563736,89.68248,89.628815,89.51133,0.08721567,0.4703125,5.697441339492798,78.81805169979731
75,750000,54.945706368120796,-90.04931,0.038077682,1.3709418,-0.027513823,3.9755268,1.0,0.62935126,-4.268162,35.984978,13.313981,14.448862,95.667175,95.75394,95.54013,95.82877,5.9279766,0.7,-96.08604,-30.991856,0.00081045117,-12.511861,4.5954514,4.2554216,4.9796014,5.78411,9.3989075e-07,0.3,6.2899494,89.431114,89.48535,89.53914,89.580894,0.09323961,0.4109375,6.199199914932251,79.86253537336985
76,760000,55.15810719169163,-88.45189,0.038029287,-0.60551894,-0.018079227,3.9375756,1.0,0.8446066,-2.767318,33.626637,14.310784,16.09099,95.51198,95.28429,96.07938,95.66691,1.0410163,0.7,-96.12694,-39.588116,0.0011964516,-13.369328,3.797796,3.3939595,4.41349,5.3381214,1.6625737e-06,0.3,5.688335,87.943825,87.9835,88.169205,88.17396,0.07655985,0.42343748,6.303828954696655,80.90364995400111
77,770000,55.14109187951105,-88.79511,0.037247356,-0.13256945,-0.015642168,3.7731616,1.0,1.1360795,-3.7073424,34.11266,26.65067,14.425478,95.76805,95.81634,96.63467,95.67497,2.1751955,0.7,-96.32344,-37.276676,0.0015077495,-8.676931,4.080983,3.8976722,5.9919915,4.8195863,7.9970346e-07,0.3,6.163224,88.26154,88.26455,88.07353,87.87236,0.12987009,0.5625,5.706473350524902,81.93905306657156
78,780000,55.81812459424732,-89.27904,0.036906675,0.41348827,-0.028108228,3.8358505,1.0,0.7868762,-4.636823,39.503258,22.249163,15.551823,95.22478,95.4405,95.38651,95.75409,2.5639086,0.7,-95.61922,-30.6383,0.00093006744,-5.4133472,5.424239,4.8217716,5.4558406,5.441769,3.182504e-07,0.3,5.956522,88.692825,88.647194,88.74559,88.711426,0.08156006,0.40468746,5.711275577545166,82.98180824915568
79,790000,54.996387066819544,-90.44566,0.03733612,1.3536531,-0.012396094,4.0942907,1.0,0.8301197,-6.7876544,32.874767,20.357685,14.89815,95.77443,95.60271,95.31087,95.86084,19.798962,0.7,-96.252304,-37.06159,0.00041239022,-12.944874,7.371958,7.0555177,6.761804,6.871826,1.6093254e-07,0.3,6.3233356,89.84021,89.773056,89.6975,89.61044,0.16146822,0.515625,6.090643644332886,84.02609826723734
80,800000,55.23837260221743,-89.5063,0.037809193,0.14045903,-0.023670705,4.176794,1.0,1.127457,-7.1788254,36.39773,99.36629,21.761396,95.70911,95.64922,96.5603,95.46257,12.0790415,0.7,-96.35806,-35.432396,0.0006279585,-7.920975,7.2738233,7.787837,6.877891,6.801117,2.7522156e-06,0.3,6.0844793,88.86252,88.89027,88.93226,88.89186,0.1293125,0.43593752,5.950612306594849,85.06735819578171
81,810000,55.171060457940236,-89.29341,0.037792735,-0.25575608,-0.021487355,3.6911874,1.0,0.7796072,-5.306993,42.971893,29.891747,15.484791,95.921,96.08226,96.082565,96.40181,3.3881433,0.7,-97.03246,-41.47641,0.00010630797,-6.8745346,6.431282,5.464448,6.3916297,6.3209066,2.0368026e-07,0.3,5.936413,88.77736,88.66893,88.821884,88.850555,0.09813175,0.434375,5.807682037353516,86.10520536104838
82,820000,55.49404311101897,-88.67607,0.037155993,0.7427907,-0.015492195,4.0445623,1.0,1.0848933,-5.380435,32.800766,20.816628,14.526575,95.77714,96.24912,96.07837,95.77728,1.7026055,0.7,-96.90585,-33.097355,0.0005578783,-11.239014,4.6597567,5.983677,3.1245813,2.5029163,4.1585417e-06,0.3,5.9563885,88.010315,88.09793,87.61652,87.811966,0.103459686,0.4671875,5.750862121582031,87.14122920036316
83,830000,55.204583571969714,-90.14899,0.03747583,0.85190743,-0.025724048,4.188024,1.0,1.1505073,-61.786198,32.20471,85.47817,18.606316,96.603714,96.261665,96.56767,96.39672,1.768609,0.7,-97.15151,-32.99286,0.0015550212,-7.272591,60.727814,64.75873,61.875736,64.44565,4.8682095e-06,0.3,5.9240665,89.44551,89.47849,89.20293,89.43062,0.09079938,0.4703125,5.943804740905762,88.17858345508576
84,840000,55.809587672801584,-88.48658,0.037381385,0.120676614,-0.0232949,4.1372995,1.0,1.75437,-5.364397,28.726366,86.53596,15.123711,96.42021,96.620766,96.57782,97.22054,10.446924,0.7,-97.030396,-45.93624,0.0026893676,-5.6123676,5.571675,5.17461,5.8684406,6.42266,1.7462298e-07,0.3,6.1722493,87.91579,87.824394,87.80473,87.97244,0.13696732,0.440625,6.340262174606323,89.22820384899775
85,850000,55.49457226906828,-89.33737,0.03750919,0.47145534,-0.021422012,3.9188168,1.0,1.2047714,-9.523136,43.118084,34.71767,17.65435,96.95547,95.54292,95.08622,95.563354,11.133834,0.7,-96.57919,-43.026245,0.001621271,-8.512873,9.76179,9.810932,7.256599,7.65329,2.6018126e-06,0.3,6.1252956,88.74402,88.73184,88.46687,88.62641,0.12073003,0.4765625,5.888861417770386,90.2621531844139
86,860000,55.200710836586154,-89.88562,0.037679806,1.71638,-0.016534507,3.5576901,1.0,0.93909323,-6.657627,40.015854,41.69409,17.43045,94.795784,95.098656,95.32192,94.54777,1.6663359,0.7,-95.80583,-30.498873,0.00070596795,-18.062155,6.7756977,6.6460514,7.1469865,6.6201844,7.099472e-07,0.3,6.565425,89.24589,89.27109,89.11221,89.2924,0.093905,0.45625,5.6250364780426025,91.29523225625356
87,870000,55.412354073039616,-89.928,0.03760856,-0.9593438,-0.022860846,4.000094,1.0,0.60707355,-5.1208687,25.110498,34.13689,16.021626,96.643326,96.30673,96.58521,95.97616,1.1197636,0.7,-96.83764,-35.543392,0.0018432133,-9.579207,5.5214405,5.6145597,5.4203963,5.4368234,5.280599e-08,0.3,5.773083,89.37686,89.37744,89.23906,89.2173,0.07281768,0.47187498,5.686175584793091,92.33015029430389
88,880000,55.11994466775302,-88.67537,0.037345815,-0.012613714,-0.026677033,3.6611373,1.0,0.733402,-4.634815,27.787771,20.344091,15.308536,95.97416,96.05615,95.75516,95.80055,4.549232,0.7,-96.58383,-37.134758,0.0007898101,-13.983448,5.320059,5.034305,6.0016656,6.374002,9.891345e-07,0.3,6.10633,88.08859,88.14212,88.12806,87.9465,0.10970704,0.540625,5.768682241439819,93.36665875116984
89,890000,55.036441751019126,-89.78294,0.036975045,0.6669737,-0.041920703,4.7090983,1.0,1.1611276,-5.956695,28.743841,29.182728,14.497141,95.401726,95.287964,95.86125,95.25167,10.624041,0.7,-95.60398,-39.894844,0.0005599687,-3.7551656,6.9147024,6.303669,6.2915573,6.8094606,1.3217215e-07,0.3,6.1870365,89.111244,89.098114,89.23573,89.26642,0.1471847,0.43906248,5.597549200057983,94.4009086171786
90,900000,55.22397054197271,-89.31262,0.03689248,-0.09022768,-0.021811893,4.3899937,1.0,1.0361288,-4.6507244,25.662266,46.83882,15.5473385,95.98468,96.18232,95.834335,95.998604,2.371129,0.7,-96.52533,-41.455265,0.0005434856,-5.156192,5.607035,4.7036085,7.469723,6.848888,9.12805e-06,0.3,6.2711,88.70244,88.738976,88.799385,89.00157,0.097950645,0.3984375,5.784337520599365,95.43942594528198
91,910000,55.22226262639129,-89.18581,0.037428916,-0.9979905,-0.033981655,4.3527145,1.0,0.5026485,-7.378879,37.631985,6.588911,16.120897,95.86211,95.699234,95.41982,95.66892,2.8925128,0.7,-95.91855,-33.95434,0.0006463197,-11.589527,7.4252324,7.7025175,7.2046576,7.1102395,4.2391474e-07,0.3,5.881658,88.53895,88.57332,88.46302,88.60953,0.09016906,0.41875,5.70479679107666,96.4765204747518
92,920000,55.27644633455725,-90.14247,0.03738814,-0.25670254,-0.025419334,4.2750816,1.0,1.2336838,-67.24495,43.636253,68.83249,14.878502,96.39644,96.23404,96.12932,95.976906,7.700721,0.7,-96.79353,-38.834717,0.00023897795,-8.014597,68.66598,65.643234,68.21722,66.63487,1.4144462e-09,0.3,5.5663395,89.461426,89.50484,89.45711,89.36948,0.15407822,0.471875,5.704060316085815,97.51976116498311
93,930000,55.39223144450824,-88.54198,0.037060056,-0.9046292,-0.03121758,4.205374,1.0,1.2939901,-5.2343736,34.533756,58.795,19.168007,97.20637,97.262924,97.38617,96.63415,2.7288334,0.7,-97.41201,-37.747677,0.00029916555,-9.754456,5.2719913,5.9138885,6.029546,5.8762856,1.4709076e-06,0.3,5.6840467,87.976494,87.9939,87.88437,87.82869,0.12935977,0.521875,5.679494380950928,98.56048694849014
94,940000,55.380864378230655,-89.74707,0.037379652,0.70234823,-0.031073159,4.0664988,1.0,0.6920111,-60.854073,34.91804,17.814941,13.937201,95.733925,95.357574,95.29038,95.893875,2.7927387,0.7,-96.02823,-40.518383,0.0008774179,-13.535738,58.27624,56.905704,56.931107,57.682594,5.1660464e-07,0.3,5.97798,89.123825,89.133194,88.98874,89.00119,0.08593501,0.4890625,5.683455228805542,99.60040555795034
95,950000,55.40663120607333,-89.04048,0.03771209,-0.19914687,-0.031895768,4.227061,1.0,0.80956286,-4.5325084,29.883373,15.134743,17.39389,95.69549,95.515816,96.58568,95.582184,1.5975425,0.7,-96.28495,-36.597134,0.0013977457,-6.319354,7.234075,4.3382473,8.12516,8.138481,9.254739e-06,0.3,5.564107,88.48453,88.455536,88.663574,88.741684,0.10515713,0.37812498,5.025782108306885,100.62566808064778
96,955000,55.71975174670343,-89.59683,0.037076406,-1.5505197,-0.056728434,4.735265,1.0,1.3514472,-5.862911,33.05552,67.09462,13.670559,97.22799,97.13313,97.863045,97.28602,2.5057218,0.7,-97.5607,-31.265726,0.00019951869,-8.9391365,6.0770154,6.2687626,6.1196094,5.706318,2.3391797e-06,0.3,5.957762,88.97966,88.99481,88.99103,89.043274,0.086709365,0.459375,5.656418323516846,101.1912030617396
97,960000,55.42097886937252,-89.495415,0.03691783,1.2834077,-0.031217156,4.1960826,1.0,0.83283985,-67.13459,42.087288,12.435919,15.69132,96.40079,96.382324,96.59308,95.999504,2.0949295,0.7,-96.749466,-29.410439,0.0031186831,-5.1098294,67.669846,66.63289,67.71132,67.78098,3.6670826e-08,0.3,6.0738726,88.80127,88.79078,88.941574,88.9688,0.09071367,0.47812498,5.6903157234191895,101.75709102153778
98,965000,55.13581546223568,-89.62145,0.03712169,-0.6605478,-0.017261783,3.5413263,1.0,0.8599258,-5.2551,35.70743,24.063456,13.952492,96.79633,97.12729,97.353836,96.579155,1.1515857,0.7,-97.72334,-31.207071,0.0017280485,-6.464611,6.47469,5.553354,6.5171037,5.9091516,1.1064392e-05,0.3,6.005654,89.00578,89.01413,89.297775,89.26849,0.093660176,0.4046875,6.017248153686523,102.32766976753871
99,970000,55.837961451595476,-89.34337,0.03790908,0.5691322,-0.018381199,4.2472806,1.0,0.804622,-6.116497,34.171936,20.029142,14.713726,96.23965,95.79409,95.78877,96.01441,2.728356,0.7,-96.36493,-34.861202,0.002692878,-9.841337,6.223586,7.0440884,6.650935,5.9524584,7.554889e-07,0.3,6.3532734,88.77707,88.72922,88.82103,88.83503,0.089408144,0.4046875,5.734085559844971,102.89370873769124
100,975000,55.787242718742924,-90.32669,0.03722284,-1.0395155,-0.027769743,4.383775,1.0,0.957484,-67.4941,36.05783,36.96847,16.936308,95.74565,95.31025,96.09901,95.641914,16.040192,0.7,-96.094734,-35.116135,0.0008553244,-8.684289,69.198906,68.6172,69.38414,68.692856,6.67572e-07,0.3,6.0654554,89.69036,89.72609,89.63151,89.79819,0.16783364,0.415625,6.104355812072754,103.456846900781
101,980000,55.93552029765755,-89.48276,0.036818873,-0.97023606,-0.0470623,4.1448913,1.0,0.68493056,-5.294218,28.638193,13.08337,14.940137,96.01091,95.890686,96.57859,95.829124,1.8109994,0.7,-96.67119,-36.15269,0.00040905882,-9.681073,6.0519495,5.6633706,8.407942,7.9066405,4.1953174e-07,0.3,5.923355,89.00223,88.90529,89.13132,88.980225,0.08677539,0.48749998,5.8175950050354,104.00770665804545
102,985000,55.50218641250473,-89.67557,0.037384905,-0.9909893,-0.049578458,4.656826,1.0,0.6535922,-6.7385244,37.185074,20.35877,16.57233,96.46965,96.13228,96.0915,95.77923,2.9947438,0.7,-96.78576,-41.912636,0.0007745887,-11.880369,6.3372498,6.9200687,6.9090614,6.6781573,8.332019e-07,0.3,6.250816,89.132256,89.149605,89.09323,89.02538,0.08550059,0.4734375,5.7825071811676025,104.5638124426206
103,990000,55.571135721202346,-90.3316,0.03695962,-0.028819263,-0.021410342,4.4365788,1.0,0.9623114,-6.9589763,28.7388,36.737583,13.897887,95.43324,95.37487,95.05754,94.932625,2.15369,0.7,-95.8206,-34.40767,0.00031059078,-16.533268,7.5857477,7.3921714,7.8054457,7.3763742,9.002234e-06,0.3,5.81314,89.744446,89.75525,89.45717,89.37403,0.0961657,0.49374998,5.671305894851685,105.13374251127243
104,995000,55.43100761390585,-90.46208,0.037015125,1.2558401,-0.04721349,4.016521,1.0,1.0083344,-7.519857,56.529427,24.588509,15.253429,95.7151,95.700615,96.44789,95.84578,1.5072361,0.7,-96.459175,-36.736485,0.003256542,-5.0573497,8.029231,7.769817,6.203257,6.449638,5.437131e-06,0.3,6.5470037,89.91707,89.840836,89.517006,89.53791,0.06943213,0.45624998,5.654857158660889,105.7020742893219
105,1000000,55.61447420633308,-89.33942,0.038281336,0.4218902,-0.04583641,5.2428412,1.0,0.6003917,-6.1613207,34.63754,8.896217,15.544212,95.79063,95.89685,95.6214,95.59838,2.047468,0.7,-96.43094,-33.375774,0.00037043152,-6.120974,6.458047,6.223282,7.38516,7.0840635,3.3653516e-06,0.3,6.2677073,88.74562,88.80678,88.94225,89.041534,0.081376225,0.3984375,5.59908390045166,106.26886356274287
