Xixo99/comfo/relaxed_iql/20230321_5seed_mle0/hopper-medium-expert-v2/riql_s1_20230320_214354_hopper-medium-expert-v2_1.12.csv
,step,reward,actor_loss,alpha,alpha_loss,critic_loss,max_actor_loss,max_alpha_loss,max_critic_loss,max_mle_prob,max_q1,max_q2,max_target_q,max_v,max_value_loss,max_weight,min_actor_loss,min_alpha_loss,min_critic_loss,min_mle_prob,min_q1,min_q2,min_target_q,min_v,min_value_loss,min_weight,mle_prob,q1,q2,target_q,v,value_loss,weight,eval_time,time
0,0,4.5275043187628246,,,,,,,,,,,,,,,,,,,,,,,,,,,,,,,,,
1,10000,0.8406211987792008,-39.41207,0.05788116,-6.479026,0.34351122,-3.4949813,20.450474,15.667301,3.6571782,51.348217,51.25803,51.474907,50.68422,1.3429687,0.7,-52.270294,-22.380669,0.00014502672,-64.637596,2.627268,1.8514073,2.4617496,0.49958855,5.673384e-07,0.3,-9.168514,39.01952,39.01564,39.01295,38.314537,0.030035466,0.528125,0.06418704986572266,1.3272468050320942
2,20000,0.7988737748427901,-63.325516,0.03532375,-1.0917373,0.7593497,-1.8714737,59.062225,38.816765,6.316509,78.7435,78.75639,78.41681,78.13233,5.983362,0.7,-78.75803,-27.896902,0.00026386726,-216.44441,1.258613,1.3938489,1.8257504,1.5143751,9.8225435e-08,0.3,-21.115387,62.57106,62.590862,62.199936,61.892296,0.10629152,0.4890625,0.06282424926757812,1.6406043887138366
3,30000,0.7375790421096636,-78.12785,0.03748995,0.4431977,2.557426,-1.3328053,74.34034,403.50604,5.7556434,93.30132,94.481766,92.871635,92.49202,28.437033,0.7,-93.06668,-27.483011,0.0008781695,-152.5891,-0.13538206,-1.0122836,-1.8402004,-0.4995203,2.1147544e-06,0.3,-24.500591,77.30154,77.362946,77.191925,77.0641,0.23881038,0.39375,0.05001020431518555,1.9539938767751057
4,40000,0.7573607875159571,-86.2198,0.03952471,0.47800753,1.4066664,-3.8074799,48.373997,74.31793,6.5715084,101.68313,101.750984,101.505714,100.97393,5.7277384,0.7,-102.00934,-27.704432,0.0005132752,-169.93602,2.0658731,1.9693708,-0.17431176,1.2279651,6.849295e-08,0.3,-15.829658,85.41793,85.37689,85.13034,85.159744,0.1526105,0.5015625,0.05732154846191406,2.26770814259847
5,50000,0.7801443448424968,-87.24223,0.04396294,0.8621328,1.0188527,-2.059711,63.44409,24.184237,6.780122,106.95145,106.96294,107.67431,106.31502,13.909267,0.7,-107.31271,-26.34543,0.00030148332,-171.05121,1.9100369,1.7771547,1.3954891,0.6192455,1.0561605e-06,0.3,-20.950659,86.3365,86.37103,86.415665,86.29088,0.20105521,0.425,0.05551552772521973,2.576318101088206
6,60000,0.7752124431140104,-94.77815,0.046880834,-0.58711016,0.92413497,-3.9743948,49.473057,26.28836,4.9575677,110.8872,110.670265,110.18557,110.20356,3.9375117,0.7,-111.44585,-37.49348,0.00089354516,-140.2427,3.365046,3.1709206,4.9928093,4.9286423,3.9934528e-07,0.3,-15.027959,93.84995,93.91013,93.81785,93.7632,0.15133005,0.4765625,0.0558474063873291,2.8820828676223753
7,70000,0.7752383142826984,-92.43022,0.047532767,1.2001848,1.1414986,-2.9372692,56.138916,68.06391,8.073779,111.90089,111.74235,111.15097,111.3841,5.776264,0.7,-111.82238,-24.323954,0.0012057719,-120.09263,2.725844,3.224482,2.4874604,2.7638628,2.1147544e-06,0.3,-16.382965,91.24071,91.2223,91.24403,91.29094,0.17561054,0.40781248,0.05993199348449707,3.193693157037099
8,80000,0.790395352827814,-93.83708,0.0476724,0.46900058,1.04428,-3.8537986,48.956623,37.729187,5.339,114.2295,114.150116,114.80426,114.297424,5.9088845,0.7,-115.22981,-19.777195,0.0010053501,-336.34753,3.4441352,2.8907666,4.1034718,5.00291,8.3138005e-08,0.3,-18.37725,92.75144,92.76006,92.80159,92.90521,0.18016617,0.4109375,0.057274818420410156,3.5088775555292764
9,90000,0.7992833431048492,-97.03612,0.05135539,-0.54300827,1.2085083,-4.2770743,34.607857,75.34001,5.495593,114.64079,114.64412,114.47323,114.62749,4.264467,0.7,-115.27564,-22.204897,0.0002228585,-166.58247,4.762917,4.3434954,3.0375938,3.6082797,1.6093254e-07,0.3,-17.770847,96.073975,96.20213,95.733154,95.967514,0.13750143,0.4296875,0.0564730167388916,3.822233565648397
10,100000,0.7925309374121814,-97.696304,0.05148338,1.1896634,1.2138225,-17.132149,45.050407,82.686424,7.713514,115.88734,115.986725,115.719666,115.90741,16.923767,0.7,-115.843216,-19.787912,0.0009958507,-282.2441,16.211752,16.26012,16.99331,17.421843,2.7154032e-05,0.3,-19.156487,96.563736,96.55528,96.68599,96.82399,0.28866476,0.37031248,0.05929732322692871,4.12947625319163
11,110000,0.8145017619693692,-99.02202,0.052860133,0.35400826,1.0648044,-3.5142202,50.877254,52.32417,5.956213,116.07778,115.945274,115.824005,116.117676,24.401703,0.7,-116.13915,-19.376234,5.869876e-05,-651.5022,3.996758,3.5728204,4.44374,3.757324,2.521556e-08,0.3,-21.239162,97.831985,97.880295,97.90306,97.87692,0.39843667,0.515625,0.06727910041809082,4.440503100554149
12,120000,0.8698042136566972,-98.32841,0.051659346,-0.5853958,1.0454574,-9.203361,36.046597,49.526024,5.3963566,114.70356,114.88969,115.0894,114.79985,14.455829,0.7,-115.37903,-17.175577,0.00249358,-250.65251,8.700662,9.322528,9.848827,10.14513,1.2054107e-06,0.3,-18.692764,97.37256,97.50072,97.66698,97.61755,0.22531801,0.4171875,0.06997823715209961,4.7514036893844604
13,130000,0.8758577982181764,-96.88897,0.05222988,0.3735247,0.7146004,-3.4524367,45.23124,26.803413,4.3956037,117.39483,116.5725,116.48006,116.48313,3.690397,0.7,-116.64739,-20.83127,0.00035190769,-248.89716,3.313691,3.5100744,3.1845336,2.6983747,1.7968704e-08,0.3,-14.37793,96.11848,96.05758,96.04989,96.087326,0.19834319,0.45,0.07209134101867676,5.060646271705627
14,140000,0.8839384510180629,-97.51715,0.053895764,-0.18209153,0.7981303,-10.774278,38.323074,50.257355,5.981596,116.23551,116.30887,116.395256,117.07269,3.1961021,0.7,-117.365425,-20.98201,0.00010416005,-146.58987,10.875902,11.354568,10.50975,10.293683,3.6670825e-10,0.3,-17.656689,96.49381,96.51512,96.30543,96.2594,0.10779217,0.53125,0.07099175453186035,5.371368539333344
15,150000,0.8960469134497755,-96.83696,0.053929787,-1.1052477,0.9160302,-8.466905,38.28628,28.420713,5.147347,118.85365,118.7713,119.34906,119.30734,2.339039,0.7,-118.90766,-28.999296,0.000116831274,-103.47882,7.5337906,7.9493256,8.169702,7.9290285,2.4355733e-05,0.3,-15.363355,95.963135,95.91302,96.209076,96.27268,0.12640518,0.34375,0.07660317420959473,5.6827346364657085
16,160000,0.8472346364678004,-99.23022,0.05529839,0.4378878,1.1076062,-6.725323,28.325775,47.458252,6.3997307,117.78379,117.48972,117.018906,117.40425,4.819392,0.7,-118.06327,-20.887453,0.00013516197,-129.3834,6.604265,7.0782223,8.556719,8.62728,3.4226106e-09,0.3,-17.584625,98.1022,98.08801,97.99719,98.097435,0.12842567,0.4046875,0.06858158111572266,5.993696824709574
17,170000,0.8317781186507935,-95.64001,0.055880368,0.942027,1.6362484,-3.2869015,49.521328,100.118706,6.7601614,115.99071,115.83506,116.046646,116.64712,14.399723,0.7,-117.5966,-21.532816,0.0003211166,-126.90196,2.6206267,2.625871,3.246387,3.2073445,2.8219774e-06,0.3,-16.826351,94.691376,94.5676,94.83252,94.5644,0.2773267,0.4453125,0.06959795951843262,6.305624639987945
18,180000,0.8224066756673812,-96.66997,0.05672949,-0.8246006,0.5760372,-4.564936,35.132984,6.010443,6.3317094,117.14244,116.87662,117.72681,117.35276,1.3062662,0.7,-117.72452,-22.221752,0.0004328243,-139.09267,4.4832892,4.520236,5.2875986,4.604561,3.5204168e-06,0.3,-15.918594,95.82118,95.83242,96.01152,96.02626,0.070189506,0.3984375,0.06278228759765625,6.613610021273295
19,190000,0.813093746454435,-97.48753,0.056335896,0.85034764,0.759359,-2.776846,42.9055,28.804094,7.986717,119.87962,119.89263,119.8482,119.88631,3.034012,0.7,-120.21709,-26.333761,0.00021335465,-182.06125,2.161603,2.0741153,1.7264715,1.9924315,1.3014477e-06,0.3,-18.418518,96.36536,96.38532,96.45887,96.53766,0.12145813,0.4109375,0.06524968147277832,6.924665355682373
20,200000,0.7864398364229073,-96.464584,0.05604668,-0.3822137,0.67872494,-3.1485898,37.046703,11.448025,6.262911,116.89211,117.0208,117.09405,116.00407,2.717475,0.7,-120.346924,-17.473013,0.0008206789,-196.90671,3.0991828,2.6839812,3.660071,3.4964666,4.172325e-08,0.3,-17.475368,95.40093,95.41778,95.24376,95.283585,0.10956855,0.48125,0.05454206466674805,7.238117484251658
21,210000,0.7935595066857155,-97.309265,0.05742373,-0.24201913,1.262618,-8.590133,36.7052,39.736965,6.9606466,117.45105,117.523186,117.7676,117.76403,2.5600426,0.7,-117.858604,-24.55603,0.0005190308,-161.33731,8.722391,8.054538,8.692438,8.203267,3.876805e-07,0.3,-18.137589,96.10228,96.0703,96.44869,96.40643,0.12523958,0.4609375,0.05856609344482422,7.544837903976441
22,220000,0.7917763554460491,-95.54843,0.058382947,-0.57871526,1.1042717,-1.6194149,44.823368,44.710472,7.0255876,117.5788,117.47389,117.44219,117.681755,2.3175032,0.7,-118.15948,-21.8807,0.001143456,-472.6135,1.5438392,1.1107852,0.2489376,-0.3384955,3.337147e-05,0.3,-20.350391,94.322266,94.31625,94.08245,94.26087,0.10493279,0.4078125,0.05420994758605957,7.8495708783467615
23,230000,0.7917519796129069,-94.76582,0.059250183,1.2145414,1.6337192,-2.1663003,42.715828,78.49249,6.9796295,118.51602,118.66818,118.74288,118.19699,3.43366,0.7,-118.51896,-21.98611,0.00048997125,-109.43375,2.1622021,1.8413877,1.2213913,1.2757335,1.7214916e-07,0.3,-17.388594,93.50582,93.625046,93.205734,93.07932,0.19212657,0.55625004,0.05308938026428223,8.158153398831685
24,240000,0.8037111222778925,-94.37964,0.059698932,0.7291213,1.504416,-2.353257,38.569187,27.514198,8.833603,118.32228,118.29255,119.30677,119.298485,29.43513,0.7,-118.412224,-25.88337,0.0030856887,-474.31537,1.6034373,1.5120091,1.176031,-0.45159575,7.4258423e-07,0.3,-19.41948,93.138794,93.14365,93.245445,93.36548,0.3019158,0.371875,0.05799078941345215,8.46860363483429
25,250000,0.7923316955748574,-94.41644,0.06069772,0.48854005,0.88382995,-11.403038,32.999863,24.25062,2.8973122,117.60622,117.56703,117.284676,117.27365,6.3587923,0.7,-120.697075,-25.66212,0.0007812405,-212.08086,10.848297,11.269661,10.450454,10.7255535,1.0226621e-06,0.3,-21.48164,92.800446,92.88078,92.83284,92.860115,0.20230842,0.4609375,0.05693340301513672,8.776112107435862
26,260000,0.8056971280419609,-96.74481,0.060971037,1.0747849,1.0044887,-2.688494,32.324146,28.509445,7.282897,118.90336,118.73528,118.76318,119.310745,2.3333163,0.7,-119.07621,-24.694635,0.000678052,-575.66284,2.4542973,2.4452329,1.3483493,1.3013816,1.688971e-06,0.3,-21.230793,95.27702,95.291374,94.86873,95.01546,0.1009447,0.4765625,0.06246328353881836,9.09039478302002
27,270000,0.8012750853279809,-95.932274,0.060080234,0.59663033,0.7043046,-4.2714405,41.672523,32.01745,6.34873,118.49868,118.62375,118.3318,118.56223,20.832165,0.7,-119.37903,-16.893461,0.00048554922,-380.95126,4.1871505,4.7612953,3.793385,4.086508,1.10175456e-07,0.3,-20.919157,94.37923,94.44762,94.3259,94.43624,0.19992611,0.4640625,0.05906081199645996,9.398159909248353
28,280000,0.8288354949556049,-94.328354,0.0610435,-0.48658293,1.7080957,2.8191986,39.036015,57.47534,6.9177084,120.582756,120.36841,120.77202,120.678474,6.578629,0.7,-121.07514,-22.01058,0.001408322,-256.03714,-2.7741623,-1.5206709,-1.6351966,-1.8938704,1.0086224e-07,0.3,-20.026924,92.89748,92.97947,93.42735,93.51929,0.17349917,0.38593748,0.06660223007202148,9.70513592561086
29,290000,0.8537232475180182,-96.34393,0.0588468,0.08612013,0.9202843,0.33221704,36.336155,26.007334,5.7143946,119.888016,119.24933,119.426735,119.31196,3.526132,0.7,-119.530334,-23.67139,0.00026877417,-131.33669,0.030878097,-0.39305866,1.1871992,0.63105786,4.654913e-06,0.3,-21.241566,95.112434,94.98595,94.767494,94.99035,0.12916078,0.4015625,0.07034611701965332,10.018399516741434
30,300000,0.8265383505114169,-92.78271,0.059436362,0.15464956,1.0630865,-1.403212,35.0222,50.767822,5.8429375,116.169106,116.310234,116.19264,116.27156,13.382156,0.7,-117.104774,-18.646954,0.0021063618,-140.77972,1.1320779,1.1277542,1.2601123,1.0926468,5.6934255e-06,0.3,-18.89404,91.44544,91.379524,91.39804,91.65269,0.20518267,0.3828125,0.06164813041687012,10.324413534005483
31,310000,0.8372163336171627,-95.75842,0.057654675,-0.7727821,0.7828909,-1.8586227,31.977026,23.020983,5.51968,118.05352,117.83305,117.90996,117.93489,3.6168458,0.7,-117.82021,-21.415031,0.0004693626,-163.57292,1.0237373,1.0618575,1.1015375,0.5448401,2.8219774e-06,0.3,-19.842579,94.56881,94.574615,94.889465,94.893486,0.1060123,0.36562496,0.06396603584289551,10.634150044123333
32,320000,0.8299975032966518,-94.76202,0.05715544,0.3366452,1.2640276,-6.7606916,45.28031,27.01978,5.5743446,119.48647,119.42536,119.767204,119.65268,2.496735,0.7,-119.38414,-20.812674,0.004309278,-140.93701,5.607268,6.4312015,8.3117075,7.93127,8.027139e-06,0.3,-20.260303,93.322235,93.28775,93.716255,93.59424,0.13969584,0.42343748,0.06105232238769531,10.944510491689046
33,330000,0.8596536584089088,-95.82251,0.05651095,0.11578423,0.9371994,-2.0345607,34.34762,90.1989,7.4152107,119.490944,119.03495,119.343956,119.31704,6.042219,0.7,-120.470985,-22.371456,0.0004276476,-265.12674,1.5386381,2.0192957,1.7697861,1.7986135,5.657785e-09,0.3,-21.438744,94.368774,94.377716,94.1711,94.27997,0.15892932,0.48125,0.0735330581665039,11.252551702658335
34,340000,0.8208800987672037,-96.97078,0.056819998,0.19483119,2.136412,-6.176752,35.84152,66.85747,6.7063193,120.042885,120.90889,120.487114,120.21366,18.451185,0.7,-120.37673,-23.89605,0.0017904085,-176.81284,6.3825297,6.0463123,5.3378506,5.8593864,1.788391e-05,0.3,-20.71636,95.5347,95.56844,95.020874,95.31203,0.23696989,0.4578125,0.06679892539978027,11.560999882221221
35,350000,0.7932302491113522,-96.53828,0.05624029,0.21524316,1.1081215,-11.701583,33.89706,77.89873,7.584061,118.110085,117.942955,118.081024,118.18235,3.243912,0.7,-118.50079,-20.70334,0.00016410119,-157.407,11.265807,11.358156,12.126831,12.122485,9.29035e-07,0.3,-18.321617,94.989395,95.02317,95.23915,95.149025,0.13141517,0.43593746,0.05301332473754883,11.870703375339508
36,360000,0.7957201073033531,-96.188156,0.05687832,0.01697911,0.75208956,-0.89802307,30.328188,31.473076,7.2589984,119.43377,118.81947,118.892914,119.013245,8.018428,0.7,-120.5994,-22.12597,0.00018762048,-154.08893,0.87332726,0.7101859,1.1182314,1.1425619,1.4183752e-06,0.3,-17.178549,94.83991,94.82945,94.73406,94.86482,0.16251546,0.396875,0.05547165870666504,12.183666467666626
37,370000,0.7981311060796451,-95.373085,0.056732252,0.27454194,0.9381789,-7.3056827,37.494858,26.500065,6.6970844,119.37517,119.450905,118.77948,118.87161,3.975212,0.7,-119.694084,-28.828285,0.0034699657,-274.22952,6.706242,6.381584,6.650348,6.2632732,2.1713204e-07,0.3,-23.205082,93.79997,93.814514,93.52557,93.46445,0.17142917,0.55781245,0.05462026596069336,12.491242762406667
38,380000,0.7954712588680026,-93.64627,0.05770209,-0.38154176,0.83416843,-4.438547,33.263187,12.878151,5.9105787,118.12583,118.2161,118.502304,118.4071,8.541254,0.7,-118.54654,-23.020252,0.0014786154,-244.70413,4.3163676,4.989484,3.975062,3.9581633,1.174165e-07,0.3,-21.294325,92.26353,92.208115,92.081314,92.13303,0.14891614,0.4921875,0.05335879325866699,12.797433082262675
39,390000,0.822704475408857,-94.583244,0.05564479,-0.24013303,0.9592631,-2.7605062,34.523293,24.887741,7.487205,117.746254,117.643326,118.07878,118.09659,8.20549,0.7,-117.69912,-18.938465,0.00043989212,-250.4999,3.4444053,2.619852,1.978704,2.3437886,2.7939679e-08,0.3,-17.34916,93.44556,93.39302,93.66242,93.57853,0.17841375,0.4203125,0.06452679634094238,13.107225187619527
40,400000,0.8229209301595529,-94.58859,0.05440373,0.957724,0.6721251,-2.3999417,38.058094,10.845836,9.904971,117.009735,116.870476,116.86484,116.9593,1.4757588,0.7,-116.62108,-19.900454,0.002109751,-250.76674,2.4882987,2.8436742,3.466709,2.7556922,2.3720686e-05,0.3,-19.193577,93.12352,93.18323,93.020035,93.06352,0.11656749,0.403125,0.06556105613708496,13.415872307618459
41,410000,0.8247939296094807,-95.75078,0.053701185,0.5519164,0.54216516,-2.609229,30.835995,13.80238,6.6587534,118.35395,118.25469,118.2017,118.124405,8.841835,0.7,-118.462875,-21.103506,0.00017693179,-566.5755,1.7424631,1.8092101,1.7439574,2.428247,2.0995678e-06,0.3,-27.871977,94.307594,94.287575,94.13841,94.29979,0.18066613,0.3625,0.06283974647521973,13.723463376363119
42,420000,0.8199320467591708,-96.332634,0.05378496,-0.47656035,0.59975255,-0.50851476,33.862373,6.0965247,9.137602,116.98721,117.024796,117.455574,117.60033,3.88331,0.7,-118.05137,-24.536854,0.002590101,-167.26434,0.7668799,0.14054501,1.3477074,0.75391626,2.3497269e-07,0.3,-18.611603,95.169395,95.193054,95.40558,95.36392,0.103155844,0.43906248,0.06212568283081055,14.033863770961762
43,430000,0.8420665803515262,-93.46608,0.05373646,0.08194858,0.75506425,-1.8984503,36.189,27.687592,7.100505,117.09801,117.49948,116.74055,117.24479,21.518555,0.7,-118.845436,-20.475544,0.00014723185,-306.02136,1.9684455,2.2368083,2.2198308,2.1625743,1.8290594e-07,0.3,-21.947884,92.10287,91.94539,91.882355,91.877594,0.26140556,0.5078125,0.06637358665466309,14.344632947444916
44,440000,0.8328365383799129,-93.97676,0.053742196,0.17357638,1.1254578,-2.4557958,42.29605,132.07726,5.9508166,117.069275,116.8421,116.8926,116.98997,2.3280976,0.7,-117.08676,-28.805622,0.0005247773,-247.61206,1.7286605,1.374918,1.1684915,1.3138641,1.8290594e-07,0.3,-23.292868,92.70564,92.68234,92.76369,92.670074,0.08908424,0.45468748,0.06473064422607422,14.654542875289916
45,450000,0.8432223189607199,-95.62097,0.053628843,0.5806208,0.71971285,-0.7459145,37.57328,31.143906,6.878593,120.194695,120.560974,120.30319,120.31211,5.730568,0.7,-120.48634,-19.086723,0.0008210513,-438.34012,0.05630219,0.08466387,1.1124947,0.8577727,4.5781488e-07,0.3,-25.68959,93.95291,94.01523,94.16919,94.05086,0.121764764,0.45,0.06474423408508301,14.966281922658284
46,460000,0.8647369093403374,-94.845474,0.05302402,0.07742104,0.6910231,-5.6759105,33.923515,11.43531,9.074731,121.58488,121.62341,121.548325,121.34062,4.6527944,0.7,-121.214516,-23.00813,0.00037289283,-250.02837,5.1804237,5.688351,4.567755,4.8346415,5.5546875e-06,0.3,-22.063585,93.3559,93.32467,93.29724,93.25108,0.18184909,0.528125,0.07382416725158691,15.273553951581318
47,470000,0.8594150661114837,-94.45351,0.053852655,0.1732055,1.039773,-4.7651653,37.51773,115.105385,8.46375,116.52498,116.868454,116.48386,116.301125,1.7842633,0.7,-116.64286,-24.451454,0.0005918721,-261.06714,3.5750308,4.07613,5.497284,4.9727197,4.1984426e-06,0.3,-18.658049,93.043945,93.03119,93.15009,92.90521,0.12632012,0.52500004,0.0679023265838623,15.57951580286026
48,480000,0.9091680182135868,-93.9283,0.05343478,0.2347826,0.541027,-7.391892,33.35043,8.097449,6.343233,116.36695,115.853096,116.269165,116.178856,8.368737,0.7,-116.70794,-22.242609,1.51727e-05,-223.19992,7.4253225,7.137575,7.213303,6.9187756,3.4103978e-05,0.3,-20.29219,92.63078,92.57826,92.50584,92.24162,0.17488468,0.55,0.08142948150634766,15.88587559858958
49,490000,0.905032813583433,-94.621925,0.05348582,-0.22356424,1.1546763,-0.32615483,31.211418,55.628754,6.9785905,119.75176,119.93528,120.03518,119.94049,22.82878,0.7,-119.84494,-32.23874,0.0012877025,-269.04956,1.6032411,0.5926729,1.0907539,1.2089772,2.6332867e-05,0.3,-23.360079,93.06884,93.10529,92.949875,92.99318,0.26196468,0.428125,0.07759308815002441,16.19180695215861
50,500000,0.9546356095498426,-94.14689,0.053250503,0.8708118,0.7926978,-1.9365954,30.882505,14.982967,8.653332,117.450615,117.94009,117.32436,117.57321,14.582061,0.7,-117.65433,-25.053036,0.00045736204,-270.89594,1.4844751,1.8509812,2.5392966,2.3199418,1.867478e-05,0.3,-22.047646,92.81784,92.974365,92.85976,92.919495,0.17332932,0.440625,0.08505678176879883,16.487037090460458
51,510000,1.0245480968329521,-96.22192,0.05416423,0.755134,0.89017516,-4.7240286,44.518578,52.8142,4.529433,120.164215,119.91212,119.837006,119.75158,4.2307234,0.7,-119.948166,-20.07541,0.0006884246,-222.91658,4.4746084,5.0202465,4.9194374,5.1858115,4.5828057e-07,0.3,-24.050877,94.5208,94.60725,94.55528,94.81738,0.15539901,0.340625,0.09178423881530762,16.795736638704934
52,520000,0.9530857624608303,-96.94474,0.053669047,-1.1634085,0.49298227,-3.394939,49.227776,6.353202,6.6889324,117.97834,117.945526,117.998055,118.119995,0.9748191,0.7,-117.984505,-28.605326,5.6522258e-05,-262.95923,2.8176613,3.3262093,2.4067955,2.4242177,1.3205863e-06,0.3,-19.292423,95.83037,95.66466,95.67334,95.85222,0.10270464,0.3734375,0.08299541473388672,17.11214370727539
53,530000,1.0176461691503913,-96.322296,0.05309847,0.42457196,0.56730205,-6.2533116,35.151276,9.454463,5.4951644,117.43367,117.63193,116.48345,116.46637,2.3353884,0.7,-118.36773,-20.446012,0.00063514366,-547.47595,5.8187213,6.269448,6.154889,6.0602636,8.3862515e-06,0.3,-26.062824,94.73631,94.70791,94.59665,94.633514,0.12551653,0.49375,0.09168076515197754,17.422701315085092
54,540000,1.0520641494739544,-96.022575,0.053249013,-0.23489112,1.2019367,-8.080063,35.63551,32.082962,6.4317937,118.85635,118.35576,118.72649,118.62481,1.9825774,0.7,-118.74409,-21.42809,0.0008036751,-451.30835,8.657349,8.376539,8.0412855,8.2757015,1.0226621e-06,0.3,-24.990704,94.475204,94.47658,94.03552,94.094154,0.101870075,0.51875,0.09983396530151367,17.734935001532236
55,550000,1.0262382106486228,-97.41839,0.052781247,0.39667696,3.6299593,-6.3985696,39.32741,605.2197,7.6722145,120.5811,120.47902,120.661224,120.168625,7.228531,0.7,-120.372894,-19.180286,0.0009464484,-177.49821,6.7222004,6.278084,1.1918474,6.5321145,6.5045316e-07,0.3,-22.090858,95.9695,95.90413,96.28962,96.29022,0.16294228,0.4828125,0.09430193901062012,18.046924197673796
56,560000,0.9602528480948546,-95.498215,0.053110357,0.83216864,1.2492632,-4.756885,35.07062,12.277832,7.3849506,117.04481,116.73584,116.4065,116.52012,9.102626,0.7,-117.71766,-26.047668,0.00652153,-422.24173,4.5501423,4.7033396,5.012779,5.275332,1.745898e-06,0.3,-23.242117,94.06334,94.114006,93.587944,93.68848,0.1796663,0.4625,0.0846869945526123,18.360922940572102
57,570000,0.9696930032809541,-94.61061,0.054657027,1.3978494,1.4462142,-7.8477216,36.768925,30.285412,10.386044,120.78318,120.613045,120.25081,120.12389,3.167955,0.7,-120.147934,-16.29365,0.0005479951,-215.98627,7.8374796,7.652386,6.7221546,6.652216,1.9965227e-09,0.3,-19.347694,93.30665,93.27267,92.845184,92.92975,0.10951666,0.5140625,0.08691930770874023,18.67061059474945
58,580000,1.2396488623716202,-95.29972,0.053069636,0.33277643,1.3168178,-17.478315,41.860577,57.8554,4.1686573,118.62382,118.77609,118.508766,118.55993,13.906351,0.7,-118.56208,-21.468336,5.376176e-05,-179.23495,17.374842,18.001692,17.509283,17.638588,7.187482e-06,0.3,-23.83873,93.492004,93.381424,93.29302,93.49024,0.20158945,0.4359375,0.12508130073547363,18.9833589831988
59,590000,1.0264197120136562,-96.48278,0.053659063,0.18996021,0.55204904,-6.7347646,30.820135,17.365286,3.577747,117.95719,117.811424,117.95198,117.72516,3.1217349,0.7,-117.82367,-27.481094,0.00022754917,-429.00577,7.4254227,6.2469234,6.1864004,5.7724586,1.9965227e-09,0.3,-24.938993,94.920456,94.98831,94.9695,94.86673,0.12959056,0.53749996,0.0955348014831543,19.299248600006102
60,600000,0.9845993496104056,-94.74039,0.052174173,2.228805,0.7924159,-5.2653365,33.768913,16.02896,6.745213,121.1045,120.86412,120.81228,120.40509,3.1983056,0.7,-120.71574,-21.068718,0.00044562883,-313.3205,6.000149,5.5445085,6.13258,5.5702252,1.4283462e-06,0.3,-24.153181,93.152954,93.11558,93.12648,93.1197,0.122742206,0.49843752,0.08437347412109375,19.607839449246725
61,610000,1.1279198985143002,-94.734344,0.052325442,-0.0355206,0.71428037,-7.2562704,29.46691,35.08597,6.0374928,118.719246,118.706154,118.7909,118.82244,9.943507,0.7,-119.41243,-20.411516,0.001055506,-493.53976,6.330083,6.496114,6.0549836,6.512031,3.873854e-06,0.3,-21.974579,93.38811,93.42702,93.51242,93.738335,0.14711264,0.35937497,0.11028671264648438,19.915437471866607
62,620000,0.9715348888891082,-93.99954,0.051224843,0.59180653,0.7035967,-3.0131433,35.20984,31.294333,6.686449,118.001564,117.831184,117.75001,117.7673,2.32726,0.7,-117.79356,-31.816448,7.227063e-05,-384.73245,3.2062848,2.7520733,2.57845,2.7556527,1.2915116e-07,0.3,-23.936378,92.712234,92.65315,92.703514,92.71725,0.0959855,0.45625,0.08312630653381348,20.221033950646717
63,630000,0.9787984392085058,-94.30281,0.05308853,-0.85732937,0.5421461,-2.363606,26.082869,11.83403,7.2197313,118.78499,118.77867,118.32342,118.59481,2.2785752,0.7,-118.39617,-21.180254,0.00027964852,-200.03922,1.8820269,3.142621,2.2980494,2.6785145,1.4709076e-08,0.3,-18.65143,93.19976,93.29578,93.2274,93.33376,0.089015484,0.453125,0.08315682411193848,20.528014544645945
64,640000,0.9767407393898463,-93.4541,0.051928826,-0.15974832,0.8135047,-3.2146375,34.252903,14.927169,4.808608,118.41476,117.64958,118.72047,118.77446,3.9324467,0.7,-120.574196,-26.215393,0.00039176375,-836.79565,2.3358426,3.15813,1.1656351,1.6106879,6.3038897e-07,0.3,-27.058805,92.03128,91.98889,91.94527,91.95031,0.14092669,0.4296875,0.08425450325012207,20.835702121257782
65,650000,1.1066078398681762,-93.36032,0.052170753,0.45754677,1.2083037,-8.32659,29.40826,100.521286,8.808139,115.50857,115.342125,116.3407,116.437,8.943202,0.7,-115.974396,-25.026417,0.0024487919,-616.26044,7.3171034,8.107614,7.5968733,8.447544,8.451753e-09,0.3,-24.140587,91.934906,91.856735,92.04182,92.237625,0.22084802,0.41562498,0.10207343101501465,21.14132988055547
66,660000,0.9260895172945554,-95.48319,0.051904887,0.7097849,0.9966708,0.46343327,34.400726,46.366848,7.173319,118.68332,118.63905,118.04773,118.21535,3.2362323,0.7,-119.44823,-26.29402,0.00010736112,-250.50662,-0.6545644,-0.5661192,1.2484134,-0.14097458,1.466833e-09,0.3,-23.462032,93.885414,93.93139,93.72687,93.94906,0.17963524,0.44843748,0.07883286476135254,21.44967929919561
67,670000,0.9248741993153645,-96.46359,0.051889904,0.27549928,0.79439986,-7.464318,40.16475,12.537982,5.1412497,117.01525,116.860344,117.4164,117.15687,3.6800246,0.7,-117.20361,-23.836876,0.007160688,-467.0295,7.199094,7.0305195,7.4066772,7.7182846,4.0745363e-09,0.3,-25.066118,95.07527,95.056854,95.4329,95.39708,0.13002059,0.409375,0.08030819892883301,21.75580795208613
68,680000,0.8916150877643495,-94.488144,0.05171874,-0.6811328,0.47310004,-11.30298,36.558155,4.914528,5.04581,117.598,117.65246,117.723335,117.76922,4.9179583,0.7,-117.81509,-25.151402,0.0013390277,-293.25543,10.8866,10.968102,10.815882,11.29756,1.0058284e-06,0.3,-23.521297,93.088844,93.12718,93.19423,93.2003,0.0842029,0.4375,0.07446455955505371,22.063081737359365
69,690000,0.8827088431416158,-93.82119,0.0522067,-0.045708507,0.7767116,-6.362118,34.29343,17.532032,7.3417597,118.08749,118.15908,116.68628,117.475,5.9327393,0.7,-117.8844,-19.78756,0.00045439007,-138.90085,5.810855,5.6970787,7.057234,7.103899,2.7383678e-06,0.3,-19.781097,92.28941,92.336395,92.183716,92.29588,0.1763409,0.37656248,0.07007265090942383,22.372174326578776
70,700000,0.9118099924711619,-95.48448,0.052641094,0.014038309,1.009836,-2.6078584,36.670937,17.77844,5.7062283,116.87052,116.44263,117.02117,117.00801,4.4698286,0.7,-116.75712,-24.874163,0.0059983945,-272.6559,1.9393985,2.6562102,1.7359835,1.7428048,7.099472e-07,0.3,-22.353966,94.23607,94.20502,94.59072,94.531425,0.11759487,0.41875,0.07668447494506836,22.67778936227163
71,710000,0.9313739555864459,-94.43332,0.051605303,-0.36515427,0.7451936,-1.3735512,47.57207,26.06113,5.956311,115.61029,115.58943,115.876495,115.76946,3.7420983,0.7,-115.81479,-27.259708,0.00020827173,-289.77814,1.3999437,1.4020109,1.1684994,1.1534462,1.7462299e-09,0.3,-22.353905,92.90065,92.90904,93.11264,93.106865,0.11203569,0.4421875,0.0774075984954834,22.98526374101639
72,720000,0.9633893712959215,-92.631744,0.05209014,0.44565916,0.55790126,-6.83236,33.61264,7.144369,7.125952,116.711876,116.7818,117.52555,117.52207,2.6301768,0.7,-118.32931,-21.68369,0.0006388899,-439.2521,6.80328,6.69198,6.887612,6.5929418,4.2059644e-05,0.3,-28.066402,91.19862,91.19386,91.16594,91.06188,0.1193973,0.46874997,0.08245587348937988,23.29352224667867
73,730000,0.904184878213205,-95.93895,0.051635392,0.24288952,0.74360454,-3.5183744,31.238272,14.347523,5.4083514,117.950264,117.837234,117.66739,117.71025,2.5489423,0.7,-118.258514,-19.985258,0.0011138748,-314.0217,3.8190453,3.4027593,2.893148,3.0743437,1.5429687e-07,0.3,-24.623821,94.443146,94.466736,94.26857,94.318665,0.14516696,0.46718746,0.07343554496765137,23.610094730059306
74,740000,0.9033891272331448,-94.1291,0.05127001,1.401393,0.5619093,-11.209163,40.084652,15.496,8.103708,118.741005,118.5939,118.52787,118.27686,3.3225136,0.7,-118.86054,-23.280048,0.00031857053,-306.9458,11.63368,10.848442,10.455955,11.203519,3.228779e-08,0.3,-26.470787,92.2133,92.1755,92.21373,92.31987,0.118782826,0.42499998,0.07875227928161621,23.935540854930878
75,750000,1.077810584132127,-94.06079,0.051029596,0.54213643,1.0051032,-1.6398154,45.261253,19.990181,6.999619,119.11115,119.218315,118.57319,118.87447,6.4348316,0.7,-119.314606,-22.891983,0.0011153193,-871.47406,1.8043003,1.8798686,1.7188644,2.1244986,1.1804514e-08,0.3,-28.09504,92.52766,92.58382,92.2435,92.52623,0.12316265,0.41718748,0.1024167537689209,24.2624849875768
76,760000,1.069364252600114,-95.724335,0.050122973,-0.25393626,0.5868734,-2.3456404,32.24038,18.630945,6.0213156,116.5043,116.315216,116.16373,116.94654,1.4376204,0.7,-116.88233,-20.306103,0.0008968884,-207.88362,2.32056,3.625684,3.3681567,3.6178513,1.9247645e-06,0.3,-20.524887,94.54193,94.448425,94.546234,94.54996,0.08204804,0.4984375,0.09547758102416992,24.58052421013514
77,770000,1.183264543523424,-92.74472,0.051127,-0.38176495,0.5772009,-3.454531,31.27059,14.248683,6.2111254,119.15141,119.07233,119.44654,119.7873,6.377171,0.7,-118.90959,-24.05139,0.0009341187,-797.81067,3.1346483,3.3658404,3.5973554,3.758675,1.9541883e-06,0.3,-30.961779,91.258736,91.34249,91.468735,91.412346,0.13990244,0.421875,0.12133288383483887,24.8971617380778
78,780000,1.055286396474813,-94.07094,0.050383117,0.03896591,0.6514513,-6.8171754,40.34143,14.835766,4.9885454,118.182365,118.06963,118.52225,118.43163,5.037562,0.7,-118.30526,-21.764204,0.0015396592,-531.85016,6.858273,6.8120317,6.314424,6.1744084,3.4030934e-06,0.3,-26.664083,92.66417,92.66022,92.97351,92.873924,0.114095286,0.40625,0.10697078704833984,25.219024312496185
79,790000,1.0976948409399536,-96.15056,0.049632926,0.23450187,0.6608639,-7.1163387,38.859444,8.108643,6.543258,116.69305,116.43376,116.81639,116.56499,3.2449281,0.7,-116.37225,-24.448393,0.006044594,-358.67496,7.0318704,6.994461,5.5635433,5.823021,1.774868e-07,0.3,-26.636507,94.49741,94.407074,94.50407,94.4577,0.123045966,0.5171875,0.11438703536987305,25.542422862847648
80,800000,1.1048197087865004,-95.069824,0.04920709,-0.43732706,0.71312916,-3.5100048,32.55462,22.502804,7.665014,118.90109,117.83283,118.64088,117.62178,13.635228,0.7,-119.34642,-27.700388,0.00024871493,-458.23682,2.5378418,3.495879,3.4421096,2.9718971,2.6077032e-07,0.3,-22.918373,93.78566,93.86847,93.933235,93.8832,0.14364336,0.453125,0.1115577220916748,25.859478628635408
81,810000,1.0517678414908667,-96.41353,0.05095539,-0.2500956,0.65318894,-2.3282359,33.909637,9.038966,5.93995,116.08149,116.1173,116.47949,116.33963,1.5949422,0.7,-117.28309,-23.181328,0.00011091272,-344.0062,1.583946,2.0597436,1.1710862,2.5201063,8.1472103e-07,0.3,-21.591942,95.11284,95.10002,95.34996,95.263824,0.09531331,0.44687498,0.10044693946838379,26.172965943813324
82,820000,1.0254577896842465,-93.996605,0.05026113,-0.33839715,0.57034254,-2.1059885,28.579765,12.776733,6.5708036,115.624435,115.713486,115.20947,115.93996,3.6180353,0.7,-117.19142,-20.481403,0.0003209678,-291.35422,2.2652953,2.204019,2.8405437,3.509859,5.4761767e-06,0.3,-22.339357,92.8526,92.83605,92.62697,92.852554,0.120948836,0.37499997,0.10134720802307129,26.491645725568137
83,830000,1.044494321866179,-92.95737,0.050489202,-1.6043551,0.7729958,0.45942712,39.145626,42.331333,1.5675888,116.376755,116.12972,116.429535,116.438286,5.889237,0.7,-116.85929,-21.038523,0.0008411185,-355.19247,-0.2353124,-0.83410585,-0.5013461,-1.0472723,8.8046653e-07,0.3,-25.268509,91.588486,91.5457,91.75903,91.729774,0.123897,0.41718748,0.09668755531311035,26.80850927035014
84,840000,1.1260946909186622,-93.288666,0.04918571,0.4560094,0.684932,2.767527,34.478455,21.911106,6.499992,119.88395,120.1292,120.02366,120.245,2.9876628,0.7,-120.25765,-24.781252,0.0010947082,-380.73465,0.4161445,-3.3264828,1.1577277,-5.4475546,1.8312595e-06,0.3,-25.156807,91.84934,91.78167,91.95509,91.78845,0.09822875,0.4765625,0.10836005210876465,27.122393055756888
85,850000,1.1245400542502126,-96.21663,0.04904887,0.16103607,0.8562403,-7.908975,45.131786,64.82008,5.6643276,116.258224,116.359604,116.37482,116.6444,8.391613,0.7,-117.65067,-18.31444,2.1964544e-05,-2170.9812,8.557463,8.1853485,8.603935,8.41381,2.4728362e-07,0.3,-36.69737,94.785934,94.81894,94.90458,94.89972,0.13057724,0.403125,0.1204988956451416,27.441533466180164
86,860000,1.2107260774640365,-92.426575,0.049096595,0.3536362,0.7785876,-2.0504286,48.873604,10.715741,5.99008,120.64822,120.70028,120.31612,120.47559,3.4500499,0.7,-121.21211,-21.992188,0.00032707327,-449.22314,0.3211633,1.0230105,1.137578,0.46526724,3.5240663e-07,0.3,-24.232292,90.86436,90.947815,90.809875,90.883125,0.11261007,0.42499995,0.12244343757629395,27.758447766304016
87,870000,1.1067106389728594,-93.508545,0.04925694,-0.5969852,0.38917613,-0.89447373,31.355516,4.7301927,6.028871,116.78851,116.75129,116.643974,116.60608,1.4661901,0.7,-117.07554,-18.49116,0.00028251787,-2307.469,0.48592156,0.71748203,1.1138345,0.20403236,2.6287278e-06,0.3,-33.626347,92.16597,92.1419,92.103714,92.155396,0.089281455,0.43281248,0.11092424392700195,28.07062151034673
88,880000,1.0943287033624438,-94.915764,0.04963863,-0.30079788,0.438703,-3.6611137,31.485336,16.989523,7.429061,117.20908,117.213806,117.248795,117.21982,1.0633757,0.7,-117.52977,-21.045818,0.0011001087,-683.5523,2.5288002,3.625927,3.694416,3.6731772,4.1564343e-07,0.3,-33.496517,93.69287,93.6384,93.57242,93.62134,0.0806717,0.47031248,0.10996627807617188,28.388152901331583
89,890000,1.0923901809327665,-94.71065,0.050540343,-0.24850762,0.9583701,-3.2755973,28.447426,24.892693,4.778464,119.131424,118.66079,118.14182,118.283585,4.73962,0.7,-118.51762,-24.067244,8.961797e-05,-336.19943,3.0228415,3.2635717,2.073615,1.9861362,6.67572e-07,0.3,-24.296848,93.28839,93.29596,92.975006,93.08179,0.12598735,0.5140625,0.11470723152160645,28.713536361853283
90,900000,1.1245039221082824,-95.06953,0.048369303,-0.6072021,0.5629227,-5.0243273,28.123026,9.740915,5.2759266,117.17209,117.07047,117.11804,117.11701,2.8495765,0.7,-117.44453,-19.996935,0.0015496961,-439.39755,4.5133624,4.974076,6.477601,5.962226,1.810561e-06,0.3,-24.059748,93.7906,93.89403,93.92338,93.82628,0.103362046,0.4578125,0.11540865898132324,29.035389971733093
91,910000,1.0589049884083446,-92.348305,0.047220316,-0.4741854,0.51391745,-1.240533,43.584305,7.2213182,5.733431,116.234505,116.266426,116.87305,116.733246,3.5232716,0.7,-116.48149,-26.734734,0.0036846017,-586.9189,1.2360165,1.3999403,1.1646156,1.7372174,1.7214916e-07,0.3,-25.047922,90.92551,90.96576,91.18551,91.08128,0.11061368,0.46562502,0.09789586067199707,29.352077873547874
92,920000,1.0907127294527033,-95.64957,0.04816435,0.111234576,0.6691254,-8.014748,38.92211,10.749236,9.910499,117.15772,116.836136,117.56239,117.50101,2.9476519,0.7,-117.43832,-25.410774,0.0023488423,-298.3255,8.472667,7.8751736,8.938339,8.644137,4.303729e-06,0.3,-27.747341,94.121735,94.096214,94.27477,94.273544,0.12115186,0.45937502,0.11263132095336914,29.66108937660853
93,930000,1.0642034875798485,-96.03381,0.04791267,1.4098495,0.60169375,-9.648115,62.326817,13.721607,7.848343,116.2576,116.228065,116.19642,115.83557,3.5171,0.7,-116.38824,-20.738977,0.0008277696,-486.65546,9.502624,9.810314,9.557106,9.827266,1.7290702e-06,0.3,-27.683475,94.488434,94.58696,94.445175,94.47423,0.1319887,0.5171875,0.10307431221008301,29.97686260143916
94,940000,1.0978130431732382,-94.62171,0.048202757,-0.6881864,1.2710694,-1.2737197,40.713905,41.928635,6.46922,117.34566,117.4772,116.55349,116.71146,6.2367587,0.7,-117.139336,-23.501675,0.00037870213,-739.2785,0.94638324,2.098002,1.1429558,2.289765,2.7939678e-10,0.3,-28.40813,93.40825,93.50197,93.04242,93.111465,0.15492892,0.4953125,0.1094977855682373,30.303512732187908
95,950000,1.1143561057545734,-95.32991,0.046763487,0.60237485,0.7254781,-2.1725914,31.878363,56.50808,6.266501,116.01492,116.16272,116.00593,116.16338,2.9012327,0.7,-116.49606,-19.67615,0.00035692874,-229.32849,2.2481308,2.3038015,2.1831453,2.3467038,4.62741e-06,0.3,-25.236563,93.92084,93.964195,93.911865,94.06964,0.12570077,0.4015625,0.10586404800415039,30.621391753355663
96,955000,1.1001683098973627,-95.76728,0.047060575,0.91016805,0.48525965,-12.432783,35.78086,11.031649,7.595043,119.391106,119.30915,119.18141,119.015785,1.459372,0.7,-119.29111,-22.17501,2.1243526e-05,-352.69797,12.776647,12.767615,11.121975,11.106723,2.2694003e-07,0.3,-25.665272,94.28439,94.27341,94.24858,94.165535,0.09715292,0.5140625,0.12131834030151367,30.782029823462167
97,960000,1.1457908231738845,-93.95718,0.047439788,0.5505587,0.5101478,-4.8947835,32.696064,9.132324,6.4568233,116.07273,115.95941,116.14124,116.156105,5.01962,0.7,-116.47169,-26.060104,5.7685305e-05,-302.42883,5.117148,5.0494146,5.4080486,5.323389,2.861023e-07,0.3,-26.630215,92.40547,92.365425,92.51806,92.456726,0.09505137,0.43124998,0.11077094078063965,30.946788438161214
98,965000,1.1267441615905516,-95.10083,0.048165545,-0.04945463,0.53186536,-2.0352092,42.258224,17.097778,5.542843,118.263695,118.024155,118.508736,118.183426,5.1275806,0.7,-118.52194,-22.66819,0.00084872317,-467.03253,1.8596759,1.832572,0.901834,0.64860946,1.4144462e-07,0.3,-30.915216,93.71352,93.716774,93.6341,93.5514,0.13414034,0.5296875,0.11461019515991211,31.10604197581609
99,970000,1.098504540214266,-95.3166,0.044456504,-0.9795946,0.6276235,-5.9335623,31.37526,40.884884,7.3116865,115.945724,115.849144,116.0042,116.013374,2.4905305,0.7,-115.98799,-25.059849,0.00083904155,-1392.7523,6.199167,5.8453913,6.218764,5.922739,5.186739e-06,0.3,-30.443857,94.1425,94.0918,94.16142,94.11937,0.073398784,0.5125,0.10273265838623047,31.263522958755495
100,975000,1.0738521937089065,-95.95812,0.048005264,-0.31104058,0.61118114,-6.0309567,34.839233,14.315088,5.625554,118.84801,118.56692,119.16613,118.99301,1.6214385,0.7,-118.81979,-25.068876,0.00035360042,-368.32767,5.7556787,6.0715632,6.0066633,6.2257514,1.3238169e-07,0.3,-27.689474,94.54695,94.4922,94.550354,94.59143,0.09071597,0.42812496,0.09659528732299805,31.418904475371043
101,980000,1.1192837210710493,-94.525696,0.04545427,-0.114457816,0.49570024,-4.821543,42.087112,10.710554,7.3938227,115.49561,115.303566,115.30914,115.70886,7.1650295,0.7,-117.59741,-27.033724,0.0013969957,-504.0046,4.400171,4.7199073,4.6828504,4.613619,7.838826e-08,0.3,-28.035816,93.20448,93.21756,93.307175,93.2496,0.09987912,0.4609375,0.10767698287963867,31.574224837621053
102,985000,1.117457280725295,-95.58728,0.04677109,-0.26763022,0.6854135,-1.4573455,41.934162,15.293856,7.2765803,115.47476,116.2734,115.5944,115.72286,2.0857463,0.7,-117.90798,-27.233122,0.0002570586,-640.8075,1.6396946,1.8078973,1.4197865,2.1931024,2.6560157e-08,0.3,-26.20802,94.39102,94.44435,94.68022,94.59709,0.07983899,0.44062498,0.10422062873840332,31.727067883809408
103,990000,1.1460386266117535,-94.26721,0.048608135,-0.1240682,0.5558011,-2.8452077,42.178745,8.647398,3.00328,116.31068,116.0278,116.02069,116.08038,1.6090853,0.7,-116.89842,-20.343401,0.001638792,-395.91132,2.3622503,2.889034,3.326908,3.3502405,6.078626e-08,0.3,-26.162018,92.9653,92.94792,92.930466,92.97365,0.09399404,0.440625,0.11122798919677734,31.882983942826588
104,995000,1.1319980190100005,-95.68237,0.045022782,-1.3933783,0.45355386,-9.078586,27.234123,6.1424274,5.971262,115.493004,115.10785,115.9237,115.71654,3.1076636,0.7,-115.632065,-20.574776,0.00029492064,-289.1631,8.019697,8.139219,7.7051487,7.912066,7.986091e-07,0.3,-23.096228,94.67241,94.59668,94.739845,94.80032,0.123648115,0.36562496,0.10247349739074707,32.037930119037625
105,1000000,1.1474538098779845,-93.82414,0.04440823,0.87940997,0.75149447,-3.431046,40.41441,28.640348,7.318239,116.62216,116.79231,116.68499,116.64078,5.456051,0.7,-116.84081,-26.267838,0.00032977876,-547.8557,4.2558613,4.0670547,4.324382,4.0859632,2.7756148e-06,0.3,-28.639055,92.28366,92.255264,92.40253,92.42033,0.11668767,0.459375,0.10825848579406738,32.19202315012614
