Xixo99/comfo/relaxed_iql/20230321_5seed_mle0/hopper-medium-expert-v2/riql_s0_20230320_195238_hopper-medium-expert-v2_0.88.csv
,step,reward,actor_loss,alpha,alpha_loss,critic_loss,max_actor_loss,max_alpha_loss,max_critic_loss,max_mle_prob,max_q1,max_q2,max_target_q,max_v,max_value_loss,max_weight,min_actor_loss,min_alpha_loss,min_critic_loss,min_mle_prob,min_q1,min_q2,min_target_q,min_v,min_value_loss,min_weight,mle_prob,q1,q2,target_q,v,value_loss,weight,eval_time,time
0,0,4.9908192931834305,,,,,,,,,,,,,,,,,,,,,,,,,,,,,,,,,
1,10000,0.9168539547280409,-39.888737,0.057965677,-7.1753755,0.6626932,-5.0564513,12.773022,124.030334,3.2515578,54.224876,54.286625,52.648712,52.29189,1.0351169,0.7,-54.26379,-24.118376,6.142691e-05,-114.538666,5.3925037,4.5907154,5.4015436,4.8274975,6.9667335e-06,0.3,-7.68991,39.53635,39.48365,39.396366,38.962296,0.034488656,0.35624996,0.08363652229309082,1.297805941104889
2,20000,0.8788966072749375,-63.612488,0.03183149,-0.9171127,1.0352532,-3.8023448,36.948,102.96297,4.961466,74.371994,74.51062,75.665276,74.168396,5.7477665,0.7,-76.239784,-26.307507,0.00042204896,-304.7258,3.961712,3.789506,4.1884737,3.822508,2.0746957e-07,0.3,-26.27311,62.80985,62.869896,62.894337,62.55322,0.081278875,0.41249996,0.0723276138305664,1.6240174253781636
3,30000,0.7906538377714039,-77.100006,0.036860023,-0.79994416,0.85415876,-0.6008909,39.575558,52.517723,4.608455,92.0798,92.00326,91.58598,91.87072,30.411392,0.7,-92.235214,-30.73794,8.652511e-06,-101.31894,1.2730684,2.5586233,1.3204422,1.7595168,8.222822e-07,0.3,-17.230198,76.42083,76.451614,76.54604,76.29902,0.19168904,0.390625,0.05922055244445801,1.9503807465235392
4,40000,0.7995906615612903,-84.88333,0.038906015,0.07260811,1.0646617,-0.24463063,54.045227,14.799291,6.314067,99.6089,99.578255,100.38822,99.76267,2.3747854,0.7,-99.94707,-18.579248,0.0005386324,-375.40125,-0.08673188,0.024450645,-1.8206381,-0.38309658,3.7433756e-06,0.3,-19.552544,84.15094,84.15751,84.578606,84.33656,0.099856205,0.453125,0.05755877494812012,2.270202914873759
5,50000,0.800596884388934,-89.52384,0.043869536,-0.2251432,1.4380887,1.4970472,47.621803,105.14865,7.884312,108.28119,107.78886,108.39307,107.80772,11.821576,0.7,-108.22325,-19.407864,0.0006802771,-196.21472,-2.2192025,-1.5136352,-1.376143,-1.4460323,6.9849198e-09,0.3,-17.629377,88.548965,88.467445,88.441986,88.398125,0.25086355,0.40937498,0.05966806411743164,2.594271945953369
6,60000,0.8057603053180169,-91.78457,0.04745363,-0.011947691,1.0325165,-1.9927348,61.198605,38.4647,5.95821,111.69564,111.54922,111.545784,111.25118,9.753535,0.7,-111.364265,-26.459959,0.0006670889,-259.5908,0.6679305,1.2967265,1.0152105,1.04873,9.643554e-07,0.3,-17.977661,90.88157,90.90994,91.0674,90.875824,0.16298613,0.49218747,0.059378623962402344,2.91945854028066
7,70000,0.8054102461545188,-93.608696,0.047734633,0.5874288,0.87924445,-3.0024073,48.07672,50.40755,6.052652,112.35387,112.28289,112.66357,112.60328,5.0600758,0.7,-112.306244,-20.872036,8.222181e-06,-121.46868,3.010272,2.3630967,3.3333802,3.4689467,1.2380141e-05,0.3,-14.228186,92.56676,92.66011,92.734955,92.79349,0.16127093,0.43124998,0.06033921241760254,3.243327478567759
8,80000,0.8030483445195984,-94.16262,0.048377365,0.76218987,1.5956807,-5.3875656,44.39021,44.685604,7.151514,114.11697,114.51118,114.72732,114.499596,7.3000045,0.7,-114.0606,-24.181707,0.00037752028,-105.82889,5.128966,5.495853,4.721718,5.025114,1.4685793e-08,0.3,-14.810026,93.09536,93.164085,93.40784,93.351395,0.16420121,0.471875,0.06222867965698242,3.5756354371706647
9,90000,0.8074550278171704,-97.22755,0.047542956,-0.5315175,0.9162476,-3.0977416,39.552677,27.364815,5.3742857,114.92563,114.55356,114.700356,114.97625,15.278488,0.7,-114.45575,-26.616781,6.6426815e-05,-249.68048,1.6682603,1.7669106,0.9740854,1.6474191,1.3014477e-06,0.3,-15.484001,96.22009,96.22664,96.1366,96.388794,0.30830055,0.4375,0.06173443794250488,3.8995295643806456
10,100000,0.8016622866986555,-96.710594,0.046586536,0.053305984,0.9763733,-8.663417,58.278755,27.790253,6.5607224,116.001,116.80866,118.38694,116.175354,8.521603,0.7,-117.14293,-15.2981205,0.0002923461,-251.27708,8.7088785,8.867804,9.084688,8.48839,5.8836303e-08,0.3,-19.940586,95.822655,95.80286,95.930084,96.09627,0.19491495,0.35312498,0.058596134185791016,4.224549301465353
11,110000,0.8436683457024738,-97.61379,0.048063874,-0.4683714,0.98553437,-1.415108,45.997185,55.802467,6.1814594,116.83189,117.16316,116.91843,116.58974,3.6227798,0.7,-116.96674,-25.846287,0.00041233946,-469.34354,2.325701,2.0466983,2.4559412,2.898649,1.4709076e-08,0.3,-17.778515,96.60711,96.698586,96.587265,96.6351,0.1862633,0.525,0.07105398178100586,4.54887680610021
12,120000,0.8866405842986362,-97.435486,0.048711468,0.34692296,1.5465367,-1.1518766,45.238487,23.683317,7.8981,118.57532,118.86744,117.77905,117.912,9.745244,0.7,-118.36786,-26.874157,0.0010548226,-228.50558,0.061083347,2.2900984,1.3926464,2.7549758,3.6209823e-07,0.3,-21.315132,96.23419,96.21993,95.98648,96.127304,0.29085743,0.4671875,0.07643461227416992,4.872911822795868
13,130000,0.903884601947123,-96.931145,0.04934431,0.18398145,1.4060092,-3.707649,37.263573,85.63696,6.6169767,117.207054,117.78056,117.04109,118.09004,17.920721,0.7,-118.838806,-17.406834,0.0024724463,-629.61414,3.3874092,3.0537965,3.5747097,3.7276335,1.455465e-06,0.3,-23.167952,95.8142,95.78703,95.62599,95.704895,0.21819061,0.42031246,0.07591056823730469,5.201074103514354
14,140000,0.9186479205625493,-97.29878,0.050945867,-0.99977565,1.9007719,-0.716666,32.197247,83.76187,4.9055824,119.53652,119.755745,119.21763,119.37581,10.697003,0.7,-119.78142,-21.692667,0.0014640178,-222.3888,3.1370902,1.6465471,1.1212933,-0.541261,9.387731e-08,0.3,-15.731945,96.31585,96.241234,96.37756,96.31473,0.15161194,0.490625,0.08711004257202148,5.533565088113149
15,150000,0.7972983796080114,-95.579895,0.051669434,-0.24709612,0.8050349,-3.6267936,30.499025,28.799927,7.135077,116.47719,116.38534,116.24655,116.13562,5.4638624,0.7,-116.60322,-28.185959,0.0003795788,-265.0622,2.7980192,2.7876549,4.1939845,4.229016,5.9764716e-07,0.3,-17.529005,94.52901,94.57968,94.46759,94.50305,0.15008137,0.49062496,0.06415438652038574,5.864624869823456
16,160000,0.7848917944282028,-95.30095,0.051970106,-0.11880204,1.2201569,-2.7054229,37.429157,148.25592,5.9662747,115.46187,115.95019,116.72924,115.87908,4.553913,0.7,-116.66662,-20.391136,0.00088469527,-432.49423,2.9139295,2.1534576,3.3941076,3.8646736,1.0653574e-06,0.3,-21.02866,94.07451,94.03143,94.11344,94.268555,0.13876419,0.37812498,0.059424638748168945,6.187968782583872
17,170000,0.7820006207375949,-98.123245,0.053064477,-0.6677578,0.8749006,-7.1995206,36.02805,26.13316,6.280835,116.42046,116.545815,115.736626,116.2501,2.4673302,0.7,-116.65432,-30.760078,0.00038140686,-604.95935,7.302751,7.619381,8.841475,8.655969,0.0,0.3,-20.551014,97.09691,97.18073,97.04791,97.0027,0.11080158,0.4546875,0.057502031326293945,6.513942003250122
18,180000,0.7876008952161836,-95.86972,0.05341467,-0.3078136,1.0249078,-1.8581182,40.04058,34.108147,4.4085894,117.926216,117.63458,118.17102,117.999756,3.2674444,0.7,-118.31946,-30.889765,0.00076610624,-427.12997,1.5975975,1.3431821,1.2959657,1.3074944,2.6850032e-07,0.3,-21.17529,94.784775,94.895096,95.03036,94.993774,0.12224861,0.4234375,0.058997392654418945,6.835339391231537
19,190000,0.8118585413312979,-95.2249,0.052191988,-1.7712348,0.95772207,-1.4599688,28.240833,64.73503,5.680833,119.43324,119.83462,119.494934,119.29221,1.7177074,0.7,-119.471466,-21.778015,0.00060142303,-203.3039,1.3948044,0.98813546,1.4246181,1.0437104,1.2915116e-07,0.3,-19.725626,94.479225,94.36186,94.512566,94.4164,0.08727378,0.5,0.06501054763793945,7.149184966087342
20,200000,0.7890319796600663,-94.89184,0.05320219,0.19027469,2.5036368,-0.32736015,50.789555,171.45935,5.1106005,117.877106,118.242325,118.295525,118.72747,19.180595,0.7,-120.09214,-19.220982,0.00039938168,-670.9032,0.12566712,1.1774323,2.415354,2.9648318,9.1574043e-07,0.3,-23.96394,93.83947,93.90915,93.931305,94.05431,0.2992469,0.3890625,0.05650496482849121,7.469315679868062
21,210000,0.8570841929519932,-95.63705,0.053798705,0.5474045,1.19332,-5.6962404,43.67695,62.638485,5.6393666,118.55817,117.86516,118.37709,117.18981,18.300804,0.7,-118.12388,-20.249847,0.0002674249,-345.16025,5.552962,5.560927,6.0277557,5.053805,2.6018126e-06,0.3,-22.926762,94.28618,94.40124,94.24472,94.186584,0.3051291,0.5578125,0.0737004280090332,7.789003829161326
22,220000,0.8684777813508586,-94.96614,0.055184204,-0.4539722,1.1149228,-0.5691571,34.536427,91.61429,5.859357,119.26666,119.45407,118.9029,118.76211,3.1133285,0.7,-121.42083,-20.99346,0.0015081721,-185.46956,1.3478339,0.6788435,1.16384,1.3225508,9.2375564e-07,0.3,-18.936413,93.80642,93.78263,93.68422,93.60025,0.14255743,0.5375,0.07901144027709961,8.109189267953237
23,230000,0.8465098942880069,-95.90982,0.055125505,-0.7153491,0.94865084,-0.47139886,51.341618,26.110504,10.669795,120.18218,120.29539,120.078545,120.108765,12.839958,0.7,-120.650345,-22.804049,0.00012630789,-533.4104,-0.42679292,0.4806754,1.0241393,0.08913332,1.2777745e-07,0.3,-22.078829,94.69887,94.73973,94.80907,94.69368,0.2500045,0.44687498,0.07755923271179199,8.430341919263205
24,240000,0.8363366772573747,-94.749374,0.05515462,0.4791819,0.9546819,-3.4168215,100.137634,29.463432,6.2859287,119.8693,119.98146,120.01481,119.72798,5.5725875,0.7,-120.33177,-21.583359,0.0004365857,-577.08795,3.4553347,4.2731905,3.224741,2.8275702,1.7437153e-06,0.3,-25.382261,93.62639,93.65816,93.78142,93.6982,0.1625227,0.48281246,0.07253098487854004,8.755653874079387
25,250000,0.824089197569155,-98.73394,0.05663727,-1.2413278,0.70703155,-11.806425,42.44525,18.18768,6.962388,118.276,118.46112,118.17197,117.975716,22.37655,0.7,-118.303696,-22.60512,0.000204377,-470.98154,11.891974,11.997716,11.305989,11.055709,1.446053e-07,0.3,-21.284025,97.51117,97.533875,97.53419,97.42035,0.2002025,0.4609375,0.07024884223937988,9.075314211845399
26,260000,0.7906825717265457,-95.562805,0.056848668,0.07468361,0.9508983,-6.981272,31.233757,36.938293,5.0147834,119.32327,118.97878,118.930305,119.716125,9.078107,0.7,-119.424484,-26.490204,0.000101924175,-568.50653,6.911107,7.059642,5.729415,5.5390635,1.7114799e-07,0.3,-23.413715,94.19232,94.21939,94.29088,94.17742,0.28000584,0.5015625,0.06395697593688965,9.398748592535656
27,270000,0.7838670954073714,-93.45964,0.056593496,-0.15988289,0.86111516,-0.3709172,49.367443,22.329344,6.3613462,120.15896,120.40094,119.89826,120.77182,9.078165,0.7,-121.0344,-22.701881,0.00027814612,-362.07883,0.63518655,0.3832783,1.1412725,-0.6328638,5.476177e-08,0.3,-21.981537,92.28059,92.33028,92.13883,92.13748,0.25512892,0.4578125,0.057187795639038086,9.721870203812918
28,280000,0.7819575556184116,-95.12062,0.055835128,-0.27516022,0.8511784,-5.525574,40.985634,24.14214,7.977539,119.18438,118.83199,118.98449,119.137405,3.9872692,0.7,-120.854515,-21.068665,0.00019953179,-103.257454,4.430032,5.919652,7.2565136,6.0295496,3.8246626e-06,0.3,-18.355375,93.89414,93.93464,94.177185,94.13203,0.12627232,0.40781248,0.06302905082702637,10.046550067265828
29,290000,0.7912033171537411,-96.8117,0.055726457,0.8497174,1.0010842,-3.8889356,77.259026,35.821255,7.0838704,119.1018,119.29031,118.93027,118.55034,4.35936,0.7,-120.85822,-24.005701,4.0597108e-05,-229.58617,4.1791244,3.3684416,4.1701384,4.239775,1.5812867e-06,0.3,-24.038345,95.33688,95.3705,95.26616,95.41475,0.1413551,0.390625,0.06278610229492188,10.36821166674296
30,300000,0.7881514098353909,-97.05702,0.056097712,0.41280884,2.6493933,-10.426086,32.945023,432.65524,6.128874,117.22888,116.840416,117.70044,116.382996,12.201557,0.7,-117.08985,-20.163729,0.0021798827,-208.58177,9.792626,9.975065,9.49666,9.423897,1.4963164e-05,0.3,-20.760225,95.69298,95.62967,95.293015,95.40655,0.23520598,0.5,0.06357598304748535,10.695143342018127
31,310000,0.7766699794522471,-95.46976,0.056038626,0.4435125,2.3603053,-3.498757,60.212753,265.44434,6.0894217,118.76393,118.528275,120.07425,119.63699,36.358448,0.7,-118.87589,-24.37601,0.00011679839,-115.6712,3.6968389,3.3454444,3.1580706,3.0481226,6.690872e-06,0.3,-19.666042,94.02999,94.06943,94.369675,94.535934,0.32301056,0.37343746,0.06167793273925781,11.020198321342468
32,320000,0.7823718689763601,-99.253815,0.055511173,0.10000417,0.9202775,-19.26378,47.887577,51.14107,7.163598,118.94212,118.53593,118.54266,118.564896,2.2888353,0.7,-119.353355,-27.769943,0.0008713503,-126.79547,19.428648,18.668839,19.352594,19.503796,1.5493424e-06,0.3,-18.34095,98.22746,98.280106,98.32205,98.491425,0.11519785,0.37812498,0.06344366073608398,11.339725446701049
33,330000,0.772285937817095,-97.518234,0.055683218,0.38720533,0.7319435,-2.715237,27.249086,15.023119,6.7788553,119.47916,119.384995,119.28081,119.154305,8.049248,0.7,-119.77883,-18.62853,0.0017039138,-192.88329,2.5583038,2.7663348,2.9057207,2.8753953,1.1804514e-06,0.3,-19.874123,96.13112,96.056854,96.29042,96.108475,0.16302991,0.51093745,0.05604386329650879,11.663339296976725
34,340000,0.7789208837671011,-96.944275,0.055274073,-0.5524519,0.8454728,0.44913468,42.26698,9.7560625,5.2974215,118.202576,117.94868,117.82052,117.968376,1.8724489,0.7,-119.049515,-24.205616,0.01844091,-295.2915,-0.1223672,-0.56698793,1.1889132,-0.538998,7.4258423e-07,0.3,-21.163126,95.857346,95.91719,96.29225,96.25186,0.091061905,0.40625,0.061209678649902344,11.999844074249268
35,350000,0.77476611071298,-95.457214,0.055930667,0.42580613,0.8343286,-5.492761,44.42836,17.80777,5.743182,120.14744,119.800255,120.40942,119.897964,18.087126,0.7,-121.28683,-23.269777,0.00047494192,-366.9148,5.6765842,5.7712283,6.309989,6.061018,2.4556357e-06,0.3,-24.22615,94.20946,94.09985,94.16213,94.108406,0.21064533,0.48125,0.06173133850097656,12.323571034272511
36,360000,0.7935704346534048,-94.61312,0.054423187,1.2216501,0.55781996,-5.703465,33.22966,13.873552,8.844538,117.587654,117.13353,116.924545,117.111534,8.606937,0.7,-118.240974,-16.77909,0.00058278214,-548.6635,5.6250896,5.1636715,5.443793,5.512042,5.388574e-07,0.3,-24.61327,93.11294,93.09589,92.99873,93.01627,0.17959607,0.4375,0.06476783752441406,12.647158340613048
37,370000,0.7797510351024677,-94.50438,0.055313952,0.8751944,1.1887722,-7.43437,38.44742,30.084488,6.047636,117.96014,118.03721,117.92472,117.62069,13.510918,0.7,-119.80137,-22.80663,0.00067025074,-243.7149,7.3984585,7.1213474,8.058208,7.420335,1.7813291e-07,0.3,-22.38727,93.056465,92.96268,93.29039,93.01912,0.21293435,0.49375,0.05675363540649414,12.977723360061646
38,380000,0.790510722069007,-95.68039,0.054887306,-0.6419412,1.2092321,-5.068131,34.74342,49.20124,6.970189,119.33699,119.34773,118.5716,118.52978,7.317681,0.7,-119.43566,-22.693401,0.000551102,-273.05777,4.9088306,5.2930846,4.7310686,5.1987934,1.913187e-06,0.3,-20.207409,94.36591,94.467514,94.04249,94.09304,0.18072782,0.55,0.06362581253051758,13.299697796503702
39,390000,0.7786922494221945,-95.860565,0.05592015,0.92200917,0.76978904,-3.8279674,45.967133,8.025162,6.9820046,119.66221,119.64206,119.86566,120.42154,16.89862,0.7,-119.45981,-23.148264,0.0035135476,-212.88371,3.4224577,3.4023561,2.75378,3.2940488,6.708317e-07,0.3,-23.082504,94.47255,94.454346,94.28259,94.45134,0.19448446,0.4515625,0.061241865158081055,13.61875015894572
40,400000,0.7790078591918467,-94.37361,0.05399382,-0.7364389,0.60600543,-0.6907931,32.180347,11.608812,6.126554,122.46563,122.73136,122.906,122.71462,3.8884945,0.7,-122.6041,-22.878622,0.00017777504,-207.94647,0.7658815,0.63274604,1.2425975,1.9474528,8.332019e-07,0.3,-20.857557,93.218,93.15781,93.22905,93.12624,0.13830945,0.428125,0.05608057975769043,13.942439484596253
41,410000,0.7853740255970687,-97.787964,0.055615004,0.50588787,0.7873564,-6.491653,33.958538,22.32821,6.114273,118.9565,119.03917,118.53129,118.50758,2.280359,0.7,-119.141945,-20.637575,0.0018624866,-246.53616,5.827103,6.307578,5.200096,5.3643613,3.9934528e-07,0.3,-24.686813,96.09359,96.167694,96.015976,96.009186,0.10994602,0.4890625,0.058164358139038086,14.267784365018208
42,420000,0.7748801747153411,-94.60632,0.055692628,-0.29292917,0.8075434,-2.6449072,33.36541,19.1558,6.001639,121.676575,121.78299,121.85636,122.00995,5.7593436,0.7,-122.137245,-20.191391,0.0005883456,-114.185074,2.6456199,3.0216439,2.6488795,2.3934822,2.1399157e-05,0.3,-17.994492,93.315765,93.35733,93.28769,93.31756,0.13772434,0.403125,0.05847024917602539,14.59184144337972
43,430000,0.7936478394886254,-95.62317,0.055846017,0.40195018,1.1378864,-3.2753937,33.978283,57.175938,5.903598,119.21595,119.29573,119.38655,119.62175,2.6665275,0.7,-119.38073,-16.156517,0.0009633364,-274.4344,2.8753161,2.7599301,1.5582174,2.241568,3.1355304e-07,0.3,-20.641497,94.06556,94.08284,93.98334,94.12567,0.14097399,0.428125,0.057496070861816406,14.91744658946991
44,440000,0.7957368280308871,-93.90283,0.05592931,-0.016733855,1.0493968,-4.869105,42.282837,28.203049,6.430537,119.01418,118.84181,118.969444,119.53905,4.544812,0.7,-120.02109,-29.015007,0.0009655529,-267.45352,4.8796487,4.758397,3.8065574,4.099265,2.7543864e-08,0.3,-23.91026,92.36225,92.382355,92.24869,92.41586,0.17253241,0.44375,0.06183767318725586,15.243999365965525
45,450000,0.7861010294363556,-93.26511,0.05533247,0.24821074,0.63873714,-1.6019621,35.095028,10.094892,5.902618,120.02136,119.89705,120.42959,120.40962,9.254627,0.7,-120.55501,-24.340237,0.0012997461,-189.48799,2.2844768,1.3299625,0.7547243,0.45530802,3.7111051e-06,0.3,-20.763725,91.97256,91.94573,92.12481,91.98091,0.15280339,0.465625,0.05719327926635742,15.566518068313599
46,460000,0.8703291468955043,-95.61606,0.0561267,0.7942343,0.6926818,-7.378951,46.82198,13.458481,6.153867,119.9485,119.8514,119.87967,119.960236,4.753931,0.7,-120.16304,-19.158783,6.654608e-05,-334.5558,7.6245713,7.3600597,8.088984,7.8040924,7.647497e-07,0.3,-23.695395,94.265594,94.27898,94.165306,94.22986,0.17020044,0.4984375,0.07720446586608887,15.89108093182246
47,470000,0.8779853828021729,-98.09481,0.054710362,-1.3677356,0.970006,-1.9275419,28.708307,10.505552,7.556902,120.3777,120.202324,119.9074,120.56066,2.9463587,0.7,-120.388275,-19.287157,0.00024354376,-212.26501,1.9087244,1.6774564,1.1365492,1.813328,6.078626e-08,0.3,-21.287388,96.9305,96.97993,96.72916,96.84332,0.0904038,0.46249998,0.07302188873291016,16.215304497877757
48,480000,0.7918070855735186,-96.83368,0.05608288,0.6523771,1.7583873,-2.3188574,32.666515,154.45258,5.3824606,115.62742,115.58949,116.53771,116.1928,4.2555656,0.7,-118.00769,-18.43669,0.0013182533,-204.85341,1.1784062,0.87194055,2.265109,2.5021887,4.0745363e-09,0.3,-21.293106,95.39377,95.43138,95.78771,95.830124,0.11324483,0.39374995,0.05662393569946289,16.533239487806956
49,490000,0.8134767378705643,-93.76364,0.054823548,-0.088814735,0.495105,-2.4368742,29.88484,14.420299,4.5187483,116.85015,116.689316,117.15833,116.920006,7.2424507,0.7,-116.92098,-20.637213,0.00043553498,-322.3737,2.9493499,2.181734,2.1871285,2.6226647,4.0745363e-09,0.3,-20.459946,92.47712,92.545105,92.63457,92.61423,0.1305393,0.446875,0.0668940544128418,16.847959299882252
50,500000,0.7958249103655385,-95.750824,0.055779804,0.09058875,0.57502043,-11.503574,45.02913,6.06225,7.062065,116.715454,116.70189,116.29698,116.3538,6.885059,0.7,-117.81944,-24.447016,0.0006729367,-211.07616,11.470986,11.863343,11.351146,11.394599,1.1175871e-09,0.3,-21.833706,94.42706,94.42157,94.39845,94.392075,0.13870785,0.45,0.05564284324645996,17.167623988787334
51,510000,0.8834684038342873,-96.16508,0.05449633,-1.0289915,0.7292547,-0.96908766,48.292534,7.179308,3.5598807,117.99462,117.94701,117.88686,117.71469,19.371662,0.7,-118.06223,-20.417852,0.0009078538,-254.14183,1.4201453,0.185336,1.2036943,1.7083018,1.5103143e-05,0.3,-21.414639,94.870605,94.85542,95.14551,94.89221,0.2110533,0.5203125,0.0759432315826416,17.48879963159561
52,520000,0.8528332643589244,-95.340515,0.05471137,0.1372266,1.0437568,-4.271669,49.69138,6.3247757,6.289533,117.07125,117.233376,116.315094,116.745094,7.5777173,0.7,-117.83151,-22.339415,0.0018349155,-201.82927,3.0223823,5.041422,3.2419865,4.410393,3.359343e-05,0.3,-22.061205,93.96069,94.13382,93.60195,93.81999,0.16003636,0.44062498,0.07091212272644043,17.810391497612
53,530000,0.7963324148299098,-96.853004,0.054486156,-0.72569466,0.8679241,-3.9877849,30.553408,9.132935,6.55459,119.513954,119.87356,119.003654,118.82175,3.18718,0.7,-119.84582,-22.41344,2.5205372e-05,-328.9782,4.0831056,4.0201073,3.9033365,4.0778756,3.6950226e-08,0.3,-20.7846,95.55118,95.57763,95.15609,95.35317,0.13529405,0.4453125,0.057912349700927734,18.132323920726776
54,540000,0.7953459845130545,-94.88538,0.053964913,-1.0141717,0.9541646,-0.24055964,28.918688,6.6101713,5.7587156,115.60486,115.998116,116.43528,116.40686,2.0099401,0.7,-117.53284,-18.961618,0.0021989758,-265.5142,0.50295347,0.47565496,1.2147768,1.1461917,8.3750933e-07,0.3,-19.949066,93.62508,93.701965,94.04596,93.91756,0.107206956,0.453125,0.05810976028442383,18.451401901245116
55,550000,0.7907275386521264,-95.67279,0.05441287,0.0045610666,0.78817,-10.708453,30.004303,17.256104,6.9866524,119.44699,120.09006,119.13848,119.72128,1.6972467,0.7,-122.33535,-25.349422,0.0012441566,-479.39465,10.9496,10.451168,11.3551445,10.826559,2.1147544e-06,0.3,-25.572142,94.235374,94.239716,94.06541,94.13835,0.087422326,0.446875,0.05648040771484375,18.773405826091768
56,560000,0.8327722380405023,-96.166245,0.05369385,-0.959451,0.68808997,-2.6851292,28.99723,9.462261,6.893586,119.43124,119.27422,118.61281,118.88036,2.5403032,0.7,-119.36085,-22.456614,0.00057652185,-413.79974,2.6629672,2.9726903,1.0838866,2.0111167,5.673384e-07,0.3,-21.121897,94.90129,94.90115,94.682396,94.817184,0.09731102,0.4859375,0.0689704418182373,19.093004655838012
57,570000,0.845549524933567,-95.55609,0.053922933,0.9005712,1.0603533,-7.999008,33.82854,17.56734,4.438231,120.99552,120.76429,120.78367,120.561,3.3566926,0.7,-121.32034,-21.763111,0.0018035017,-244.06995,7.6090465,8.038095,7.378082,7.863416,1.2194679e-06,0.3,-25.108112,94.12765,94.10629,93.73715,93.87176,0.16475603,0.496875,0.06862545013427734,19.417191974322
58,580000,0.8350949166371453,-97.62404,0.053799555,-0.084583074,1.5066612,-4.515334,33.09801,89.29719,5.207843,120.67635,120.74301,120.70527,120.47789,7.3747735,0.7,-121.10912,-29.816795,0.0006214683,-279.51572,4.2250247,4.325658,4.148034,4.0598016,1.5299768e-06,0.3,-23.767883,95.92311,96.0663,96.348495,96.25307,0.14453897,0.434375,0.06543755531311035,19.745056998729705
59,590000,0.7964891072120444,-95.785446,0.054877345,-0.67823046,0.8260081,-1.1453799,35.450214,12.323101,5.5657496,115.93929,116.12674,116.32395,116.18112,5.053391,0.7,-116.3049,-23.995699,0.00071029185,-744.4155,1.215365,1.5548317,1.1344099,1.3696965,2.9511285e-09,0.3,-25.749971,94.243164,94.179085,94.49773,94.4465,0.13591875,0.4578125,0.060606956481933594,20.067864775657654
60,600000,0.7954611582565274,-92.250015,0.053365,0.38730687,0.7481721,-2.1588032,34.505436,13.018806,5.854583,117.70066,118.06175,118.453445,118.040436,4.1639843,0.7,-118.56222,-22.331316,4.4426415e-05,-155.33972,2.0293741,2.5045583,2.360849,2.4316952,1.2029778e-07,0.3,-24.188133,90.70328,90.68984,90.74266,90.69437,0.12340622,0.45625,0.05506157875061035,20.39254165093104
61,610000,0.7873463927486911,-96.49403,0.053206973,-0.24387316,0.78343236,-7.0216036,32.540497,11.279444,6.534264,119.68423,119.64128,119.59519,119.70817,5.346581,0.7,-119.66894,-22.195915,0.00063166977,-969.12463,6.495091,6.5692225,7.0355124,6.9402,2.6153111e-06,0.3,-31.404543,95.01438,94.949905,94.8087,94.932335,0.13375856,0.41718748,0.05945086479187012,20.72261945406596
62,620000,0.7875172635240029,-94.029045,0.052573953,-0.27470005,1.0027016,-3.1500466,34.26385,16.345284,5.8763285,118.43735,118.42462,117.85858,118.21246,1.7656901,0.7,-118.49915,-20.815594,0.0041418155,-180.66785,2.7196746,3.111985,3.2243385,3.5247505,5.3689755e-06,0.3,-20.866257,92.82506,92.87854,92.50087,92.69882,0.10321993,0.4140625,0.05985665321350098,21.062282423178356
63,630000,0.7864025420122908,-96.583206,0.052300397,1.4490776,0.92389786,-9.545229,41.19414,41.394886,7.935399,116.78672,117.37703,117.39027,116.57131,3.4404323,0.7,-117.742195,-25.595554,3.2999844e-05,-292.58368,10.196568,9.4010935,9.343262,9.243163,3.2172945e-06,0.3,-24.127075,95.03441,94.95098,95.164,95.01262,0.17497459,0.52656245,0.06212925910949707,21.396924948692323
64,640000,0.7895545355105086,-96.573746,0.05250761,-0.20763233,1.1967494,-7.3919005,30.926851,23.04457,6.1581473,115.230255,115.35826,115.579056,115.53784,2.2771685,0.7,-116.15809,-22.609953,0.0032537552,-335.25653,7.107491,7.3945804,8.471592,8.592152,1.5821017e-06,0.3,-24.09473,95.28666,95.30803,95.72468,95.70632,0.12825981,0.390625,0.05873608589172363,21.724879225095112
65,650000,0.7884826874581314,-95.230705,0.05313912,0.5464119,0.58688414,-0.5658215,34.249313,11.153561,6.8420825,116.785034,117.19915,117.50848,116.985825,6.847932,0.7,-117.459984,-23.62132,0.00078439043,-369.01175,0.32735747,0.18939191,1.2387513,0.27699322,1.7288112e-05,0.3,-26.738071,93.528076,93.53869,93.49385,93.86352,0.17609234,0.35468748,0.06580066680908203,22.056845211982726
66,660000,0.793068087826718,-94.27229,0.052298117,-0.4093585,0.75648975,-3.2806835,28.058498,7.45296,4.223776,116.804794,116.729294,116.38798,116.17871,0.9859808,0.7,-117.61806,-21.045074,0.0014261925,-277.97467,3.237884,3.5206685,2.5854745,2.7494888,2.970337e-06,0.3,-23.707575,93.05599,93.03609,92.71904,92.80119,0.08853235,0.45937496,0.05972123146057129,22.395450572172802
67,670000,0.7916728146687291,-94.00412,0.051673744,-0.35180926,0.71506155,-8.632989,37.626537,17.771507,7.766013,119.206024,119.26335,118.77562,118.76815,3.7683513,0.7,-119.33989,-23.241447,0.0004342015,-285.0623,9.089517,8.611353,9.160214,9.369396,5.0466045e-09,0.3,-21.937096,92.40334,92.43436,92.28316,92.38147,0.13912925,0.44687498,0.05988764762878418,22.728311463197073
68,680000,0.7951890053292539,-93.58203,0.051119722,1.1121424,0.8431395,-1.1091394,36.3927,37.49289,5.907142,120.03789,119.73876,119.520325,120.137085,6.1170135,0.7,-120.048836,-26.9282,0.00014657865,-661.24054,0.60255665,0.9273663,1.1593496,1.3520017,2.4314506e-05,0.3,-27.390419,91.80581,91.78865,91.64981,91.89099,0.16989726,0.37656248,0.06064629554748535,23.055482228597004
69,690000,0.7928248790674833,-94.79054,0.05082787,-0.43358374,0.6496693,-7.6244864,44.414013,21.711761,5.3648252,118.47252,118.67484,118.877045,119.137215,2.9595215,0.7,-118.86114,-19.229765,0.001695015,-622.47626,7.767922,7.436084,9.333842,8.301978,1.0624063e-07,0.3,-25.484316,93.35794,93.25842,93.21063,93.095795,0.1210345,0.51406246,0.061573028564453125,23.38965335289637
70,700000,0.7943857704140233,-97.261536,0.050696444,0.07332522,0.53004706,-5.9249053,35.2529,15.116911,5.5914106,117.484436,117.44185,117.2697,117.47936,14.625384,0.7,-118.32177,-23.018229,0.00090122485,-412.10114,7.075348,5.930215,6.867901,6.692973,1.7123239e-06,0.3,-25.729652,95.872345,95.8308,95.790054,95.69466,0.1753602,0.49062502,0.05712103843688965,23.715873710314433
71,710000,0.7979249111294813,-95.1516,0.05133435,0.65442884,0.8630663,-5.48727,38.416397,29.725788,5.6319284,118.89859,118.63207,118.77071,118.859245,6.611854,0.7,-118.68813,-28.639297,6.944407e-05,-530.86945,5.34431,5.061574,5.3018923,5.4261665,3.8574218e-08,0.3,-26.872253,93.72871,93.67598,93.972855,93.89465,0.13932839,0.4203125,0.059916019439697266,24.04242714246114
72,720000,0.798805677015715,-96.42182,0.049871586,-0.05901283,0.8207363,-8.215512,48.20826,38.03015,5.9920697,118.1947,118.12653,117.99555,118.23153,13.49961,0.7,-118.64889,-27.835014,8.4231724e-05,-341.45383,8.279786,7.957634,8.410213,8.722815,2.0664186e-06,0.3,-28.654716,95.019424,95.04257,94.818665,95.173836,0.18456891,0.375,0.06339597702026367,24.367888446648916
73,730000,0.7997825862976177,-94.96742,0.05087133,-0.43885398,0.6170367,-2.3732111,39.224194,8.575914,6.697061,115.783066,115.50262,115.894,115.58236,3.6351633,0.7,-115.8886,-25.324537,0.00027358794,-627.73584,2.3195632,2.1774771,1.1431032,1.8453485,3.740791e-06,0.3,-24.841,93.63577,93.58597,93.50038,93.49301,0.15643266,0.49843752,0.06038260459899902,24.70914872487386
74,740000,0.7996168848606884,-95.83548,0.049107853,-0.13991334,1.2844036,-0.24396963,40.05828,121.307495,7.5607834,118.31337,117.022194,117.43991,116.98612,10.239154,0.7,-116.119484,-20.461061,5.2751042e-05,-376.69315,0.2940939,0.861207,1.0119383,1.0631433,6.755884e-06,0.3,-24.75898,94.64724,94.66257,94.49814,94.41998,0.19355059,0.5296875,0.06233382225036621,25.042106878757476
75,750000,0.8001996646538685,-95.985466,0.049562566,0.7023623,0.9666132,-6.640455,60.876488,21.428827,6.9160657,121.41557,121.26343,122.08305,122.283844,1.4151947,0.7,-121.32134,-26.035173,0.00016309938,-613.11597,6.2896094,6.1885567,6.281684,6.861495,2.514571e-09,0.3,-31.929396,94.57064,94.57898,94.52902,94.7065,0.09501025,0.4015625,0.06052660942077637,25.37581306695938
76,760000,0.8279079957899507,-96.53966,0.04886537,0.034246504,1.4913771,-1.6529392,38.853638,66.31976,7.2753134,116.89343,116.978325,117.53637,117.51896,5.3493056,0.7,-117.04952,-24.18198,0.0017471246,-4990.4077,1.540798,1.9366872,1.1443945,1.6579739,3.9815788e-07,0.3,-44.172066,95.039986,95.09366,95.202805,95.239685,0.15581352,0.4015625,0.07424807548522949,25.71592615445455
77,770000,0.8010048462915997,-94.66125,0.049483955,1.1894029,0.873248,-3.5575209,38.33708,10.850971,4.8685684,119.682335,119.08168,118.80693,119.08285,3.2477894,0.7,-119.91443,-28.976692,0.00031639106,-305.407,3.5906982,3.6771035,1.3050344,3.7085204,1.1627377e-05,0.3,-29.371153,92.88098,92.88135,92.96886,93.06008,0.104016006,0.4421875,0.05996274948120117,26.044539364178977
78,780000,0.8043132926689422,-94.99162,0.048416436,0.3399362,0.5652468,-1.1860636,30.41366,9.023117,6.3596387,115.128586,115.34143,115.93692,114.890625,4.0609355,0.7,-115.717766,-27.282242,0.00010336196,-1234.0829,1.2450352,0.7870715,1.6461883,1.7101626,1.1533674e-06,0.3,-27.501923,93.476685,93.43521,93.61115,93.682205,0.11513096,0.425,0.05910754203796387,26.382383946577708
79,790000,0.8083627343292092,-94.61427,0.04915409,0.3758551,1.0126055,-2.7275882,44.69807,58.36281,6.3514233,117.33421,117.23537,116.39984,116.42927,4.7295785,0.7,-117.893364,-28.667244,0.00033242052,-324.68057,3.5060942,2.7892795,3.1438713,3.0219445,1.2262899e-06,0.3,-24.491795,93.34721,93.353745,93.027275,92.99475,0.14189005,0.43906248,0.058995962142944336,26.715683873494466
80,800000,0.8024787886322431,-96.87494,0.04808345,0.39851463,0.5178258,-8.29878,46.463726,12.560932,7.118426,116.66193,116.64445,116.93321,116.89941,7.162553,0.7,-116.73504,-22.291222,2.8953946e-05,-350.9903,7.6174817,7.9148717,8.721988,8.865412,6.519258e-10,0.3,-22.954397,95.582756,95.60936,95.54669,95.618675,0.12876067,0.44062498,0.05852675437927246,27.047991196314495
81,810000,0.8396371286263175,-95.32697,0.048584383,-1.0804135,0.78181434,-3.162439,35.34509,13.506246,6.371295,116.50245,116.198555,116.27053,116.42787,1.5688697,0.7,-118.03123,-19.527878,6.0697843e-05,-387.602,2.8100278,3.3115606,3.5535488,3.3321934,6.30389e-09,0.3,-22.10426,94.213806,94.12692,94.30713,94.410095,0.10965473,0.40468746,0.06885480880737305,27.38276023864746
82,820000,0.8379364485384079,-95.153946,0.047479,-0.24465503,0.55183184,-2.3358855,44.469227,12.674685,5.090479,115.68281,115.39789,116.16489,116.062164,2.6973932,0.7,-115.731804,-20.694925,0.0039286218,-1051.2281,2.622562,2.6767535,2.9663053,2.865466,1.261651e-07,0.3,-28.75195,93.78891,93.74295,93.925095,93.86371,0.11241218,0.4421875,0.06778621673583984,27.70905267794927
83,830000,0.8483111689200505,-94.66017,0.047669843,0.21475612,0.81055975,-3.693684,40.55447,25.461607,5.1497183,118.03471,117.74404,117.47419,117.58818,4.97001,0.7,-118.10421,-21.88734,0.0004771432,-356.91568,3.8317513,4.0957813,1.4368743,3.6920438,4.4709773e-06,0.3,-25.786167,93.21849,93.196846,93.06123,93.16767,0.11387957,0.46875,0.07046866416931152,28.040232578913372
84,840000,0.8444660494215687,-93.117325,0.04766042,-0.6798955,0.6733606,-4.631804,52.13444,15.290212,6.6346884,115.941925,115.99997,116.09903,116.02564,1.9773189,0.7,-117.51062,-29.935629,0.00041110656,-509.4964,4.608305,4.4142694,4.5678415,5.047261,1.0430813e-06,0.3,-26.23106,91.64798,91.62346,91.428894,91.46515,0.10825907,0.50624996,0.06960415840148926,28.359199051062266
85,850000,0.8420286456033453,-92.66881,0.047322232,-0.43876204,0.592313,-1.6797845,33.345047,14.406965,6.1088934,116.876945,116.62274,116.53194,116.497696,4.4158,0.7,-116.70712,-21.621588,0.0008874603,-148.74039,2.096005,1.538116,1.2030544,-0.0052956343,1.1804514e-08,0.3,-22.12798,91.261986,91.2099,91.06448,91.17488,0.13814873,0.46718752,0.06816959381103516,28.677805360158285
86,860000,0.8633654183422294,-95.66943,0.04832544,-0.19965497,0.6395755,-7.311727,39.047684,10.151383,6.686076,119.13964,119.38415,118.85995,118.84352,1.4884089,0.7,-119.49859,-24.105003,0.0003046837,-179.77707,6.9084797,6.7366605,6.0860105,5.8154364,6.2864274e-08,0.3,-20.625597,94.30699,94.32016,94.29114,94.31517,0.09729913,0.5015625,0.07324099540710449,29.003987940152488
87,870000,0.8756682316845812,-95.475586,0.045850374,1.0561043,0.6126178,-2.0218518,43.360596,6.459498,6.870783,117.91341,118.16083,117.62821,117.272415,2.3815002,0.7,-118.28052,-26.165876,0.002135515,-674.0977,1.8324711,1.6914207,1.1623476,1.3468492,5.388574e-07,0.3,-29.146246,93.98778,93.97574,94.06916,94.03213,0.1123084,0.4671875,0.07354474067687988,29.323873110612233
88,880000,0.8759889985591178,-93.533676,0.04633277,0.27908367,0.7838546,-10.99662,31.884739,32.96728,7.770715,116.321556,116.41083,116.25022,116.29835,2.2837234,0.7,-116.44489,-21.826578,0.0010549524,-649.36597,10.763756,10.84884,10.277681,10.439466,1.0430813e-08,0.3,-28.020456,91.911064,91.93735,91.92396,91.945946,0.107840925,0.4484375,0.0810704231262207,29.650642156600952
89,890000,0.8423921894370606,-93.93991,0.046560846,-0.4504273,0.7547945,0.5160096,33.540817,39.806755,5.8442154,118.86996,118.83055,118.951996,119.26298,2.7633603,0.7,-119.24885,-22.774782,0.0017778906,-196.34537,-1.2188892,-0.46118432,1.4800653,-0.61963916,1.8558233e-06,0.3,-27.106003,92.54779,92.5033,92.479324,92.58297,0.09869835,0.4265625,0.06869220733642578,29.983733753363293
90,900000,0.8770565067868114,-93.48647,0.04630101,0.30824846,0.6538362,-0.27177522,34.79613,14.306295,4.474304,119.12051,119.21685,119.14474,119.08982,5.0043144,0.7,-119.272095,-23.90322,0.00055844436,-318.52496,-0.05028993,0.41428256,1.1311226,0.6585323,3.6310405e-06,0.3,-23.166115,92.05092,92.018036,92.017555,92.13573,0.13039954,0.3984375,0.07157206535339355,30.302514326572418
91,910000,0.878878921416801,-94.57968,0.046504896,0.20995921,0.45785692,-2.4438822,33.155186,6.974038,1.5099983,115.76443,115.80759,115.66666,116.079956,2.741118,0.7,-116.20623,-21.902523,0.00016514456,-419.05072,2.586841,2.8559318,2.6184998,3.4550295,1.177541e-08,0.3,-26.92725,93.12837,93.114,93.154945,93.26273,0.10654189,0.371875,0.07832574844360352,30.621321272850036
92,920000,0.8680623006276404,-95.96747,0.046498876,-0.7309162,0.78153914,-2.352173,43.963387,12.560759,3.7819407,116.742584,116.779945,116.31395,116.41668,3.8133128,0.7,-116.836235,-20.67152,0.0040945867,-271.71042,2.109337,2.611677,3.079053,2.978351,7.759547e-07,0.3,-22.489433,94.72001,94.71962,94.39607,94.40676,0.104356185,0.5078125,0.07273697853088379,30.939697861671448
93,930000,0.857202247344133,-93.65806,0.045604177,0.7589922,0.81704676,-10.294435,37.050034,79.921265,5.117,118.8551,118.94708,118.746284,118.672134,1.797685,0.7,-119.307434,-26.691296,0.0009769669,-276.9438,9.482322,10.183856,10.13521,10.133333,3.5699456e-06,0.3,-26.414541,92.20451,92.17713,92.15782,92.049545,0.0945535,0.49843746,0.07306838035583496,31.262934386730194
94,940000,0.874355356197122,-96.09292,0.047544032,-1.1137371,0.7324518,-0.7594792,32.361233,16.218386,6.859869,117.82223,117.99002,117.54516,117.819336,4.5118103,0.7,-117.80921,-22.596594,0.0002289287,-264.22903,-0.38084126,0.05002296,1.1210787,0.5039627,6.9849196e-11,0.3,-20.640297,95.057106,95.05617,94.846016,95.03792,0.08385389,0.45156246,0.07515239715576172,31.584729627768198
95,950000,0.8667982728721108,-96.0457,0.046053283,-0.09330928,0.51177084,-4.4930377,31.095194,11.154764,6.335453,118.33522,118.20966,118.317474,118.34541,3.2480524,0.7,-118.84442,-22.415247,0.0006302679,-625.35315,4.055388,4.1748877,3.6711621,3.848856,2.514571e-09,0.3,-30.66837,94.61317,94.652664,94.50624,94.593124,0.10842207,0.4546875,0.0712120532989502,31.90139519373576
96,955000,0.8730719321653612,-95.41954,0.04493156,1.3605477,0.6861563,-7.462038,35.319256,9.312856,6.436535,117.2567,117.055084,117.01848,116.63133,2.132487,0.7,-116.7925,-22.092768,0.0005100921,-463.8062,7.8937535,7.3396807,8.132074,7.9637165,3.0950353e-06,0.3,-25.435616,93.88759,93.81651,93.71663,93.77122,0.10565624,0.484375,0.07114958763122559,32.06037290891012
97,960000,0.8697067562739897,-91.86086,0.04536926,0.9061946,1.2095478,-2.822032,38.023674,163.2488,7.787296,115.906,115.893135,116.17032,115.91939,1.688767,0.7,-116.06172,-24.96664,0.0010478823,-377.45435,2.894249,2.61991,3.1369429,2.8095994,2.3469328e-08,0.3,-27.95301,90.54538,90.528145,90.44635,90.394714,0.08095749,0.484375,0.07262969017028809,32.22225681145986
98,965000,0.8774261302000291,-94.204056,0.044110645,0.20266262,0.7255707,-2.3195078,34.34006,28.496319,6.521488,118.09833,118.071915,118.13975,118.227936,3.9314086,0.7,-118.46289,-28.103045,0.00015099812,-620.41815,2.5803304,2.311255,2.073909,2.573113,3.22744e-07,0.3,-33.045162,92.71404,92.7155,92.68703,92.7683,0.1327261,0.39218748,0.07295107841491699,32.38184744119644
99,970000,0.8714671112347577,-95.22384,0.04557531,0.06268132,0.44803402,-3.1141334,45.547802,9.389957,5.555622,116.75542,116.71497,116.709335,116.74051,3.573524,0.7,-116.96799,-18.838331,5.0069357e-05,-350.10245,2.9910028,2.9904697,3.6961246,3.3290029,7.099472e-07,0.3,-24.7928,93.77561,93.79991,93.8651,93.803085,0.11012624,0.4515625,0.07146596908569336,32.54319023688634
100,975000,0.8666534855805745,-96.50505,0.042771418,-0.9553948,0.56608814,-11.874697,38.02666,24.555588,6.8150826,116.28689,116.33348,116.618095,116.254,2.530171,0.7,-116.374176,-21.910435,7.9062826e-05,-389.43872,11.1312895,11.624039,11.344056,10.918192,3.6209823e-07,0.3,-23.826706,95.23584,95.1627,95.14818,95.16824,0.13151777,0.4359375,0.07427144050598145,32.70281703074773
101,980000,0.8783699345844255,-94.37097,0.046505004,0.74981767,0.8189142,-1.4328938,33.767868,17.081537,7.1660137,118.29697,118.27764,118.68596,118.410286,3.6946368,0.7,-118.126656,-26.613115,0.0021983446,-667.6872,1.193934,1.8959465,1.0874106,0.97682965,1.11758716e-07,0.3,-30.48148,92.639694,92.70813,92.751114,92.781815,0.1499873,0.459375,0.069366455078125,32.86403605540593
102,985000,0.8780807552854344,-94.20993,0.04536901,-0.4913626,0.83120143,-2.36083,37.529705,13.677562,5.974385,117.49179,117.82378,117.23364,117.21507,1.6261885,0.7,-117.95335,-21.930265,0.003302153,-423.7628,1.9810772,2.0015097,2.2438302,2.2689917,8.5565266e-10,0.3,-25.837547,93.015205,93.042435,92.856155,93.0135,0.095914826,0.37812498,0.06901955604553223,33.02827748060226
103,990000,0.881908351619962,-95.72173,0.044042293,-1.0023962,0.86469305,-2.6947613,36.734142,43.832653,7.086835,118.48398,118.2971,118.40353,118.45258,7.473931,0.7,-118.792046,-25.213785,0.00061903294,-270.45917,2.4104443,2.3869238,2.1969805,2.8741803,2.7679158e-05,0.3,-21.926256,94.37103,94.433846,94.2457,94.2551,0.16961178,0.51874995,0.07053565979003906,33.18925401767095
104,995000,0.8786177336069407,-93.958244,0.04421599,-1.2480955,0.5695653,-0.3926141,30.641895,14.923588,6.060607,117.28512,117.1784,117.45553,117.26892,3.747263,0.7,-117.67153,-25.22507,8.114148e-07,-480.0833,0.31366515,0.6787455,1.2753041,0.87466913,5.8743172e-08,0.3,-27.24861,92.69478,92.63832,92.88217,92.74381,0.10323921,0.43124998,0.07108569145202637,33.3513741016388
105,1000000,0.8823405470643848,-94.10079,0.044814646,1.6499064,1.1069591,-2.2335567,54.873318,55.269276,6.848915,119.58707,119.75413,119.00883,119.03955,2.178278,0.7,-119.9641,-21.012564,0.0018469202,-397.7488,2.640963,1.7826045,0.88482857,1.0513821,7.1874815e-08,0.3,-28.818382,92.63317,92.63112,92.25709,92.29269,0.098833606,0.55625,0.08267617225646973,33.51424367427826
