Xixo99/comfo/relaxed_iql/20230321_5seed_mle0/hopper-medium-expert-v2/riql_s3_20230321_004058_hopper-medium-expert-v2_1.04.csv
,step,reward,actor_loss,alpha,alpha_loss,critic_loss,max_actor_loss,max_alpha_loss,max_critic_loss,max_mle_prob,max_q1,max_q2,max_target_q,max_v,max_value_loss,max_weight,min_actor_loss,min_alpha_loss,min_critic_loss,min_mle_prob,min_q1,min_q2,min_target_q,min_v,min_value_loss,min_weight,mle_prob,q1,q2,target_q,v,value_loss,weight,eval_time,time
0,0,4.628142729415733,,,,,,,,,,,,,,,,,,,,,,,,,,,,,,,,,
1,10000,1.6521121199326028,-39.174904,0.058243185,-6.0070667,0.21088895,0.34476954,19.577211,10.429853,5.747073,51.650833,51.484833,51.38501,50.6711,0.4840157,0.7,-51.771248,-23.469149,1.0339732e-05,-85.006874,-0.29523256,-0.3859758,-0.552907,-0.0013489053,2.514571e-07,0.3,-9.012729,38.79727,38.775806,38.777634,38.224022,0.029322319,0.40156248,0.17726540565490723,1.2653354167938233
2,20000,1.1054304206364673,-62.7935,0.039042957,1.3342336,1.0832416,-6.7095475,40.054398,83.74162,4.336075,76.41945,76.097015,76.33017,76.03534,3.7783668,0.7,-79.61088,-26.598492,3.0197494e-05,-237.09454,5.0073075,5.518532,5.7948413,5.178419,4.3226754e-07,0.3,-26.550106,61.77432,61.725502,61.803265,61.548832,0.11723022,0.465625,0.1300804615020752,1.5802682757377624
3,30000,0.9587719136175016,-78.6667,0.0393471,1.2190413,1.1807117,0.17532243,45.27434,62.383984,2.8533895,90.97112,90.95649,90.50256,90.11247,33.061745,0.7,-91.27328,-21.403833,0.004394627,-236.45657,-0.4476562,-0.5598607,-0.7358297,-1.0425376,4.7379112e-06,0.3,-21.048397,77.931564,77.93149,77.63446,77.29299,0.2617893,0.50625,0.10561180114746094,1.8986482302347818
4,40000,0.940850948360065,-84.96185,0.037947565,1.7549448,0.9026679,-5.3999443,64.9157,19.19648,5.5922823,101.96036,101.925186,102.165924,101.162285,2.5358803,0.7,-102.0586,-24.407644,0.00047435798,-116.06041,5.723046,5.8406773,4.133084,3.3434181,2.263114e-08,0.3,-17.555542,84.32133,84.37164,84.199234,84.005165,0.11975413,0.465625,0.09330439567565918,2.2171977480252583
5,50000,1.27513887165197,-88.53287,0.042580254,-0.85514486,0.78075457,-2.8192234,45.068333,12.761826,7.010883,107.23897,107.41523,107.24079,107.65717,1.8629763,0.7,-108.83691,-28.261753,0.0011363353,-153.99641,2.9894304,3.138259,4.0012374,3.4122696,6.519258e-10,0.3,-16.98288,87.82908,87.719635,87.94707,87.71495,0.117471285,0.496875,0.11823463439941406,2.5365380962689716
6,60000,1.1389746861496628,-93.698006,0.043350186,-0.37990022,0.7630906,-4.4554806,55.481518,21.231348,7.568408,109.77892,110.04543,110.38298,110.419624,6.8163223,0.7,-110.35518,-22.132412,0.0016113422,-348.65466,2.9551044,2.6663785,2.949747,2.8356469,2.766098e-06,0.3,-20.574429,92.89301,92.82794,93.04305,92.92789,0.1771483,0.47031248,0.09086894989013672,2.8639215509096783
7,70000,0.9955098950485837,-95.43964,0.0478794,0.25410023,0.7146895,-5.072334,75.276085,17.897684,7.8405094,112.558716,112.63657,113.071144,113.26021,10.0063505,0.7,-112.89082,-32.131783,0.00013788103,-221.19441,4.8862224,5.6990814,6.3033066,5.715807,9.052456e-08,0.3,-16.719666,94.50345,94.51358,94.42154,94.654686,0.20886222,0.39999998,0.11155128479003906,3.1979175289471944
8,80000,1.018604144623709,-96.11131,0.050527122,-1.0581516,0.6595696,-4.434795,33.591774,13.546035,7.0734434,114.561874,114.909706,115.067825,115.13405,3.6580687,0.7,-114.44489,-19.659264,0.0010692962,-292.88837,4.540511,3.6455357,4.5725236,5.095515,4.4146438e-07,0.3,-16.897411,95.288086,95.16943,95.41777,95.44315,0.11089098,0.49374998,0.09680986404418945,3.521537148952484
9,90000,0.9668208870825189,-97.71896,0.051119577,-0.21608528,0.68671477,-5.8095465,50.418716,29.96462,7.3832164,116.12074,116.27703,116.58652,116.73937,8.231781,0.7,-116.56615,-22.575457,0.0019678397,-304.8469,5.8969464,6.6391478,5.212868,4.656453,8.3750933e-07,0.3,-17.132698,96.79663,96.95274,96.87872,96.89618,0.1543493,0.4296875,0.0982515811920166,3.8378666003545123
10,100000,0.8968968778858216,-99.46796,0.050902266,-1.322089,1.2587664,-8.596,39.37165,23.830332,6.5848923,114.88112,114.887314,115.056206,115.17259,4.223435,0.7,-116.28188,-25.893599,0.002528967,-365.06113,8.614769,8.828367,7.8368344,7.74754,7.06343e-06,0.3,-19.925346,98.55681,98.53105,98.1146,98.17038,0.15162691,0.5140625,0.09129571914672852,4.166603446006775
11,110000,0.9243662088770157,-97.8858,0.051110458,-0.15187374,1.5606327,-1.2191806,39.40089,66.59401,6.451273,115.44397,115.551994,115.96415,115.6901,2.3344781,0.7,-116.114624,-21.663605,0.0008580066,-280.26266,-0.47315747,0.9418877,5.125716,3.4082985,7.960177e-06,0.3,-17.393774,96.99688,97.12709,97.36542,97.14502,0.15004663,0.4921875,0.10720467567443848,4.496938784917195
12,120000,0.8679128784129224,-98.064384,0.05028355,-0.4313391,1.0771482,-9.053548,35.96918,59.492252,5.303713,117.42425,117.798546,118.08967,117.01699,13.651873,0.7,-118.11534,-31.07821,0.0017293688,-274.62912,8.805395,8.998636,9.329622,8.321461,1.3424619e-05,0.3,-16.764143,97.24319,97.26042,97.678406,97.466995,0.20241407,0.4984375,0.0858144760131836,4.823223376274109
13,130000,0.8866559061157436,-94.24425,0.051407043,-0.009273589,0.9104689,-8.563714,40.801586,36.966076,6.3761864,117.328415,117.64263,117.179,117.47865,17.468975,0.7,-118.09925,-24.915804,0.00045188545,-381.26154,8.758213,8.752073,8.528264,9.282742,2.1129382e-07,0.3,-22.39328,92.84286,93.01131,92.940056,93.15855,0.33994666,0.38125,0.08171606063842773,5.142709902922312
14,140000,0.8939387367941407,-95.47879,0.0529769,-0.646778,0.9660736,-5.8478794,38.34446,20.167267,5.2530217,115.53913,115.36453,115.59783,115.09,3.6768925,0.7,-117.476906,-26.161884,0.004169743,-594.3518,5.2017236,5.9135523,5.3927464,5.336605,1.6458042e-06,0.3,-19.320402,94.46657,94.53696,94.82723,94.86209,0.14510475,0.3890625,0.08666563034057617,5.465642631053925
15,150000,0.9073628394982164,-94.27831,0.054708093,0.90720266,1.3260051,-2.4196439,39.393364,13.184467,6.240647,118.86982,118.648285,119.31196,119.27499,11.20594,0.7,-119.04726,-22.611498,0.0008256054,-453.02917,3.0663214,2.407528,1.1692495,2.039672,1.2078498e-06,0.3,-19.092152,93.09336,93.14866,93.53334,93.341446,0.23839608,0.4515625,0.08480215072631836,5.790049747625987
16,160000,0.9212492948942189,-96.96576,0.053714193,0.2815302,1.2197795,-0.5621807,41.253036,97.93021,6.2275352,118.99885,119.14059,118.722916,119.072075,2.0913625,0.7,-119.691376,-19.277084,0.00022902759,-168.93127,0.7971501,0.52647376,1.1221144,0.13147765,6.974861e-06,0.3,-17.716755,95.95095,95.97738,95.72884,95.76099,0.09772185,0.48749998,0.0880136489868164,6.114666839440663
17,170000,1.0430640799196609,-93.77415,0.054014083,-0.045230836,1.6478047,-5.649831,31.68387,51.720417,7.523858,118.88204,118.53767,119.31101,119.41978,16.638155,0.7,-119.00805,-23.302914,0.0013263503,-261.6269,5.932091,5.543854,6.4602413,5.758489,1.8840656e-07,0.3,-20.23326,92.63159,92.588394,93.06721,92.934654,0.19154346,0.42812502,0.10395026206970215,6.441724646091461
18,180000,1.0940317188556288,-95.27469,0.055274192,-0.45142955,0.7511462,-3.7522857,39.265728,17.849483,7.5930395,116.5707,116.70062,116.821205,117.050804,11.044088,0.7,-116.744125,-26.683182,0.00063467235,-231.11734,2.3810177,2.824168,1.3439658,2.3641264,1.1895493e-06,0.3,-18.257507,94.27889,94.24301,94.34741,94.45073,0.16656831,0.453125,0.12003564834594727,6.769110767046611
19,190000,1.1335929532468263,-97.03748,0.055724334,0.048018873,1.6590245,-19.752432,33.055798,21.174637,7.008496,117.87308,117.9939,118.48192,118.45772,6.106331,0.7,-118.55735,-21.033886,0.0031060374,-371.5194,16.373816,13.971946,16.632944,16.14753,1.678127e-08,0.3,-19.6721,95.683014,95.66058,95.77394,95.88739,0.19203928,0.4515625,0.1241450309753418,7.092719372113546
20,200000,1.0120802584917001,-94.94214,0.05720804,1.3935379,1.1605375,-2.2875597,34.46012,31.54617,5.4671116,119.80379,119.49616,120.42969,120.48778,1.5726136,0.7,-121.52529,-20.230318,0.0015209934,-321.06662,3.39375,2.903245,3.1632366,2.2517023,2.1930784e-06,0.3,-18.802198,93.90448,93.847885,94.18884,94.16502,0.124253735,0.3796875,0.09745383262634277,7.415163977940877
21,210000,1.0274063424475333,-92.27778,0.056781888,-1.802737,0.85975325,-2.3148825,37.639908,18.863373,7.3745756,120.130356,119.72416,119.664536,120.11656,8.889198,0.7,-120.27704,-25.30394,0.0018255236,-116.20801,2.8852193,2.3334146,1.6524282,1.4593929,2.1122396e-07,0.3,-16.363972,91.19054,91.12344,91.27182,91.263985,0.14639664,0.41875,0.10808300971984863,7.748794953028361
22,220000,0.9866775999205004,-96.376114,0.05749465,-0.18181728,1.5081792,-5.889593,43.509064,58.428947,5.6682043,117.128586,117.427734,116.708565,116.39208,6.9626575,0.7,-117.637566,-19.380316,0.0015366983,-118.658356,5.7407265,5.6143804,4.686925,4.063449,8.32444e-06,0.3,-18.05073,95.05807,95.122894,95.08634,94.97405,0.2588794,0.5171875,0.09103870391845703,8.0732470870018
23,230000,0.955568234516831,-95.41348,0.05474793,0.12979713,1.1471536,-7.22176,44.663246,12.2058735,5.8409986,121.11629,120.252495,120.42354,120.43941,5.4009705,0.7,-121.26984,-26.020788,0.00012708461,-387.73004,6.5740976,6.823924,6.9597564,7.16028,4.056911e-06,0.3,-19.884516,94.19457,94.30265,94.56559,94.687004,0.17720485,0.37031248,0.08439373970031738,8.394304804007213
24,240000,1.002826028331603,-95.423584,0.054735117,0.33649907,0.8304671,-4.328928,84.763,13.3164835,8.931664,117.89327,117.84483,117.84587,117.78222,3.404742,0.7,-117.99996,-21.813103,0.00074263505,-186.23146,4.3928585,3.6074772,3.2375011,3.1929286,9.2375565e-09,0.3,-17.37696,94.05889,94.039825,94.2049,94.170395,0.14576781,0.41562498,0.10310530662536621,8.710278137524922
25,250000,1.070287467899451,-93.931244,0.053584404,-0.2954897,1.1806012,-4.4362397,55.364124,82.65044,7.5893135,117.86932,118.03778,117.61752,118.48121,2.6739433,0.7,-118.61029,-22.08042,0.0030882438,-223.5684,4.7758136,4.378762,5.8628197,5.7074194,2.4067867e-05,0.3,-20.090843,92.68341,92.67989,92.921394,92.98336,0.15020558,0.4046875,0.12034153938293457,9.037541321913402
26,260000,1.0085429304387354,-94.21161,0.053809393,1.2411191,1.9205142,-5.866236,51.63794,186.14694,7.249445,120.6754,120.76809,119.942764,120.13684,9.971292,0.7,-120.76644,-17.003614,0.00016604294,-543.1914,5.6544943,5.042987,3.6296558,4.894655,9.439464e-09,0.3,-20.799395,92.75116,92.71483,92.574356,92.80091,0.20094377,0.41718748,0.11057090759277344,9.363029015064239
27,270000,1.0283838574894388,-97.051796,0.053606562,-0.67318326,0.5605075,-12.627785,35.154316,11.211884,6.630149,119.772766,119.51695,119.79359,119.514725,2.2774575,0.7,-120.5949,-23.211039,0.0017014535,-799.1576,11.20621,8.13895,8.263969,7.96801,2.1367275e-06,0.3,-25.732143,95.94409,95.82786,95.88306,95.80649,0.114701614,0.53125,0.10676002502441406,9.690496869881947
28,280000,0.9133554939909367,-97.91576,0.053076763,0.9347928,0.8075446,-5.1752567,46.80625,21.287876,9.03963,118.3131,118.31097,118.33972,118.639114,5.6951237,0.7,-120.427155,-19.744368,0.0001913911,-264.5532,5.950708,5.6867,5.305383,5.035609,4.5063907e-06,0.3,-19.18292,96.350044,96.42955,96.57339,96.579865,0.18174106,0.428125,0.08393621444702148,10.004295496145884
29,290000,1.1227393249086892,-97.053986,0.055122375,-0.7748159,1.084163,-6.041732,29.390886,20.982088,6.4735646,120.11248,120.29847,120.769615,120.81466,2.7850275,0.7,-121.04507,-27.679142,0.0008642765,-264.01617,6.3946395,6.9912505,7.541344,7.1087465,2.0995678e-06,0.3,-18.525776,96.016495,96.01287,96.07706,96.073265,0.14523873,0.43124998,0.11846709251403809,10.317353634039561
30,300000,0.9897816452537553,-96.62772,0.05476074,0.31819227,1.6990845,-2.752035,38.635292,31.766014,8.465769,120.973946,121.159485,121.42809,121.3638,16.22707,0.7,-121.024956,-25.194326,0.0007563739,-128.5214,3.2123358,2.4501932,2.6267345,2.0887284,9.7963675e-06,0.3,-15.803537,95.52883,95.659904,96.137146,95.943375,0.16991785,0.3984375,0.0899498462677002,10.634828209877014
31,310000,1.0302070456840422,-92.42432,0.055075727,0.6500605,0.88423383,-0.68850493,38.781544,14.767433,8.486786,119.766495,119.71428,120.05761,120.181854,4.4215627,0.7,-119.93552,-32.701603,0.00041131047,-466.49432,0.57027686,0.77499866,1.1044779,1.5502193,2.806948e-07,0.3,-22.695969,91.069595,91.16438,91.30773,91.425705,0.17543459,0.45624998,0.10095334053039551,10.948875025908153
32,320000,0.9575492498630224,-95.028076,0.05548041,-0.7166761,1.4640725,-1.0393682,35.89635,74.070114,7.6461277,118.0819,118.12858,117.01343,117.43705,10.076538,0.7,-118.71061,-23.360283,0.0002945981,-136.50375,0.9287327,1.3093027,1.1097407,0.36047375,2.4457404e-06,0.3,-17.69054,93.76845,93.711,93.634125,93.76436,0.16721793,0.41875,0.09654855728149414,11.260607028007508
33,330000,0.9446307416270231,-95.27516,0.05606312,1.2816072,0.55624074,-6.823209,37.326008,5.696204,8.825996,117.184166,117.57086,117.62556,117.22377,3.1322224,0.7,-117.70754,-21.231863,0.00018166099,-304.30307,6.7293377,6.5640974,6.8876443,7.1260653,7.5605467e-06,0.3,-21.396776,93.5924,93.58818,93.61955,93.47319,0.13336575,0.5453125,0.08433341979980469,11.575721128781636
34,340000,0.9248620959917038,-95.88102,0.05547266,0.74535537,1.1547416,-4.4825315,51.903534,15.168638,7.6350083,119.17623,119.18846,118.31481,118.21229,2.4015589,0.7,-119.16674,-23.371012,0.000256402,-168.63968,4.130964,3.857799,4.7079234,5.0284247,2.6161597e-05,0.3,-21.799664,94.49293,94.46408,94.25508,94.25914,0.12884022,0.50468755,0.07701730728149414,11.885373377799988
35,350000,0.9226141795917827,-96.934006,0.055059947,0.028047487,0.6966928,-4.4409885,37.80566,10.771208,7.823975,118.74478,118.42254,118.63386,118.677124,2.1872299,0.7,-118.59216,-19.002382,8.232222e-05,-440.16833,4.6395216,4.264449,5.6315722,4.933301,8.54691e-06,0.3,-18.764221,95.95168,95.91532,96.21575,96.238014,0.09412214,0.40156248,0.07526397705078125,12.195438981056213
36,360000,0.9749877277140415,-96.768105,0.056368235,0.28415027,1.0683372,-2.0393264,33.548424,23.90299,7.5407014,120.113625,120.32219,120.34426,120.405,3.6366804,0.7,-120.509575,-21.445755,0.00013125653,-180.64885,2.2177525,1.8778013,1.3919588,3.3808758,3.7655234e-06,0.3,-19.957539,95.186035,95.28667,95.602745,95.699776,0.13178359,0.41875,0.08341097831726074,12.509237507979075
37,370000,0.949651108550675,-96.93739,0.05557055,0.56516397,0.7897512,-0.89945114,46.055695,30.975529,6.7378535,117.7943,117.917694,117.98711,119.11462,2.3807125,0.7,-118.17933,-29.178978,0.0011480451,-245.96735,0.9832641,1.929101,1.4655008,1.3294489,7.1253163e-07,0.3,-20.192432,95.6794,95.71004,95.61406,95.67525,0.11769371,0.4609375,0.08646583557128906,12.820796537399293
38,380000,0.9008242100784066,-95.21307,0.055925414,-0.63579756,0.7190263,-20.114756,31.531403,16.134356,6.0177827,121.173874,121.37844,121.308624,121.579994,3.1164718,0.7,-122.06478,-20.694483,0.00029016478,-410.33783,19.985022,19.953995,20.284958,19.913979,4.4911167e-06,0.3,-19.54855,93.90872,93.9013,94.09421,94.02547,0.13397932,0.44687498,0.0791463851928711,13.1345183968544
39,390000,0.8539322060907661,-94.19953,0.055762913,0.15900445,1.008449,-0.6223713,41.669262,31.227482,7.308699,115.034035,115.07591,115.10121,115.02983,3.2271373,0.7,-115.15094,-21.04379,0.0029138466,-175.29172,0.30193436,0.8867179,1.2877836,0.2761598,1.466833e-09,0.3,-18.527723,93.03273,93.05197,93.432045,93.23128,0.10889152,0.4640625,0.07187461853027344,13.450103509426118
40,400000,0.8975273006357868,-95.2556,0.05490772,-0.774257,1.2777478,-10.279023,36.76931,34.796165,6.282096,116.304375,116.35225,116.66911,116.88398,6.8666224,0.7,-118.19367,-25.157532,0.00016379694,-488.7679,9.951742,9.750246,11.495057,11.737981,3.6310405e-06,0.3,-22.36457,94.037285,94.09375,94.36385,94.45734,0.18112138,0.346875,0.07587528228759766,13.760220738252004
41,410000,0.9304927720380165,-93.97017,0.054713782,1.3897141,0.8942252,-7.1121464,35.8488,25.157312,7.325273,120.07528,120.54903,119.88276,119.76199,2.4537241,0.7,-120.47845,-19.418873,5.4985576e-05,-911.4856,6.760303,6.567463,6.6349416,6.837421,3.1615536e-06,0.3,-32.071396,91.97719,92.0695,91.70034,91.84424,0.16644555,0.5203125,0.08156037330627441,14.074406611919404
42,420000,0.9169469860751589,-95.091385,0.05486348,-0.46331534,0.7396194,-6.6654987,42.595192,36.64858,6.5183506,118.98235,118.74624,118.73395,118.84786,10.651341,0.7,-118.92332,-19.837324,0.00053950585,-626.38446,6.752295,6.9449644,7.4563875,7.379153,1.05978685e-07,0.3,-21.78743,93.8407,93.79027,93.79387,94.008385,0.15236631,0.421875,0.07790899276733398,14.39000807205836
43,430000,0.9202803673610878,-97.3202,0.05370464,0.9496378,1.2437272,-7.7597656,32.783634,113.56955,7.8708353,117.75103,117.60405,117.530556,118.01367,6.4616823,0.7,-118.54004,-19.793537,0.0007805396,-130.21176,8.262023,7.8296223,8.236209,8.42246,9.382301e-06,0.3,-21.737057,95.82452,95.71837,95.87274,96.12999,0.16510022,0.3953125,0.07687735557556152,14.702546874682108
44,440000,0.9751846932752769,-96.09984,0.05391554,-0.03524956,0.7217972,-3.15027,25.9935,21.999321,7.801076,119.808464,119.878746,119.227806,119.57846,4.2697635,0.7,-119.86682,-19.697262,0.0013327536,-290.21408,3.606646,4.06326,2.623608,2.4671633,1.0624063e-07,0.3,-18.458366,94.57279,94.56904,94.30428,94.40049,0.11020103,0.42499998,0.0837087631225586,15.013850251833597
45,450000,0.8823446726927519,-95.46777,0.053842645,-0.20966274,1.0032988,-2.019394,49.72285,60.12913,5.057371,120.69923,120.75946,120.9477,120.94594,6.0016413,0.7,-121.15373,-24.270712,0.000590904,-237.8917,0.9183438,1.1471493,1.1580877,0.8985244,2.7939679e-08,0.3,-21.528357,94.16752,94.173035,94.0329,93.94859,0.12571369,0.51093745,0.0740971565246582,15.322462022304535
46,460000,0.9115753112376369,-96.780106,0.054506127,-0.07908252,0.9655175,-0.22738789,34.435352,59.379494,6.705497,120.18798,120.18863,119.8846,120.053024,4.615283,0.7,-121.10179,-19.070965,0.0012664441,-292.42712,0.28628403,0.29749972,1.324866,0.3001503,0.0,0.3,-21.160793,95.44115,95.484085,95.22975,95.3752,0.1282374,0.44687498,0.051435232162475586,15.621214258670808
47,470000,0.947095560502147,-93.730835,0.052074566,0.73461485,0.9438476,-0.89609545,31.252514,21.15402,7.988722,120.37971,120.70268,120.71907,120.67642,4.069751,0.7,-120.88487,-26.308062,0.0014762799,-846.12573,0.52190596,0.9414571,1.3100989,1.0663112,1.678127e-08,0.3,-23.662987,92.38464,92.38077,92.732346,92.58272,0.13142793,0.44687498,0.08554244041442871,15.927722597122193
48,480000,0.8820354763526248,-94.65749,0.05375923,-0.4672957,1.2116145,-0.38300958,32.762836,40.811634,8.029905,118.59165,118.41543,118.75527,118.98789,8.642551,0.7,-118.478004,-22.80341,0.0009656027,-474.66583,-0.08419776,-0.06168604,0.97329205,-0.31544465,1.418346e-07,0.3,-22.42646,93.26739,93.30138,93.15212,93.265656,0.18611161,0.425,0.07837152481079102,16.24080105225245
49,490000,0.9832710718445733,-96.0125,0.0541202,0.63144624,0.92309594,-5.992773,39.299686,18.847673,7.3813877,119.41033,119.080536,118.64181,118.837616,3.1710865,0.7,-120.38644,-22.768074,0.00085745496,-431.71826,6.1277823,6.415305,5.5744033,5.1334915,1.39451e-06,0.3,-23.29195,94.57736,94.56157,94.26057,94.38833,0.112669244,0.4796875,0.08743166923522949,16.554047727584837
50,500000,0.977611635366447,-95.12869,0.05403194,0.034193903,0.588228,-3.95312,31.882305,5.737391,6.56511,117.88535,117.78667,117.43573,117.96329,6.140232,0.7,-117.7596,-19.15472,0.00074212166,-361.1841,3.9762194,3.8096585,5.062593,4.8194675,2.4556357e-10,0.3,-22.203835,93.7498,93.68808,93.78142,93.65175,0.14439401,0.4453125,0.08996224403381348,16.868057572841643
51,510000,0.9905871747450214,-95.809616,0.05414325,0.70412266,0.52932763,-6.0649323,31.61601,13.299936,6.8875074,116.9381,116.935425,117.064545,116.81188,4.3589664,0.7,-117.15833,-19.257893,0.00033556746,-243.60173,6.1677413,6.167664,5.5015726,5.6420918,8.886115e-06,0.3,-21.481798,94.40213,94.414276,94.23195,94.3006,0.14913432,0.40937498,0.08836197853088379,17.181135499477385
52,520000,1.0298858513319629,-93.471855,0.053895377,0.4872044,1.2368859,-8.951471,33.477276,15.89406,6.04613,119.697136,119.759995,119.21337,119.33742,6.310515,0.7,-120.25182,-25.723743,0.0006921487,-127.63834,8.906623,8.864508,9.407181,9.966429,3.5708655e-07,0.3,-20.057709,91.9973,92.00698,91.69882,91.90319,0.1797648,0.39062497,0.09258651733398438,17.493929521242777
53,530000,0.9963483690588181,-95.58632,0.051718954,-0.32430354,0.95275164,-7.1691966,31.947115,15.274387,6.9473276,118.94454,119.01821,118.64941,118.871605,4.221145,0.7,-119.14493,-30.070225,0.00023113389,-387.41003,7.2901115,6.821443,6.3779306,6.531466,8.451753e-09,0.3,-24.40702,94.18621,94.15683,94.16634,94.2863,0.15553245,0.4296875,0.08645415306091309,17.81408770084381
54,540000,1.0159537549795126,-94.223404,0.052780665,0.84356576,1.2494392,-7.2149825,35.104935,65.82468,5.097678,118.71662,118.54478,119.01194,119.053696,8.992915,0.7,-119.177086,-26.961407,0.002272179,-384.46814,6.499066,6.7373676,4.8673553,5.0446215,2.9059012e-07,0.3,-24.605692,92.678604,92.72562,92.87268,92.86775,0.19815905,0.46249998,0.09602022171020508,18.130817719300587
55,550000,1.0199434631670552,-94.736115,0.05184278,-0.32430887,0.5879032,-0.6400369,37.08038,14.331129,3.8950763,118.70905,118.32155,118.77081,118.74496,2.0617237,0.7,-118.87298,-22.298151,0.0011014452,-129.15628,0.9678732,0.8066573,1.3807708,-0.5822412,8.998148e-07,0.3,-18.143368,93.61013,93.57071,93.765274,93.75517,0.09186712,0.459375,0.09362602233886719,18.447475528717042
56,560000,1.0523587798419543,-94.54555,0.053083178,0.1525972,0.73277295,-3.7059455,33.233524,13.626203,4.3594356,118.63131,118.58646,118.126816,118.12811,2.524251,0.7,-118.95125,-23.407618,0.0031852548,-112.8454,4.4756155,4.144224,4.359894,3.9591086,5.8743172e-08,0.3,-18.642237,93.26851,93.36482,93.192215,93.11888,0.11459851,0.5,0.09709835052490234,18.75601110458374
57,570000,1.0251176104388962,-95.272354,0.052196566,0.87578976,0.76143384,-3.0420775,38.38649,18.589783,6.481891,117.33542,117.55025,116.98842,117.36263,4.087505,0.7,-117.898094,-22.207884,0.001672395,-306.71884,3.1760871,2.8911653,2.9059272,3.0236459,1.9247645e-06,0.3,-24.917475,93.81291,93.83489,93.52823,93.79477,0.15714136,0.390625,0.09231114387512207,19.0609290877978
58,580000,1.0860536423727096,-97.11925,0.05138436,-1.2142892,0.9782498,-0.25359565,32.736267,10.7083645,7.6476793,117.58182,117.63479,117.33831,117.21433,6.2265477,0.7,-117.33358,-22.590609,0.0025974016,-457.12085,1.9531571,0.90111464,1.2203665,-0.14257953,1.05978685e-07,0.3,-18.612667,95.847084,95.80698,95.61367,95.69036,0.15763661,0.525,0.10047221183776855,19.376310201485953
59,590000,1.048955517970498,-94.725296,0.051434774,0.20249856,0.6023477,-11.578577,32.66837,7.491452,7.046027,115.38397,115.62502,115.86719,115.58559,1.8297741,0.7,-115.55993,-22.364489,0.00020388776,-195.74452,11.397735,10.837671,10.778162,11.006219,6.078626e-08,0.3,-21.847313,93.2257,93.24001,92.98548,92.98981,0.103369944,0.49062502,0.09454584121704102,19.69062446753184
60,600000,1.0595944313688395,-95.06775,0.05116204,-0.19255029,0.96651965,-4.467834,36.222076,25.52176,6.2873735,115.67217,115.68658,116.23849,116.41058,3.551685,0.7,-116.13211,-19.238216,0.00018231204,-489.89056,4.4605002,4.778836,5.0647645,5.2662945,6.992312e-07,0.3,-24.86864,93.805786,93.91263,93.67457,93.91533,0.12675716,0.375,0.09453606605529785,20.003318754831948
61,610000,1.0409385858243752,-96.17817,0.051796302,-0.57910734,0.9359033,-10.525147,43.300884,26.105562,4.7199516,117.24493,117.04894,116.515335,117.00427,2.8938599,0.7,-117.40796,-25.084507,0.0016604403,-317.76926,10.835443,10.65301,10.241157,10.1702,1.6430278e-07,0.3,-21.779161,94.890625,94.8971,94.5123,94.418465,0.119778134,0.52968746,0.09344959259033203,20.31850999991099
62,620000,1.0485146578002296,-96.40925,0.05164235,-0.65108407,0.67738557,-21.987238,30.67112,14.147573,7.155066,117.63745,116.910805,117.09154,117.559105,6.523418,0.7,-116.90621,-23.72645,3.852608e-05,-316.8444,21.785154,22.380903,22.604284,22.168865,4.8866673e-06,0.3,-22.698898,94.970695,95.06243,95.24894,95.28244,0.18835004,0.38125,0.09504389762878418,20.63897581497828
63,630000,1.0443300904520354,-95.355095,0.050952133,0.03316216,0.7597267,-5.4046874,39.55048,13.941795,7.2369184,118.522125,118.56636,117.78811,118.0531,18.798811,0.7,-119.33046,-20.91053,1.2228265e-05,-1371.9918,5.4661794,5.454556,5.8548994,5.365081,3.9815788e-07,0.3,-28.91359,93.86932,93.96049,93.63704,93.63907,0.18057297,0.4953125,0.09153890609741211,20.955058940251668
64,640000,0.9959650599512399,-97.40355,0.05155478,-0.37591833,0.55995464,0.66483605,33.417732,18.05086,5.0320063,118.18452,118.12835,118.25596,118.08699,2.973275,0.7,-118.94507,-23.311682,0.000615041,-281.99304,-0.66771173,-0.37682784,1.1734849,0.42881274,5.912036e-07,0.3,-21.812935,95.94102,95.957794,96.05291,96.12596,0.1250979,0.4671875,0.08341050148010254,21.265833822886147
65,650000,1.0016246125127792,-96.034294,0.05142456,0.66788214,0.67886657,-4.5893874,32.579067,9.596044,6.4804397,117.44977,117.31239,117.63197,117.7031,3.8013806,0.7,-117.887436,-28.58338,0.00040555984,-453.86948,3.797175,3.8540943,3.600903,4.818027,2.1930784e-06,0.3,-25.719872,94.554375,94.50807,94.26842,94.38883,0.15768619,0.47812498,0.08553481101989746,21.577799610296886
66,660000,1.0167068852889523,-94.98357,0.05034807,0.95129824,0.67407733,-0.50986505,40.8234,27.69249,6.368817,116.61742,116.406845,116.77878,116.46998,4.4312286,0.7,-116.66929,-23.262672,4.2003976e-05,-435.40442,1.0060806,0.055461764,1.115814,0.7449765,2.6833268e-06,0.3,-23.892729,93.46471,93.44086,93.54631,93.46883,0.1508412,0.440625,0.08689689636230469,21.887841963768004
67,670000,0.997879467019229,-94.919365,0.052567285,0.18444674,1.2587116,-9.916403,37.71368,141.06696,6.498702,118.622536,117.89003,117.90935,117.64655,4.5818253,0.7,-118.315994,-24.306482,0.0016255125,-287.17133,9.902413,10.49147,10.679137,10.619087,7.700874e-09,0.3,-21.94373,93.59923,93.618805,93.45328,93.54405,0.11052926,0.4921875,0.0877840518951416,22.199346522490185
68,680000,0.990646950691007,-93.37259,0.050991036,0.82995325,1.0552963,-1.7506095,34.04952,9.874476,5.741823,119.48591,119.926865,119.199524,119.575134,3.1149313,0.7,-119.9976,-27.81636,9.867281e-05,-510.03998,0.6867669,1.4532526,1.0301193,1.1189666,9.480107e-07,0.3,-25.694706,91.80436,91.8109,91.88521,91.950935,0.16448319,0.4125,0.08605194091796875,22.509888064861297
69,690000,1.005814729305963,-95.62834,0.05092839,-0.5088006,0.5949446,-4.3122263,22.800304,19.139107,4.7156763,115.65881,115.93152,115.85257,115.49885,14.886021,0.7,-115.87184,-22.21346,0.00012158428,-212.18845,4.631431,3.7671359,3.8371687,4.23411,1.446053e-07,0.3,-23.69027,94.12579,94.1327,94.16138,94.24806,0.14590485,0.4875,0.08771705627441406,22.82078388532003
70,700000,0.9750364572282743,-96.777756,0.04993743,0.28766176,0.6678169,-7.5728517,36.568462,9.077385,5.3308654,119.37003,119.53259,119.75319,119.383804,2.045328,0.7,-120.40668,-24.589348,0.0021698368,-591.83875,7.190143,7.224624,6.4495463,6.6832724,1.8887222e-07,0.3,-28.058998,95.21437,95.14813,95.067154,95.050644,0.13816361,0.496875,0.08540797233581543,23.137693091233572
71,710000,0.9745205586015813,-95.25564,0.050254524,0.11910942,0.9850651,-3.0493522,52.802578,103.64106,6.809262,118.02913,118.14782,117.947105,117.93522,68.11409,0.7,-118.670746,-31.564022,2.1164888e-05,-244.29305,2.5000403,2.9256418,1.2169545,1.6512007,1.561147e-06,0.3,-24.501724,93.555725,93.64273,93.53317,93.51132,0.3659733,0.45625,0.08727502822875977,23.450503607590992
72,720000,0.9255003989707719,-96.07478,0.051196612,-0.30214232,0.7718054,-18.41031,31.831902,16.861313,6.256836,115.91545,115.82475,116.06422,115.99279,4.9794044,0.7,-116.00568,-22.687122,1.0104501e-05,-818.00446,18.105537,18.223356,18.696972,18.528242,1.3217215e-07,0.3,-28.976665,94.37601,94.39098,94.67459,94.7341,0.13528138,0.40624997,0.07470893859863281,23.7585058371226
73,730000,0.8985048069210793,-94.91873,0.050710313,0.2713936,0.8568122,-3.002772,37.702515,30.681519,6.84499,118.43987,118.345116,118.276794,118.44462,4.2900205,0.7,-118.869026,-26.250546,0.00015996076,-410.13998,2.9515982,3.0636637,1.5143911,1.9705148,1.455465e-06,0.3,-23.9352,93.15088,93.10007,92.966156,93.12352,0.13321906,0.41562498,0.07102203369140625,24.067476471265156
74,740000,0.8874664833578332,-95.77809,0.049829427,-0.5692772,1.6628954,-0.7293001,35.23485,219.61224,6.618563,115.63861,115.93632,116.19594,116.2146,9.637476,0.7,-116.00323,-27.56972,0.00090189587,-413.8926,0.8965798,1.0147126,1.3597391,1.6424453,5.2952674e-07,0.3,-23.94542,94.37984,94.370026,94.28446,94.31093,0.16508768,0.475,0.07526874542236328,24.37624272108078
75,750000,0.94424310975817,-97.070816,0.049611583,0.48622438,0.7788997,-18.200668,36.944107,31.181437,6.4960527,118.4112,118.48248,118.486145,118.20276,3.1565475,0.7,-118.81725,-19.90458,3.251835e-05,-376.5489,18.349485,17.733603,17.602613,17.980715,8.451753e-09,0.3,-25.876125,95.30927,95.28734,95.14325,95.19771,0.11861162,0.47968748,0.0773773193359375,24.687143619855245
76,760000,0.909964147181874,-95.786224,0.049276814,-0.5333295,0.6267015,-4.3692055,35.272747,28.129782,5.468057,116.59855,116.05165,116.3745,116.28876,1.7538183,0.7,-117.81937,-29.639156,0.00048126117,-275.41373,3.5675921,3.7239032,4.0313025,4.068818,3.6670825e-10,0.3,-21.480553,94.33918,94.288185,94.40225,94.5041,0.1142649,0.42343748,0.07315492630004883,24.997562424341837
77,770000,0.8700665461945583,-97.65191,0.0493381,-0.19733758,0.7272391,-2.1141324,36.187885,19.06366,6.027028,117.61399,117.79532,117.51581,117.57977,2.20437,0.7,-118.598854,-20.021051,0.00028261275,-270.9527,2.4778202,2.2323527,2.6473627,2.6267498,2.0539737e-07,0.3,-22.94182,96.06138,96.08977,95.986084,96.08084,0.14345212,0.38593748,0.06719255447387695,25.304840807120005
78,780000,0.866263086566093,-95.834946,0.04965353,-0.23426704,0.41874343,-4.2190504,32.245052,8.302526,5.2949333,119.361984,119.28948,118.9503,119.036354,1.9896544,0.7,-119.30945,-23.886255,6.959983e-05,-323.94925,5.2717175,4.477838,5.3651247,5.5772696,4.4146438e-07,0.3,-23.956264,94.25975,94.249725,94.27099,94.32019,0.09404966,0.459375,0.07167863845825195,25.613032285372416
79,790000,0.8897409510732442,-95.87044,0.049901903,0.77463615,0.4984582,-5.2035613,33.56095,19.51558,6.4961996,116.76884,116.84237,116.6527,116.38059,2.1446192,0.7,-117.03979,-22.743004,0.00025666517,-325.42865,5.5363398,4.974515,5.601634,4.9383073,8.6217185e-08,0.3,-24.67295,94.574455,94.52561,94.38071,94.22571,0.13512991,0.553125,0.07096052169799805,25.92105301618576
80,800000,0.8911196352107994,-96.05795,0.048895996,-0.39123377,0.59220064,-10.167099,34.594883,13.362252,7.9290504,117.32002,117.08581,116.68733,116.82245,2.0210292,0.7,-117.524445,-21.189234,7.167482e-05,-489.31998,10.156893,10.3444805,10.236397,10.284033,2.1391315e-06,0.3,-24.638908,94.77254,94.69832,94.56198,94.70564,0.09382577,0.4359375,0.06912565231323242,26.231081795692443
81,810000,0.8832153654431727,-93.23503,0.049905103,0.3949604,0.5363055,-3.7850962,42.19201,6.1281548,5.8870616,116.99315,117.08488,117.09475,117.11499,6.8056965,0.7,-117.74009,-22.90431,9.900483e-05,-365.9688,3.1950212,3.658545,2.4934323,2.573992,6.1973697e-06,0.3,-26.127068,91.82212,91.81264,91.94368,91.8434,0.1570918,0.43437502,0.06906676292419434,26.5392099181811
82,820000,0.9406021691290992,-92.92782,0.049103316,1.6792284,0.7104132,-3.1269388,42.35332,22.436632,6.1357393,116.326126,115.953186,116.00196,115.984406,7.424523,0.7,-116.209694,-23.318336,0.0002999397,-190.57965,3.9997592,3.2123299,1.3849064,2.9260855,1.550722e-06,0.3,-23.576883,91.278854,91.262695,91.38904,91.38845,0.13640267,0.4578125,0.0779566764831543,26.847121226787568
83,830000,0.9227546941068329,-94.043144,0.050425816,0.33251053,0.57530695,-1.1056418,31.47953,8.969769,9.405582,117.42297,117.76505,117.556755,117.51437,3.0932271,0.7,-117.97408,-18.016424,0.00032817223,-259.77023,0.9335773,1.7180009,1.0651126,2.3902159,5.3784316e-07,0.3,-21.051495,92.84006,92.7659,92.79879,93.00426,0.15262051,0.37656248,0.08063673973083496,27.157349944114685
84,840000,0.9392206236642455,-95.39882,0.0495854,-0.76232046,0.88034207,-6.564334,35.14721,9.520529,7.2701373,119.26988,119.22453,119.547424,119.542595,2.9012754,0.7,-119.77589,-26.661463,0.00028602156,-386.96637,6.2704225,6.532215,7.1204667,6.9531155,1.08268e-06,0.3,-20.831928,93.92375,93.867874,93.93216,93.98585,0.12155344,0.4359375,0.0802910327911377,27.469166362285613
85,850000,0.950465038925168,-94.98784,0.04791614,-0.6738173,0.83139217,-0.95085686,40.35693,11.652554,7.6240788,119.50696,119.64064,119.15534,119.225655,2.5979047,0.7,-119.94978,-21.176495,0.0037155873,-180.38625,1.0581975,0.9842358,1.199441,1.1645689,6.114351e-09,0.3,-21.519867,93.46529,93.47803,93.14474,93.37677,0.121072575,0.390625,0.08475375175476074,27.778144109249116
86,860000,0.9361164749440052,-92.595535,0.04859094,-0.5218186,0.69866514,-1.2850369,38.60357,39.268284,6.4908032,115.6748,115.751335,115.668304,115.75697,2.9505239,0.7,-115.94293,-24.562338,0.00030690926,-339.07147,1.6545734,1.2233799,1.1576612,1.7673187,1.1092925e-06,0.3,-30.764423,91.163864,91.25856,91.34542,91.36218,0.119999096,0.459375,0.07950019836425781,28.089538594086964
87,870000,0.9516670341607574,-95.40915,0.04978277,-0.47277766,0.76679873,0.28499404,37.988777,37.91123,7.159387,115.757805,115.744644,116.03235,115.98486,3.2921693,0.7,-116.18618,-24.911592,2.654997e-05,-398.7337,0.4395826,-0.2707045,1.1842027,0.7876449,6.915245e-07,0.3,-24.961494,93.82375,93.86345,94.10419,93.95842,0.11300449,0.51874995,0.07939648628234863,28.400997503598532
88,880000,0.978068651754775,-94.473694,0.049653284,-0.07038784,0.5527264,-5.3198605,37.63149,17.064938,6.9055862,118.198456,118.053185,118.194305,117.95982,3.8557866,0.7,-118.48919,-25.941957,5.6785822e-05,-600.5962,5.139625,5.3555284,5.997361,5.994304,7.700874e-09,0.3,-26.263714,93.11681,93.133896,93.030685,93.018196,0.13103458,0.434375,0.08821916580200195,28.712630796432496
89,890000,0.9925812901704479,-95.06497,0.049194235,0.40650696,0.39320284,-0.8206661,49.680676,9.750143,6.0574603,118.627106,118.27682,119.04555,118.8076,2.4151647,0.7,-118.33683,-23.65314,0.001225278,-310.93262,1.2525979,0.2753746,1.3347343,1.3983767,1.2765114e-06,0.3,-25.450857,93.67578,93.58795,93.70409,93.69189,0.08223265,0.4890625,0.08548569679260254,29.02176743745804
90,900000,0.9735986945672613,-95.7661,0.048590858,-0.72430813,0.8824817,-3.9134622,29.899803,36.98879,6.2618465,117.7848,117.88195,118.29207,118.17235,3.0614555,0.7,-118.0325,-23.232674,0.00078355346,-372.47726,3.948005,3.8111715,4.1768823,4.334821,2.231216e-07,0.3,-22.729984,94.509384,94.53479,94.7169,94.67619,0.12462893,0.43906248,0.08274507522583008,29.334404146671297
91,910000,0.9838783369084931,-94.43408,0.04867547,-0.008101344,0.56692815,-1.146657,43.159626,12.412161,6.755051,115.62815,115.354164,115.52206,115.504654,1.7190545,0.7,-116.3724,-19.574572,0.00013575528,-222.4067,1.2229885,1.466848,1.1938579,1.1385584,4.1984426e-06,0.3,-21.303627,93.1896,93.19208,93.39363,93.31172,0.09995631,0.46249998,0.08577775955200195,29.64287540515264
92,920000,1.0125550654489133,-97.46973,0.048473135,-0.5679661,0.70063484,-2.0163097,39.64904,15.260498,5.8939257,116.756294,116.852325,117.099556,116.865,3.4717333,0.7,-117.39328,-22.90583,0.00010460714,-374.88382,2.11415,1.8392031,0.98858577,1.7540644,2.5465852e-10,0.3,-25.473236,96.255516,96.15286,96.3471,96.30694,0.08989952,0.46249998,0.08829593658447266,29.95369642575582
93,930000,1.02163038459051,-95.99199,0.048275534,0.019489944,0.7084013,-9.808851,36.41263,7.6013837,6.1239305,117.98432,117.39814,117.818275,116.71773,3.174317,0.7,-117.918465,-24.723482,0.00089149235,-343.02423,10.227869,9.7919445,10.346254,10.162897,2.9967052e-07,0.3,-26.278502,94.499146,94.41756,94.697845,94.53103,0.12065538,0.5390625,0.09723782539367676,30.26673950354258
94,940000,1.0148604245424813,-94.54062,0.047814243,0.7304382,0.9070533,-2.7265513,39.073853,14.470087,4.8596444,115.20761,115.32083,115.903076,116.096344,2.553899,0.7,-115.6048,-23.126453,0.00047732482,-332.0022,2.5345945,2.8082867,2.8022552,3.1866455,5.437131e-06,0.3,-23.79623,92.99243,93.038315,93.30344,93.49588,0.17778185,0.35156247,0.09071540832519531,30.575068740049996
95,950000,1.0092596723846972,-95.70301,0.04853468,0.44491705,0.6809947,-4.985748,46.690815,36.455986,5.3982525,117.79875,117.80172,117.806885,117.852295,10.429587,0.7,-117.65853,-23.595135,1.0296935e-05,-296.7045,4.964518,4.561178,4.730283,4.5832686,2.1515298e-07,0.3,-25.51209,94.40083,94.436874,94.420105,94.4771,0.11667417,0.42031252,0.08765888214111328,30.883334283034007
96,955000,1.0124352361958076,-95.28705,0.04976853,-0.37451327,0.49637753,-3.9242802,46.130363,9.963748,6.6837626,117.27859,117.22861,116.9152,117.102905,2.1843998,0.7,-117.82272,-26.083738,0.00016262301,-171.28293,3.6366706,3.7316494,3.772756,4.028131,5.020236e-07,0.3,-24.222366,93.9546,93.98716,93.7756,93.77199,0.08785869,0.51093745,0.08526229858398438,31.038837869962055
97,960000,1.0117153062014443,-95.88815,0.048376925,-0.17034075,0.60856456,-4.428755,38.733906,27.097893,6.9300776,117.876045,117.84835,117.68041,117.80763,1.8667008,0.7,-118.26802,-23.628872,0.0003774953,-314.86884,4.0460386,4.2863507,4.4907537,4.7783327,4.0745362e-11,0.3,-22.568022,94.30257,94.23877,94.246155,94.3537,0.08558659,0.4421875,0.08785009384155273,31.194549282391865
98,965000,1.0224837712733197,-95.88918,0.049685363,0.8769331,0.7379068,-12.372097,41.27995,18.124762,5.5966454,115.83721,115.947136,115.286545,115.609184,4.161235,0.7,-115.78786,-34.61776,0.00041930686,-202.49297,12.313764,12.415841,12.290473,13.108464,2.7522156e-06,0.3,-22.67313,94.362335,94.40583,94.16177,94.315346,0.12273426,0.4109375,0.08829283714294434,31.34880261818568
99,970000,1.040478232238436,-93.67567,0.04807285,-0.4619047,0.6632236,-0.9336193,36.82678,37.23578,7.1971083,118.72083,119.038536,119.19667,119.430855,1.6177691,0.7,-118.92048,-21.869701,0.00061094883,-250.37164,1.4972432,0.87902325,1.0923387,1.2309476,5.8836303e-08,0.3,-21.811848,92.3909,92.33625,92.504326,92.58137,0.08180547,0.4046875,0.09108400344848633,31.50144092241923
100,975000,1.0323626901041227,-93.26201,0.04833268,0.65917605,0.783185,-5.833984,31.421219,31.89901,6.0197606,118.53117,118.29052,117.88034,117.98265,1.7467958,0.7,-118.50754,-21.38429,0.0006937311,-224.16278,5.902761,5.9370937,6.010857,6.7399907,4.192698e-08,0.3,-25.20459,91.996056,92.02376,91.88688,91.930664,0.112960055,0.45937496,0.08975076675415039,31.653350361188252
101,980000,1.0594849584872965,-94.051094,0.048308305,-0.9087008,0.5157447,-0.17230637,41.554512,13.563511,8.148581,118.8596,118.027245,118.492096,118.8798,2.3550055,0.7,-117.54305,-21.273777,0.00095015485,-282.92395,1.311424,0.604913,1.4757518,1.2871995,3.182504e-07,0.3,-20.474854,93.13253,93.033356,93.1467,93.08827,0.0708547,0.484375,0.0949857234954834,31.808909261226653
102,985000,1.0543506681735288,-95.57431,0.04829186,0.29890883,0.51879895,-5.8065915,35.115234,6.7958035,6.0259295,116.21143,116.36656,116.108894,116.189064,2.7829788,0.7,-116.45775,-25.05249,0.00013717572,-391.76694,5.7538996,5.687574,5.900789,5.5745764,1.261651e-07,0.3,-23.909397,94.21341,94.23069,94.17592,94.23204,0.09459622,0.4296875,0.09453749656677246,31.96646237373352
103,990000,1.048835270526442,-95.041016,0.05012014,1.0525588,0.6470788,-11.307322,38.76592,13.744925,5.4687557,116.14534,116.3111,116.61099,116.809845,1.5938553,0.7,-116.163376,-24.411036,0.0007778511,-310.76306,11.2303095,11.476467,11.778526,11.752053,6.039481e-08,0.3,-22.916931,93.640724,93.6531,93.82646,93.880455,0.09915416,0.371875,0.0936899185180664,32.12237034241358
104,995000,1.04507199684986,-95.17221,0.05088779,1.6817081,0.76492727,-23.740566,39.66011,13.310244,6.9192505,117.10066,116.87353,116.77267,116.58495,3.6685495,0.7,-118.61922,-22.174479,0.00044488127,-255.2029,23.554857,23.707495,24.048092,23.965096,2.6833268e-06,0.3,-26.26815,93.3867,93.38809,93.585434,93.70806,0.15536746,0.3953125,0.09885001182556152,32.28061850865682
105,1000000,1.0496336247992752,-96.3007,0.05060439,0.23418665,0.6100462,-2.4500654,38.111828,22.944153,6.756939,118.35125,118.1702,118.02166,117.93705,9.954369,0.7,-118.17996,-31.192726,2.3144414e-05,-258.48892,2.5070477,2.3665245,1.3049223,1.4036233,1.3690443e-08,0.3,-22.540188,94.98721,94.87979,94.74106,94.74681,0.15300995,0.52656245,0.09732222557067871,32.43935182094574
