Xixo99/comfo/relaxed_iql/20230321_5seed_mle0/hopper-medium-expert-v2/riql_s2_20230320_224934_hopper-medium-expert-v2_0.99.csv
,step,reward,actor_loss,alpha,alpha_loss,critic_loss,max_actor_loss,max_alpha_loss,max_critic_loss,max_mle_prob,max_q1,max_q2,max_target_q,max_v,max_value_loss,max_weight,min_actor_loss,min_alpha_loss,min_critic_loss,min_mle_prob,min_q1,min_q2,min_target_q,min_v,min_value_loss,min_weight,mle_prob,q1,q2,target_q,v,value_loss,weight,eval_time,time
0,0,4.300470795874708,,,,,,,,,,,,,,,,,,,,,,,,,,,,,,,,,
1,10000,1.253057607956389,-39.2918,0.058984406,-6.329691,0.15964548,-6.5324216,21.347967,2.7979586,4.3316584,52.717728,52.64664,52.602604,51.52846,0.26181445,0.7,-52.64087,-22.639322,3.753703e-05,-72.010185,6.025604,6.0663857,5.9070187,5.3477035,1.7053026e-08,0.3,-7.660641,38.896645,38.891487,39.043236,38.387913,0.01997519,0.48125,0.12088632583618164,1.3009545962015787
2,20000,0.811605853482451,-62.29117,0.035476804,0.08814517,0.8362379,-8.574034,64.596176,46.48718,3.607122,76.60267,76.73747,76.59594,76.25468,9.417537,0.7,-76.80002,-23.87725,3.662269e-05,-228.06291,5.232623,5.997465,7.445174,7.0270653,5.286886e-07,0.3,-28.51189,61.4265,61.48401,61.38315,61.112083,0.1250506,0.44687498,0.08051443099975586,1.624949292341868
3,30000,0.8907323049140072,-76.6929,0.034096915,0.3939864,0.3633654,-4.4764156,41.622692,7.3405447,10.643995,91.90916,91.78017,92.14052,92.14201,24.14249,0.7,-91.23777,-31.949533,0.0003415838,-130.90208,1.7949837,2.2881486,1.1370751,3.1543365,1.3217215e-07,0.3,-19.657307,76.08701,76.07963,76.152054,75.883224,0.18278167,0.41875,0.08731651306152344,1.9483725786209107
4,40000,0.7958928310568676,-83.311966,0.03965473,0.62360954,0.7979256,-1.8521426,70.71567,54.114048,6.068177,101.835365,100.99872,101.89559,101.78428,21.518726,0.7,-104.05545,-24.707094,0.00017676514,-125.081764,1.7792464,1.146803,1.1842027,1.6275903,9.4138085e-07,0.3,-17.465332,82.67256,82.66468,82.88819,82.6429,0.1644655,0.42343748,0.06532549858093262,2.2778458555539447
5,50000,1.1603696856855914,-89.2481,0.04288128,-0.55842066,0.67267096,-2.9308572,56.43251,28.661266,8.00199,106.08089,106.35989,106.13758,106.5257,5.299494,0.7,-107.35898,-28.059526,2.4668e-05,-112.61241,2.4838583,2.656408,1.1032869,1.8920038,2.7543864e-08,0.3,-15.919184,88.35777,88.468124,88.409515,88.429016,0.16985902,0.4890625,0.11896252632141113,2.6046326557795205
6,60000,0.8892489054112549,-92.56639,0.04436416,-0.42960727,1.5195956,-3.640731,38.48993,14.939845,8.181211,109.95752,109.91892,110.2897,110.23614,12.199982,0.7,-110.16266,-23.401443,0.00010023598,-97.00127,0.82244796,3.6909215,4.5698576,5.065215,2.7939679e-08,0.3,-14.695654,91.73576,91.599686,92.35817,92.305626,0.22782497,0.37343746,0.07766842842102051,2.931271465619405
7,70000,0.85648566216077,-95.47912,0.04437422,-0.12871033,2.3385277,-6.9318066,46.1787,76.43965,5.6756406,113.16088,112.432625,112.83937,113.863205,13.992414,0.7,-113.44631,-29.37725,0.0020976032,-307.51276,6.4031773,6.6315928,6.344033,6.366602,1.1363474e-06,0.3,-16.960737,94.463844,94.53709,94.83403,94.69275,0.21929623,0.5109375,0.0698549747467041,3.259021548430125
8,80000,0.8324574151849985,-96.78311,0.048634056,-1.2850736,1.3626301,-6.405521,38.88966,33.88364,7.6916256,114.15728,114.34084,114.78329,115.893326,10.722549,0.7,-115.90556,-21.392101,0.0036354167,-423.96356,5.965213,5.65151,4.4881997,4.6789436,1.6362594e-05,0.3,-17.326736,95.94722,95.98415,96.4281,96.54788,0.2805553,0.33593747,0.06798005104064941,3.58712123632431
9,90000,0.8078174885678722,-97.53369,0.050517775,-0.45603532,0.84249735,-3.1603673,45.268005,9.120155,7.722246,114.47284,114.831726,114.501236,114.65354,1.9539741,0.7,-114.94266,-26.290949,0.000721397,-272.38354,3.1482573,3.0067432,1.8529615,2.3498616,5.3985973e-06,0.3,-16.800129,96.54503,96.61325,96.19995,96.50664,0.091483176,0.45,0.06205344200134277,3.917190957069397
10,100000,0.8078516908318897,-97.546585,0.05219031,-0.5994879,0.917117,-1.1022553,53.01226,52.03406,7.246846,116.91454,116.55156,116.13552,116.54718,2.1928704,0.7,-116.743286,-24.940332,0.0036011196,-135.8554,-0.6332364,-0.10558167,1.1832606,0.022981122,1.4096265e-06,0.3,-16.538916,96.60104,96.64702,96.438995,96.49582,0.122987345,0.434375,0.06034994125366211,4.247123261292775
11,110000,0.8101575505725066,-97.23731,0.05451348,-0.37651145,2.158536,-2.870057,37.50268,50.66369,7.4515743,118.4549,118.172516,117.14434,116.751976,10.328916,0.7,-118.5573,-21.236227,0.0007077516,-159.76645,2.8652217,2.545775,2.7810235,2.889471,6.078626e-08,0.3,-16.105515,96.25321,96.2516,95.91802,96.00632,0.2724257,0.49218747,0.060112714767456055,4.576474340756734
12,120000,0.8023707834450395,-96.58421,0.055327892,-0.07503483,1.0617589,-3.5036452,36.323692,21.23859,6.8468647,118.844124,118.40412,118.433266,118.10518,7.2093005,0.7,-118.39087,-20.911469,1.2285309e-05,-278.8751,2.7369845,3.300325,1.9403939,2.698343,1.3800822e-05,0.3,-16.770205,95.50153,95.50984,95.596146,95.54245,0.14168653,0.42343748,0.05950021743774414,4.90423436164856
13,130000,0.7999721818730283,-96.672745,0.05602436,-1.4138325,0.5390694,-3.0766716,33.227634,14.003216,6.8293734,117.940636,117.7954,117.631355,118.112564,7.97008,0.7,-117.91069,-22.358686,0.0014131332,-137.01239,2.5934734,2.1896043,2.527549,2.480096,3.4030934e-06,0.3,-15.794872,95.538956,95.55498,95.52714,95.64754,0.127864,0.4421875,0.06269145011901855,5.226127398014069
14,140000,0.8024507222885268,-95.11913,0.058194533,0.43370044,1.6311202,-9.154956,60.106514,33.726597,5.966674,116.40715,116.30068,116.776505,115.98749,4.6257205,0.7,-116.419624,-19.46306,0.00097072317,-227.09778,8.944698,9.281351,11.276997,10.0202055,1.4844421e-05,0.3,-18.410843,93.67772,93.64492,93.57271,93.443054,0.15164487,0.5,0.05843925476074219,5.555158539613088
15,150000,0.8064879557483452,-97.19504,0.057754695,-0.62798756,0.93968284,-5.9313316,46.020744,29.48808,6.264114,118.581085,118.63475,118.10383,118.28538,4.334904,0.7,-118.82853,-25.060858,0.001095498,-131.23973,5.72801,6.1862636,6.4264064,6.7067404,2.4314506e-05,0.3,-15.073256,96.13895,96.30504,96.34956,96.34303,0.15045552,0.459375,0.06285762786865234,5.881605891386668
16,160000,0.8257018570902894,-96.38835,0.05798818,0.66900146,0.690119,-15.021144,30.604038,19.148552,5.235522,117.88084,117.82634,117.885445,117.94862,13.308307,0.7,-117.61985,-21.234137,0.00041033054,-228.82225,12.780665,10.412159,12.311255,12.688735,2.8926124e-06,0.3,-17.877232,95.2538,95.18776,95.164505,95.20323,0.2226327,0.390625,0.06374216079711914,6.208843390146892
17,170000,0.8383306541347159,-99.946655,0.056828924,-1.2075443,0.7339473,-4.07428,36.18782,13.406582,5.840773,117.35401,117.43231,117.18663,117.45891,6.0476723,0.7,-117.944405,-18.773573,0.00066006207,-68.0963,3.5331402,3.6584208,3.6343746,3.498581,6.572111e-07,0.3,-14.816643,99.17753,99.1481,98.998405,99.08257,0.12612462,0.3890625,0.07466936111450195,6.543416595458984
18,180000,0.8031421701077898,-96.55604,0.057183933,-0.18361652,1.028749,-2.4795666,32.439655,39.70114,6.546386,120.04133,120.52548,120.30686,120.503746,7.048556,0.7,-121.97968,-20.35775,0.00042644126,-595.9926,2.3269315,2.3553743,2.9522808,2.8811421,2.0539737e-07,0.3,-23.387117,95.239876,95.262215,95.16423,95.1465,0.23417407,0.4734375,0.05798029899597168,6.866952582200368
19,190000,0.8362954479229535,-96.71493,0.056200966,0.25714204,1.0956091,-4.47941,36.820972,33.167374,5.827969,117.09153,116.96535,117.43494,117.21031,2.7641177,0.7,-116.70269,-25.782602,0.0022499142,-171.95657,4.09158,4.1819816,3.1490684,2.838016,4.69666e-07,0.3,-18.25452,95.64148,95.59706,95.675385,95.74449,0.12231539,0.4578125,0.06595373153686523,7.190623887379965
20,200000,0.8861279908493095,-97.81927,0.055032488,-0.50980914,0.9793754,-7.3987856,34.323586,50.865005,4.4296083,119.93122,119.98856,120.065384,120.17251,39.86068,0.7,-121.72183,-18.680258,0.00016882573,-194.60559,7.134191,7.473869,7.004485,7.6317725,4.4641024e-06,0.3,-19.928938,96.465,96.55676,96.632286,96.74361,0.26331994,0.421875,0.07509303092956543,7.516884628931681
21,210000,0.847754282234435,-97.25655,0.054158848,-0.1709384,1.2726525,-0.9939034,33.16166,65.03732,7.605489,122.668976,122.57319,122.52168,122.559685,2.915186,0.7,-122.20154,-22.723928,0.00087923487,-128.70302,0.24174339,-0.26193073,1.1900431,0.65994847,1.2262899e-06,0.3,-17.47702,96.33431,96.31897,96.55032,96.47791,0.1541301,0.478125,0.06569719314575195,7.839874815940857
22,220000,0.8462261781284012,-95.71716,0.053169623,0.014160514,1.5815979,-9.997444,35.71846,48.605946,7.583362,119.2209,120.035255,118.60263,118.57199,7.7321157,0.7,-119.71015,-27.660543,0.00010249438,-856.9905,10.056218,10.654848,9.73925,9.4912,1.6298145e-10,0.3,-24.14168,94.32533,94.43113,94.43592,94.67648,0.20946832,0.42968747,0.06560873985290527,8.162285892168681
23,230000,0.8909472930645139,-94.19354,0.056088854,0.024251312,2.2215602,-5.9596124,52.547073,62.23191,8.094184,121.59076,121.57448,120.58737,120.82794,5.08049,0.7,-121.73083,-20.221361,0.003276397,-738.11053,5.7898974,6.254964,4.062527,4.874134,8.074567e-06,0.3,-25.028877,92.76955,92.73993,92.08652,92.48921,0.21206854,0.5140625,0.07654547691345215,8.487943375110627
24,240000,0.8882716640202909,-97.22531,0.054642554,0.68785846,0.9390936,-4.3641534,39.20884,16.496925,5.2177625,119.0096,119.02881,119.523094,119.50463,2.240808,0.7,-120.38931,-22.884434,0.00063222024,-194.7949,4.3550286,3.8778293,5.3072243,4.8266463,7.862243e-06,0.3,-22.178938,96.015305,96.06307,96.313,96.254875,0.15735854,0.50312495,0.0757904052734375,8.814468057950338
25,250000,0.9364062499134382,-98.730286,0.05415598,-0.7240051,0.9406364,-7.8519,31.48149,17.310215,4.949733,118.57447,119.0093,118.35642,118.2506,149.57585,0.7,-120.415436,-17.942581,0.00063571014,-396.8184,7.576768,7.887718,8.838937,7.8828397,8.451753e-09,0.3,-19.36742,97.55626,97.53229,97.52635,97.40407,0.86004907,0.4484375,0.08738327026367188,9.143992122014364
26,260000,0.8910659368668422,-96.65302,0.055044904,-0.029993117,1.1185211,-0.55301934,31.834576,30.037037,7.7199545,118.94458,118.41793,118.17059,118.60531,40.472775,0.7,-118.31795,-24.96318,0.00050818693,-301.28995,0.79629457,0.5171225,1.3471916,-0.35925567,1.3284659e-05,0.3,-23.025118,95.419586,95.33527,95.733826,95.79093,0.26860207,0.39218748,0.0738368034362793,9.47030549844106
27,270000,0.8496689899736019,-94.61622,0.054902215,0.7470147,1.7599108,-4.483985,37.504185,170.67587,5.3731794,118.60331,118.6105,119.19353,118.855896,7.5796094,0.7,-120.08182,-16.424288,0.0014305734,-145.7549,4.158866,4.2957563,3.551823,3.1185906,1.1175871e-09,0.3,-18.585627,93.38071,93.35599,93.44006,93.32942,0.2633774,0.49374998,0.06712770462036133,9.796690169970194
28,280000,0.8903811105583512,-97.441315,0.05330061,0.36578918,0.5249803,-15.411613,31.497686,9.434757,6.3014126,123.31824,123.07396,123.02676,123.01936,40.23877,0.7,-123.15382,-20.658552,0.0010027238,-142.56946,15.258293,15.358169,15.299795,15.539925,1.0058284e-08,0.3,-18.054691,96.19894,96.21996,96.05965,96.10449,0.29302114,0.42499998,0.07361674308776855,10.120784922440846
29,290000,0.8932229379380856,-96.62665,0.05342081,-0.1262569,1.1292477,-2.3302705,34.550297,69.916016,7.701353,120.51142,120.65452,120.98242,121.03156,4.8139935,0.7,-120.74856,-24.837427,2.2284046e-05,-194.27025,3.7289813,3.46573,2.5546017,2.4855657,6.551895e-06,0.3,-18.15727,95.55519,95.57432,95.366974,95.4268,0.18211004,0.403125,0.07388710975646973,10.448536205291749
30,300000,0.8345731605448452,-95.699356,0.05292836,0.21416906,2.2287965,-3.7142484,39.389046,85.58025,5.72452,119.267914,119.59996,120.43001,120.420845,4.8440394,0.7,-120.4304,-17.950468,0.002826988,-181.24416,3.3721783,3.6229777,3.6793306,4.078308,5.5825993e-05,0.3,-22.353184,94.1486,94.2579,94.70149,94.71814,0.14577834,0.36093748,0.07524704933166504,10.783432432015736
31,310000,0.8440717281528642,-96.35697,0.05221016,-0.3350543,1.7854294,-3.119474,32.21854,70.36653,8.18235,122.32542,122.03373,123.12165,122.657455,14.963954,0.7,-122.15767,-25.214594,0.00034345925,-181.083,1.9574654,1.9450265,1.1337584,1.3786669,1.0825635e-06,0.3,-22.332285,94.977066,94.95398,95.58281,95.27324,0.19633561,0.40468752,0.06829023361206055,11.128310755888622
32,320000,0.8406653986055727,-96.2232,0.05276158,0.8741796,2.7855034,-6.3790197,35.30859,312.1107,5.889393,119.88017,119.861725,119.50059,119.945305,13.194556,0.7,-120.299286,-21.408796,0.0013256175,-195.57574,6.46699,6.2313895,4.0792966,4.617744,3.4424477e-06,0.3,-22.264189,94.71681,94.66826,94.12248,94.42458,0.24489625,0.49531248,0.07236909866333008,11.459985208511352
33,330000,0.8904295343953558,-97.95819,0.051524393,-1.2012724,0.64996785,-5.942955,34.430237,15.646887,5.521249,118.6006,118.25629,119.06284,118.85253,1.7346648,0.7,-118.908295,-19.842314,0.0009067968,-227.01355,5.869288,5.7148485,6.880845,6.1749024,2.5874936e-06,0.3,-19.015123,96.94561,96.92694,97.158905,97.055786,0.10683875,0.4625,0.07845115661621094,11.793292025725046
34,340000,0.8967056011669463,-93.3837,0.051249944,0.23292303,1.1275182,-1.5709426,29.09474,111.11675,7.0093575,116.55279,116.335846,117.51886,117.227516,10.524919,0.7,-118.986,-23.166683,0.00024270837,-192.48619,1.5669621,1.628056,2.4619455,2.0539021,2.3497269e-07,0.3,-20.610607,92.25076,92.22795,92.197426,92.098755,0.17263827,0.5625,0.08289241790771484,12.134563958644867
35,350000,1.0346653263347545,-95.57797,0.04993761,-0.6408317,1.1119896,-3.4310403,39.08347,19.85693,6.4320126,119.07345,119.171295,119.71387,119.51052,12.060591,0.7,-119.41023,-18.919939,0.0011130751,-266.95816,3.3911707,2.9912436,3.033704,2.7852592,2.054422e-06,0.3,-22.264141,94.394424,94.43916,94.69791,94.44675,0.15956104,0.47031248,0.10321187973022461,12.480409197012584
36,360000,1.068502434804057,-95.364525,0.05037811,0.5532622,0.76241755,-0.3797755,38.376762,6.6014323,8.994833,117.54125,117.45795,117.76388,117.71818,2.9887624,0.7,-117.72929,-24.96283,0.0001688188,-464.10718,0.773956,0.2697624,1.071683,1.6452659,2.514571e-07,0.3,-22.682465,94.05119,94.07318,94.073685,94.08345,0.14507858,0.45156246,0.1158597469329834,12.818531576792399
37,370000,1.1184967944269641,-95.47253,0.04945751,0.5594504,0.738747,-12.871732,35.440945,10.931858,8.425792,117.81263,117.651024,117.94255,117.83717,4.7060914,0.7,-118.367485,-34.479023,0.00015061261,-187.8158,12.658059,12.157791,12.452093,12.216969,3.3014658e-07,0.3,-20.9382,94.02133,93.987595,93.93243,94.02451,0.1356449,0.453125,0.11213922500610352,13.152668861548106
38,380000,1.000940146896753,-95.05423,0.05130617,0.079946995,0.8333201,-11.176022,35.674156,29.285704,5.5467553,116.760956,117.213585,117.12309,117.201035,4.0268517,0.7,-117.0632,-18.654179,0.00021626643,-238.08565,11.152387,11.572734,11.135114,11.042134,3.4741126e-06,0.3,-22.267265,93.72152,93.80494,93.59715,93.85316,0.13953777,0.3796875,0.09404253959655762,13.48766957918803
39,390000,1.0554025308272048,-96.73192,0.050097536,0.040533572,1.5571127,-10.412084,40.484947,165.64919,5.531393,118.764046,118.48079,118.49926,118.397026,4.9422283,0.7,-118.82999,-20.939915,0.0053740013,-334.9222,10.280028,10.917938,10.566606,10.076807,1.3201498e-08,0.3,-21.669544,95.56934,95.6242,95.67875,95.501526,0.13104759,0.4921875,0.10195326805114746,13.819923071066539
40,400000,1.0497127587765205,-96.12082,0.050639946,-0.62874365,0.7585477,-3.67586,28.7991,33.101925,8.103628,118.73972,119.01529,119.19248,118.987015,2.7618322,0.7,-120.231544,-26.428999,0.00025545974,-259.6879,2.8866477,3.6839688,2.709682,2.5690649,7.700874e-07,0.3,-24.198719,94.785934,94.8331,94.923096,94.83853,0.120783605,0.4515625,0.10244917869567871,14.152232281366985
41,410000,0.9455271687937922,-95.05949,0.049866308,-0.22482404,0.9464814,-6.670779,27.005306,85.58194,7.7362165,116.4556,116.405716,116.63622,116.52728,11.944093,0.7,-116.828674,-20.383583,0.00051320094,-477.90756,6.0032554,5.6516495,6.3073993,5.9852962,2.5990886e-07,0.3,-24.157856,93.81958,93.82523,93.93786,93.91922,0.16785324,0.434375,0.08481383323669434,14.485993504524231
42,420000,1.0845829273518883,-95.12128,0.050142847,-0.27765575,1.3313429,-1.5401773,34.84258,89.157135,8.198715,119.03139,119.05299,119.35766,119.12328,13.016885,0.7,-119.464096,-35.16158,0.0009277447,-197.92172,1.4951925,1.6756818,1.1524936,2.2326884,2.521556e-08,0.3,-18.714102,93.8932,93.94502,94.14714,94.0585,0.21426351,0.453125,0.10931396484375,14.819210449854532
43,430000,0.8947968843806677,-97.854195,0.050626513,-0.42909086,1.848564,-3.3971343,44.006252,125.0004,5.752228,119.7747,119.87916,119.02939,119.13434,4.14291,0.7,-120.45846,-19.21054,0.002523924,-224.8982,4.1965203,3.1892378,4.027955,4.485147,9.1574043e-07,0.3,-21.03646,96.83307,96.75203,96.3599,96.51626,0.14693351,0.4734375,0.07612943649291992,15.153374020258585
44,440000,0.8951254096561908,-95.12571,0.050713383,0.39056808,0.98567367,-3.012044,40.671463,37.858353,8.383205,121.83848,121.83893,121.76272,121.88084,12.551701,0.7,-122.41908,-24.293922,0.001126348,-204.65291,3.5356147,2.9180672,3.206151,3.042382,1.0086224e-07,0.3,-21.514,93.64014,93.61579,93.42093,93.55356,0.21550801,0.4359375,0.07573747634887695,15.483177777131399
45,450000,0.897231055923644,-95.33658,0.050580002,-0.49444228,0.657392,-2.5069816,36.27898,7.6187677,6.2961097,119.294754,119.28847,118.92624,119.05304,1.6238549,0.7,-119.90703,-29.678349,0.0035530017,-318.00378,2.4612012,2.766923,2.3060708,2.1505075,4.296005e-06,0.3,-24.394558,94.08771,94.091385,93.81456,94.02965,0.09819893,0.40781248,0.07314562797546387,15.8226030309995
46,460000,0.9016609243390549,-95.45097,0.050026983,-0.014161836,0.9875833,-9.267087,38.168865,58.799046,5.894491,118.752426,118.92025,119.13359,119.40791,15.994382,0.7,-118.87423,-25.055395,4.735595e-05,-345.26605,8.593564,8.354699,7.127279,8.902751,6.164366e-07,0.3,-24.499561,93.90156,93.9305,93.81499,93.892105,0.325765,0.453125,0.08157944679260254,16.162295591831207
47,470000,0.89493149774981,-94.08867,0.05039709,0.38226262,2.6906853,-0.823082,39.21961,448.1508,6.523901,118.577934,118.53553,118.617386,118.63939,13.401251,0.7,-119.123566,-22.211092,0.0017854788,-599.8621,0.42980832,0.87867355,1.238099,1.1461558,1.0740013e-06,0.3,-29.533857,92.516846,92.577225,92.54332,92.62829,0.18517938,0.475,0.07825803756713867,16.494798123836517
48,480000,0.8922855713456487,-95.18613,0.049790177,0.84421086,0.8225734,-12.228907,44.93807,38.461994,9.198545,117.58565,117.48473,117.90845,118.08099,18.060043,0.7,-118.274055,-22.232069,0.00081980304,-357.351,12.229823,12.139765,11.450731,11.553024,1.371988e-06,0.3,-23.185368,93.72128,93.75226,93.65082,93.86987,0.21089572,0.403125,0.0791633129119873,16.826351364453632
49,490000,0.9355068856275541,-95.799835,0.05029408,0.43554366,0.8080938,-1.2202233,36.567574,12.062504,7.16145,115.59316,115.67467,116.05048,115.70328,1.7418687,0.7,-116.05712,-21.338743,0.0037265357,-185.66866,1.3788865,1.4336076,1.0976424,-0.69348073,2.3274158e-06,0.3,-20.878422,94.619194,94.64606,94.64896,94.58319,0.10535969,0.47656247,0.08523964881896973,17.16380701859792
50,500000,0.9419130529233636,-95.19458,0.050695118,-0.9774005,0.8133521,-3.7879925,25.561373,11.83083,6.974922,118.63283,117.088646,117.76666,118.88596,4.3346343,0.7,-118.28743,-27.058231,0.00040911243,-1919.4178,3.5068617,3.6352825,3.4980242,3.1128044,7.9970346e-07,0.3,-26.298931,94.00797,93.93458,94.20852,93.9384,0.16724855,0.5609375,0.08605790138244629,17.506164900461833
51,510000,0.9647412739340487,-96.94737,0.04997988,0.410281,0.8720901,-2.8323374,33.8135,37.52493,6.5224504,120.60964,120.479034,120.14103,120.065125,6.3463554,0.7,-121.32298,-21.550209,0.0015156949,-225.9151,3.0300245,2.6021247,2.3757958,2.2877486,3.4030934e-06,0.3,-23.303825,95.32592,95.37628,95.44545,95.34873,0.1379025,0.465625,0.08771657943725586,17.838297299544017
52,520000,0.9014676499283425,-95.77186,0.050574057,-0.9303189,1.8550106,-15.450077,32.75712,282.2122,5.3852825,117.047806,117.07355,118.721436,117.26796,4.0877075,0.7,-119.60247,-24.019249,0.0002442433,-343.72345,14.644181,14.717071,14.695386,15.184538,1.05978685e-07,0.3,-24.77946,94.3936,94.42221,94.27077,94.30208,0.12386899,0.5015625,0.07701635360717773,18.16126612822215
53,530000,0.9987165346691701,-93.069244,0.04992349,-0.8872833,0.6373971,-11.118666,31.779245,7.905201,8.221874,117.678734,117.55692,117.096085,117.17053,2.0706992,0.7,-117.85787,-28.97548,0.00017159601,-717.4475,10.870649,10.881926,11.383361,11.382537,4.2391474e-07,0.3,-23.073261,91.99541,92.01641,91.86223,91.757355,0.11308022,0.5234375,0.09035325050354004,18.48984699646632
54,540000,1.0164932325103753,-96.42921,0.049895834,-0.82306373,1.0684047,-2.2400749,43.509377,22.714767,6.885553,119.177376,118.948425,118.68654,118.95379,14.183172,0.7,-119.532486,-27.30791,0.00043444545,-236.67175,1.6264398,2.3072183,1.5849574,1.8114338,1.5662518e-07,0.3,-21.024643,95.05761,95.03931,95.29196,95.24831,0.21935014,0.440625,0.09155130386352539,18.81003605524699
55,550000,1.0035808322048314,-95.87588,0.050291307,-1.3075838,1.1727183,-7.025261,34.027557,12.028986,3.4349344,116.281105,116.57739,115.9833,115.95667,3.940172,0.7,-116.759636,-27.650986,0.006221648,-269.8314,7.1356745,7.15553,5.3313723,5.466695,1.4709076e-08,0.3,-18.312683,94.58574,94.627365,94.15133,94.208595,0.124299735,0.525,0.09134888648986816,19.13506147861481
56,560000,1.0246008329076535,-95.39483,0.050733153,-0.07002119,0.9503927,-6.721342,47.395626,45.755173,6.2494087,118.97676,119.007065,118.60571,118.471855,10.76937,0.7,-119.012955,-21.849209,0.0009064807,-238.42793,6.578368,6.5158706,6.6278443,6.715565,3.6670825e-10,0.3,-22.805683,94.04494,93.99786,93.762764,93.82178,0.15342303,0.446875,0.0945427417755127,19.4647745569547
57,570000,0.9905674676114914,-95.15905,0.050825454,0.12511122,0.8624851,-3.7793055,32.487656,79.72079,8.338915,116.644165,116.61642,117.22403,116.87538,7.543918,0.7,-116.794136,-23.480492,5.8113423e-05,-237.38922,3.6409569,3.9320638,3.2679405,3.51437,5.476177e-08,0.3,-22.207329,93.69876,93.64702,93.826775,93.82549,0.15940456,0.46718746,0.0864400863647461,19.79311862786611
58,580000,0.9885946324772571,-96.59047,0.05022071,-0.0055134892,0.80613136,-7.3263884,33.28216,19.698374,7.482723,119.188675,118.99452,118.59581,119.0593,1.9162748,0.7,-119.45234,-20.573595,0.0003164595,-278.37268,7.331763,7.210885,5.775295,6.16286,1.6298145e-10,0.3,-25.599682,95.129036,95.029335,94.95961,95.08273,0.10489691,0.4453125,0.0875544548034668,20.117310090859732
59,590000,0.9722022869831339,-94.16377,0.051577035,-0.17888412,0.61439586,-1.8328843,44.32327,6.8832636,6.256038,116.05201,116.01474,116.22544,116.02205,2.5048354,0.7,-117.18283,-26.288673,0.0017085436,-395.65045,0.7597509,-0.65901786,-0.71631265,-0.81192577,5.2823456e-08,0.3,-24.424778,92.816765,92.79518,92.94039,92.957115,0.13171804,0.48749995,0.08749985694885254,20.451398050785066
60,600000,0.97430811014173,-93.46921,0.0523596,0.35662508,1.0518763,-0.534396,54.045807,55.14111,5.2062845,117.31929,117.05103,117.46873,117.234985,12.15352,0.7,-118.832436,-22.81611,2.3438828e-05,-458.05203,0.6434677,0.41661996,1.2251472,0.089689344,1.8312595e-06,0.3,-23.67891,92.01846,91.97334,91.89627,91.83552,0.19301173,0.49062502,0.09158730506896973,20.77991015513738
61,610000,0.9383722158939718,-95.54187,0.05178706,1.0199573,0.9737993,-2.8144388,47.017273,39.598454,5.0651646,115.98649,115.78739,116.383385,116.13479,6.7672844,0.7,-116.93039,-22.014973,0.000408296,-272.59344,3.2711818,2.885548,3.1616206,3.5055146,5.9764716e-07,0.3,-22.720291,93.86505,93.86011,94.15601,94.07869,0.14854509,0.4375,0.08062171936035156,21.10401677687963
62,620000,0.9055411230191147,-95.076614,0.05140942,0.29603395,0.7273409,-11.374163,27.305662,26.989494,5.406435,115.976105,116.016304,115.73224,116.16566,2.37333,0.7,-117.00995,-26.267809,0.00038351916,-302.1401,12.482213,12.753088,12.795628,14.513681,2.4728362e-07,0.3,-26.54898,93.470726,93.41496,93.517166,93.66705,0.15814388,0.4265625,0.07610583305358887,21.42817387978236
63,630000,0.8923157045119287,-96.1355,0.05131859,-0.5146062,0.57787585,-6.2664213,31.27619,9.016689,4.7919083,121.040955,120.643,120.42605,120.22807,2.5329423,0.7,-120.89437,-22.090006,8.888688e-05,-232.23595,6.0036955,5.8908215,5.963629,5.977427,4.7218055e-08,0.3,-19.806469,94.82372,94.77702,94.61632,94.78899,0.10427275,0.428125,0.0739750862121582,21.75349838733673
64,640000,0.9405725514853401,-96.317154,0.050189197,0.38461226,0.5193405,-12.295321,36.0342,10.331247,5.111412,116.14715,116.18145,116.52405,116.25525,11.584013,0.7,-116.183784,-19.999891,0.0014685409,-197.63387,12.176884,12.64472,12.250453,11.912517,4.0686687e-06,0.3,-22.06612,94.598206,94.7203,94.80104,94.8197,0.15426451,0.43124998,0.08252096176147461,22.074679632981617
65,650000,0.8936128922918556,-94.69282,0.050366867,0.16553003,0.7207135,-0.052502543,38.275524,7.2760277,6.226275,119.80904,120.01058,121.00576,120.19919,5.176822,0.7,-119.663,-37.02218,0.001358297,-433.2211,0.014783263,0.48603565,1.2083033,1.0127673,1.5652738e-06,0.3,-23.475693,93.296745,93.30539,93.57834,93.44011,0.13796851,0.45468748,0.07647442817687988,22.40766044060389
66,660000,0.9004627906059739,-96.006226,0.049874652,-1.7566223,0.5932408,-2.5552104,27.260214,13.19231,5.1344066,118.58725,118.44894,119.14027,119.0632,4.715851,0.7,-118.72798,-23.27075,0.0004033642,-243.00868,1.8402066,2.2206178,2.2471395,2.819456,6.5718194e-07,0.3,-23.343859,94.5631,94.5127,94.6252,94.641556,0.14053944,0.4609375,0.0737297534942627,22.743973549207052
67,670000,0.8898098747280938,-94.197395,0.049666427,0.4670182,1.0293205,-14.115347,34.522774,148.20828,5.1576953,117.18385,116.96928,117.29013,117.37126,12.416603,0.7,-117.66628,-23.027737,0.0003287411,-449.5367,13.804899,14.178498,14.294639,14.393035,6.265007e-07,0.3,-23.635904,92.72595,92.640305,92.78055,92.74747,0.17858486,0.4453125,0.0766899585723877,23.071100596586863
68,680000,0.8936247226735189,-91.73216,0.049953733,1.1648948,0.59912777,-2.966252,35.69427,26.211393,7.5947194,118.982185,118.9833,118.70864,118.73678,7.382862,0.7,-119.42138,-25.167011,0.00022631447,-608.7184,2.652907,2.9821732,2.525766,2.9647658,6.519258e-08,0.3,-28.470089,90.14905,90.15335,90.07423,90.23369,0.13773099,0.42031246,0.07371401786804199,23.395592737197877
69,690000,0.8919966391645596,-96.4653,0.05096976,-0.73425007,0.41226643,-6.3265495,42.485683,3.2483394,9.131884,119.66762,119.393845,119.10009,119.39606,1.7386184,0.7,-119.795006,-22.183254,0.0002030512,-578.691,6.0519977,6.1533327,6.0268774,5.9646893,3.4226105e-07,0.3,-24.412853,95.24396,95.23045,95.14139,95.321365,0.083446085,0.39999998,0.07595324516296387,23.71963413953781
70,700000,0.8922993753105812,-93.31132,0.05062377,-0.101564094,0.84153867,-5.9743633,39.15924,16.39643,6.8920527,117.256836,117.329346,117.311584,117.31496,3.4947627,0.7,-117.896866,-23.088678,0.00033534365,-253.37634,5.197851,5.7029715,5.6211624,5.7216287,1.135486e-06,0.3,-23.984512,91.546295,91.524666,91.71776,91.593636,0.12273611,0.4765625,0.07349157333374023,24.046201411883036
71,710000,0.8483798387160615,-95.115585,0.049729783,-0.87561727,0.5519414,-1.9129472,35.31581,6.203273,7.2186384,116.4263,116.35154,116.18637,116.135864,1.7157632,0.7,-117.85993,-24.83181,0.00016627187,-249.20766,1.2534727,1.0626066,1.1842027,0.3337854,4.4911167e-06,0.3,-19.03962,93.926636,94.04253,93.93912,93.84824,0.10154804,0.5546875,0.0653994083404541,24.373367687066395
72,720000,0.8931828560494279,-94.130035,0.05076977,-0.7152693,0.5862466,-4.4006567,36.625225,10.12146,7.1368723,118.75399,118.71416,118.92479,118.75751,3.6601918,0.7,-119.049545,-21.252361,0.00066402485,-225.93588,4.4866924,4.765621,5.3371363,5.092785,9.305659e-08,0.3,-22.216763,92.918915,92.95334,93.16716,92.949326,0.15039343,0.4625,0.07828474044799805,24.71049823363622
73,730000,0.889572593222285,-95.27224,0.049375556,-0.90325123,0.95686793,-1.0129397,34.679375,30.964338,7.308426,116.76573,117.23451,116.58746,117.20927,2.396734,0.7,-117.700806,-30.726866,0.002023426,-297.79797,1.152606,1.1399252,1.071683,0.8431449,1.0086224e-07,0.3,-20.591293,94.050026,94.11804,93.95734,94.037766,0.12101203,0.43593746,0.07304859161376953,25.0438125928243
74,740000,0.8906381697802341,-96.71112,0.049438514,-1.6483428,0.95437855,-2.5733085,29.736702,20.11115,7.1160774,120.15643,120.25873,119.859245,119.87658,1.6617216,0.7,-120.42841,-26.046011,0.001981342,-833.7121,3.2146902,2.515063,2.6141515,2.937952,6.9849198e-09,0.3,-27.121359,95.4185,95.46524,95.04027,95.0462,0.09853503,0.496875,0.07139158248901367,25.365264761447907
75,750000,0.891506154506003,-94.125244,0.04967193,-0.02008953,0.5086955,-0.47337252,40.797554,6.121747,7.0787044,119.797485,119.6046,119.566696,119.31527,4.022833,0.7,-120.03105,-23.701826,0.0001594171,-180.76599,0.32125306,0.13482994,1.2692059,1.3774867,8.924864e-07,0.3,-21.716923,92.67168,92.70738,92.635315,92.59425,0.10900514,0.50468755,0.07308840751647949,25.680576837062837
76,760000,0.8885895717048561,-95.39131,0.04883827,-0.23235089,0.7980672,-0.4779177,30.35439,14.319504,6.151946,116.5014,116.58481,116.984764,117.016365,5.6589565,0.7,-116.72064,-26.011896,0.00084757165,-199.4346,1.3618319,1.3747581,1.0651126,2.063603,1.3788406e-06,0.3,-24.517725,93.960075,94.01732,94.31428,94.245224,0.13021508,0.40625,0.07201623916625977,26.00033499399821
77,770000,0.8909744953046379,-94.03069,0.048449032,0.18094574,0.8201266,-9.970516,31.828224,13.111877,6.519511,117.045525,117.111435,117.68158,117.5234,1.577789,0.7,-117.30798,-22.062725,0.00330558,-926.6242,10.260942,10.012169,11.303854,11.355767,9.74412e-06,0.3,-31.543777,92.47887,92.49248,92.85005,92.838745,0.09745475,0.3796875,0.07134652137756348,26.32733674844106
78,780000,0.8915525499803881,-94.625084,0.0502987,-0.26526502,0.5123513,-1.5978197,34.28848,15.2698345,6.4192367,116.153496,116.07488,116.59313,116.69155,3.2568471,0.7,-116.73718,-19.092201,0.0006190937,-235.59676,1.8602842,1.5562286,1.8154498,2.076219,4.9422497e-06,0.3,-22.396223,93.37763,93.342926,93.38643,93.39523,0.100359045,0.403125,0.07561159133911133,26.65419323047002
79,790000,0.8939900481963865,-96.12383,0.049176913,-0.5124968,0.95880187,-13.267672,31.507181,14.765033,6.9375005,119.59757,119.573906,119.8566,119.56196,3.127299,0.7,-119.91811,-25.653677,0.00063846004,-226.41318,13.628029,13.420666,14.599364,14.103226,9.2375564e-07,0.3,-20.135838,94.95024,94.900375,95.2773,95.02339,0.11861454,0.46875,0.0774233341217041,26.97697166601817
80,800000,0.8951871903130648,-94.82756,0.048224863,-0.40842438,0.83163726,-4.2658772,35.676857,32.800587,8.840658,115.722626,116.15528,116.49948,116.21228,8.164693,0.7,-117.06755,-26.652697,0.0007500746,-277.79965,4.050509,4.23248,4.736847,4.5058227,3.2137789e-06,0.3,-23.820423,93.14734,93.22215,93.51218,93.438095,0.12701294,0.42968747,0.07325363159179688,27.30616592168808
81,810000,0.9187215862683942,-93.869934,0.04922636,0.6500281,0.8518282,-3.1680834,31.02908,10.544246,6.4368715,116.849945,116.83531,116.90541,117.25441,3.7484303,0.7,-118.048904,-27.264765,0.00078890903,-228.67046,3.380377,2.9979389,2.5451102,2.4258845,1.8167775e-05,0.3,-24.438011,92.376434,92.27335,92.65133,92.70643,0.13022563,0.39062497,0.08192920684814453,27.6332209388415
82,820000,0.9416740295111053,-96.89884,0.048702598,-0.31867602,0.60583115,-27.943344,35.52048,16.43026,6.6532335,115.555786,116.44462,115.91741,116.27953,7.184534,0.7,-116.82525,-26.552708,0.0005859977,-321.67566,27.815502,27.801931,27.348782,27.588305,3.8574217e-06,0.3,-22.144184,95.67734,95.641495,95.5442,95.68544,0.12120396,0.38124996,0.08364725112915039,27.95770265261332
83,830000,0.9423377487783089,-94.34922,0.048383247,1.1954775,0.7864232,-1.7629284,30.211329,50.068687,6.7348256,117.63342,117.396965,117.19901,117.26831,2.3338652,0.7,-117.31191,-28.931248,0.00023523631,-326.37097,2.6289873,1.8994985,1.3939931,1.3481703,3.0803495e-08,0.3,-23.569588,93.07739,93.04213,93.08663,93.184746,0.13499348,0.43593746,0.08647274971008301,28.281112078825632
84,840000,0.938508179511951,-97.957726,0.048306596,-0.43153962,0.9313905,-16.139914,40.50342,8.490019,3.7448616,118.745804,118.80986,118.4412,118.83646,3.4036672,0.7,-118.927284,-20.60535,0.0086679775,-202.06398,15.90796,15.403142,14.734321,15.244587,1.0481745e-06,0.3,-22.471386,96.5007,96.49041,96.21051,96.42485,0.12831005,0.41875,0.08212566375732422,28.605421284834545
85,850000,0.944573098009379,-97.74724,0.04724216,-0.91762555,0.77371037,-8.532723,29.201439,21.93111,7.7838287,118.118484,118.318405,118.098,117.783104,11.790168,0.7,-118.44723,-25.654058,7.253373e-05,-681.59717,8.457609,8.58452,8.266528,7.893091,7.377821e-08,0.3,-27.528114,96.33306,96.34996,96.45395,96.16206,0.15309069,0.4765625,0.0825810432434082,28.929266095161438
86,860000,0.9441095342309099,-93.05795,0.04762254,0.2324428,1.0942225,-1.4520792,45.838432,23.86652,5.642428,118.20923,118.26284,118.38027,118.27096,2.8206296,0.7,-118.47755,-30.42417,0.0019043651,-447.5148,1.4794083,0.9836712,1.1652647,2.105827,3.8574218e-08,0.3,-30.975548,91.250824,91.223236,90.886444,90.94439,0.13486955,0.48281246,0.08229231834411621,29.25791263182958
87,870000,0.9469119197564441,-95.03992,0.04699245,-0.08183473,0.5933356,-3.4340703,37.616875,5.6366034,5.785023,116.99326,117.072586,117.47154,117.27418,2.055388,0.7,-117.211464,-21.42963,9.884738e-05,-213.66351,3.5201254,3.2936893,4.8809643,5.0908165,1.5334924e-06,0.3,-23.040873,93.74367,93.80726,93.92298,93.92906,0.08768065,0.4015625,0.08169031143188477,29.584610056877136
88,880000,0.965315741888426,-93.56598,0.046617568,-0.094293565,0.89601505,-8.182356,40.052822,32.922398,6.918611,117.702385,117.48757,117.18818,117.55775,5.186325,0.7,-118.1926,-26.2981,0.00032727886,-237.58714,8.806413,8.001246,8.050777,8.614612,6.640039e-07,0.3,-21.82985,92.3157,92.26019,92.045715,92.15791,0.13014355,0.46249998,0.08331084251403809,29.90660118261973
89,890000,0.9779131107872815,-95.22841,0.046448316,-0.1534189,0.5513771,-4.7688,50.520706,8.979544,7.2781487,117.14396,117.459816,115.507706,116.42188,2.4353125,0.7,-116.98197,-27.279478,0.00035139755,-350.3039,4.849541,4.74319,5.0476284,5.1824636,3.824942e-07,0.3,-25.685497,93.93365,93.874695,93.76745,93.90767,0.10159509,0.40625,0.09122490882873535,30.230508375167847
90,900000,0.9732249358567141,-94.1061,0.045492295,-0.5008513,0.97583795,-5.1433597,37.639317,65.90154,5.1162295,117.855255,117.61998,118.07588,118.15763,7.4036465,0.7,-117.84111,-19.874062,0.0021996198,-396.70798,5.010983,4.9853144,6.5105534,5.946892,1.478009e-07,0.3,-24.221588,92.87414,92.79621,92.87822,93.01642,0.19279543,0.38437498,0.08840560913085938,30.564523990948995
91,910000,0.9801661844506999,-94.92639,0.045299433,0.1936391,0.7080765,-0.7893741,38.400646,19.384495,6.1956515,117.18347,116.66393,116.64573,116.31938,4.6800117,0.7,-116.56053,-30.400541,0.00016623555,-290.69025,0.7490246,0.3952335,1.0792774,0.70815444,3.9934528e-07,0.3,-24.381588,93.44208,93.478195,93.496086,93.404144,0.14494015,0.50625,0.0882575511932373,30.891384442647297
92,920000,0.9898494886492814,-96.647064,0.04444865,0.8223922,1.0419534,-12.789994,43.661144,24.39333,6.081659,118.40927,118.52751,117.12365,117.32204,3.081704,0.7,-118.21715,-20.757992,7.4654e-05,-242.36557,12.866552,12.655143,11.950771,12.166302,4.3655746e-08,0.3,-25.122425,95.20509,95.26627,94.77671,94.92097,0.11906275,0.4765625,0.08954429626464844,31.21199265321096
93,930000,0.9896475210572353,-95.07767,0.045848284,0.17725477,1.0386541,-2.6278055,36.06877,39.073338,8.407571,116.44937,116.46614,116.311455,116.42847,3.2797382,0.7,-116.6106,-20.579649,0.0010528904,-320.6826,2.5393662,2.8621008,2.8209195,3.4929833,6.519258e-10,0.3,-26.05008,93.74128,93.70909,93.89444,93.89762,0.120929524,0.47499996,0.09873318672180176,31.546898214022317
94,940000,0.9944262700673427,-96.874344,0.044922754,0.384203,0.51033723,-3.9512863,38.555138,10.967403,6.8949857,118.65307,118.67261,118.63927,118.804886,7.191213,0.7,-118.81058,-27.149305,0.00032470527,-379.22302,3.8826401,3.9651713,3.5010152,3.4495602,2.5060028e-06,0.3,-27.28326,95.56401,95.60858,95.683105,95.68201,0.12588966,0.415625,0.08962798118591309,31.868711483478545
95,950000,0.9917309718021954,-94.53531,0.042622995,0.6783279,0.73012125,-5.690238,35.560833,28.466667,6.870056,115.73513,116.01778,115.61134,115.97209,20.22872,0.7,-115.69955,-26.15404,0.0013546722,-225.88744,5.7621837,5.2612042,4.914292,5.254852,4.2391474e-07,0.3,-24.368343,93.27257,93.17853,92.97747,93.12764,0.16696754,0.4265625,0.09387016296386719,32.19077907800674
96,955000,0.9959715098204227,-93.850235,0.044713095,-0.6602782,0.55922896,-0.9103606,47.227486,31.27129,7.375986,115.122734,115.17641,115.43272,115.75327,3.815881,0.7,-115.32517,-24.020931,0.00079167105,-309.7453,0.8811625,1.1079813,1.1321446,1.3878627,3.6209823e-07,0.3,-26.506033,92.67235,92.56763,92.7819,92.77229,0.07823849,0.44062498,0.09375500679016113,32.35489020744959
97,960000,0.9944268335890969,-96.94251,0.04424401,1.409104,0.80924535,-23.994225,45.065323,47.998413,5.009597,116.63877,116.92532,116.613335,116.60905,3.952396,0.7,-116.53962,-21.866894,0.00039961847,-634.17645,24.818974,25.226007,25.313066,24.12578,5.7910975e-06,0.3,-28.910034,95.21259,95.20593,95.1758,95.01225,0.12876433,0.5078125,0.09733438491821289,32.52018724282583
98,965000,0.9947804209065196,-93.97581,0.0451786,-0.1390801,0.56934065,-3.3184505,33.841915,7.569106,6.1979265,116.54485,116.35609,116.95725,116.90971,2.7241552,0.7,-116.959496,-21.83081,0.0005021582,-619.64233,3.127269,3.2485821,2.9752574,2.998609,4.192698e-06,0.3,-25.998512,92.683075,92.654465,92.859024,92.84703,0.12103966,0.4109375,0.09330368041992188,32.69132499694824
99,970000,0.9952565453671682,-95.32403,0.045729585,-0.4799682,0.6410331,-0.38271323,37.921345,14.429152,5.2649355,119.19591,119.25622,118.91472,119.02823,5.697115,0.7,-119.40571,-22.524803,0.00059115613,-413.70572,0.7250381,0.5501418,1.0320817,0.5125144,2.1129382e-07,0.3,-29.083681,93.67873,93.60985,93.34956,93.54892,0.1118165,0.4421875,0.08669519424438477,32.851986134052275
100,975000,0.992694547142878,-93.76894,0.044660453,0.49926707,0.68437886,-0.08813715,42.314816,24.252546,7.73125,117.81003,117.65201,117.33651,117.295586,4.6900597,0.7,-117.67405,-22.93359,0.000101486046,-306.74634,-0.0009071827,0.642683,1.2151589,0.6632453,1.2194679e-06,0.3,-23.175304,92.34819,92.298325,92.28384,92.35587,0.12817413,0.45468748,0.09425735473632812,33.01535410086314
101,980000,0.9940330080725464,-94.14383,0.042353336,0.15927961,0.501309,-0.85047036,44.609413,8.349712,7.713009,115.701004,115.75619,115.43294,115.54528,2.0333095,0.7,-115.553734,-22.16227,0.00039204792,-249.58124,1.3776927,0.88345444,1.261787,2.0124736,1.0975212e-05,0.3,-25.315863,92.82241,92.82729,92.75864,92.84423,0.08866918,0.4171875,0.08827948570251465,33.18508112827937
102,985000,0.9923276428432647,-96.723625,0.043313805,-0.4311006,0.73512095,-14.4787,42.47195,44.26501,6.1251793,116.44831,115.94986,116.020164,115.636086,5.510585,0.7,-117.52931,-25.6241,0.001031704,-613.2943,14.51869,15.03201,13.51302,13.3741255,2.0746957e-07,0.3,-27.63363,95.36539,95.326004,95.24547,95.18617,0.12114057,0.465625,0.09887504577636719,33.35137711366018
103,990000,0.9946016489760972,-96.379875,0.046119288,-0.49248177,0.682336,-1.3503639,39.230537,16.808388,5.8159904,116.84788,116.76734,116.97024,116.84582,6.094183,0.7,-116.93375,-25.036549,0.00039907085,-357.4603,1.6526799,1.8248215,1.0980433,1.5201814,2.6033511e-05,0.3,-28.622452,94.67372,94.5639,94.71737,94.80713,0.14040232,0.4171875,0.09010934829711914,33.526413377126055
104,995000,0.9949029991614039,-94.42817,0.045418125,0.40956265,0.63115734,-9.484544,34.434307,7.5902314,8.471764,115.15688,115.061516,115.7213,115.78561,4.4006042,0.7,-116.79736,-20.031664,0.0002749936,-388.96555,9.428973,9.224348,9.22835,9.228549,1.0186341e-05,0.3,-28.440155,92.87243,92.892715,93.00525,93.03186,0.11336815,0.446875,0.09169197082519531,33.69732860724131
105,1000000,0.9933587490313924,-96.02391,0.04555329,-0.9507657,0.47362095,-2.55718,33.890053,6.967256,4.3641043,118.6576,118.0673,118.63262,118.12259,2.3227632,0.7,-118.21109,-20.600973,0.0010373408,-311.1226,2.6704412,2.6838412,2.40829,2.0916693,9.1574043e-07,0.3,-24.033976,94.78213,94.81536,94.82712,94.825645,0.09427723,0.459375,0.09583926200866699,33.86956563790639
