Xixo99/comfo/relaxed_iql/20230321_5seed_mle0/hopper-medium-expert-v2/riql_s5_20230321_041821_hopper-medium-expert-v2_0.96.csv
,step,reward,actor_loss,alpha,alpha_loss,critic_loss,max_actor_loss,max_alpha_loss,max_critic_loss,max_mle_prob,max_q1,max_q2,max_target_q,max_v,max_value_loss,max_weight,min_actor_loss,min_alpha_loss,min_critic_loss,min_mle_prob,min_q1,min_q2,min_target_q,min_v,min_value_loss,min_weight,mle_prob,q1,q2,target_q,v,value_loss,weight,eval_time,time
0,0,4.022507126103485,,,,,,,,,,,,,,,,,,,,,,,,,,,,,,,,,
1,10000,0.9466166850990579,-39.565792,0.05813217,-6.249076,0.4126727,-10.45004,15.452058,41.86811,5.4628057,51.554302,51.961548,51.95345,51.38143,1.6738605,0.7,-52.266945,-20.873896,0.00011820119,-136.26656,9.671517,9.7133665,10.265446,10.459822,1.1160256e-06,0.3,-8.544964,39.206482,39.212708,39.41018,38.613758,0.030606363,0.4453125,0.09057283401489258,1.3105907996495565
2,20000,0.8436856958940666,-63.600716,0.038572814,-0.3434663,0.4382695,-3.6803164,31.585691,10.851516,5.1115527,81.76127,81.613434,81.67414,80.75719,5.4223385,0.7,-81.64136,-21.947538,0.00063436833,-125.09879,2.3133454,3.308675,1.1132853,2.0553,1.745898e-06,0.3,-21.673306,62.96502,62.929413,62.870926,62.441284,0.08643706,0.484375,0.06852149963378906,1.6300358057022095
3,30000,0.7701053770830438,-77.86766,0.042958293,-0.12538075,0.72563714,-12.691913,48.79343,18.685986,4.9674063,93.20096,93.60583,95.03486,92.81688,2.3014586,0.7,-92.82065,-31.678041,6.551338e-05,-125.052574,11.588312,11.222215,10.622757,10.729795,3.4226106e-09,0.3,-17.239971,76.83359,76.75711,76.62575,76.480576,0.088801034,0.4828125,0.06287956237792969,1.9576685229937236
4,40000,0.7981280621477306,-87.0265,0.044754297,0.68281305,1.203733,-13.913059,45.945816,54.967674,6.3459477,101.2015,101.13762,101.727165,101.72627,5.8431034,0.7,-101.72339,-18.366617,0.0023323402,-180.86427,12.39464,12.976536,12.861795,13.129423,4.559773e-06,0.3,-15.465613,86.27005,86.25694,86.201904,86.213135,0.120948605,0.45625,0.06317567825317383,2.2846592744191487
5,50000,0.80702181028589,-89.35512,0.04609782,-0.17980695,1.9457614,3.7533312,69.05583,53.257378,4.105847,107.24837,107.31676,106.87276,106.791214,9.209918,0.7,-108.37355,-33.057125,0.00011753815,-143.03194,-3.334385,-3.0771613,1.0264814,-2.6726146,4.4886665e-06,0.3,-15.881031,88.419075,88.41892,88.287384,88.53435,0.19669226,0.3515625,0.05825066566467285,2.6055829882621766
6,60000,0.7974612249863388,-94.37685,0.049287546,-0.35836536,1.8932754,-4.0476227,67.47921,140.10223,5.487709,109.40091,109.208435,109.27895,108.727905,73.72746,0.7,-110.22669,-31.168192,4.4482353e-05,-142.43564,4.519193,4.7080054,4.8111954,4.963589,5.608232e-06,0.3,-16.145403,93.5909,93.587425,93.76166,93.55503,0.4371719,0.43906248,0.06068992614746094,2.9174052635828653
7,70000,0.7945316474630377,-96.12633,0.050037958,-0.20772785,0.64661264,-5.3990784,37.180073,13.739088,10.413389,113.2531,113.40767,113.20071,112.89655,7.2760563,0.7,-113.025246,-32.546642,0.00034077518,-154.16112,5.704618,5.266642,3.8294005,4.0458865,2.739718e-07,0.3,-17.662397,95.12471,95.13195,95.06641,95.012985,0.1708515,0.52500004,0.05971527099609375,3.231375682353973
8,80000,0.7877181407049249,-94.29576,0.050886262,0.9398826,1.4281701,-4.8353515,31.41084,85.8441,7.670716,114.72256,114.784065,114.52803,114.2859,5.471366,0.7,-114.67463,-20.311726,0.0024422086,-241.41129,4.1860967,3.9444132,3.8097806,4.351186,1.418346e-07,0.3,-19.199009,93.213684,93.14575,93.52791,93.33105,0.19660446,0.42031246,0.058075666427612305,3.542733140786489
9,90000,0.7856211306697568,-95.24773,0.052066486,0.913428,1.9571477,-1.5487362,46.301777,44.933914,5.4550095,116.17115,116.27794,115.58267,115.555016,15.084828,0.7,-116.4581,-22.169107,0.0023523886,-189.62471,1.3574797,2.1129708,1.1972083,1.1016569,2.6936714e-05,0.3,-18.375946,94.203125,94.22186,93.74524,93.77208,0.30766514,0.5484375,0.06287884712219238,3.853635819753011
10,100000,0.7932919851867563,-95.77026,0.0531916,0.6043608,1.2168328,-4.7274556,48.98746,48.689354,7.306156,116.06578,115.99586,115.91826,115.85259,62.213352,0.7,-116.31869,-26.07804,0.0011298906,-553.18915,4.6064982,5.2646103,5.230302,5.23653,3.5361154e-08,0.3,-20.160921,94.47388,94.55139,94.10118,94.197014,0.43677068,0.49218747,0.041475772857666016,4.161411503950755
11,110000,0.8001600029580253,-97.59973,0.053109977,0.23892185,0.98506564,-11.513148,44.358444,23.60831,6.8612776,117.84343,117.643684,117.903305,118.05261,2.669244,0.7,-117.660286,-19.241945,0.0028886471,-184.32327,12.0970745,11.473693,11.773443,11.7050085,1.8840656e-07,0.3,-16.353401,96.66222,96.636116,96.43757,96.60782,0.12638603,0.38437498,0.05750584602355957,4.46736494700114
12,120000,0.800290317905857,-95.7139,0.055106632,-1.0429777,1.4500101,-4.1130934,34.671524,12.879049,5.7158823,118.33987,118.712616,118.62888,118.43714,3.2264218,0.7,-118.62585,-25.326569,0.00031870353,-325.259,3.5895147,3.5813198,4.767758,4.8154354,7.888302e-08,0.3,-16.961668,94.83763,94.916916,94.81192,94.91998,0.1543679,0.39218748,0.05761003494262695,4.7880119442939755
13,130000,0.7932841796812931,-96.844795,0.053326387,-0.88354653,0.8142928,-5.2866936,42.576,42.210213,7.8986187,118.21542,118.07576,118.26449,118.12703,6.0600133,0.7,-118.17757,-33.75593,5.607569e-05,-188.95425,5.055874,4.9165277,4.7803273,3.892835,1.0624063e-07,0.3,-17.341839,95.74686,95.75534,95.63303,95.770966,0.1972263,0.47812498,0.061641693115234375,5.101139314969381
14,140000,0.792165446004092,-95.78774,0.054646682,-0.2075744,1.0750487,-0.14952624,27.503609,35.671593,5.8293753,115.314644,115.2683,115.42821,115.381226,1.7797729,0.7,-116.58503,-23.032583,0.0036302025,-288.60117,0.009309739,-0.711069,1.2064352,-0.6081372,3.1489647e-06,0.3,-16.59012,94.79594,94.80844,95.093216,95.05969,0.09804809,0.415625,0.058641910552978516,5.41244421005249
15,150000,0.7907005269883428,-97.505066,0.05487138,0.62849337,1.0064249,-9.167812,61.247047,37.08103,7.4983044,116.59318,116.53093,116.98693,117.44357,2.3829587,0.7,-117.17092,-26.688963,0.0002203189,-249.96225,8.874954,8.938248,9.574011,9.737913,1.27653775e-05,0.3,-18.511753,96.3542,96.39704,96.25714,96.39297,0.11275007,0.3890625,0.05930829048156738,5.724155203501383
16,160000,0.7911299622070834,-97.895096,0.056245293,-0.9881768,1.2450384,-8.331946,24.481459,46.390167,7.117519,118.41046,119.193085,118.90233,119.66201,4.7273097,0.7,-118.967155,-24.610214,4.8314454e-05,-182.97668,7.2402315,8.236427,7.821269,8.188613,3.6469837e-06,0.3,-16.952448,96.70274,96.851,97.120476,97.222084,0.17437878,0.340625,0.05855703353881836,6.036811618010203
17,170000,0.7969682537957037,-97.25915,0.056097176,0.1798451,0.9043864,-0.594165,48.76923,37.192505,7.413884,116.435234,116.618225,116.61999,116.72336,6.6575565,0.7,-117.66118,-19.354523,0.0003829762,-116.62239,0.7156615,0.7170697,1.2739451,1.46542,5.720824e-07,0.3,-16.135914,96.30025,96.43706,96.40529,96.56336,0.14245327,0.36562496,0.054807424545288086,6.35296889146169
18,180000,0.7917433536383547,-96.324554,0.056722827,-0.025196001,1.2137856,-0.4287729,30.627014,18.80618,7.983637,118.83802,119.43724,119.79154,119.78226,19.586338,0.7,-120.6076,-22.050554,0.004255246,-166.55927,0.12764627,0.35687146,1.1497555,0.022692055,3.6714485e-07,0.3,-19.668062,95.08127,95.05771,95.50496,95.38884,0.20766044,0.4484375,0.05672645568847656,6.662866906325022
19,190000,0.7929344875920143,-96.00331,0.05640203,-0.9144604,1.1280099,-2.9644263,25.752003,27.449455,5.563083,117.43151,117.37107,118.11491,117.46992,5.550941,0.7,-121.2942,-22.480268,0.0013649375,-130.93875,3.3268962,2.796524,3.4099157,3.1220112,9.00065e-08,0.3,-18.032108,94.8232,94.797104,94.82445,94.862625,0.14744589,0.434375,0.05570554733276367,6.975128467877706
20,200000,0.7883766905625036,-97.08281,0.056680385,0.37190944,0.90365887,-8.615892,68.69546,22.30206,5.3471375,117.71056,117.84302,118.26115,118.24648,8.635706,0.7,-118.01052,-18.860067,0.00016375567,-186.09784,8.787023,8.479855,9.525498,9.410339,4.9931365e-05,0.3,-19.410088,95.74579,95.68616,95.9521,95.94766,0.23093542,0.3953125,0.05376148223876953,7.2857707420984905
21,210000,0.7873253118990828,-96.81328,0.055983115,0.7415893,1.3144062,-7.1308923,36.899258,33.51519,4.593069,119.67214,120.31177,119.96516,119.76792,2.6024034,0.7,-120.4401,-21.684513,0.002222321,-180.44818,6.5709558,7.055219,7.3478785,6.865029,3.3741233e-07,0.3,-17.166697,95.80281,95.90512,96.116486,95.99809,0.12720418,0.4453125,0.054476261138916016,7.599699695905049
22,220000,0.7919732170832969,-95.89117,0.05644859,0.6015471,1.3336625,-9.125101,39.965782,40.17389,7.2835455,120.264885,120.43432,120.96009,120.504745,6.9351215,0.7,-120.57169,-21.830471,0.0015170702,-305.59857,8.999944,9.443194,9.072393,8.108471,1.1444092e-06,0.3,-19.173832,94.60788,94.6786,94.91479,94.79355,0.15502563,0.45468748,0.053522586822509766,7.908540530999502
23,230000,0.8039378907771242,-95.69019,0.057332963,-0.042312145,1.1765671,-3.5919657,38.239967,40.194286,7.0228186,117.65819,117.80821,118.381615,118.453964,2.7785294,0.7,-117.806,-20.296766,0.0031880685,-87.5765,3.780988,3.3381248,5.4469666,4.792777,3.9156294e-08,0.3,-13.937805,94.68146,94.61776,94.93999,94.89876,0.12864368,0.39374998,0.05859065055847168,8.218323989709218
24,240000,0.8380084173526986,-96.443375,0.05861654,0.29457325,0.9718658,-3.79668,36.49543,37.192207,5.919228,118.962296,119.42723,119.167046,119.434586,6.010104,0.7,-120.20759,-19.95014,0.00012111646,-272.3442,3.6070685,4.180024,4.981697,4.544221,4.0745363e-07,0.3,-15.932199,95.12935,95.147316,95.36564,95.51567,0.17615403,0.38593748,0.06267905235290527,8.526519429683685
25,250000,0.8219769740403705,-95.26365,0.05861735,0.4616472,1.1970348,-8.343102,49.930477,25.898758,6.6768274,119.22112,119.5947,118.89207,119.201546,9.19623,0.7,-119.9856,-20.786673,0.0028109415,-209.72652,8.633234,8.040685,6.6498466,7.2888513,3.7757857e-06,0.3,-19.091688,93.95837,93.97612,93.554535,93.787605,0.14975916,0.46406248,0.0611417293548584,8.832613054911295
26,260000,0.8046605683078869,-98.22496,0.05765604,0.30554628,1.0350928,-3.8211823,44.27501,30.294874,6.438489,119.86557,119.56994,119.67861,120.11268,7.3492103,0.7,-122.810394,-21.710218,4.1039893e-06,-228.40714,3.6426816,3.5306013,1.2736245,3.216121,3.1553208e-07,0.3,-17.885025,96.72269,96.66976,96.37688,96.451256,0.19827053,0.4484375,0.05466651916503906,9.13902577161789
27,270000,0.8281001979029584,-95.474945,0.057961076,0.5929055,1.1614271,-7.5912967,48.07924,32.5959,6.1100883,117.88665,118.42623,118.66818,118.763275,14.930472,0.7,-119.862175,-24.527927,0.0012744698,-115.88881,7.5079536,7.1023135,7.1218643,8.430106,4.631438e-06,0.3,-17.795807,93.94917,94.02341,94.132904,94.08549,0.19323884,0.4296875,0.06235098838806152,9.450945301850636
28,280000,0.8316026831221188,-97.498276,0.05662216,0.29295957,0.6972526,-5.852082,31.07032,8.65313,6.6052456,121.38268,121.58802,120.97806,121.40101,8.937833,0.7,-121.51127,-19.886091,8.112064e-05,-190.06726,6.066118,5.972665,6.3074403,6.191619,4.9051597e-08,0.3,-18.197357,96.37553,96.34294,96.333984,96.22386,0.18352497,0.43124998,0.062369346618652344,9.73340774377187
29,290000,0.8400317878712737,-97.616745,0.057542745,0.4705056,1.2112377,-7.806166,29.40994,47.707867,6.546545,117.47642,117.189316,118.645164,117.86224,3.8116179,0.7,-122.683624,-26.490604,0.0012095477,-172.38206,6.4367385,6.302537,6.006012,5.137021,1.0653574e-06,0.3,-19.963444,96.292114,96.22334,96.143616,96.04832,0.16689372,0.53125,0.06614112854003906,10.045473253726959
30,300000,0.8276696995366704,-98.34258,0.05748522,-0.7818449,1.0386236,-2.64996,30.241295,50.14578,6.620249,120.1896,120.45121,120.10419,120.2747,1.2937932,0.7,-120.770134,-25.96119,0.000676214,-146.40884,1.9201361,3.2300427,2.0172737,2.8825326,4.754111e-07,0.3,-17.069746,97.07706,97.16817,96.7591,96.90013,0.08718838,0.43124998,0.06072378158569336,10.35671687523524
31,310000,0.8359349562407128,-93.261856,0.05668327,0.8072152,1.0945857,-5.437073,36.368584,13.599472,6.47315,117.0491,117.2593,116.77515,117.6872,13.065617,0.7,-118.92255,-23.10472,0.0018762085,-314.8157,4.3824434,4.3900957,4.9655943,5.8023696,4.991307e-08,0.3,-21.907597,91.6789,91.61839,91.355545,91.71547,0.26937217,0.36874998,0.06164431571960449,10.668688142299652
32,320000,0.8063791477779251,-96.78052,0.057459418,-0.47630394,0.8080104,-1.1148953,33.156143,19.769917,5.743757,120.67674,120.24224,120.10903,120.30947,18.098042,0.7,-120.90536,-17.816582,0.0014457693,-160.81924,1.1462592,0.77626324,1.1859758,2.9725409,2.2614446e-05,0.3,-21.426746,95.447365,95.436516,95.66987,95.656654,0.2566744,0.3921875,0.05916452407836914,10.979791378974914
33,330000,0.8065539199403778,-95.67529,0.056833286,0.19783255,0.52309906,-5.3841996,44.690067,12.005364,5.414591,119.966385,120.08534,119.97638,119.82285,3.2483842,0.7,-119.967514,-17.77346,0.00031332416,-167.574,4.90711,5.185505,5.8513007,6.0643272,1.3985381e-06,0.3,-17.410263,94.19725,94.22443,94.288956,94.353935,0.13687041,0.43125,0.05680251121520996,11.291612307230631
34,340000,0.8234284213756429,-96.2616,0.05558238,0.65735716,1.2402674,-6.290671,31.533567,59.520775,5.8538632,119.58172,119.3333,119.55874,119.61481,6.3120184,0.7,-120.02812,-19.836185,0.00057104166,-221.73856,6.1702337,6.5417275,6.282711,5.64771,6.070896e-06,0.3,-23.803707,94.71556,94.640526,94.95419,95.06735,0.16765794,0.3984375,0.05846714973449707,11.602963411808014
35,350000,0.8055848186133252,-95.71407,0.05576063,0.45661613,2.239716,-9.516106,40.074886,414.22818,7.609994,119.7431,119.90878,119.63886,119.57566,3.131725,0.7,-120.27599,-19.567438,0.0022970133,-140.00813,9.960838,9.587254,9.801169,9.404015,5.4761767e-06,0.3,-21.292336,94.16812,94.180756,94.221375,94.3087,0.09702352,0.4265625,0.05506324768066406,11.916292440891265
36,360000,0.8332390635474923,-95.961334,0.05583237,0.05948945,0.7529703,-7.417589,30.33951,17.146044,7.7494364,117.38705,116.89196,117.97044,117.639084,2.3379252,0.7,-117.39412,-16.310051,9.820715e-05,-228.15924,6.182778,6.8990088,6.6165705,5.0757103,3.4226105e-07,0.3,-21.786102,94.41037,94.389496,94.33054,94.38742,0.12820062,0.40781248,0.06562614440917969,12.229830491542817
37,370000,0.8358690685331748,-94.76487,0.056038942,1.008275,0.88423395,-1.2236356,42.49081,27.812883,7.4818497,122.0781,122.128334,121.896706,122.23931,3.2200449,0.7,-122.531166,-23.4492,3.6856276e-05,-465.7662,2.1158457,1.0553274,1.1381285,3.1405642,1.2730016e-08,0.3,-22.141624,93.410866,93.4089,93.316444,93.562485,0.13324209,0.43281248,0.06475996971130371,12.537062537670135
38,380000,0.8401618698742014,-94.62793,0.055639796,1.1568899,0.76111937,0.035627276,33.84359,24.352745,8.419458,117.18035,117.25917,117.558,117.54481,4.9671593,0.7,-117.27029,-25.302114,0.00061376963,-746.3738,-0.14690542,-0.63768744,1.2666723,-0.12787324,3.6789745e-06,0.3,-24.485542,93.110466,93.09782,93.21611,93.27544,0.13249663,0.43906248,0.06613922119140625,12.846580851078034
39,390000,0.8434994110311128,-96.70413,0.055427257,-0.53468096,0.6081408,-7.994578,37.80692,11.742781,8.089874,117.36228,117.15471,117.094666,117.04325,9.90332,0.7,-118.65053,-23.348928,0.00022243941,-213.43759,8.470143,7.8882084,8.595411,8.693204,1.7968704e-08,0.3,-20.523169,95.48843,95.43819,95.43341,95.41826,0.14246657,0.475,0.07009577751159668,13.16100434064865
40,400000,0.8276433673946111,-96.180855,0.054915942,-0.15270308,0.9606632,-10.867593,33.834927,60.02231,5.6486025,119.93974,119.594864,118.66138,118.79628,3.8143885,0.7,-120.14286,-22.342243,0.0004118951,-231.76453,9.92343,9.962512,8.321406,10.116788,6.9307866e-06,0.3,-22.487669,94.675766,94.7185,94.45584,94.704056,0.11026021,0.4171875,0.06316304206848145,13.475524028142294
41,410000,0.8401088652220766,-96.13507,0.05553091,0.7461475,0.971099,-0.86220044,30.674736,17.550335,8.095414,119.54122,119.40539,119.40905,119.58159,6.0797377,0.7,-120.0665,-20.006256,0.00018322031,-309.02322,0.27702886,0.5241613,1.1617508,1.0832297,1.2146845e-05,0.3,-21.317114,94.665596,94.692154,94.28223,94.542046,0.1213551,0.43593746,0.060761213302612305,13.791927015781402
42,420000,0.8063849269949636,-96.532585,0.05450644,0.02745688,0.9908262,-2.1976464,53.940243,60.79351,8.5168085,117.0326,116.14283,116.25862,116.911064,5.3532696,0.7,-117.84231,-23.543962,0.003727899,-215.00165,2.5841122,2.6399534,2.8952405,2.8572977,1.1533674e-06,0.3,-19.343042,95.21992,95.352806,95.63097,95.64752,0.105398014,0.434375,0.05808138847351074,14.103296665350596
43,430000,0.8061626721426401,-95.2554,0.05466783,1.080762,1.0222349,-11.860198,33.547318,16.038857,7.812329,122.49104,122.880714,122.627815,122.227104,3.3973944,0.7,-123.28532,-25.364338,0.0024981915,-247.90547,11.960108,11.731439,9.899186,10.391954,3.2402343e-06,0.3,-19.214369,94.01303,93.95471,93.774956,93.79858,0.1710867,0.46875,0.05577850341796875,14.412228163083395
44,440000,0.8061638596300671,-94.67377,0.055129737,0.641814,1.1298299,-7.6569533,49.515545,45.61444,7.2356586,120.65431,120.78193,121.5661,121.12734,16.87234,0.7,-120.79113,-20.004902,3.0627707e-05,-195.88333,6.7344017,6.3326683,5.828546,5.6878076,6.965649e-07,0.3,-20.230999,93.42566,93.38571,93.30263,93.3462,0.22812942,0.43124998,0.05708646774291992,14.720060447851816
45,450000,0.8060161260773153,-96.68301,0.055807203,-0.11186582,3.9076552,-1.6272477,37.30965,339.91583,6.0860505,117.95692,117.787735,118.036194,118.33807,7.1012187,0.7,-118.36047,-20.12104,0.0037472986,-284.71716,1.3699911,1.6939211,1.2061721,2.1354113,5.0731646e-06,0.3,-20.035713,95.157425,95.2249,94.86287,95.30466,0.2263816,0.37499997,0.05903744697570801,15.029708023866018
46,460000,0.8054138451117122,-95.46511,0.055118497,0.42192632,0.5893591,-6.455084,34.855007,18.183727,6.621172,116.29868,116.66334,116.36017,116.438385,4.8602653,0.7,-118.73441,-24.819212,0.0006610293,-274.95132,5.9308233,6.9391613,6.9355617,7.3445616,2.514571e-09,0.3,-22.472658,93.9276,93.99747,93.79106,93.91305,0.13648988,0.4296875,0.06018257141113281,15.33966266711553
47,470000,0.8054446034616118,-98.53136,0.0542341,1.3797804,1.1397433,-2.1017852,31.32036,23.255844,7.797087,121.012314,120.85722,120.526054,120.37596,1.745768,0.7,-121.41108,-24.201788,0.00025629916,-404.17892,0.2989757,2.5936656,1.2614996,2.9874163,1.7123239e-06,0.3,-23.394903,97.20049,97.2099,96.77432,96.900345,0.12944642,0.45,0.0549924373626709,15.648771516482036
48,480000,0.813037867350583,-95.84039,0.05421604,-1.1462057,1.0090978,-5.7114472,38.454536,97.09275,3.3477683,119.867714,120.168144,120.15781,120.1799,19.086607,0.7,-120.392075,-25.867636,0.00048088894,-463.90808,5.8290973,6.1227536,6.421043,6.5716343,1.6298145e-08,0.3,-21.738499,94.292465,94.37826,94.41892,94.51525,0.1765945,0.42968747,0.0578618049621582,15.957967468102773
49,490000,0.8430265069374702,-95.10037,0.05297422,-0.002091378,1.373025,-6.714807,30.793692,28.608522,6.7836685,117.62136,117.624214,117.59234,117.647896,9.827023,0.7,-118.6307,-23.674253,0.0018583436,-269.753,7.0891395,7.2390738,5.3769403,5.187941,3.929017e-09,0.3,-21.421644,93.67996,93.730034,93.45151,93.57227,0.17092519,0.4609375,0.061920881271362305,16.266192388534545
50,500000,0.8444497972968683,-96.04509,0.053120516,-0.39051545,0.69327617,-1.3026338,28.77284,16.99968,7.205331,118.569824,118.16883,117.67347,117.72109,7.790417,0.7,-118.577866,-20.971966,0.00045180978,-155.64613,1.2794505,1.2401516,1.2117401,0.5794869,3.0367112e-06,0.3,-18.88403,95.01179,94.86959,94.70566,94.62187,0.16289285,0.52187496,0.06569910049438477,16.576738131046294
51,510000,0.8421285102624011,-95.88452,0.053857423,-0.31875902,1.6141161,-17.489674,35.05386,112.84543,6.376352,116.29205,115.391,116.05843,116.466774,2.823901,0.7,-117.07497,-20.030949,0.0020548853,-438.7173,17.956627,17.530369,17.676825,17.805593,9.97464e-07,0.3,-23.09797,94.48715,94.4952,95.007416,94.99202,0.10258566,0.39999998,0.06238412857055664,16.888451850414278
52,520000,0.8412842008355697,-95.2717,0.05254539,0.68692935,0.8906044,-8.218966,35.730907,32.938267,6.9444857,117.168594,116.81324,116.45355,117.69119,2.5914898,0.7,-118.72666,-23.179142,0.0014043893,-234.49876,7.912255,7.7033257,7.607787,8.0124655,1.7288113e-07,0.3,-22.251068,93.75954,93.86484,93.58743,93.82901,0.13255043,0.39999998,0.06576299667358398,17.198476231098176
53,530000,0.9398042808000474,-94.32501,0.052914385,-0.14032927,0.85762566,-2.6447031,32.092747,11.83997,4.617529,117.2322,116.61886,116.49678,116.12215,11.352416,0.7,-117.1552,-27.52512,0.00010287069,-184.50237,2.530817,2.5384586,1.1822983,2.0444176,3.3003744e-09,0.3,-17.645596,92.96208,92.94809,93.02002,93.06227,0.16673568,0.4875,0.07802629470825195,17.505805496374766
54,540000,0.9799247726239926,-94.948326,0.053184003,-0.10178912,0.80540895,-0.8913989,40.86879,27.74096,6.6492987,117.092926,117.10415,117.32703,117.082214,9.115611,0.7,-118.05124,-23.838104,6.652094e-05,-246.97768,1.2208492,0.8003629,1.2421799,0.55035865,8.071948e-07,0.3,-21.211273,93.57649,93.59172,93.711,93.535774,0.18459234,0.5015625,0.0896158218383789,17.81449693441391
55,550000,0.9478179370318686,-98.00685,0.053022187,-0.22245133,0.92961174,-2.877229,22.287556,28.005959,3.413199,119.14466,119.00925,119.22632,119.44431,3.3466268,0.7,-119.84299,-24.378775,0.000114395574,-249.63367,2.7419646,2.7006712,2.769941,2.64077,9.305659e-08,0.3,-21.063791,96.67658,96.68953,96.42575,96.44852,0.13059928,0.4453125,0.0779573917388916,18.127342124780018
56,560000,0.9515956978225344,-95.68819,0.051676895,-0.32209557,0.7078081,-2.2993486,24.430029,8.624549,5.712927,118.18851,118.19208,118.62207,118.55477,6.316996,0.7,-118.17301,-33.6987,0.0018715358,-396.69904,2.2678745,2.430118,2.0635855,2.182272,3.168988e-06,0.3,-22.791546,94.36837,94.36963,94.56054,94.68529,0.1557579,0.425,0.07917642593383789,18.4343222061793
57,570000,0.9442238677415193,-92.58851,0.052642062,0.17946522,1.0292238,-5.718303,41.946083,75.23,7.3060055,119.38279,119.3247,119.397995,119.28282,1.4469143,0.7,-119.43534,-24.669815,0.0007533772,-325.469,5.8088255,5.7899466,5.7601123,5.389783,1.3201498e-08,0.3,-21.656998,90.99873,91.02164,90.878006,90.9301,0.13172221,0.4609375,0.07934689521789551,18.7495236158371
58,580000,0.9895307367452992,-92.269615,0.051404577,0.44991922,1.3083351,-3.3095915,38.13587,12.918122,5.6954536,116.0232,115.88103,116.61232,116.58642,4.9027357,0.7,-119.088165,-18.97187,0.0011784735,-432.74292,3.0403044,3.2707405,4.0310187,3.7536016,3.1988138e-06,0.3,-25.194775,90.57912,90.53519,91.007675,91.000786,0.14688134,0.3796875,0.09176993370056152,19.05410101811091
59,590000,0.9879396824160037,-96.54314,0.0509848,0.20295274,0.6592603,-12.025998,30.822842,12.375967,5.494151,117.8019,117.750694,117.63716,118.300606,24.47161,0.7,-118.23686,-22.304337,0.0006587828,-189.48877,12.097082,12.059032,11.996921,12.108839,1.7881394e-08,0.3,-22.587387,95.09425,95.08164,95.18265,95.0594,0.30151713,0.45937496,0.08609557151794434,19.368425130844116
60,600000,1.0164378184363958,-97.93111,0.05158033,-0.29772642,0.5024545,-1.2590208,39.055378,4.390875,5.989929,118.74733,118.384766,119.42264,119.34974,3.3510113,0.7,-118.88285,-24.410767,0.001825098,-329.07385,1.2720584,1.1606276,0.9005922,1.2754062,9.1574043e-07,0.3,-23.603851,96.35901,96.36246,96.587524,96.64627,0.09871572,0.37656248,0.08938717842102051,19.68284854888916
61,610000,0.9894339145221007,-92.85428,0.050545476,0.51081204,0.8595079,-8.484273,49.421673,85.1821,5.0014772,119.70812,119.766594,119.68287,119.46583,7.6205754,0.7,-120.100235,-19.166918,0.0016249835,-314.38318,8.245921,8.2687,8.154616,8.134348,8.840289e-07,0.3,-23.90292,91.28531,91.35242,91.29004,91.30774,0.14551598,0.475,0.08584332466125488,19.993720229466756
62,620000,0.9881389016712195,-96.84298,0.05076061,0.47749168,0.9132552,-7.951789,37.39326,56.589077,5.0283556,121.949,121.98381,121.75749,121.263245,9.765603,0.7,-121.64753,-24.59458,0.00062926725,-508.5694,7.980304,7.9870143,7.8727145,8.085226,1.1001423e-06,0.3,-24.2743,95.389465,95.48911,95.34263,95.40218,0.15667371,0.46875,0.09102654457092285,20.30678960084915
63,630000,0.9856730889320489,-94.33203,0.050908726,-0.34148484,0.7420118,-1.9997197,37.449856,16.699093,4.5073423,119.790855,119.909836,119.3427,119.48641,39.967533,0.7,-120.274475,-28.553951,0.002307006,-225.92783,1.9349749,1.9438,1.3330454,2.0277224,1.710764e-06,0.3,-18.14218,93.02614,92.93531,93.01239,93.01602,0.2724108,0.4265625,0.08847165107727051,20.618103031317393
64,640000,0.9944672914548657,-95.00735,0.0508208,0.28042105,0.5826881,-5.6125884,38.50454,12.214779,5.051043,118.89934,118.61558,118.92619,119.07374,1.5429522,0.7,-118.93437,-20.579443,6.5012136e-06,-202.79178,5.750345,5.3376727,6.018378,5.781862,2.0262262e-06,0.3,-21.93219,93.82684,93.72273,93.78139,93.81287,0.110456795,0.4359375,0.08765077590942383,20.927142333984374
65,650000,0.9903164687168727,-93.57626,0.050680324,-1.1746169,0.6091775,-1.091796,28.415472,10.220531,4.719017,121.28063,121.31844,121.326904,121.08679,4.7880907,0.7,-121.599754,-22.050758,0.0008938497,-264.9143,0.79997736,1.3352585,1.1664224,0.7629844,3.9131845e-07,0.3,-19.733639,92.25047,92.357216,92.38352,92.36801,0.124996446,0.44374996,0.08925795555114746,21.234528879324596
66,660000,0.9936460895841371,-93.87096,0.051814146,-0.18077224,0.60898775,0.1642431,46.376987,9.478743,6.9485483,117.918076,117.61481,117.10965,117.681885,2.0090625,0.7,-118.03787,-20.429964,2.5942281e-05,-331.2199,0.26789212,-0.51664644,0.86314887,-0.3043819,9.4138085e-07,0.3,-21.192379,92.37482,92.3915,92.3808,92.40569,0.101795875,0.46406245,0.08939623832702637,21.54589810768763
67,670000,1.0013758971058617,-92.45924,0.052078128,-0.750001,0.5165401,-0.77364534,40.00108,9.211031,6.7162113,118.160225,118.07432,118.48972,118.53858,4.054521,0.7,-118.68524,-28.62072,0.0004443234,-216.80264,0.65060693,0.66819036,1.3626518,1.1662718,1.3238169e-07,0.3,-17.348475,91.30003,91.25262,91.372406,91.45545,0.14388202,0.42812496,0.09220266342163086,21.86015579303106
68,680000,0.9936727404724742,-96.72817,0.0517012,-0.91210204,0.36705443,-7.7493467,27.725859,5.618227,6.0544233,117.77606,117.96611,117.67666,117.66137,1.3923249,0.7,-117.7904,-23.586735,0.00020542025,-248.85428,7.0002217,6.4473114,6.9495754,7.2586713,1.6171835e-07,0.3,-20.214256,95.35675,95.430786,95.32725,95.53984,0.09753191,0.4296875,0.0858914852142334,22.17163127263387
69,690000,1.012836488198472,-94.66383,0.05108244,0.15320428,1.2230823,-3.712141,41.84053,73.67082,5.5954447,119.49751,119.57152,119.54069,119.7119,3.946304,0.7,-119.85731,-20.303278,2.9435614e-05,-314.6459,3.7273695,3.821107,5.5244107,5.022777,1.39451e-06,0.3,-23.350428,92.90032,92.951614,93.08912,93.26495,0.17016685,0.37656248,0.09054327011108398,22.484026380379994
70,700000,0.990041985238924,-93.68991,0.0499275,0.27121973,0.66874665,-0.44959623,36.95082,8.618661,6.180357,120.74777,121.04354,120.7257,121.128075,2.8728316,0.7,-121.231964,-26.39048,0.0021542201,-288.9558,0.34713137,0.24512118,1.2272621,1.0602939,3.873854e-06,0.3,-21.210966,92.417114,92.34803,92.20818,92.477615,0.13031296,0.3671875,0.10152435302734375,22.797392801443735
71,710000,0.9936361687348223,-95.77344,0.051163435,0.709204,0.9044166,-9.605828,31.7041,19.774887,5.3990045,120.53355,120.606544,120.51841,120.69511,4.9793863,0.7,-120.65693,-29.284512,5.7949044e-05,-275.37357,9.910075,9.500765,8.506696,8.931993,6.30389e-09,0.3,-23.279556,94.344635,94.38454,94.11462,94.25743,0.12547417,0.46093747,0.08653688430786133,23.105008312066396
72,720000,1.0284072389031589,-97.72747,0.049953222,0.028515607,0.87908614,-15.275138,31.94457,17.742058,6.37551,117.48728,117.207565,118.09892,118.71317,2.4947662,0.7,-118.63766,-27.5856,0.0012724646,-294.6654,15.0025015,15.143655,15.046854,15.10791,2.1904708e-07,0.3,-25.58129,96.48517,96.39943,96.60674,96.656555,0.09135085,0.41562498,0.09170985221862793,23.421163002649944
73,730000,1.026713292792992,-94.25853,0.04971725,0.059998572,0.81654125,-2.6529732,31.776907,57.60218,6.562105,120.68597,120.56627,119.93353,120.16307,5.2802763,0.7,-120.623,-21.275074,0.0006233177,-339.60355,2.5071099,2.4902344,1.8197087,1.8319439,5.9146373e-06,0.3,-25.374176,92.61455,92.579254,92.46,92.41426,0.12244925,0.5140625,0.09191179275512695,23.731572516759236
74,740000,1.0260853471230946,-95.02828,0.04927128,0.27928436,0.6294002,-0.14307658,37.75803,23.485413,6.2074814,118.30444,118.764984,119.360146,118.81523,3.7251773,0.7,-118.43923,-24.354694,0.00039086898,-284.1291,1.2684476,0.34645134,1.0862375,0.5990552,4.930189e-07,0.3,-24.902435,93.708145,93.77379,93.50736,93.61624,0.10901165,0.4546875,0.09935832023620605,24.0422363559405
75,750000,1.0207342925108491,-95.85422,0.048753005,-0.64664835,0.43926167,-7.5361886,43.3588,8.94699,7.1808767,117.81057,117.62806,117.94213,117.977745,3.2347898,0.7,-117.78632,-20.87615,0.0008402861,-294.64172,7.3003974,7.405467,6.3566093,6.7871785,9.5623545e-06,0.3,-23.76212,94.65962,94.57795,94.54924,94.64339,0.10740575,0.3875,0.08938169479370117,24.35394207239151
76,760000,0.9762500629866807,-95.68213,0.05174532,0.19793206,0.4594468,-3.9428914,60.185036,8.5212,6.720644,115.73053,115.94635,116.091156,116.30597,2.1017697,0.7,-116.239204,-21.630594,0.0011524097,-287.6009,3.5492172,4.148102,4.6801915,4.306664,1.466833e-09,0.3,-24.036257,94.18135,94.26901,94.245926,94.193146,0.11262188,0.484375,0.08368539810180664,24.661025369167326
77,770000,0.9915506365805498,-95.14147,0.049261555,-0.3775351,0.6213633,-3.4142876,32.42428,16.659462,5.7805796,116.54324,116.5161,116.47083,116.79478,15.343981,0.7,-117.67454,-27.939276,0.0008751382,-271.59128,2.977523,3.0827923,2.7018607,1.8346562,4.192698e-08,0.3,-21.996449,93.86549,93.8821,93.980606,93.838486,0.15170397,0.459375,0.08406209945678711,24.965089241663616
78,780000,0.9896446049705921,-94.51582,0.04952225,-0.36973843,0.78996825,-3.3650582,34.091698,14.114685,8.239235,119.44648,119.268425,119.529686,119.476555,3.4989994,0.7,-119.29002,-18.963701,0.0014302805,-244.10591,5.0765214,2.682445,6.251074,5.5836587,3.5240663e-07,0.3,-20.778599,93.14873,93.12106,92.90705,93.002945,0.09464677,0.44687498,0.0848393440246582,25.27452833255132
79,790000,0.962052736885015,-95.62697,0.049130507,-0.7361614,0.5439538,-5.3148108,37.236427,12.287146,7.6363125,115.50761,115.57009,115.474045,115.60597,2.042523,0.7,-115.64156,-24.130909,8.851348e-06,-285.7381,5.348212,5.9908223,6.513742,6.3381886,1.8290594e-07,0.3,-20.393291,94.43077,94.44042,94.51211,94.6172,0.098319724,0.37812498,0.07996129989624023,25.584777522087098
80,800000,0.9906305688856781,-97.6857,0.050155558,-0.4270327,0.7168089,-4.975848,37.449684,10.932449,6.910767,116.06907,115.76654,116.08506,116.25753,2.236488,0.7,-116.961945,-24.623636,0.0025821151,-253.69357,4.3756485,4.3164616,3.1033776,3.287588,4.541944e-06,0.3,-21.593979,96.28154,96.24202,95.941826,96.143005,0.08852044,0.4140625,0.08638167381286621,25.896382733186087
81,810000,0.9539896449231968,-92.715515,0.048413444,0.76763415,0.6073152,-4.6978893,40.31808,11.600449,5.145919,118.20826,118.03668,118.25368,118.44664,3.0514038,0.7,-118.16635,-22.008158,0.00049938634,-278.10834,4.78523,4.679097,5.336823,5.6110334,1.5493424e-06,0.3,-23.930573,91.2563,91.285126,91.2278,91.43641,0.10404657,0.4140625,0.0786905288696289,26.222737058003744
82,820000,0.9633245939863206,-96.77485,0.04832231,0.34105632,0.551413,-1.5603875,30.20998,6.6821446,6.400447,119.57205,119.294205,119.23493,118.90448,2.9578748,0.7,-119.168846,-28.176052,0.000688484,-474.7256,1.2129773,1.3926618,1.1760949,0.11031234,5.9764716e-07,0.3,-26.267109,95.18676,95.07385,95.23559,95.13095,0.123373486,0.5203125,0.08213996887207031,26.54396419922511
83,830000,0.9772695321523112,-93.40516,0.047348708,0.39988077,0.71969545,-2.8974411,38.350224,14.654411,6.032591,114.931145,115.043945,115.59629,115.28917,3.467334,0.7,-115.15916,-25.550394,0.00048664544,-637.32733,2.4491599,3.0687497,4.10871,4.027144,2.3469328e-08,0.3,-25.90692,91.91741,91.91892,92.000885,91.94298,0.10568352,0.4421875,0.08623099327087402,26.860755900541943
84,840000,0.9917708337339827,-96.1279,0.047608454,0.9230888,0.91149676,-5.0836134,41.639244,37.10402,8.0288315,116.76642,116.84348,116.87286,116.83407,2.2423036,0.7,-117.22234,-25.83061,0.00015268661,-263.86093,5.3448553,5.4968996,3.3171082,3.669604,2.1554296e-08,0.3,-22.95102,94.8163,94.8163,94.87521,94.82683,0.10063426,0.48125,0.08844828605651855,27.175693913300833
85,850000,0.9714156911993397,-94.42668,0.047612153,0.2518162,0.74701124,-12.8533325,41.933758,23.18267,7.651774,117.18885,117.10363,117.41997,117.52773,2.8081236,0.7,-117.62962,-19.679657,0.00036190753,-671.2209,12.881979,12.704874,12.54012,12.313675,6.780436e-07,0.3,-26.536268,92.42384,92.4471,92.554276,92.541405,0.11112788,0.40625,0.09145116806030273,27.501722379525503
86,860000,0.9717841876514233,-95.06236,0.048062753,0.7849087,0.5851157,-1.7141621,43.376617,7.5628757,6.6473055,118.25002,118.28183,118.408134,118.46925,15.102798,0.7,-118.46327,-20.39432,0.00043752074,-246.0523,1.4730339,2.5618756,1.2865127,1.6315647,1.9252185e-07,0.3,-23.249279,93.46684,93.49838,93.59346,93.629776,0.15251788,0.4046875,0.08590102195739746,27.82438418865204
87,870000,0.9392148190693894,-96.096985,0.04783406,0.9898771,0.70115995,-2.1884902,31.88298,22.20663,7.824397,117.69749,118.069016,117.928925,117.65909,5.6047864,0.7,-118.051636,-20.745924,0.00016588403,-308.87555,2.4505153,1.9110597,1.1518248,0.9150648,2.3391797e-06,0.3,-25.815857,94.7498,94.77473,94.642334,94.55057,0.11543754,0.51093745,0.07617950439453125,28.13891039689382
88,880000,0.9396525861247503,-96.913864,0.047638915,-1.3623177,0.79639065,-14.39512,34.716747,22.865774,6.4745336,115.93523,116.031654,116.02042,116.35932,15.503608,0.7,-117.42454,-30.420746,4.520698e-06,-526.1736,14.124529,13.620883,13.985316,14.359065,9.002234e-06,0.3,-25.203686,95.62629,95.663025,95.703384,95.92398,0.2047575,0.3890625,0.08349180221557617,28.45531665881475
89,890000,0.9471376819980153,-92.641266,0.047052953,-0.17041983,0.47439957,-2.8000655,35.15051,6.2685127,5.4549913,117.04691,117.34682,117.2466,117.252945,2.7749038,0.7,-117.76486,-23.73214,0.00020634476,-301.655,2.5832338,2.5285642,3.0933,3.3669076,2.6560157e-08,0.3,-23.577631,91.18065,91.13794,91.114334,91.22351,0.11037551,0.425,0.0860748291015625,28.771058650811515
90,900000,0.934275177394326,-95.83882,0.0460634,-0.48435903,1.6006547,-3.703764,45.28751,60.569344,6.765625,116.82842,116.79116,116.06252,116.021965,3.9629076,0.7,-116.972626,-22.48738,0.0020846892,-825.9632,2.906601,3.035014,3.360262,3.1738117,4.8119114e-07,0.3,-28.289175,94.47299,94.37302,94.43331,94.21155,0.14097036,0.553125,0.08091902732849121,29.08558884461721
91,910000,0.9531934374239966,-96.39625,0.045988344,0.49796775,0.64581347,-3.141258,66.19928,32.259903,7.3990707,117.20197,116.973206,116.861336,116.693054,2.8705938,0.7,-117.54053,-21.723137,0.00021675072,-710.5682,3.0991259,3.0462356,1.9462175,2.051743,3.3003744e-09,0.3,-26.239761,94.80553,94.789215,94.70688,94.86919,0.1042487,0.43281248,0.08507204055786133,29.398612022399902
92,920000,0.966551439479634,-95.013306,0.04556639,0.45986164,0.60458744,-9.756705,36.692574,9.145416,7.1238813,119.86293,119.76382,119.92998,119.76942,3.1666145,0.7,-119.60103,-18.638575,2.7871516e-05,-537.8012,9.82105,9.81606,10.603571,10.21821,6.8266686e-06,0.3,-26.253477,93.578575,93.57324,93.66495,93.60989,0.105818555,0.475,0.08289861679077148,29.719199307759602
93,930000,0.9583995585722165,-97.12885,0.046850465,-1.1921116,0.60308766,-0.25994062,34.22102,20.5061,7.3738675,119.416695,119.31928,119.582466,119.68169,33.484287,0.7,-119.47411,-27.982851,0.00037022034,-674.20044,0.38017988,0.25964117,1.2328429,1.1610975,9.045878e-07,0.3,-26.142647,95.67666,95.64642,95.61132,95.84378,0.23219201,0.4453125,0.08609223365783691,30.036702501773835
94,940000,0.9596704961388208,-94.672424,0.04351558,-0.40869805,0.48264176,-4.0192895,47.854355,6.4306307,8.364178,115.27344,115.32101,115.653046,115.87829,6.478056,0.7,-117.67763,-23.619125,0.0010263876,-660.77997,4.126194,4.0561504,4.4938574,4.0837445,2.6077032e-09,0.3,-30.370502,92.94615,92.83666,93.07071,93.02654,0.11803481,0.41875,0.0863351821899414,30.353667851289114
95,950000,0.9423267214981107,-96.13158,0.046443254,0.3498218,0.45260683,-3.9827008,41.316833,6.43234,5.534362,115.1681,115.12179,115.06074,115.12041,1.8254923,0.7,-115.9971,-29.68976,0.00058337516,-374.69464,3.895488,4.1009617,3.852725,3.9982326,4.0944606e-06,0.3,-24.748161,94.676254,94.635445,94.62585,94.68618,0.09497982,0.4765625,0.09029674530029297,30.670388436317445
96,955000,0.9466935490224352,-97.44927,0.04521416,-1.2222898,0.62208164,-2.7501678,43.849182,14.657766,7.2288585,116.02577,116.293396,116.38169,116.3375,2.6041455,0.7,-116.01374,-23.902945,5.7120633e-05,-395.181,3.176112,2.7985573,2.7125192,2.9982274,2.9929681e-06,0.3,-21.845577,96.15113,96.20196,96.23584,96.24473,0.0818327,0.49062502,0.07730865478515625,30.837219738960265
97,960000,0.9413501739642341,-94.69663,0.045883443,-0.29282942,1.114255,-4.0227537,32.2321,71.26564,8.38463,117.17435,117.69767,117.743484,117.785255,2.8700957,0.7,-117.14131,-37.292767,0.00329875,-363.41257,3.9895246,4.451877,4.4918957,4.522909,5.106151e-07,0.3,-24.109543,93.22449,93.24183,93.10451,93.19545,0.1476182,0.484375,0.07637405395507812,30.999207679430643
98,965000,0.9621462867380575,-96.15488,0.04326912,-0.24331178,0.50736517,-1.5302672,40.546013,13.677385,5.5234694,119.247795,119.305115,119.48226,119.60731,2.6108932,0.7,-119.570114,-25.520164,8.642324e-06,-437.32608,1.2787168,1.3525236,1.2391036,1.1072578,2.229761e-07,0.3,-27.523504,94.65067,94.724976,94.72221,94.80475,0.11779351,0.45156246,0.0840158462524414,31.161266163984934
99,970000,0.9748956658495872,-93.92344,0.04710918,0.64693785,0.600783,-7.505306,39.418324,7.960742,7.4209633,116.30141,116.093414,116.39484,116.245255,10.4797945,0.7,-116.14694,-23.232628,0.001445266,-944.22174,6.9207125,7.0708447,7.692174,7.244011,3.3003744e-07,0.3,-25.85238,92.38368,92.33711,92.584854,92.381454,0.1477969,0.51093745,0.08212661743164062,31.322275292873382
100,975000,0.9524053467393261,-95.25386,0.04331707,1.059799,0.7557937,-2.9454608,40.141953,9.198702,8.731891,115.87111,115.76516,115.63158,115.97767,2.894696,0.7,-115.86546,-30.026531,0.00048177346,-357.45056,2.5637674,2.8839195,1.5335929,2.3403482,2.7939679e-08,0.3,-26.900831,93.602646,93.67021,93.41177,93.52438,0.09558678,0.4109375,0.08383297920227051,31.47816649278005
101,980000,0.9564324021349487,-95.06016,0.046581984,0.551559,0.656554,-1.8174021,33.64054,42.4764,7.648263,115.75616,116.34367,116.30549,115.593925,9.181525,0.7,-116.41381,-19.82675,5.917088e-05,-246.19846,1.2753545,1.4530424,1.1903428,1.954359,1.18813475e-07,0.3,-23.398159,93.90172,93.87276,93.88712,93.773056,0.14715359,0.4921875,0.0797877311706543,31.636721233526867
102,985000,0.9651402959016784,-92.10241,0.04379021,0.38551167,0.5338786,-5.7077026,38.05688,10.7829895,8.182266,120.30159,120.14242,120.518456,120.08738,1.892699,0.7,-120.1607,-21.478155,3.7230784e-06,-685.50366,6.4590435,5.934867,4.500659,4.959757,1.678127e-06,0.3,-28.39849,90.80574,90.70334,90.76727,90.76925,0.087834045,0.45468748,0.08438301086425781,31.793051922321318
103,990000,0.9536723191014534,-96.35151,0.042112887,-0.052552864,0.8779278,-5.177378,37.215347,65.6136,7.221659,116.86379,116.98694,118.845985,117.18187,1.8678411,0.7,-116.98816,-20.164299,0.000888631,-278.3614,5.151817,4.834018,4.7651873,4.327123,1.3278052e-05,0.3,-23.184174,95.18683,95.15556,95.03284,95.012825,0.08961241,0.4984375,0.08266043663024902,31.95230903228124
104,995000,0.962027851947926,-96.59841,0.041063868,1.0536005,0.79951584,-14.893628,39.61418,53.486767,5.993399,119.17785,119.25394,119.25239,119.318665,2.204519,0.7,-119.71052,-19.960537,0.0009877966,-800.9994,15.434492,14.578048,14.791389,14.407051,1.0430813e-06,0.3,-34.038486,94.91724,94.88692,94.76288,94.74735,0.10227598,0.47500002,0.08912444114685059,32.11287928422292
105,1000000,0.9738745630302282,-94.72681,0.03992431,1.0547898,0.93593854,-8.06385,46.133457,19.742887,6.6229334,116.6058,116.89101,116.33244,116.50021,8.145225,0.7,-117.071236,-23.14215,0.00031019474,-864.09595,8.242217,8.108267,8.050166,8.037084,1.9965227e-09,0.3,-32.039986,93.00021,92.95447,92.83496,92.964066,0.16659743,0.4515625,0.09100604057312012,32.27309758265813
