Xixo99/comfo/relaxed_iql/20230321_5seed_mle0/hopper-medium-expert-v2/riql_s4_20230321_022917_hopper-medium-expert-v2_1.10.csv
,step,reward,actor_loss,alpha,alpha_loss,critic_loss,max_actor_loss,max_alpha_loss,max_critic_loss,max_mle_prob,max_q1,max_q2,max_target_q,max_v,max_value_loss,max_weight,min_actor_loss,min_alpha_loss,min_critic_loss,min_mle_prob,min_q1,min_q2,min_target_q,min_v,min_value_loss,min_weight,mle_prob,q1,q2,target_q,v,value_loss,weight,eval_time,time
0,0,4.196876209639911,,,,,,,,,,,,,,,,,,,,,,,,,,,,,,,,,
1,10000,0.7743441184141535,-39.468666,0.058016364,-7.4927607,0.32388526,-1.1573833,19.780077,8.97374,3.7950237,50.81698,51.03767,50.58609,49.85847,0.65836513,0.7,-50.969883,-21.085066,0.00072560285,-119.13082,1.0525376,1.2213713,0.88180625,1.2297454,9.1174593e-07,0.3,-11.025932,39.023567,39.028614,39.054596,38.44616,0.027637143,0.5171875,0.05430316925048828,1.2791190187136332
2,20000,0.7862266549003261,-62.97294,0.036139734,0.2704928,0.5590918,-4.763974,41.87136,20.25031,6.174243,75.72248,75.3729,75.66713,75.09054,7.341227,0.7,-76.16126,-27.156496,0.00013673195,-160.83136,7.669646,7.7488327,7.5108595,6.4832873,1.3985381e-06,0.3,-24.707317,61.992355,62.063137,62.12523,61.77778,0.12524256,0.49843746,0.06313753128051758,1.6015918572743735
3,30000,0.8112543582576395,-76.03763,0.0381353,-0.59661067,1.5546916,1.0085988,45.26797,57.428665,2.6698697,92.47938,92.39857,92.33343,92.2284,3.0176976,0.7,-92.46703,-28.017775,0.0041840337,-150.08495,-0.7285713,1.5811201,0.37115848,-0.112862274,1.4685794e-06,0.3,-18.476439,75.288864,75.30504,75.265396,75.20451,0.11939428,0.39218748,0.07651638984680176,1.9239768902460734
4,40000,0.9113487918979454,-84.530945,0.042083226,0.1598269,0.9247104,-4.718126,91.84804,54.91339,5.6997094,100.135376,100.166016,99.5822,99.63299,8.207869,0.7,-102.302704,-20.164532,0.0029478362,-238.2199,4.6075625,5.9109387,1.3828356,3.7711422,5.020236e-07,0.3,-18.25067,83.47717,83.63446,83.20736,83.35437,0.14902164,0.45,0.08760738372802734,2.2435464382171633
5,50000,0.8191390761904477,-89.98692,0.0430826,0.9117134,1.2146208,-1.1774778,49.763535,40.34892,3.7993758,106.91761,106.8653,107.14073,106.411,11.897172,0.7,-106.60709,-21.419624,0.0013126554,-347.0542,0.4757047,0.18083853,0.91531515,0.5147233,3.9156294e-08,0.3,-17.22045,89.11015,89.032074,89.398026,88.90614,0.2900239,0.5328125,0.063812255859375,2.562244240442912
6,60000,0.8698765342836414,-93.638,0.04472415,-0.2269231,0.738018,-5.3509603,36.065132,16.135963,8.527521,111.88593,112.25767,112.29461,111.50091,7.5905147,0.7,-112.01959,-22.218443,0.00017290586,-120.42857,5.605317,5.7823215,4.9628725,5.1627984,4.0745363e-07,0.3,-16.287539,92.797,92.808365,92.51203,92.374084,0.16436999,0.559375,0.07415890693664551,2.880540843804677
7,70000,0.8460966036915228,-94.37512,0.048357286,0.28088066,1.1683745,0.19374235,52.87815,16.808216,7.2048674,113.89127,114.09092,114.44462,113.88383,7.725308,0.7,-114.10003,-24.02646,0.0013048167,-308.3868,-1.2724869,-0.9028883,1.0062715,-0.85164857,2.1515298e-07,0.3,-19.974854,93.143105,93.14671,93.42541,93.3329,0.24595335,0.47812498,0.06346321105957031,3.203228815396627
8,80000,0.8303837762274998,-94.86412,0.04913204,-1.0385284,1.1194994,-1.029529,65.05113,47.30777,5.019008,113.30304,113.007034,112.71257,112.962166,2.3528037,0.7,-113.41298,-30.831547,0.00087492005,-231.10678,0.62223244,1.0065728,1.0126592,0.43600783,6.1820906e-06,0.3,-16.626146,93.715195,93.70426,94.01631,93.81496,0.11921749,0.4921875,0.06026482582092285,3.52366730372111
9,90000,0.8475224707594037,-99.019684,0.04814642,-1.4762012,0.95326304,-11.037678,53.965843,33.05801,5.9828157,114.33088,114.54775,114.082695,114.40004,10.488834,0.7,-115.190796,-24.622065,0.00011835084,-220.52965,11.099459,10.780048,10.41801,11.015576,5.8527044e-06,0.3,-17.533037,98.22397,98.14434,98.24841,98.473724,0.24466154,0.36874998,0.06636452674865723,3.8397434751192727
10,100000,0.8485737223824588,-96.651886,0.04960663,-0.9131031,1.1470222,-2.9859798,48.966732,21.430622,4.875661,117.09915,116.69761,116.651436,115.79394,16.064152,0.7,-116.79288,-19.845478,0.0001232308,-226.2125,2.293528,2.160911,1.9575231,0.397376,3.426685e-06,0.3,-16.776379,95.798706,95.86217,96.18186,96.04083,0.25589615,0.41249996,0.06724286079406738,4.162268070379893
11,110000,0.8422222625709453,-95.78978,0.049469206,0.82675457,1.1042911,-3.3240492,38.836254,41.970932,4.0123243,118.28975,118.109955,117.932625,117.82594,7.394902,0.7,-118.7845,-23.22752,0.00034924806,-254.73097,3.4658344,3.4817853,3.4526477,3.4393117,2.4707606e-06,0.3,-22.42915,94.64308,94.560616,94.715096,94.7534,0.19041555,0.5015625,0.0624384880065918,4.480284643173218
12,120000,0.8437122136381904,-97.79167,0.051418133,-1.07287,0.8716043,-4.315058,38.705708,15.650399,5.926339,115.7717,115.97381,115.718925,115.67889,5.2483244,0.7,-116.141495,-22.469198,0.000711701,-146.39145,5.250536,4.339239,3.1014848,3.2943203,6.7163023e-06,0.3,-17.426277,96.54438,96.65468,96.23317,96.25328,0.21778904,0.5921875,0.06321120262145996,4.795627009868622
13,130000,0.839378007429068,-95.25338,0.054584794,0.49797064,0.9830181,0.7065867,32.81336,15.044153,8.741564,116.03747,116.408325,116.76304,116.628876,21.441778,0.7,-116.27767,-20.517921,0.00086235837,-211.76137,-0.45157692,-1.827503,1.1429558,-0.7171177,1.5299768e-06,0.3,-16.84844,94.15512,94.12696,93.95925,94.00014,0.23463786,0.45624998,0.06459927558898926,5.110259389877319
14,140000,0.8414364847098291,-96.34365,0.055672333,0.37602955,0.8430394,-3.4192262,48.516502,14.036566,5.9523635,118.758934,118.94537,118.11195,118.45325,3.1218154,0.7,-118.7625,-25.631145,0.0010931103,-220.39673,2.9822927,1.704759,1.1568091,1.5148814,1.7881395e-06,0.3,-17.72117,95.21852,95.19513,95.05606,95.24515,0.12353255,0.40937495,0.06480264663696289,5.423703447977702
15,150000,0.8382552267407257,-97.05292,0.056929816,-0.24252716,1.0444071,-3.3599172,50.991535,37.36714,6.1493797,117.75118,117.80828,118.13484,118.196304,12.094187,0.7,-118.133766,-21.603607,0.00048056676,-957.3344,3.1441774,2.9101605,4.0436153,3.80836,2.3469328e-08,0.3,-21.078999,96.01451,95.99721,96.181725,96.324356,0.1698648,0.41249996,0.0679633617401123,5.741031531492869
16,160000,0.8414011792262113,-95.21767,0.05850472,-0.70284736,0.82683146,-11.379035,44.730007,48.08376,7.0358734,117.68547,117.32723,117.39503,117.152374,9.825893,0.7,-117.62356,-27.558527,0.00042933936,-521.33453,10.8137245,11.495716,11.557445,11.864792,1.0171672e-06,0.3,-19.183208,94.195,94.12631,94.18793,94.09157,0.16124612,0.553125,0.06453871726989746,6.062100545565287
17,170000,0.8474132262627663,-96.48004,0.059319243,0.13780397,1.7480495,-1.5932319,30.711636,55.337673,8.577371,118.05801,118.04654,118.10747,118.11196,5.294602,0.7,-118.241035,-24.951878,5.2280957e-05,-619.0667,1.2963372,1.9798548,4.1827784,4.216547,6.3074e-06,0.3,-19.15171,95.30381,95.386566,95.237946,95.16731,0.2246868,0.49374998,0.0639491081237793,6.382975093523661
18,180000,0.8512628314994539,-96.14453,0.059019823,0.44109303,1.1464002,-3.5467913,48.26969,20.046562,6.4283,119.35373,119.353424,118.39385,118.18426,4.0307436,0.7,-119.149796,-23.809576,0.00033226097,-446.06277,3.3856032,3.346672,1.0978572,1.8610622,1.11758716e-07,0.3,-15.729177,95.19791,95.08431,94.70014,94.89138,0.15843037,0.4859375,0.06505537033081055,6.701318113009135
19,190000,0.8430270706987714,-96.538055,0.057934962,-0.38450867,1.1385986,-9.704014,28.0839,27.40705,6.6590624,118.16344,118.17727,118.56712,118.44916,29.977987,0.7,-118.45667,-22.728592,0.00076650345,-472.07645,9.604063,10.032329,9.196905,9.580503,1.0299683e-05,0.3,-19.130644,95.28032,95.34122,95.42617,95.421875,0.28747326,0.48749998,0.07036805152893066,7.030346723397573
20,200000,0.8463449074759894,-96.0041,0.055594444,0.34410745,1.1937948,-4.1301365,37.22734,49.22023,7.085533,117.254196,117.55287,116.78498,117.01143,8.289432,0.7,-117.64261,-27.309134,3.2815733e-05,-270.2519,3.1147168,3.2467906,1.145188,3.0800796,5.9760355e-06,0.3,-21.877565,94.707924,94.7548,94.560394,94.82944,0.20691526,0.390625,0.07076501846313477,7.358754269282023
21,210000,0.8458655873896535,-94.18382,0.055966433,0.3609999,0.8721609,-2.1583858,34.980003,22.58991,7.218867,118.961426,119.243935,118.808044,118.952866,3.4276538,0.7,-119.65553,-23.234043,0.0011979232,-337.81067,2.1026287,2.2075732,2.5783396,3.0597699,7.1874815e-08,0.3,-18.087912,93.24812,93.329315,93.2245,93.25814,0.099830024,0.44375,0.06778645515441895,7.68905990521113
22,220000,0.8496173251196733,-93.95314,0.056166418,1.03186,0.93596756,-0.5127198,29.601627,29.332916,6.844779,118.703476,118.38987,118.822624,118.678345,4.4164677,0.7,-119.445206,-22.675655,5.1442126e-05,-315.42514,0.001457125,0.46041363,1.2553312,-0.0637213,1.6031962e-06,0.3,-21.156435,92.5087,92.66813,92.45314,92.46612,0.15402873,0.490625,0.06467747688293457,8.009320994218191
23,230000,0.8959380773254753,-94.8139,0.057267506,-1.1808743,0.78015405,-3.7764654,33.292973,13.679163,5.6638765,118.90865,118.91867,118.249916,118.5943,1.3022867,0.7,-119.90246,-23.095707,0.00017473922,-138.81053,3.1989386,3.1486797,2.1147642,2.11466,2.861023e-07,0.3,-16.96968,93.57931,93.594284,93.35707,93.3732,0.10589786,0.47031248,0.06960940361022949,8.338815649350485
24,240000,0.8543838017907714,-95.128624,0.056920234,0.82196677,0.88671255,-4.8958783,36.569,36.072487,7.3642693,120.18895,120.42747,119.899895,119.908005,2.5591297,0.7,-121.46324,-23.605412,0.0025239403,-302.66577,4.9336367,4.797847,4.692486,4.5985246,1.3496493e-06,0.3,-22.99989,93.74706,93.75969,93.65151,93.65278,0.13208906,0.509375,0.0765221118927002,8.673534762859344
25,250000,0.8487374568356788,-94.636765,0.055918213,0.65658677,0.8479219,-2.2007992,34.909935,44.770454,7.611702,117.41335,117.39014,117.59979,117.31579,6.8988667,0.7,-118.024025,-22.957422,0.0011060179,-245.43214,1.8623426,1.5961603,2.0341675,2.2227342,5.867332e-09,0.3,-20.37291,93.301285,93.31456,93.319824,93.269196,0.18782634,0.4703125,0.06065773963928223,9.002523152033488
26,260000,0.8691440409533858,-98.1991,0.056171145,0.30393907,0.9117618,-2.2479658,29.508463,24.582249,7.455286,118.84815,118.755905,118.70571,119.12658,2.6992311,0.7,-121.30533,-22.129475,4.2352476e-06,-165.01588,2.3725197,2.295926,3.0349064,3.2010288,3.841025e-06,0.3,-17.748528,96.91483,96.93683,96.803055,96.76301,0.13105941,0.47812498,0.07239818572998047,9.323419189453125
27,270000,0.8931357302780928,-93.874954,0.054703936,-0.30535853,1.643702,-4.0882587,29.963821,156.80734,9.377934,119.97982,119.659424,119.795425,119.927826,2.906894,0.7,-120.32094,-23.825262,0.0012412439,-630.42645,3.9058814,4.5364237,3.2857614,3.4358413,1.4144462e-07,0.3,-22.09139,92.672195,92.69764,92.74454,92.786514,0.14268923,0.4375,0.07654333114624023,9.654364132881165
28,280000,0.8937159922117485,-96.549194,0.05426138,-0.22479582,1.1041203,-3.3437712,43.94657,20.636738,5.250883,119.39482,119.78722,119.628624,119.283005,5.933737,0.7,-119.94303,-26.01568,0.0001741476,-212.97824,3.1108768,2.8453133,0.9232532,0.78600985,9.1786205e-06,0.3,-23.305573,95.301575,95.20765,94.955444,95.0598,0.13201371,0.5234375,0.07541751861572266,9.981354792912802
29,290000,0.8502110889288869,-95.51405,0.05444598,-0.4684015,0.9760071,-5.056577,41.042755,56.887497,6.4379315,118.62876,118.68777,118.90615,118.75947,1.780735,0.7,-120.20767,-23.77533,0.00024217146,-342.82553,4.739889,4.6545744,4.8912306,4.952131,2.4556359e-08,0.3,-21.514944,94.283745,94.31491,94.35396,94.363914,0.1059286,0.47968748,0.06676769256591797,10.310245323181153
30,300000,0.8506833224251389,-97.13666,0.053320844,0.1249086,1.4863906,-7.105647,33.636806,42.114815,7.5180173,116.12982,116.83136,117.3605,116.40599,4.9672637,0.7,-116.00766,-23.850845,0.0042297123,-944.11316,6.88485,7.478638,7.5012894,7.6593843,7.377821e-08,0.3,-27.109005,95.87388,96.003204,96.45497,96.409485,0.122413725,0.39687496,0.07024550437927246,10.634182846546173
31,310000,0.8727296626688608,-96.164505,0.05349838,0.30782998,0.99906373,-3.92389,32.854637,21.998585,7.064672,121.13152,121.228905,120.90035,121.198364,5.558017,0.7,-121.71181,-17.110193,0.0011269716,-904.65845,4.2044683,3.3949895,3.2375975,3.616205,6.1973694e-08,0.3,-26.164684,94.59501,94.50776,94.59796,94.73459,0.14643294,0.425,0.07299470901489258,10.964948379993439
32,320000,0.8622226115486128,-97.629196,0.05373915,0.01773116,1.0584023,-2.2415855,36.26988,34.072784,7.490946,118.914154,117.9548,118.68373,118.9237,9.990923,0.7,-120.85472,-27.695724,0.00072580675,-492.26624,1.7000941,1.745384,1.1599077,1.1547046,1.5926315e-06,0.3,-21.634106,96.32176,96.221115,96.41908,96.3719,0.1973367,0.48125,0.0699152946472168,11.291998358567556
33,330000,0.8440331292056467,-96.45707,0.054296736,-1.4311975,0.62089735,0.91738766,34.006493,13.158292,6.40252,117.048996,116.69252,117.1856,117.09944,9.543343,0.7,-117.668564,-18.83942,0.00026111887,-535.05304,0.124224365,-0.85301316,1.0652987,-1.4564093,1.9016444e-06,0.3,-22.36937,95.00481,94.96605,95.13347,94.92859,0.1927078,0.51875,0.06546783447265625,11.615632728735607
34,340000,0.8481522681808148,-95.306366,0.053904824,-0.16041891,0.93176436,-3.7089117,38.295876,9.254925,6.607342,117.1926,117.07346,116.594025,116.75287,5.7765293,0.7,-118.22342,-18.47394,0.0018992145,-313.96884,3.7278671,3.940066,3.2327876,3.2129376,7.4103014e-07,0.3,-22.179642,93.934784,93.940414,93.738495,93.92089,0.20536792,0.3984375,0.06904983520507812,11.94683511654536
35,350000,0.8145215129309584,-95.07453,0.05459652,0.21184886,1.3634393,-4.264706,28.78502,18.386908,6.4878955,116.63599,116.233604,115.5356,116.318756,3.1385071,0.7,-119.52966,-22.04964,0.0015363044,-314.9577,4.967093,4.475691,2.688016,2.892625,3.1541279e-06,0.3,-23.326666,93.61856,93.67326,93.15115,93.329895,0.1617541,0.5140625,0.057569265365600586,12.282001558939616
36,360000,0.8421015920997631,-97.8214,0.053362112,0.47797817,0.88288355,-14.792022,45.46578,33.84465,7.0880246,117.534706,117.77334,117.7942,118.06275,1.8305168,0.7,-118.66723,-23.028276,0.00016295753,-282.04633,14.111151,15.050195,15.739517,16.200909,2.7383678e-06,0.3,-19.087006,96.59414,96.571335,96.511665,96.61151,0.10020967,0.4015625,0.06569814682006836,12.61204161643982
37,370000,0.848973353218132,-95.593704,0.053652592,-1.1912004,1.0778666,-1.6349847,37.533344,11.53883,6.7153263,117.63159,117.7875,118.375916,118.246185,2.8382185,0.7,-118.05536,-22.806137,0.004122686,-109.36838,1.6780317,1.7622409,3.1282601,3.4441803,1.9965227e-09,0.3,-18.196346,94.300964,94.347595,94.781494,94.723495,0.13460818,0.37812498,0.07022476196289062,12.940889187653859
38,380000,0.8478523859769542,-95.48334,0.053292308,0.9421741,1.688694,-12.718749,31.803371,50.23696,6.1640787,115.95247,115.700745,116.263725,116.15349,3.0824473,0.7,-116.50636,-23.43207,0.0031164829,-315.6889,12.751025,12.400169,13.738907,13.307597,1.9541883e-06,0.3,-25.395674,94.18054,94.12132,94.511986,94.378944,0.17982316,0.45624998,0.07000422477722168,13.2685231645902
39,390000,0.8459916871362612,-94.84483,0.05230813,-0.28719783,0.75357866,-7.2099,27.054432,16.25203,8.306338,117.87487,117.71907,117.28723,117.33062,5.048657,0.7,-118.92949,-21.47153,0.0009795297,-1099.1887,6.901605,7.2253413,5.7791524,5.1601243,1.7290702e-06,0.3,-27.507742,93.48615,93.54494,93.49794,93.433754,0.1392973,0.48749995,0.06346893310546875,13.60261085430781
40,400000,0.8336385623390001,-95.83109,0.054255143,0.07917297,0.8399725,-9.151189,43.243923,31.44737,8.7444725,118.447556,118.40111,118.00061,118.211525,4.2556357,0.7,-118.552765,-31.61969,0.00083597266,-750.0748,8.245661,8.81015,7.6401744,7.2960796,5.0731646e-06,0.3,-26.91254,94.420685,94.36153,94.29976,94.156715,0.17128262,0.534375,0.07185578346252441,13.925544611612956
41,410000,0.8336854005162542,-96.57526,0.053006023,0.23247917,0.78901947,-2.2121773,34.50512,44.95055,8.084209,116.11453,115.99885,115.9182,116.06324,3.1634412,0.7,-116.3754,-22.458843,0.00018811677,-281.27756,2.0367713,2.0471,2.0501447,2.0630677,2.062734e-06,0.3,-21.337284,95.19794,95.24858,95.189285,95.30129,0.1389077,0.3890625,0.06166219711303711,14.248670228322347
42,420000,0.8131391671653831,-94.4028,0.054478142,0.015280813,0.95031786,-3.432353,37.27718,23.070724,6.2768803,121.39815,121.746124,121.50764,121.24365,9.75192,0.7,-122.276566,-21.58891,0.00065951096,-124.07514,3.4978993,3.3705301,1.9591727,2.2077978,4.5264025e-07,0.3,-20.870417,92.65444,92.65759,92.609024,92.598976,0.29602653,0.49375,0.06000161170959473,14.565365839004517
43,430000,0.8442726327838601,-95.37869,0.05459523,-0.77954507,0.78696966,-10.06354,28.992393,18.494825,7.365247,119.20263,119.17855,119.88362,120.08633,10.149825,0.7,-119.76053,-22.388535,0.00046767585,-221.12532,9.99187,10.154187,9.808578,9.567871,1.9620639e-07,0.3,-20.831968,94.23668,94.24062,94.30997,94.29019,0.15211497,0.403125,0.06654930114746094,14.878012470404308
44,440000,0.8409365414228394,-94.374306,0.054584496,0.73864293,1.0312802,-3.5741456,33.83064,64.019775,4.595838,119.7161,120.20196,119.31062,119.50401,5.5498233,0.7,-119.78908,-23.842691,0.0008161299,-309.4462,3.4402635,2.9955535,2.9760695,2.9168801,1.1445372e-07,0.3,-23.295906,92.785995,92.71803,92.83073,92.84886,0.1752881,0.45624998,0.06732487678527832,15.193487703800201
45,450000,0.8405157437224688,-95.551636,0.05457623,-0.70772773,0.8485093,-3.284494,31.671963,14.680515,8.416493,117.31948,118.08138,116.69474,116.515854,4.6651154,0.7,-119.638,-19.888716,0.0005757404,-406.66187,2.1322253,2.225213,2.24395,2.8158057,7.6040624e-06,0.3,-22.39632,94.3317,94.317215,93.96845,93.861725,0.15440439,0.5890625,0.06267762184143066,15.504902295271556
46,460000,0.8445580588186622,-94.57077,0.054954335,-0.73629624,0.5366079,-1.9216654,40.54638,20.203382,8.386976,120.22489,119.8193,119.39987,119.50948,3.1230643,0.7,-120.71574,-21.66169,0.0002272763,-266.96976,2.1971388,1.9240855,1.2292441,1.3274258,3.6670826e-08,0.3,-21.771893,93.32561,93.24146,93.257454,93.30665,0.10452234,0.4203125,0.06627655029296875,15.820800292491914
47,470000,0.8383832808175398,-97.450035,0.054860655,0.10446019,0.51846236,-3.4076304,31.897182,13.026227,7.120521,119.23441,119.12332,119.23229,118.22896,2.9937923,0.7,-120.05439,-22.414577,0.00054340163,-414.66528,3.4888458,4.0025306,1.4788486,2.8159163,1.11758716e-07,0.3,-27.890648,95.60348,95.58191,95.522995,95.59602,0.109954625,0.46249998,0.06593489646911621,16.135982203483582
48,480000,0.8836731369490111,-94.15666,0.05431223,0.14844552,1.5646574,-2.1602764,29.312733,93.95514,3.522618,117.177826,117.74474,118.09449,119.33279,6.556275,0.7,-118.81725,-20.48313,0.00077265716,-655.66455,2.0707703,2.514729,1.9758997,0.76958203,4.0477718e-07,0.3,-30.015274,92.07987,92.21357,92.304504,92.2595,0.16661614,0.465625,0.07840323448181152,16.453154643376667
49,490000,0.9128305881543147,-97.28139,0.054334156,-0.45207906,0.9790964,-0.24267739,31.310356,15.701828,7.4375944,120.377,119.97262,120.02973,119.98943,12.109509,0.7,-120.570755,-23.267351,0.0006701276,-452.61694,-0.016097069,0.3549382,1.2506979,-0.13222638,1.0311313e-06,0.3,-22.401627,95.89873,95.91072,95.69227,95.728134,0.15005825,0.509375,0.07320189476013184,16.768145767847695
50,500000,0.9470519409782867,-97.83437,0.053715922,0.40866834,0.9571951,-20.24966,34.250324,12.877558,6.331083,118.251434,118.093056,117.959984,118.097984,4.269592,0.7,-120.095436,-21.874151,0.0001798966,-245.61136,19.548815,20.014582,19.98645,19.740778,4.0745363e-09,0.3,-24.603298,96.451965,96.42102,96.28452,96.392105,0.13186604,0.49375,0.07989931106567383,17.081880350907642
51,510000,0.8857747701248897,-93.29016,0.05389218,-0.083829165,0.70600593,-2.8906803,34.398373,36.77089,8.237471,116.38606,116.41233,118.07191,117.795074,10.6927395,0.7,-117.60218,-24.060764,0.00020894251,-231.31432,2.952413,3.5872877,2.8860388,2.6989028,3.876805e-07,0.3,-26.391834,91.859436,91.90028,92.117516,91.93033,0.15019111,0.4734375,0.07419037818908691,17.39774569272995
52,520000,0.9708811659282024,-94.793304,0.055025917,0.06587905,0.8143952,-14.008517,34.116737,12.002647,8.089904,115.06632,115.07098,115.42914,115.43737,3.9314594,0.7,-116.684715,-23.35904,0.0025295538,-143.50888,14.033475,13.410725,13.292005,13.149957,5.5327547e-07,0.3,-21.750454,93.519424,93.52269,93.777725,93.67767,0.15315536,0.46875,0.0844268798828125,17.714929461479187
53,530000,0.970845395860983,-93.68324,0.054270096,0.16761276,0.95328563,-3.1267571,42.825626,21.266083,4.517656,117.837326,117.900986,117.72364,117.56345,2.97958,0.7,-119.04956,-22.036554,0.0074774306,-336.9898,2.4073515,2.7897892,2.6042376,2.7617118,4.3655746e-08,0.3,-24.817703,92.17192,92.13158,91.86072,91.95972,0.10859728,0.4328125,0.08501219749450684,18.026395873228708
54,540000,0.9238962820002795,-92.9812,0.05399616,1.136137,0.65544283,-4.0053334,36.61566,11.96914,5.499277,118.465355,118.40235,118.452614,118.31756,11.321686,0.7,-118.824135,-19.820122,0.0003989722,-148.91801,3.7299194,4.3732414,4.1485567,4.385429,1.478009e-07,0.3,-23.38557,91.20529,91.28476,91.39353,91.51137,0.18323019,0.4359375,0.08149909973144531,18.342153012752533
55,550000,0.9986217761346408,-95.618195,0.054617792,-1.088628,0.7019365,-2.0712194,23.894636,11.8132715,6.345121,117.14743,116.99268,117.62967,117.43772,3.805547,0.7,-117.13257,-23.386879,3.827468e-05,-613.1112,1.8029435,1.2131945,1.855578,1.4019333,7.3385314e-07,0.3,-20.563183,94.459015,94.40466,94.732376,94.669464,0.11063139,0.4375,0.0902867317199707,18.66105912923813
56,560000,0.9918189190498538,-95.25747,0.052476723,-0.059557676,1.1768756,-11.226058,25.770172,51.54608,8.317356,119.16166,118.7556,119.47457,119.21256,130.48717,0.7,-119.1207,-23.709368,0.0015878289,-580.87036,11.434795,10.93653,11.811063,11.955277,7.838826e-08,0.3,-24.287626,93.65681,93.719246,94.11882,93.925804,0.6315352,0.3875,0.0988149642944336,18.980267429351805
57,570000,0.9648987443157129,-94.907166,0.052833974,-1.0154715,0.7435093,-4.1351066,32.25367,51.571915,7.5468473,117.74157,116.402534,116.66187,116.70833,5.7143035,0.7,-118.02994,-20.617334,0.00078981166,-501.26102,2.9911208,3.3460546,2.0947375,2.5098884,4.43717e-06,0.3,-20.893711,93.76048,93.77537,93.918564,93.94432,0.13016856,0.3953125,0.09025812149047852,19.298690923055013
58,580000,0.9661529805948168,-94.88172,0.052281857,-0.3776894,0.8749697,-1.9144061,32.043842,9.491516,5.63397,119.572075,119.744606,120.015594,119.904724,3.0928974,0.7,-119.18459,-28.85263,0.004097107,-173.72026,1.4257983,1.5498488,2.0176096,2.0022175,1.0300835e-06,0.3,-22.421696,93.59922,93.642525,93.9802,93.81503,0.11725356,0.41875,0.08296489715576172,19.61653198003769
59,590000,0.9577457155290316,-96.41431,0.05274783,0.6892159,1.2879993,-1.8948301,38.2676,59.183636,6.2140865,117.5929,117.56757,117.47365,117.67741,16.586767,0.7,-119.03264,-19.450542,0.0005312954,-259.03683,1.6245037,1.2540661,1.163261,1.2912209,1.6430278e-07,0.3,-20.87064,94.755295,94.739525,94.390076,94.511444,0.18028057,0.4296875,0.08970856666564941,19.940928876399994
60,600000,0.9641865546630392,-94.04477,0.052787576,0.65928876,0.5815106,-1.1108277,39.837284,11.160166,7.962164,120.103424,120.14293,119.950935,120.36426,3.9871185,0.7,-120.21427,-25.492514,0.0017833803,-194.13516,0.99994564,0.5577278,1.174115,1.4534936,1.2730015e-06,0.3,-24.89164,92.33858,92.22163,92.29805,92.64525,0.17591405,0.33437496,0.08553242683410645,20.264095707734427
61,610000,0.9630480771710763,-95.74941,0.052672904,0.68930125,1.1033309,1.0436811,34.238853,29.663929,7.5040293,117.67737,118.09734,118.91097,118.492325,2.9482565,0.7,-118.17664,-20.120874,0.00094377046,-267.97214,-0.7558095,-0.9974553,1.153733,0.18384752,1.0624062e-05,0.3,-24.503155,94.33655,94.36441,94.78874,94.77611,0.14420849,0.3578125,0.09012603759765625,20.580702670415242
62,620000,0.9491607711854428,-96.61208,0.051317304,0.6824588,0.5816409,-3.4534044,33.593945,13.979126,6.3754663,118.29546,118.402954,119.114746,118.91212,2.087266,0.7,-118.40789,-18.393253,0.000192256,-485.97446,2.4887319,2.6390226,2.0084348,2.4094424,4.304282e-07,0.3,-22.778927,95.082886,95.007484,95.19089,95.13278,0.08522983,0.44687498,0.09231996536254883,20.898498463630677
63,630000,0.9127071728005273,-94.871925,0.051753085,1.0474724,0.7948328,-2.6706223,34.264553,26.733845,6.156842,120.33134,120.248344,120.3041,120.20533,9.671635,0.7,-120.507164,-21.489973,0.0013042663,-293.4788,2.7549617,3.091425,2.0566251,1.5336592,9.077601e-07,0.3,-24.138784,92.978165,93.0157,93.21935,93.22079,0.14639539,0.40781248,0.07728195190429688,21.21850332021713
64,640000,0.9426800197134664,-98.191605,0.051907808,-0.6408454,1.7261719,-9.092326,26.90785,13.371822,8.194344,117.944824,118.05277,116.87668,116.952034,11.16668,0.7,-117.95125,-19.29524,0.00301784,-343.94406,8.696078,8.744945,7.4756265,7.897483,1.3645214e-06,0.3,-25.813562,96.480804,96.448524,95.706924,95.91221,0.21498041,0.5171875,0.08324718475341797,21.533977480729423
65,650000,0.9617855566676298,-95.25474,0.051572535,1.0757099,0.67371047,-2.2794223,30.77944,8.119628,5.693858,117.14392,117.04254,116.61668,117.01688,7.548303,0.7,-117.199486,-21.513414,0.0007266987,-552.5369,2.3177323,1.8194342,1.0995901,2.2392673,7.533817e-08,0.3,-26.331173,93.53273,93.51465,93.25955,93.49037,0.16784458,0.4265625,0.09849762916564941,21.855421217282615
66,660000,0.9673119473158603,-96.73509,0.050870616,0.75887984,0.7828543,-1.6701154,37.840668,22.85528,7.75902,121.38981,121.496605,120.79457,120.67508,3.3851478,0.7,-121.68761,-19.620445,0.0017744321,-360.7446,2.063707,1.6377627,1.9432962,1.9654365,5.673384e-07,0.3,-20.508411,95.197044,95.17373,95.281746,95.24645,0.10796416,0.4828125,0.08878850936889648,22.172853887081146
67,670000,0.9594114640321137,-95.764305,0.05099078,-0.16039999,0.7544252,-6.405213,34.67872,28.825348,7.3452916,119.73733,119.66307,120.16562,120.10819,5.0112348,0.7,-120.37743,-33.490963,0.00015182164,-351.01324,6.6019154,6.404249,5.901835,5.386495,8.696853e-06,0.3,-22.018665,94.554924,94.51229,94.661575,94.61574,0.12244006,0.44375,0.08613228797912598,22.485600821177165
68,680000,0.9385967706231011,-96.421295,0.051235504,0.65359664,0.5648366,-9.00973,48.708702,8.092588,6.0436573,120.016014,120.27683,119.9358,119.88643,13.080524,0.7,-120.18215,-22.571484,0.00046424457,-378.0296,8.765685,8.465992,7.6988554,8.142855,2.9438525e-07,0.3,-28.393724,94.87338,94.92146,94.711136,94.760666,0.1399129,0.496875,0.09059286117553711,22.80251349210739
69,690000,0.9783668937944341,-96.21968,0.050005104,0.8476985,0.8433993,-3.8263612,41.55948,14.389746,7.932687,120.23211,120.12038,119.99339,120.085724,1.3462863,0.7,-120.47254,-23.02466,0.000648053,-440.90744,3.7796702,3.7048638,4.319523,4.4011784,5.6735008e-08,0.3,-30.505318,94.42507,94.4525,94.35785,94.53682,0.10934295,0.453125,0.09029126167297363,23.120214454332988
70,700000,0.9406952259608945,-96.330795,0.050919794,-0.47686547,1.0372462,-5.7962623,32.89558,14.779316,6.9722996,118.399475,118.01362,118.07581,117.96959,1.1151491,0.7,-118.26367,-21.380754,0.0005941585,-265.02463,5.7519317,5.488512,4.9666567,5.040135,5.5327547e-07,0.3,-24.41003,95.08778,94.98744,95.124084,95.06419,0.08824765,0.48125,0.08485603332519531,23.441543742020926
71,710000,0.9565498864729363,-95.82376,0.05086102,-0.39454183,0.73789835,-4.2449684,31.645147,12.151196,7.9511137,116.007065,115.96575,117.10533,115.87953,1.7525415,0.7,-116.48062,-24.225952,0.00047659298,-178.13745,3.7094026,4.260025,4.0483847,4.2346478,2.118107e-06,0.3,-23.040823,94.36493,94.35802,94.370605,94.51925,0.086909294,0.41875,0.09722900390625,23.759745355447134
72,720000,0.9776169173985411,-95.48273,0.05091904,-0.080571204,1.7673421,-1.9002517,46.136528,213.40176,5.907981,117.139534,117.315155,117.80916,118.10057,4.379541,0.7,-117.440475,-19.062195,0.0010112806,-351.9385,2.1776316,2.4454427,2.6639102,2.9611118,3.7757857e-06,0.3,-25.117653,94.17818,94.28526,94.56287,94.66672,0.12271793,0.37031248,0.09650802612304688,24.081133329868315
73,730000,0.9833387815653256,-96.22446,0.0506413,0.9337805,0.9847096,-4.829434,30.93876,29.094673,6.123018,119.69542,119.71741,120.22308,120.234535,5.176942,0.7,-120.33992,-20.241459,0.00010292663,-315.78848,4.585974,5.014982,6.141334,5.750358,7.3162374e-07,0.3,-29.804266,94.39585,94.41631,94.51883,94.587265,0.15040419,0.4109375,0.10312366485595703,24.399392195542653
74,740000,1.0086568014629016,-96.185776,0.0495024,1.0527533,1.038368,-3.4350595,36.640854,117.98735,4.329392,117.17976,117.32165,117.276215,117.35101,2.4473658,0.7,-117.25934,-23.27566,0.00045980472,-219.51485,3.1522198,3.5248384,2.9199975,3.107064,3.7222637e-07,0.3,-22.518875,94.85457,94.872284,94.65512,94.92117,0.11448986,0.390625,0.10444927215576172,24.715567060311635
75,750000,1.0178583635221303,-96.27289,0.049908057,-0.3582723,0.46332097,-3.4664528,29.261164,9.772622,8.261842,119.27077,119.28672,119.42689,119.56942,3.1195376,0.7,-119.31421,-24.69255,3.6496785e-05,-209.6584,3.4366345,3.4047446,3.1693814,3.041115,2.1742133e-06,0.3,-23.031883,94.84418,94.799866,94.843094,94.86226,0.09302674,0.4703125,0.10450267791748047,25.018494526545208
76,760000,1.0585808373889976,-96.7094,0.050043028,-0.3932141,1.1323113,-2.3836741,28.432043,32.213356,4.810542,117.0461,116.36659,117.39307,116.08965,2.7247276,0.7,-117.43918,-19.564068,0.000507297,-257.03488,2.5659459,2.3320127,2.378049,2.0611882,1.6790756e-06,0.3,-20.56945,95.47658,95.438126,95.14769,95.17555,0.11760751,0.52968746,0.10785675048828125,25.334137109915414
77,770000,1.037534214159254,-93.62781,0.048518855,0.5069224,0.6270236,-1.4249527,24.008821,11.275454,5.2618594,116.64485,116.60176,116.244225,116.08862,1.249353,0.7,-116.48898,-24.90422,6.4815686e-05,-160.50136,1.0144252,1.2269604,1.7785298,1.9171162,4.9301887e-09,0.3,-21.461626,92.23129,92.19301,92.104645,92.06176,0.095063545,0.45,0.10008764266967773,25.64971171617508
78,780000,1.047034751078117,-95.384964,0.048945043,0.06546986,0.72794986,-1.8764254,34.401524,8.4724,6.070653,120.366714,120.194824,120.547226,120.3421,1.7836494,0.7,-120.74052,-26.194149,0.0005521973,-373.32788,2.099145,1.9667473,1.1080294,2.0570688,7.4824203e-07,0.3,-26.362942,94.13722,94.111725,94.40018,94.219406,0.09944886,0.496875,0.10094428062438965,25.966697347164153
79,790000,1.0439939726979397,-94.66019,0.04870047,-0.15308513,1.0631208,-16.736767,33.89922,32.821632,7.121516,117.73095,118.05572,117.492905,117.74518,3.7659447,0.7,-117.93162,-35.71211,9.4237854e-05,-383.36893,16.126627,16.540018,16.05813,16.287706,9.1574043e-07,0.3,-26.819975,92.989044,93.039246,92.72827,92.77869,0.12904954,0.40937498,0.10352015495300293,26.280367048581443
80,800000,1.0555300468843078,-95.07919,0.047992744,-0.60703987,0.6725477,-4.6084285,37.999527,28.037178,6.106344,118.49957,118.39604,118.19958,117.96014,2.6270764,0.7,-118.715,-31.755892,0.00031722162,-246.65237,4.50402,4.4296527,4.649413,5.089859,1.1175871e-09,0.3,-24.522934,93.71829,93.714264,93.75727,93.86487,0.116432704,0.390625,0.10286140441894531,26.595050549507143
81,810000,1.0447007819809657,-94.191086,0.047993794,0.2964844,0.6682155,-3.2367935,33.754673,12.755746,7.372163,117.59747,117.44222,117.39628,117.508385,12.94086,0.7,-117.63122,-20.935045,0.00020099251,-186.68715,2.5212893,1.9674168,2.382402,2.3986435,2.4789477e-07,0.3,-24.633484,92.74552,92.766884,92.753395,92.82498,0.16972134,0.3984375,0.09745502471923828,26.910169072945912
82,820000,1.0432746461456246,-97.05591,0.046930082,-0.40163502,0.76799965,-17.417303,34.94202,10.891511,4.879873,118.57363,118.58793,119.02336,119.19488,1.6196766,0.7,-118.66468,-22.479568,0.00081030745,-213.81625,17.102558,17.126442,18.560745,18.794758,9.00065e-08,0.3,-22.071041,95.89893,95.83281,96.09332,96.065926,0.09880233,0.4203125,0.1022496223449707,27.224288129806517
83,830000,1.0647897919265201,-96.641556,0.046197493,-0.14353092,0.53652894,1.0059763,32.70204,9.206959,7.0077906,115.59608,116.01845,116.60218,116.268936,2.7634623,0.7,-115.44745,-25.316973,0.0013495856,-1904.1732,-0.1827693,-1.0945351,1.0523638,-0.022274435,3.5708655e-07,0.3,-25.383137,95.37042,95.30652,95.42357,95.45306,0.09347742,0.3984375,0.09997200965881348,27.538187297185264
84,840000,1.0972468185415851,-94.73659,0.04715701,-0.970631,0.8143797,-4.018517,30.847136,43.111988,5.27728,116.73139,116.96061,116.363846,116.67015,1.7885461,0.7,-116.857895,-25.415468,0.0010667699,-342.72583,3.4545083,3.6760523,2.6495082,2.7758267,3.319513e-06,0.3,-24.06173,93.62705,93.61972,93.43758,93.51642,0.08286232,0.44687498,0.10468220710754395,27.850598617394766
85,850000,1.1026032596944029,-96.154396,0.045770183,0.20918983,0.39630097,-5.081844,41.65491,15.095291,7.1771283,116.62031,116.50966,116.59785,116.71491,1.8096952,0.7,-116.71396,-21.706608,0.0003810285,-797.5165,5.355096,4.737781,5.8663216,6.0490446,3.229827e-07,0.3,-28.115112,94.69177,94.676125,94.73625,94.77681,0.08441508,0.43124998,0.10690164566040039,28.162900122006736
86,860000,1.099059494499636,-95.30249,0.047606457,0.7539389,0.82473296,-8.617493,34.22459,31.927082,6.386058,115.75653,115.58653,116.19684,115.76708,5.3737097,0.7,-116.01656,-23.69546,0.0029912703,-373.11328,8.026479,7.761568,8.442472,8.505759,7.932704e-06,0.3,-27.27558,93.605,93.6405,93.72731,93.55977,0.1637964,0.4953125,0.10651183128356934,28.473894755045574
87,870000,1.0658495398612573,-96.85604,0.045914717,-0.16487697,0.4515624,-6.63493,31.224123,7.9167647,5.517366,116.69268,116.61603,116.44128,116.37091,1.4060669,0.7,-116.92646,-21.704071,0.0010249257,-905.6072,6.2119255,6.5944004,6.7115426,6.9987144,5.6735008e-08,0.3,-27.553513,95.39875,95.43431,95.25341,95.3371,0.08841401,0.45468748,0.10104870796203613,28.79163642724355
88,880000,1.100306700392294,-96.61616,0.04685852,0.9139616,0.5912558,-2.3858125,36.15377,16.49885,7.139678,118.24967,118.25807,118.473236,118.40011,2.8714151,0.7,-118.123695,-19.071693,0.00014156272,-307.26532,2.1600623,1.7460315,1.0012599,1.3974621,5.657785e-09,0.3,-25.68974,95.24821,95.16138,95.29419,95.267166,0.113211915,0.453125,0.10458230972290039,29.103546492258708
89,890000,1.0777195720155845,-95.1066,0.046212986,-0.37171203,0.6473377,-1.2587742,39.847256,13.736254,4.583397,118.88975,119.09969,119.28985,119.31505,5.926628,0.7,-119.063156,-24.113123,0.0012027902,-357.4173,1.3100045,1.4898646,1.1764296,1.2953043,3.1944364e-08,0.3,-24.77845,93.38941,93.37895,93.48253,93.50876,0.12239884,0.453125,0.10547661781311035,29.419042257467904
90,900000,1.1154821259807781,-94.40958,0.047044933,-0.14991693,0.6362718,-4.209979,37.78066,9.085865,5.914496,118.96647,118.33095,119.009796,119.31656,12.151938,0.7,-118.41591,-24.060926,0.001944121,-462.82523,4.1266785,4.4553604,3.7327938,3.6708581,7.986091e-09,0.3,-29.384357,93.13611,93.07846,93.23362,93.32745,0.17293796,0.42812502,0.1101677417755127,29.73545125325521
91,910000,1.0984082002088147,-95.35326,0.046747424,-0.16298658,0.4983473,-6.181027,39.32373,13.262266,4.916232,117.01311,116.98373,117.37303,116.999664,7.9508147,0.7,-117.12642,-27.309792,0.00027060614,-296.59415,7.05371,4.982127,6.817706,4.779312,4.192698e-08,0.3,-26.03327,93.9336,93.945984,94.116516,93.86005,0.13158964,0.51875,0.11416029930114746,30.051974781354268
92,920000,1.097512396514102,-96.907455,0.0458757,-1.2900239,0.8475751,-1.1570326,50.36372,47.356216,5.064047,118.32483,117.61773,118.14586,117.55484,3.290224,0.7,-118.33382,-23.989388,0.00070949463,-194.37213,1.0095818,1.2549595,1.1747606,0.38727635,1.4709076e-08,0.3,-23.403183,95.35253,95.31076,95.31498,95.316414,0.1393781,0.471875,0.11323165893554688,30.366961161295574
93,930000,1.083580767953141,-95.10755,0.045945972,0.26832774,0.51835245,-16.506718,30.115051,6.2634516,7.1982117,115.3206,116.11702,115.25931,115.17397,3.7557197,0.7,-115.69889,-24.509855,0.00014938705,-410.42023,15.806868,16.323812,15.078019,15.521302,1.678127e-08,0.3,-25.430027,93.69505,93.66887,93.52921,93.51921,0.09057912,0.50624996,0.1066889762878418,30.6817000468572
94,940000,1.0941676936078453,-93.53696,0.045118675,-0.57612926,0.63347983,-1.9937544,35.275154,16.360367,6.8564453,115.02532,115.059456,114.749916,114.722305,16.4378,0.7,-115.7823,-24.613607,0.0005697862,-432.7115,1.7243928,2.1625414,2.2509418,2.9102921,5.286886e-07,0.3,-25.918377,92.01228,92.150925,92.03569,92.06776,0.14523262,0.49531248,0.10950040817260742,31.00017744700114
95,950000,1.1078390080211957,-97.11507,0.04527146,0.24991746,0.32191813,-5.467563,42.220905,7.3855395,6.799696,114.77104,114.91007,114.76311,114.69064,5.008569,0.7,-115.01731,-21.203884,5.3244876e-05,-202.02457,4.63447,4.5994844,4.9425397,5.0509133,6.164366e-07,0.3,-22.85886,95.65422,95.667915,95.65915,95.59377,0.12373714,0.52656245,0.11026406288146973,31.312645705540977
96,955000,1.1037142741683448,-95.71035,0.04432983,0.25366688,0.8423243,-8.2092,31.876204,28.573189,6.9901943,118.826584,118.66937,119.16015,118.89223,1.5440475,0.7,-118.793816,-35.202793,0.0016402381,-251.02446,7.9820843,8.010601,7.1019297,7.2934647,1.9720755e-08,0.3,-25.012222,94.27043,94.312935,94.591415,94.511505,0.11844639,0.4671875,0.10640621185302734,31.473177687327066
97,960000,1.1024860558613547,-93.39487,0.046639815,0.58967644,0.7153516,-8.283553,46.41254,11.69095,6.0165987,116.55043,116.507965,116.64574,116.485146,3.456573,0.7,-116.846565,-27.792822,0.0021022023,-233.07672,8.495823,8.330534,8.560562,8.0988455,6.437302e-07,0.3,-27.810251,91.508316,91.45794,91.80887,91.6734,0.14538836,0.47499996,0.10504031181335449,31.631792791684468
98,965000,1.082694545942918,-94.86792,0.04499763,-0.59989923,0.67660034,-1.5844393,40.52719,34.67046,6.6673307,116.44598,116.50197,116.49723,116.550285,1.8189825,0.7,-116.73713,-18.601854,0.00010083808,-1162.154,1.6882277,1.8164566,1.1615819,1.5217273,1.8525753e-07,0.3,-26.794165,93.58785,93.54122,93.57295,93.642426,0.09440006,0.44375,0.10290741920471191,31.789401404062907
99,970000,1.0789382833638834,-95.473305,0.04468074,0.3348031,0.46045363,-0.8883672,38.03828,8.873341,6.4004726,118.20143,118.16126,117.911644,118.096214,9.432749,0.7,-118.40543,-22.288456,0.0007257877,-887.9761,0.7113449,1.6335689,1.2541293,0.2890039,2.1904708e-07,0.3,-26.344223,94.01788,93.92927,94.05481,94.13945,0.18341057,0.4296875,0.1081089973449707,31.94758592049281
100,975000,1.1198906887300115,-95.283356,0.048096478,-0.9799589,0.40328047,-3.274547,40.795586,8.134588,7.5696025,119.14024,119.18781,119.35825,119.07038,3.1400723,0.7,-119.35619,-24.315617,0.0006452296,-294.95813,3.3032196,3.4579372,3.4876192,3.6365247,2.6077032e-09,0.3,-23.065575,94.22529,94.26557,94.27464,94.16772,0.09910293,0.5125,0.10827517509460449,32.105564721425374
101,980000,1.087079668777706,-93.653854,0.04482562,0.88712883,0.9430292,-2.3411028,46.066692,14.551737,5.2338066,116.60698,116.763,116.40852,116.22784,8.045051,0.7,-116.86723,-23.989786,0.00029963406,-647.8158,2.468076,2.3797832,2.8808444,2.81811,2.3534521e-07,0.3,-29.464737,92.11372,92.11697,91.93338,91.91875,0.15418538,0.503125,0.10437631607055664,32.265443309148154
102,985000,1.1144125530126938,-91.77751,0.045112222,-0.7090434,0.6158246,-2.5544252,28.653322,20.840813,7.148713,117.042786,117.30102,118.06198,118.40673,1.2120497,0.7,-117.603264,-25.917128,0.00024210924,-572.2494,2.4725761,2.2638743,3.250097,2.69517,1.5716069e-10,0.3,-28.842588,90.54311,90.50064,90.6935,90.64392,0.0851866,0.46406248,0.1187288761138916,32.42847361167272
103,990000,1.1041276595797584,-95.26741,0.04513686,0.8517388,0.56933457,-1.1912013,43.74008,5.8485756,6.9632077,118.44136,118.534935,118.96055,118.93785,2.9096093,0.7,-118.45548,-21.742777,0.00057420984,-402.05997,1.18648,1.2831315,1.1694223,0.19460553,6.985902e-06,0.3,-30.78403,93.74914,93.70701,93.952866,93.9212,0.10790611,0.43125,0.10707616806030273,32.58908809820811
104,995000,1.110740904697908,-94.47966,0.045467712,1.1156667,0.5982603,-12.697065,34.545456,17.21881,6.7371926,116.09986,116.06025,116.10705,116.02787,6.0210476,0.7,-116.23791,-21.548075,0.0009037559,-416.19305,12.722232,12.835226,13.291501,12.297987,4.1953174e-07,0.3,-26.916739,92.8841,92.97261,93.09351,93.08382,0.11048575,0.434375,0.10987186431884766,32.74756175279617
105,1000000,1.0994622219430654,-93.17658,0.046482325,-0.5157068,0.6510532,-2.449865,28.822647,25.008686,7.0694265,115.62811,115.509575,116.128685,115.21176,2.9387379,0.7,-116.0192,-32.089092,0.0010503675,-225.1994,2.0855837,2.3792582,2.3874722,1.9787863,5.912036e-07,0.3,-22.789154,91.99681,92.0466,92.249435,92.1284,0.09535992,0.4234375,0.10988306999206543,32.90537012815476
