Xixo99/comfo/baselines/comfo6_perterbation_actor/20230225_noise0.01/hopper-medium-replay-v2/COMFO6_s2_20230224_233124_hopper-medium-replay-v2_101.54.csv
,step,reward,actor_loss,alpha,alpha_loss,critic_loss,max_actor_loss,max_alpha_loss,max_critic_loss,max_mle_prob,max_q1,max_q2,max_target_q,max_v,max_value_loss,max_weight,min_actor_loss,min_alpha_loss,min_critic_loss,min_mle_prob,min_q1,min_q2,min_target_q,min_v,min_value_loss,min_weight,mle_prob,q1,q2,target_q,v,value_loss,weight,eval_time,time
0,0,4.192655474447923,,,,,,,,,,,,,,,,,,,,,,,,,,,,,,,,,
1,10000,8.248824298319752,-29.6836,0.057460435,-8.78452,0.77775884,-3.3276484,17.036657,18.054552,8.137049,51.191563,51.387733,51.271904,50.323235,1.8678671,0.7,-50.40844,-23.376972,0.0005370468,-6.4542403,3.9798727,4.6125493,3.227581,2.874595,2.736378e-05,0.3,-0.6543221,29.521042,29.48322,29.686546,29.274467,0.1467554,0.4296875,0.8718574047088623,1.8385939399401348
2,20000,16.096035378341554,-47.80693,0.0037339837,-5.685644,13.760973,3.1480434,67.940765,2212.1108,7.188943,80.00473,79.90801,80.95985,79.948875,19.935377,0.7,-80.49555,-60.435,0.0034123,-12.446983,-2.4222445,-2.9580014,-3.5279603,-3.2743068,5.5350074e-06,0.3,-1.3173107,47.030853,47.032932,46.806465,47.12526,0.5123646,0.42499998,1.397348165512085,2.422422214349111
3,30000,21.84453844209413,-57.390762,0.0002392722,-12.974171,3.5003233,5.1761956,123.746635,248.71455,7.2714663,89.13062,89.595795,89.76717,89.72308,44.15158,0.7,-89.90042,-69.74525,0.004278727,-9.70207,-3.8265228,-5.907666,-5.169795,-5.910673,7.780436e-06,0.3,-1.6264241,56.74343,56.74955,56.585808,56.406456,0.849976,0.4765625,1.8667631149291992,3.0149757663408914
4,40000,24.74514415847912,-62.28609,1.49124135e-05,-4.7253814,5.496584,2.595511,178.95804,134.436,7.4348946,95.27282,93.896454,93.89577,93.98372,111.08283,0.7,-95.70322,-94.62607,0.011696397,-11.887227,-2.7706313,-3.4032505,-2.208737,-2.0681562,5.1487414e-06,0.3,-1.2667546,60.903255,60.78907,60.63202,61.574577,1.7547057,0.4125,2.090181350708008,3.6057469725608824
5,50000,33.71057856862747,-66.957634,9.635908e-07,-11.328139,3.3317513,8.104912,400.9731,132.18887,7.1740746,96.17175,96.19797,96.185555,95.182816,13.279122,0.7,-97.413864,-99.922966,0.00034456665,-9.453794,-17.931068,-17.875244,-18.802645,-19.44094,4.5264025e-07,0.3,-1.4396248,65.91623,65.86418,65.486305,65.66657,0.8322356,0.48593748,2.638578176498413,4.210879214604696
6,60000,39.33221615083335,-64.512985,6.57931e-08,-4.196389,5.3959565,1.0023429,422.63937,606.9681,24.020142,101.440025,101.531784,101.57635,101.26933,20.369698,0.7,-101.74583,-147.44998,0.00054485,-10.717964,-2.0075264,-2.1097186,-4.1554523,-4.4123263,1.776981e-06,0.3,-0.83469737,63.112667,63.223114,62.943516,62.78206,1.0840306,0.51093745,3.042304277420044,4.823279706637065
7,70000,51.546093300333496,-62.763695,4.5513504e-09,-7.456081,4.5178766,-0.7542676,338.5687,202.31488,5.952771,100.057014,100.40638,100.14471,99.95205,25.837044,0.7,-101.184044,-159.38924,0.0033236202,-11.158242,0.9557792,0.27392554,0.86313796,1.0924505,1.7357683e-05,0.3,-1.8649898,61.515022,61.516838,61.627,61.804638,1.0760226,0.4765625,3.8288333415985107,5.449130098025004
8,80000,38.45801650733886,-65.10983,3.4045722e-10,-4.4957275,3.600818,1.8342783,497.53036,76.803535,6.961611,102.207184,102.11332,101.78633,101.87475,70.56856,0.7,-102.88486,-187.64963,1.2987875e-05,-13.47971,-2.7985234,-3.2059586,-0.26696485,-5.176476,4.400569e-06,0.3,-1.4363855,63.922943,63.77175,64.189224,64.302475,1.1017337,0.4765625,2.7739877700805664,6.041784795125325
9,90000,41.151027492973505,-70.4445,2.9255282e-11,-12.73651,5.446149,0.60638297,509.53082,541.0579,13.596675,101.69501,101.92322,101.59804,101.72715,186.16235,0.7,-101.36034,-191.70448,0.0027824366,-11.593298,-1.0570924,-0.8863201,-1.3936846,-0.53777015,6.0580383e-06,0.3,-1.2842805,69.16707,69.088844,68.91046,69.240974,2.602746,0.4921875,2.7891998291015625,6.632349908351898
10,100000,81.96702426348955,-68.20024,3.0988192e-12,-18.569447,3.4533143,-0.40486482,763.9233,39.12213,6.544925,100.38322,100.06552,100.78583,100.81378,41.372334,0.7,-101.35509,-202.06018,0.00315525,-13.035476,-3.4490812,-4.2245646,-0.27404234,-1.6616399,4.9874075e-07,0.3,-1.1750395,67.123474,66.915794,67.60033,67.71199,0.6990509,0.39687496,5.928048849105835,7.277672668298085
11,110000,83.44079660028939,-66.479095,3.679656e-13,-3.1189566,6.9917603,13.0814085,766.10693,84.98034,6.624271,105.08304,104.843124,101.91114,102.72895,13.9732065,0.7,-106.07877,-281.86313,0.0061793993,-10.231512,-13.25529,-14.174868,-13.04302,-15.253307,1.4584687e-06,0.3,-1.4165304,64.80091,64.73525,63.772766,63.960724,1.021876,0.50625,6.782879114151001,7.945988686879476
12,120000,49.73218171250532,-66.69751,5.353845e-14,-2.4898303,2.70939,1.7788116,1182.1747,57.98925,20.516722,101.79775,101.64053,100.869316,101.0124,265.60928,0.7,-102.56918,-255.90504,0.0036391357,-12.204665,-2.5316489,-2.1648214,-2.658259,-1.3283291,5.482696e-07,0.3,-1.425662,64.77589,64.739136,64.78444,65.12814,2.4845185,0.4671875,3.8468315601348877,8.572367997964223
13,130000,18.638563830768334,-68.176315,1.2283055e-14,-10.755661,3.9135442,-0.6690023,784.80994,57.399323,6.6535397,101.63933,101.44946,101.131615,102.40187,38.502228,0.7,-102.84234,-273.7268,0.0002589827,-9.212693,-2.8792295,-3.098855,-5.002559,-1.181922,4.0344895e-07,0.3,-1.4460481,66.6164,66.3837,65.98993,66.391846,0.9135829,0.43125,1.737553358078003,9.165599942207336
14,140000,16.138977610639614,-70.064095,3.3669407e-15,-9.990406,2.8229792,-1.0986466,909.5783,169.45148,10.527064,102.73485,102.76843,102.75851,103.01126,39.85585,0.7,-103.40758,-265.76382,0.0019293064,-10.5984955,-8.525072,-8.596065,0.6440216,-9.600382,6.680964e-05,0.3,-1.3831418,68.54746,68.53177,68.67434,68.81326,0.89222425,0.434375,1.5674030780792236,9.753686181704204
15,150000,72.30654979562405,-67.215355,1.2442922e-15,-5.100154,2.7948835,3.6432345,984.94666,104.06804,7.286992,100.96078,101.09085,102.33285,101.802086,205.10812,0.7,-101.208466,-256.97833,0.0031970688,-10.768466,-2.7488217,-2.810917,-3.5253012,-3.9527462,7.944477e-06,0.3,-1.9655972,65.766205,65.649956,65.700195,65.94644,2.1071777,0.4671875,5.64526629447937,10.410039710998536
16,160000,60.49484219390007,-66.46243,6.487321e-16,11.304951,2.6300898,-0.3184898,626.42914,50.968918,7.986432,101.28663,101.39247,102.89988,101.52293,47.682137,0.7,-101.90229,-301.58603,0.00044863654,-10.808225,-1.0147761,0.7522335,-0.12534249,-0.7793406,4.195317e-05,0.3,-1.8364744,65.077065,65.112404,64.982925,65.16881,1.2729421,0.4828125,3.784637928009033,11.036635247866313
17,170000,41.91521699863791,-64.63788,3.20656e-16,-19.915565,3.0524871,4.3554764,972.914,76.92558,25.044426,101.491585,101.14534,102.44983,101.81949,91.99712,0.7,-101.59073,-360.59567,0.0046655256,-13.73267,-4.501952,-5.15876,-0.55550253,-3.6195576,3.014505e-06,0.3,-1.4638338,63.5456,63.538204,63.752403,64.11798,1.3398114,0.44687498,3.2045438289642334,11.651003177960714
18,180000,66.04007821958051,-67.91112,2.4394038e-16,-8.759867,4.098531,-0.7373537,1077.7018,53.419353,16.603088,102.78438,103.65323,102.26373,102.25631,37.936417,0.7,-103.197945,-328.13284,0.0045417612,-13.209075,1.0314684,0.06538674,0.569232,1.7329745,3.0146957e-06,0.3,-1.8756303,66.74655,66.63527,66.01077,66.166275,1.2488952,0.4921875,5.235062599182129,12.298850214481353
19,190000,34.18822165993096,-66.75731,1.7611702e-16,0.58162844,2.5284514,-1.483728,1554.7196,44.917427,9.477151,104.950066,104.580086,104.98171,105.69426,72.16972,0.7,-104.413506,-337.52646,0.0017681322,-11.536554,2.5501063,0.03146991,0.07890171,-3.927465,9.1786206e-10,0.3,-1.2908261,65.75312,65.66225,65.591194,65.53405,1.3383472,0.5390625,2.7439191341400146,12.907167597611744
20,200000,80.496483302899,-67.91314,1.7283387e-16,0.7801509,3.8684993,2.4005494,742.2205,90.49202,15.090516,101.7218,102.14163,102.772964,102.49645,56.045986,0.7,-102.50717,-350.66183,0.011148554,-10.398398,-7.940171,-4.260588,-12.570401,-4.172839,3.0674222e-05,0.3,-1.5769737,66.14686,66.298096,66.410324,66.666306,1.2185812,0.41718748,6.3794848918914795,13.575672181447347
21,210000,48.664473752964675,-70.410324,2.1368284e-16,11.462091,2.4263997,-3.6431608,1384.7421,43.832375,8.243019,103.1778,102.99625,103.29239,103.748985,25.502378,0.7,-104.47368,-298.98505,0.006259281,-19.449892,-6.5510864,0.46303937,-6.1451035,-9.3431425,3.989856e-06,0.3,-1.4984493,69.02984,68.94052,68.66124,69.54323,1.1965544,0.37499997,3.693920135498047,14.198736822605133
22,220000,66.01584660077812,-68.10034,3.4745326e-16,0.19940567,2.5144198,-0.23408777,1094.16,25.80294,7.3197417,101.77004,101.19186,101.57943,101.52995,171.65665,0.7,-102.188614,-376.68958,0.010034958,-16.596739,1.074933,0.7562206,0.96493334,1.7899076,5.341819e-05,0.3,-1.6152134,66.81147,66.66429,66.50081,66.757866,1.6589599,0.45625,4.97792911529541,14.844398804505666
23,230000,80.66734090710662,-66.580765,6.024583e-16,10.25897,4.3871183,6.0683374,845.76245,106.78908,7.85871,101.551094,101.82475,102.10089,101.801575,153.39201,0.7,-101.8168,-277.19708,0.00046719104,-13.481583,-4.492364,-3.1751356,-10.818048,-5.7501774,0.000102943464,0.3,-1.7392786,64.789604,64.759834,64.80493,65.018555,2.275645,0.4953125,6.036936044692993,15.506077746550242
24,240000,85.29206396012204,-66.95735,1.3651862e-15,-7.747613,2.490263,5.229369,1026.5896,27.932117,8.272114,102.328,102.55214,102.85786,102.904915,77.25826,0.7,-102.21627,-316.13287,0.00067881856,-10.715204,-7.1408463,-7.753069,-8.615654,-7.963933,4.776445e-06,0.3,-1.6794684,65.68814,65.65048,65.8675,65.949524,1.1193709,0.428125,6.0585668087005615,16.16565067768097
25,250000,91.36657198309399,-67.70205,2.9537866e-15,-1.8424287,3.0007997,2.257689,971.08344,77.897125,8.074984,104.021736,103.69816,103.645134,103.34388,166.13521,0.7,-107.66273,-257.6875,0.003992793,-9.541955,-5.0339537,-4.5664597,-6.2752075,-4.590697,2.1014288e-05,0.3,-1.5352418,66.09677,66.08632,66.07177,66.54213,1.801786,0.4375,6.999830007553101,16.843745330969494
26,260000,77.76921900625669,-66.384254,7.228387e-15,-3.6163797,4.010476,-4.552873,835.89526,116.64165,7.6227794,105.562935,105.32521,106.593704,106.48499,143.57512,0.7,-105.52329,-274.32224,0.0010868611,-10.203457,3.8187218,4.0582976,2.6866987,4.1510453,2.1269254e-06,0.3,-1.9458504,64.162926,64.23561,63.977974,64.847,1.9322679,0.39375,5.74196195602417,17.500388340155283
27,270000,93.72994365288434,-64.24642,2.363844e-14,12.148106,4.728383,-0.005867839,854.1397,453.05566,6.956033,104.02428,103.52944,102.512405,103.12413,54.18741,0.7,-103.83738,-307.00165,0.0015625665,-12.491529,-15.575914,-13.304944,-1.441485,-9.6607,1.478009e-07,0.3,-1.7446529,62.918926,62.763767,62.5905,62.519066,0.8401097,0.478125,7.3735246658325195,18.188430837790172
28,280000,103.52777938356343,-67.97162,8.477353e-14,-0.25443316,5.1602983,-1.5397227,1059.8843,158.25253,6.8138514,105.56935,104.70033,105.75154,104.423676,29.007393,0.7,-105.72407,-275.1402,0.0005073533,-14.8177805,2.3305328,0.3355049,0.7034392,1.683322,4.255788e-05,0.3,-1.5643926,66.648224,66.6552,66.01712,66.44122,1.0585421,0.43124998,7.3402321338653564,18.87728395462036
29,290000,96.18057765997976,-67.70505,2.5918913e-13,2.5603101,2.6840892,11.7326355,934.0671,44.755486,7.378814,103.35625,103.18734,104.23948,102.42801,19.922218,0.7,-103.63096,-256.36572,0.0020679117,-9.853846,-15.3595,-13.334048,-16.658312,-16.64051,2.7372223e-05,0.3,-1.6802855,66.28565,66.41733,66.1345,66.24049,1.0527661,0.46249998,6.837262868881226,19.5480619430542
30,300000,98.69199288617267,-68.651215,8.2394963e-13,5.918922,7.6237946,-2.7591352,641.58417,625.0177,6.064483,104.77389,104.32922,104.474785,102.711075,134.68993,0.7,-106.648415,-277.4103,0.001050072,-14.786557,2.8450289,3.0193176,1.1815122,2.1571608,2.590574e-05,0.3,-1.4576215,67.22095,67.05316,67.03789,67.03498,1.634925,0.46249998,7.4484405517578125,20.232860763867695
31,310000,79.80320393557638,-68.28946,2.4012136e-12,-4.2210183,3.8585162,-2.0170217,969.6615,168.34906,16.997835,103.15081,103.51023,103.169525,103.43373,315.678,0.7,-103.54876,-294.8349,6.0415943e-05,-10.450664,1.8713081,1.8886182,0.7706554,-0.11363676,1.08982206e-07,0.3,-1.5544723,66.96126,67.13197,66.88348,67.07004,2.275769,0.4875,5.684183359146118,20.88595013221105
32,320000,104.00469210376848,-67.599,6.0088735e-12,12.339214,4.210491,-1.8637474,842.73346,58.412575,11.34987,102.185616,102.3411,104.54491,103.457115,33.536736,0.7,-105.55778,-297.2503,0.0024158317,-11.576451,-8.107354,-13.07956,-8.061233,0.22920871,3.565873e-05,0.3,-1.2918499,66.1552,65.9731,66.50686,66.80531,1.0281224,0.4015625,7.1326820850372314,21.56231668392817
33,330000,66.79891480314457,-67.840096,1.4173614e-11,-7.358535,5.9136705,0.56937677,535.6415,217.12115,5.4450483,103.85786,103.9545,104.99066,104.62239,140.20963,0.7,-105.87145,-206.00703,0.0038816116,-14.812565,0.6845085,0.9481999,0.0255128,-0.32750234,2.7800154e-06,0.3,-1.6271876,66.63895,66.42686,66.39526,66.65248,1.7130661,0.42187497,4.609552621841431,22.19353531599045
34,340000,99.57553321769869,-65.02026,3.0273138e-11,3.1980658,14.840934,-1.2342086,852.6573,2962.4167,7.7074137,106.89176,106.34661,105.93846,106.469864,47.252193,0.7,-108.832245,-180.40065,0.006074329,-12.0183935,0.083777785,0.3309713,-1.0138339,-1.5942688,2.1367275e-06,0.3,-1.4193943,63.37846,63.453865,63.20984,63.6574,0.89359385,0.44375,7.28510856628418,22.872472488880156
35,350000,88.85537319574487,-67.576195,6.534428e-11,6.054171,6.825849,-0.2940303,1029.4316,293.7716,24.427574,101.63879,101.859955,102.83908,103.30322,141.62923,0.7,-103.87462,-180.94106,0.0013461245,-10.757739,-1.4739108,-3.554659,-0.5723779,-1.6916587,3.1023912e-06,0.3,-1.1933684,66.28967,66.28525,67.3474,67.3934,1.7925482,0.421875,6.31160306930542,23.533857087294262
36,360000,104.54785512779858,-67.35828,1.4686292e-10,15.705092,11.657995,-0.93460214,1253.3291,2257.546,17.66181,103.199394,103.72488,103.067825,102.91472,68.72053,0.7,-104.651436,-194.28958,0.0021361434,-12.700531,0.6305391,0.5570925,0.95633554,0.9451654,2.5503203e-05,0.3,-1.50843,65.80992,65.775055,65.51692,65.98639,1.3908241,0.42968747,7.281358003616333,24.214761296908062
37,370000,96.0083474228756,-67.013855,3.757909e-10,7.2285604,4.4269934,-2.4021,876.9051,348.58667,6.266477,102.71235,102.8285,103.79823,104.048485,22.933237,0.7,-102.6371,-145.11038,0.005006021,-11.699808,-12.613092,-12.64976,0.5683741,-10.835813,3.088906e-07,0.3,-1.4464619,65.59434,65.43248,66.01057,66.067245,0.87914944,0.43906248,6.848446607589722,24.88778403600057
38,380000,100.86522660335973,-64.23235,7.637164e-10,3.686084,3.1061473,9.789985,779.3968,83.85128,8.303117,104.209724,104.42422,103.55559,103.729195,44.34104,0.7,-104.69571,-224.12968,0.00017514854,-12.811324,-6.0596285,-2.4027994,-0.22532848,-9.131526,2.9068442e-06,0.3,-1.7072327,62.78625,62.844074,62.692436,63.129963,1.2072048,0.45156246,7.1865763664245605,25.5615616718928
39,390000,66.94311194825663,-67.97345,1.7926444e-09,-1.182023,3.7565832,-2.7409892,613.6165,96.592606,8.96581,103.26084,103.51328,103.90259,103.61287,21.659517,0.7,-104.96792,-204.72536,0.007146794,-10.500824,0.93790275,2.3595555,1.4472675,1.4180338,4.418119e-06,0.3,-1.2129624,66.49751,66.50261,66.52843,66.5603,1.0353613,0.44374996,4.956250190734863,26.19868964354197
40,400000,93.76972670977706,-66.58034,3.7473677e-09,-5.5584416,3.6687412,0.44387698,486.45602,68.60319,19.163477,107.45215,106.241875,107.14629,106.27992,91.89519,0.7,-107.32531,-160.19786,0.0017624742,-12.239864,-0.26320332,1.4287367,0.753305,-4.7369747,6.882747e-06,0.3,-1.4145012,64.75846,64.84095,65.0341,65.4111,1.8028854,0.421875,6.92739200592041,26.869525706768037
41,410000,97.5519594501035,-66.3239,8.067796e-09,7.9509287,3.3616257,0.07264395,476.49457,40.984787,13.790084,103.620674,102.5982,103.34664,103.77484,199.05989,0.7,-102.55434,-144.21867,0.00045737164,-12.668602,0.45309502,0.4041019,0.8207793,-1.5248549,1.5561283e-05,0.3,-1.4933081,65.0161,64.837585,65.0935,64.9175,2.2476492,0.50468755,7.145324230194092,27.544957439104717
42,420000,102.54248304242446,-67.62479,1.8834264e-08,-2.489273,3.4642298,-1.4503584,471.72537,144.22308,9.611272,103.2073,103.96108,102.814644,102.08902,184.22665,0.7,-104.56681,-180.5094,0.0012966275,-8.640158,-0.5866512,-2.9610803,0.8691403,0.73070765,4.056911e-06,0.3,-1.3502779,66.12926,66.2644,65.93607,66.10916,1.5858591,0.5078125,7.419215202331543,28.22644531329473
43,430000,101.91049923037441,-67.719696,3.4616942e-08,-10.671711,4.007011,1.1725166,582.89,152.96841,6.1329412,104.18641,105.41726,105.480354,103.589554,106.74548,0.7,-105.65599,-141.22449,0.0024354355,-8.709413,-0.8473083,-0.69582295,0.80366415,-0.5690628,1.0353397e-05,0.3,-1.1103389,66.39166,66.45927,65.70119,66.06148,1.4331745,0.4765625,7.2526679039001465,28.90790626605352
44,440000,98.73245148006572,-66.78192,8.224475e-08,16.45879,2.8386936,-0.5449043,686.53687,28.709932,12.963283,102.48072,102.16182,102.485825,102.09526,30.63731,0.7,-102.88333,-116.14084,0.002581171,-12.346124,0.77621347,0.8114334,0.80929554,0.48314136,1.0651322e-05,0.3,-1.7059295,65.34854,65.244095,65.09472,65.242676,0.9244545,0.43125,7.181517839431763,29.58591935237249
45,450000,100.19468024893126,-68.96188,1.9042388e-07,-1.0975665,3.3827815,-1.1998818,399.8894,41.941727,6.905536,103.86585,103.50917,102.87312,103.17257,218.22742,0.7,-105.40539,-125.62155,0.0029232844,-12.320611,-2.1210792,-2.1720638,1.0274231,0.62652934,5.8575573e-05,0.3,-1.1815453,67.411415,67.362915,66.997314,67.484215,1.6240432,0.40937498,7.259706497192383,30.262778409322102
46,460000,105.06898334968903,-67.698715,4.47732e-07,-1.4991605,3.36971,-2.3957944,392.9498,27.746279,7.443689,104.973694,105.75204,103.69062,103.3362,224.04964,0.7,-106.27926,-154.9238,0.0008108198,-11.097065,-3.034515,-1.0125842,-3.3052516,-4.8091483,7.3385314e-07,0.3,-0.93664676,66.23885,66.18848,66.50554,66.0832,2.9166648,0.48593748,7.199960231781006,30.942209311326344
47,470000,103.18303412409382,-66.99712,1.0365186e-06,-6.828426,3.0595994,0.07723868,476.17456,69.24159,8.648457,105.3425,106.21214,106.76508,105.59664,38.1289,0.7,-105.26035,-90.81201,0.00030519778,-9.69229,1.3372695,2.2253885,2.2788408,1.7285204,1.5726564e-05,0.3,-1.3885677,66.085556,66.00862,65.72197,65.8336,1.0564666,0.47656247,7.163836717605591,31.62322638432185
48,480000,103.41467106816305,-66.91923,2.5862537e-06,-1.6713958,4.0479136,-1.0360601,526.30115,29.588818,7.3544073,103.35821,103.42044,102.616585,103.04223,21.326408,0.7,-104.60221,-105.3933,0.009224402,-14.71234,-10.23699,-5.662672,-5.8466544,-1.9388897,4.7218055e-08,0.3,-1.2738438,65.50635,65.344154,64.953445,65.34436,1.0157386,0.48281252,7.318337917327881,32.303781775633496
49,490000,103.80215243616895,-65.763794,5.9494528e-06,-0.4716487,2.9745946,-1.8286517,302.06512,59.23703,10.838396,103.32576,104.82346,104.24945,105.71549,30.407942,0.7,-105.08562,-101.53098,0.004005962,-9.165227,2.2536974,2.3810875,2.820077,2.8889036,2.9093208e-05,0.3,-1.43451,64.501526,64.48291,64.75076,64.77492,0.9234298,0.4484375,7.35152006149292,32.985198299090065
50,500000,101.14040426858438,-66.095146,1.2599268e-05,-6.7337418,3.9626465,-2.3167756,225.16068,126.20273,7.794086,103.41665,103.27679,103.83589,103.60798,223.11308,0.7,-102.529686,-106.886795,0.006196391,-10.268053,2.444619,1.0194064,1.589098,-0.11580101,1.18813475e-07,0.3,-1.6327341,64.934006,64.87601,65.08234,64.48192,2.3644338,0.528125,7.239381551742554,33.66581068833669
51,510000,98.21818817066978,-64.95908,2.1151925e-05,3.4625118,3.316371,-3.550089,290.51093,81.71878,8.829808,105.6247,106.201065,107.31998,106.621185,66.03641,0.7,-106.51526,-97.16265,0.008799138,-8.708464,-2.0289774,-5.6963573,-7.0350556,0.4242121,1.2763511e-05,0.3,-1.4386239,63.323006,63.3752,63.28901,63.469784,1.2324651,0.4515625,7.24577522277832,34.34455132484436
52,520000,100.5141506449496,-67.181046,4.2637206e-05,-0.8932593,4.445303,2.6089659,299.7618,81.6196,19.062761,103.41743,102.55706,102.21699,102.91424,51.207123,0.7,-104.14927,-65.86891,0.00020777644,-13.544568,-4.0710526,-5.1047115,-2.615108,-2.5918787,0.00054215523,0.3,-1.033107,65.912056,65.778595,65.50081,65.74927,1.3233144,0.4453125,7.284258842468262,35.020779188474016
53,530000,94.8680916411153,-64.638016,0.00011631374,-4.400378,2.6881278,-2.2120261,278.19736,80.48633,7.3467455,105.8342,105.76058,105.87077,105.62781,25.703146,0.7,-104.99381,-73.5457,0.0011759403,-9.935337,1.2097094,-0.47312737,-1.4199293,-1.1072884,4.9301887e-09,0.3,-1.3424494,63.401653,63.470695,63.202805,63.601757,1.1112906,0.4328125,7.325662851333618,35.69998789230983
54,540000,101.94877178860881,-67.83696,0.00027644553,-0.3830917,3.2026215,4.1621003,247.08527,63.240208,6.2927723,106.25445,106.27962,106.61371,106.871025,184.33565,0.7,-107.582596,-71.55284,0.0031946632,-10.514232,-7.5504065,-8.811775,-4.8340535,-5.478681,4.758197e-06,0.3,-1.4634372,66.77967,66.61153,66.61072,66.675705,1.4844304,0.45468748,7.425214052200317,36.375297045707704
55,550000,99.70253533353628,-64.69534,0.00060786156,-2.6555486,5.624423,-1.96963,178.3003,106.66216,8.996307,104.519035,104.24878,106.300575,106.282814,51.16234,0.7,-103.7218,-61.25442,0.0061076544,-15.62214,-0.6964042,0.36267638,-0.16458087,-0.5235829,5.3208323e-06,0.3,-1.5920067,63.560883,63.639973,64.12602,64.35035,1.577218,0.396875,7.741006135940552,37.057721209526065
56,560000,100.72893348777869,-66.43138,0.0009226807,3.321856,3.7377293,0.41703245,241.42712,87.34535,8.508576,104.02514,103.84144,102.52122,103.00798,165.69278,0.7,-103.600235,-66.51797,0.015590138,-8.625621,-2.5893626,-3.2118733,-2.7830675,-3.5805354,1.2058783e-05,0.3,-1.8087237,64.7763,64.707855,65.085266,65.55498,1.9256508,0.43593746,7.394705057144165,37.734961179892224
57,570000,104.9474704143893,-65.99704,0.0014235036,-0.5820309,2.5964231,-1.4810231,133.78873,45.585434,5.651901,102.87125,102.63532,103.07966,102.84557,43.582924,0.7,-103.668144,-50.70317,0.0018419411,-10.499194,1.4872298,1.8320482,-1.7762194,-0.843255,1.0870648e-05,0.3,-1.6687299,64.73866,64.79059,64.95284,65.032166,1.052781,0.45,7.435209035873413,38.40934780041377
58,580000,100.6122046661929,-68.236275,0.0018047517,-1.2015891,2.753847,-2.1701577,214.65929,33.507256,5.019979,104.69562,104.90415,104.775856,104.726,25.761482,0.7,-104.5965,-50.835987,0.004666366,-11.583194,-0.67444813,-0.7989473,1.2736398,1.2293222,3.882083e-06,0.3,-1.5351756,66.99246,66.93715,67.065704,67.376,0.8993141,0.4453125,7.586485862731934,39.08807277282079
59,590000,102.08255603592598,-65.68041,0.002024796,0.93377954,6.1059933,-1.6187459,253.26794,553.5432,14.04529,104.76375,104.73155,104.8348,104.78645,284.7498,0.7,-105.7087,-58.851013,0.0008996689,-14.713446,-5.6671996,-4.7924767,-5.8745575,-5.4011226,5.436047e-07,0.3,-1.3673313,63.88143,63.947556,63.71424,63.94715,2.3585637,0.446875,7.593337774276733,39.77281943162282
60,600000,102.37323369972515,-65.448654,0.002088586,5.325963,3.915928,0.33438063,169.03177,78.90468,8.2220545,102.934425,102.66306,104.07178,102.55724,28.671282,0.7,-103.21064,-55.52762,0.0025462897,-15.4038315,-7.37482,-7.927857,-6.0357876,-6.082145,1.8485763e-06,0.3,-1.6675177,63.9216,63.90795,64.20282,64.12237,1.2966483,0.4890625,7.976127862930298,40.461086889108024
61,610000,99.06733376379933,-68.22342,0.0020327163,3.6324694,3.7204936,0.0097031,195.10022,68.87482,7.084418,105.22967,105.282524,104.365166,104.25478,65.79123,0.7,-105.70603,-58.14603,0.0054760897,-10.938287,-3.1194654,-4.7084346,-5.3039846,-7.2946777,5.205791e-06,0.3,-1.4629905,66.70906,66.574844,66.28627,66.45488,1.0196967,0.42812496,7.513328313827515,41.14050413767497
62,620000,104.118561292093,-67.73656,0.0020630232,-1.8803823,5.975181,-2.05146,105.57945,358.9157,14.966497,104.604805,104.49531,103.75253,103.78357,46.82405,0.7,-104.84102,-55.392086,0.014427703,-9.69602,2.5521712,2.0953467,0.06148553,0.34348035,2.3136847e-06,0.3,-1.2209253,66.815674,66.732994,66.18019,66.32457,1.0427969,0.46406248,7.747267484664917,41.82435347636541
63,630000,98.57929458683915,-64.98386,0.0021676132,1.9847004,2.6993656,9.362389,164.42204,70.839516,8.0458765,102.72218,102.15608,102.84507,103.705086,33.010963,0.7,-103.25013,-51.911007,0.00028741406,-14.776453,0.1515286,-1.5476501,-2.1413066,-1.9909596,7.300991e-05,0.3,-1.8565168,63.232384,63.074303,63.40206,63.837517,1.1327847,0.3828125,7.349216938018799,42.503738180796304
64,640000,99.66893639336027,-65.97625,0.0018730136,1.977329,3.3244314,-2.528531,168.5206,95.4046,10.811018,103.99208,103.361374,103.319176,104.557144,124.70006,0.7,-104.43328,-49.871605,0.0061579444,-15.358812,0.41266346,-0.93134046,-0.7782424,-2.9828103,3.2664323e-06,0.3,-1.6057091,63.871048,63.91391,63.917362,64.463326,1.6084232,0.4296875,7.270405054092407,43.18246132135391
65,650000,100.50425150088415,-67.75783,0.0017079137,-0.040920556,3.3381639,0.9075553,138.7062,58.551567,9.482573,104.77256,104.778786,105.135155,105.3885,118.897,0.7,-105.78423,-61.87106,0.00051236735,-9.408076,-5.3313165,-5.7380967,-3.8279765,-5.57774,5.784212e-05,0.3,-1.0919063,66.161575,66.27113,66.056145,66.40113,1.5105796,0.434375,7.178605556488037,43.85592946608861
66,660000,103.9767301449517,-66.70613,0.0017082631,-1.7332132,3.6140685,5.691903,153.99112,144.66843,25.558126,103.07689,103.86226,104.28754,104.17347,85.8526,0.7,-103.46426,-54.09333,0.0034071826,-13.060784,0.7296765,0.5696005,-1.1692411,-1.6547762,5.3045613e-05,0.3,-1.2982273,65.00633,65.063614,65.027664,65.43762,1.4517581,0.44375,7.271623134613037,44.52819172143936
67,670000,99.05935840922253,-66.3722,0.0014543574,0.013011456,3.59171,7.5769377,178.83313,50.2054,9.307874,104.52486,104.62424,104.48672,104.91294,244.33125,0.7,-107.71826,-54.148964,0.0006172839,-12.790201,-1.7109637,-2.296217,0.049447134,-4.0254426,2.2919266e-05,0.3,-1.6093864,64.662796,64.72067,64.62685,65.03459,2.283667,0.45468748,7.2675135135650635,45.204839793841046
68,680000,103.811095106956,-67.22174,0.0013706795,-2.9340522,3.023757,-0.29302186,146.47997,136.4205,13.099781,103.724754,103.86848,103.33363,103.135994,270.0234,0.7,-104.20608,-64.477516,0.0077317534,-12.749283,1.2338932,0.819058,1.0710133,-0.04959029,6.0446724e-05,0.3,-1.093581,65.784065,65.69972,65.53845,65.670456,2.4468553,0.51874995,7.630836725234985,45.887336095174156
69,690000,103.95674557232199,-66.21289,0.0015714768,0.51885843,4.1971397,-3.9541998,189.16425,179.51793,10.081417,104.19961,104.203804,103.79923,103.3856,66.32284,0.7,-104.81347,-63.530636,0.00035718124,-10.924337,-2.942008,-2.8802404,-2.1051443,-0.075152785,1.3296294e-05,0.3,-1.5605215,64.84831,64.84071,64.819,64.69165,1.2992333,0.4609375,7.233637571334839,46.56663903792699
70,700000,98.56488644284643,-67.99721,0.0016285373,-3.4226263,2.730464,2.1035647,147.25131,117.87047,6.8701715,104.2751,103.91598,104.75222,104.32193,54.939854,0.7,-104.996735,-63.316895,0.00024655863,-10.609637,-1.8029541,-1.657654,-7.2297363,-1.4043872,1.5462534e-05,0.3,-0.8621605,66.664276,66.631134,66.65874,66.77161,0.9585074,0.421875,7.520330905914307,47.24384020964305
71,710000,102.06258203988116,-65.637924,0.0017250837,1.2988589,4.0379624,1.3073075,150.87,95.11868,28.436562,107.241394,106.48186,105.42077,105.5221,29.18076,0.7,-107.794266,-50.617287,0.00031512842,-11.658165,-3.2759798,-2.167947,-1.4675778,-2.0969837,5.0466045e-09,0.3,-1.3454438,64.10605,64.10034,63.777557,63.88562,1.2965957,0.4875,7.191165208816528,47.92023002703984
72,720000,100.2538324877036,-66.77324,0.0018933966,-3.0359445,3.717507,-0.7601936,156.10931,247.4324,10.523984,104.221535,104.46989,103.94173,104.64452,109.81802,0.7,-104.702385,-48.436985,0.0027180929,-10.596921,1.8805051,1.1757576,-0.26735035,-0.3051277,8.003478e-06,0.3,-1.1364992,65.434494,65.35723,65.27176,65.72043,1.6478779,0.409375,7.2781901359558105,48.59753473997116
73,730000,100.09102035920749,-65.75065,0.0020530752,2.9804118,5.179308,-2.155959,230.78908,103.05173,8.534378,104.39523,104.51635,103.23944,103.21506,114.34843,0.7,-104.13064,-42.03962,0.00022344582,-16.23656,0.7429402,0.86918515,-1.3880026,-1.4837557,0.00011426218,0.3,-1.3452879,63.78345,63.680523,63.251186,63.761944,1.8153151,0.4703125,7.243812799453735,49.272438589731856
74,740000,103.49305642011907,-63.725983,0.0019193726,2.7927265,5.713042,3.7367866,199.64919,287.44385,34.81192,105.36819,105.74849,105.59533,105.72516,56.008728,0.7,-106.23016,-58.665512,0.01032869,-16.404448,-2.8365445,-1.1313031,-1.7153552,-3.844128,7.498817e-06,0.3,-1.3927865,62.516808,62.59812,62.24035,62.21042,1.3852909,0.4765625,7.1550681591033936,49.946913707256314
75,750000,102.23431046528788,-66.21629,0.0018539765,-3.1687918,2.7636774,-0.29281804,170.14572,62.34404,8.201511,106.150635,106.45245,106.07475,106.2102,49.67589,0.7,-106.90368,-51.02141,0.003368924,-10.622089,-1.3830023,-1.7951155,-1.2725946,0.90730226,2.9602159e-05,0.3,-0.9969419,64.9891,64.87575,65.112175,65.31453,1.211795,0.41562498,7.299157619476318,50.623286271095274
76,760000,102.11734108391259,-67.36551,0.001868432,0.7057,3.6829216,10.815367,169.3441,72.905945,32.121666,103.13734,103.21301,104.23237,103.92743,32.162167,0.7,-104.84815,-43.882137,0.0021582828,-25.059786,-5.065659,-2.8782883,0.751452,-4.743357,1.0678615e-05,0.3,-0.96693164,65.90302,65.94186,66.176704,66.18732,1.1838429,0.465625,7.282199144363403,51.30216397047043
77,770000,102.98732292206923,-65.3398,0.0019231848,3.4715357,3.3586574,-1.1767888,181.46251,105.828354,8.087184,104.97622,105.118774,105.11333,105.25776,21.563938,0.7,-106.1127,-53.453815,0.00066315464,-10.836831,-1.9394188,-2.9516363,0.9699686,0.3576479,8.4489585e-07,0.3,-1.5223331,63.9028,63.85192,63.872734,63.894478,0.8315636,0.453125,7.278206825256348,51.974513391653694
78,780000,101.04834526334376,-68.42306,0.0018585465,-1.3291433,2.8515315,-5.2697363,181.72372,35.165833,22.563547,104.73556,104.19457,104.004974,104.40388,42.08894,0.7,-104.26786,-59.910877,0.00104118,-13.756525,1.7205591,0.019297719,3.4673693,6.7559958,9.944415e-05,0.3,-1.2390707,67.25847,67.364815,67.13967,67.25155,0.8057772,0.4390625,7.237048864364624,52.65747492313385
79,790000,102.2283186091568,-67.992325,0.0019325735,0.47694063,2.8014884,0.87793994,203.18648,36.003857,10.092966,104.447266,104.73912,104.27837,104.81436,23.647871,0.7,-104.75719,-43.75237,0.010940588,-10.465393,-3.8674004,-4.2060695,-5.62606,0.3972153,1.5200739e-05,0.3,-1.3629739,66.60538,66.53368,66.84216,66.85576,0.8613739,0.4578125,7.18706750869751,53.328907366593675
80,800000,100.79139477730423,-66.649796,0.0020285272,2.315763,3.8734336,-2.155167,200.07141,63.32525,8.737993,104.02662,103.1523,104.461525,104.69729,55.333954,0.7,-103.66286,-61.368877,0.0009888608,-21.868902,1.5975155,1.3245364,0.8650854,0.47570777,3.5037618e-05,0.3,-1.1928127,64.90302,64.95062,64.51483,64.77376,1.3737578,0.48593748,7.309973955154419,54.00607688426972
81,810000,102.01459115669866,-67.73453,0.0021412047,-2.4884186,4.783852,-1.3242186,134.63438,253.41083,7.276166,104.36448,104.39578,102.99835,102.88197,280.49707,0.7,-104.76301,-46.183273,0.009279377,-14.493231,0.55158514,0.07209784,-0.23354502,-2.4916883,4.7036624e-06,0.3,-1.071463,66.25606,66.32131,65.78164,66.220184,2.4105177,0.47968748,7.163176536560059,54.681605299313865
82,820000,101.40600617649636,-66.257065,0.0022520823,-1.2972767,2.9091945,0.6206283,134.72275,110.04836,6.206476,106.15196,105.50291,105.54812,106.80997,147.18198,0.7,-105.62918,-50.896595,0.0014067518,-12.274705,-0.24530798,-0.04391271,0.7702008,1.4781791,3.062784e-05,0.3,-1.7337813,64.78046,64.73075,65.046486,65.23717,1.6276122,0.38906246,7.232837915420532,55.35807737906774
83,830000,102.5066898848321,-65.016556,0.0021217326,1.6283426,3.544787,-1.2945716,167.93797,67.02108,7.101896,103.17823,102.92994,103.53521,103.929085,214.53105,0.7,-103.97517,-42.546494,0.0030049426,-10.57222,1.8254485,1.5949795,1.2856036,2.313586,2.5977715e-06,0.3,-1.4103063,63.35063,63.505264,63.957375,64.04489,1.9408993,0.4453125,7.216586589813232,56.03055052757263
84,840000,101.93902543211814,-67.524826,0.002228062,-0.6930605,3.30298,7.702489,107.6115,135.69077,17.663776,105.4226,104.88165,104.94304,104.5433,363.85852,0.7,-106.84827,-55.976852,0.013744144,-11.01017,-7.2251606,-9.163728,-0.7636269,-5.9806457,3.1840707e-05,0.3,-1.0441015,66.14766,66.030075,66.2186,66.48696,2.4062843,0.4234375,7.175464630126953,56.707356230417886
85,850000,101.4591999422412,-68.75567,0.001939388,-0.6709203,2.8528385,-0.63432324,149.40549,119.643875,7.242853,102.73784,102.93925,104.167046,103.12166,32.519604,0.7,-103.78413,-57.817486,0.008051656,-10.075211,0.710847,1.0026606,1.8854239,1.9575286,3.5908703e-05,0.3,-1.3519645,67.404366,67.38657,67.686066,67.60512,1.119252,0.47031248,7.275843381881714,57.38298572301865
86,860000,103.04907038460442,-70.410385,0.001695097,-3.4538734,3.9941788,3.8433027,98.7047,76.43306,6.8487387,105.64464,105.297066,104.32583,104.427216,21.065878,0.7,-106.22296,-66.76649,4.9135793e-05,-12.111344,-0.35027587,-0.8714191,-0.11421797,-0.14259118,2.4874036e-05,0.3,-1.5402734,69.405914,69.189674,69.53569,69.71874,0.9757227,0.4296875,7.396888017654419,58.060721361637114
87,870000,103.35170868008309,-66.361855,0.0017073681,3.1985922,3.9617343,0.33864293,154.19763,61.93432,10.638529,103.04769,102.90605,103.82642,104.34548,33.604553,0.7,-103.923546,-53.178707,0.0006698203,-11.169025,-1.4840903,-1.1525753,0.57445705,-5.457686,3.4030934e-06,0.3,-1.0885286,64.91589,64.92441,65.30124,65.236664,0.9910767,0.440625,7.40203332901001,58.741698094209035
88,880000,100.80089632161334,-66.51888,0.0014669155,-0.31404874,3.3970098,-1.6955835,136.05594,78.79701,7.357377,104.37426,103.92583,103.489136,104.49976,26.287737,0.7,-106.43594,-48.16124,0.0053894613,-14.211106,-1.9105747,-3.542418,-2.99521,0.56585455,1.4685793e-08,0.3,-1.3642778,64.95602,64.95584,64.925674,65.22926,0.9123787,0.41718748,7.279393672943115,59.41498308579127
89,890000,100.70787320229961,-67.96628,0.0013564486,-3.273481,2.9654222,0.85630584,213.3625,45.91852,9.209574,104.23414,104.09718,103.627525,103.221886,18.20923,0.7,-103.673615,-54.40897,0.0010234432,-13.89191,-3.9186864,-0.77345693,-2.3635855,0.5212462,3.940932e-06,0.3,-1.387846,66.51199,66.45712,66.343,66.654236,0.9799588,0.48281246,7.2673020362854,60.09181173245112
90,900000,102.44496565785828,-65.24521,0.0013608774,1.4655374,3.7330115,-1.8728921,173.7263,47.752308,13.83482,104.61989,103.91642,105.36321,105.60636,469.13663,0.7,-104.03485,-67.39305,0.0027232585,-14.627454,1.6528909,2.9804683,-0.08475204,-1.7922974,1.0515378e-05,0.3,-1.7718003,63.69063,63.550808,63.01915,63.18714,3.0173934,0.48125,7.6509926319122314,60.781849006811775
91,910000,101.23308287305224,-64.8122,0.0011912952,3.7794418,2.792295,-7.412562,205.37434,60.202354,8.977978,104.28419,103.97588,104.61805,104.70324,16.651915,0.7,-105.2354,-48.932465,0.0001848246,-11.084351,1.011803,-0.9934202,-5.3848743,-4.3452,1.8525753e-07,0.3,-1.5297682,63.095688,63.018307,63.268555,63.352043,0.81869066,0.4546875,7.813565731048584,61.464743669827776
92,920000,101.18155097689684,-67.95555,0.001185821,1.7655032,3.871198,-5.514019,219.83696,70.61736,16.162973,106.84084,106.51586,105.7833,105.51711,38.112698,0.7,-106.80423,-54.534008,0.01509162,-12.837502,-14.905251,-17.170244,-15.349064,-10.21919,2.4026884e-05,0.3,-0.9299382,65.93692,66.14537,66.18133,66.28903,1.0926249,0.40937498,7.422093391418457,62.14098896185557
93,930000,101.46037620672664,-66.290886,0.0011402318,1.5776656,3.4275718,0.061095417,280.60544,43.39412,7.2584963,104.02322,104.38584,104.887695,104.68874,51.604347,0.7,-106.803406,-54.763165,0.0041896217,-14.4627905,-0.8020371,-1.5545717,-2.5678015,-3.266693,3.229827e-07,0.3,-1.5837466,64.46979,64.44293,65.010666,64.9981,1.2297426,0.43124998,7.778014183044434,62.82462464570999
94,940000,101.4738040530399,-67.92392,0.0011879931,-0.55341244,3.4961128,-0.5142987,255.77141,81.78693,8.844576,105.17064,104.64221,104.933304,105.684654,45.876816,0.7,-105.37573,-49.782166,0.003994548,-11.7795105,-3.8782852,-3.095321,-0.226362,0.031425416,1.0430813e-08,0.3,-1.3902891,66.39398,66.42113,66.68497,66.66093,1.1493161,0.434375,7.85686182975769,63.509181304772696
95,950000,100.79269168158855,-66.89179,0.0012174705,-1.7959882,3.8906932,1.8998847,216.71574,82.84613,10.133656,103.09465,103.371376,104.465996,103.86164,17.057608,0.7,-103.551125,-57.461094,0.0010429114,-12.625116,-3.0360284,-1.7838128,-0.71269727,-1.8103673,4.403545e-05,0.3,-1.2190793,65.44437,65.44821,65.28316,65.708725,1.2444309,0.46249998,7.769936800003052,64.19004386663437
96,955000,100.6609326953815,-66.18831,0.0012860757,1.9088011,5.8860035,-5.0370135,194.49193,409.18506,6.75529,107.687355,106.73159,109.284355,108.630066,341.26715,0.7,-108.755455,-51.91773,0.0013105972,-10.678062,-2.5992188,-1.8588516,-8.059729,-7.8720794,5.1060456e-06,0.3,-1.3528296,64.44348,64.336334,64.82403,65.27784,3.1335883,0.4328125,7.559561729431152,64.59383225440979
97,960000,103.14700994351043,-64.90778,0.0013357303,1.8432344,2.6839461,-2.6416526,151.26907,39.69838,8.073017,103.01249,102.85516,102.71046,102.85695,317.42804,0.7,-103.406364,-55.924137,0.00071384833,-10.778485,2.3270988,0.41662145,1.3111019,0.9788157,7.5403674e-05,0.3,-1.382317,63.436287,63.385605,63.10504,63.15001,2.1567874,0.4890625,7.526095151901245,64.99632309277852
98,965000,102.42204571274848,-67.673294,0.0013295816,0.44632852,4.5953646,-1.4603927,155.2797,125.117386,9.0624485,104.92807,104.93711,105.09112,106.53201,329.9366,0.7,-108.00672,-55.628708,0.026334219,-12.918965,2.0028503,0.33988667,-3.9156282,0.05757326,3.1716597e-06,0.3,-1.093454,66.38736,66.103226,65.72465,66.15121,2.4168282,0.465625,8.05136513710022,65.40831564267476
99,970000,101.67915862801107,-67.85408,0.0013010208,-4.0879927,4.284381,10.928332,93.9803,87.41872,8.140465,105.51399,106.15277,107.38605,107.137764,51.619423,0.7,-106.28008,-56.28388,0.00060034107,-13.263398,-3.2558346,-8.118489,-1.9101208,-3.4113846,1.5410915e-07,0.3,-1.1701415,67.03297,66.94621,67.353645,67.3799,1.1701015,0.42812496,7.5582005977630615,65.81164818207422
100,975000,100.90332719047699,-67.465,0.0012711232,-0.13925958,3.3817942,1.6792905,180.95381,141.89204,6.5521946,104.91451,105.414604,105.086655,105.29809,34.4497,0.7,-106.48161,-57.3538,0.00027987483,-10.031515,-3.1145434,-1.5796131,-1.3260266,-1.7950673,4.7945345e-05,0.3,-1.4155693,66.24932,66.1924,66.3107,66.408936,0.9378303,0.41562498,7.484663724899292,66.21185150146485
101,980000,101.13685961183911,-65.39098,0.0012801866,0.6592288,2.9437983,0.46362814,187.33344,27.966667,9.808578,104.926056,104.10431,103.624626,103.764206,64.002754,0.7,-105.677444,-68.315926,0.0015422015,-16.082005,-2.8195508,-2.610027,-0.18264854,-4.698997,4.3830546e-06,0.3,-1.470179,63.444733,63.4861,63.154037,63.432667,1.3001972,0.440625,7.874319314956665,66.61961531639099
102,985000,101.92700643985305,-67.39683,0.0012149443,-0.97093,3.5655482,-1.4533007,168.14304,83.718796,21.94741,104.398766,103.81566,104.81383,104.91351,13.744078,0.7,-104.776596,-62.1283,0.0025693378,-9.710861,-1.3086083,-0.9590399,-2.9034348,-1.7427016,2.0022311e-05,0.3,-1.148693,66.03415,65.82901,66.0563,66.22403,0.8658887,0.4734375,7.838418006896973,67.02777919769287
103,990000,100.73156565712804,-65.12201,0.0012409242,0.5699233,4.1296144,-5.038164,227.31537,106.41202,21.132671,105.52121,105.31043,104.8942,105.76183,65.77844,0.7,-106.45151,-57.388565,0.00017469219,-11.086489,-0.89691734,-3.3422117,0.6995915,0.8096484,2.8431696e-05,0.3,-1.383607,63.950996,63.659954,63.187218,63.6635,1.2176944,0.44062498,8.110909223556519,67.43975338538488
104,995000,101.44470819405652,-66.59569,0.0012682154,-2.7826495,3.389054,2.9716024,185.29077,49.822876,7.5371737,104.18286,104.57351,106.41054,105.181595,86.89934,0.7,-104.48795,-50.151634,0.015835114,-10.812905,-1.1308298,-0.5814085,0.45814452,2.031048,1.3055221e-06,0.3,-1.0995055,65.379364,65.40413,65.71976,65.88286,1.1810653,0.428125,7.785982370376587,67.8478365023931
105,1000000,101.3471234167992,-65.49077,0.0012638622,0.5112141,2.6499567,-0.8539804,182.12973,52.75653,12.960966,104.493324,104.55694,105.79214,105.380035,47.219757,0.7,-104.71865,-62.56055,0.0025240628,-12.75396,1.0720894,1.1032255,-0.17886013,-1.0516876,2.9354126e-06,0.3,-1.5693923,64.242645,64.08502,64.09932,64.27681,1.0719649,0.48125,7.3231987953186035,68.24403928518295
