Xixo99/comfo/baselines/comfo6_perterbation_actor/20230225_noise0.01/hopper-medium-replay-v2/COMFO6_s1_20230224_222359_hopper-medium-replay-v2_96.51.csv
,step,reward,actor_loss,alpha,alpha_loss,critic_loss,max_actor_loss,max_alpha_loss,max_critic_loss,max_mle_prob,max_q1,max_q2,max_target_q,max_v,max_value_loss,max_weight,min_actor_loss,min_alpha_loss,min_critic_loss,min_mle_prob,min_q1,min_q2,min_target_q,min_v,min_value_loss,min_weight,mle_prob,q1,q2,target_q,v,value_loss,weight,eval_time,time
0,0,5.215427669963779,,,,,,,,,,,,,,,,,,,,,,,,,,,,,,,,,
1,10000,19.046903166067978,-27.611141,0.057290837,-8.050788,1.4308009,6.79664,21.38786,98.41873,22.963135,54.257633,55.25596,55.432793,53.579597,5.439805,0.7,-54.663097,-21.499342,8.989705e-05,-9.116021,-5.96393,-5.781504,-3.4614594,-6.4890738,4.2183927e-07,0.3,-0.73724055,27.300013,27.305105,27.424284,27.13776,0.1590837,0.4421875,1.518991231918335,1.861288853486379
2,20000,19.32187600712767,-47.342567,0.0037235662,-6.327401,1.6078763,4.053355,64.172104,46.4739,10.814231,76.77426,77.13336,76.910034,76.71148,12.998905,0.7,-77.47691,-45.695004,0.0015934375,-8.905793,-2.2234137,-1.0763446,-2.9210243,-5.1612144,1.3769791e-05,0.3,-1.0830861,46.67682,46.63766,46.828888,46.56304,0.48909616,0.4265625,1.6965479850769043,2.444530948003133
3,30000,23.577401622360487,-57.946507,0.000223831,-6.199438,4.644717,-3.6995153,158.65388,59.14095,13.170652,88.85298,89.26282,90.26429,89.78293,93.13197,0.7,-89.31766,-55.58369,0.0013135618,-14.995809,-0.7149646,-1.002675,-0.2441282,-1.768904,1.616038e-05,0.3,-1.4905288,56.929585,57.000214,57.795647,57.818893,1.0869784,0.41875,1.875309944152832,3.0333832263946534
4,40000,24.400919344405246,-63.79277,1.35309065e-05,-0.90313554,2.9938726,1.4902174,347.75757,168.55032,8.563268,94.62382,95.10721,94.756676,94.86499,117.17476,0.7,-95.54818,-91.68592,0.0013588597,-13.496598,-0.4697134,-0.6814095,-1.2246188,-1.6715201,2.45624e-05,0.3,-1.3452046,62.604057,62.57718,62.775482,63.02151,1.0953418,0.41875,1.9549787044525146,3.6177700042724608
5,50000,33.0184245859374,-64.27287,8.4939893e-07,-7.192563,4.1420107,5.0872164,291.85648,145.67828,8.1717205,98.454865,98.21592,99.741806,99.31297,37.137455,0.7,-99.399895,-175.2564,0.00050131796,-21.204561,-4.4542594,-4.171677,-2.9180799,-3.628303,3.656272e-05,0.3,-1.4264581,63.034683,63.119045,63.420326,63.399292,1.1987896,0.48125,2.407231330871582,4.214609730243683
6,60000,41.32311370668824,-65.2684,5.422646e-08,-12.206694,2.8466654,-2.6325197,345.364,65.581375,6.6312814,100.18297,100.60935,100.52725,100.60407,29.9109,0.7,-101.55054,-191.55403,0.0018699982,-9.491062,2.849428,2.158722,0.889792,0.9629886,1.3522805e-07,0.3,-1.3754328,64.421524,64.51257,64.59206,64.53491,0.9478632,0.46406248,3.063365936279297,4.823741380373637
7,70000,40.69699140941313,-64.6747,3.714796e-09,-15.305524,4.4465795,3.202076,401.5464,192.50577,21.157663,101.37969,101.36813,100.246796,100.71607,32.95653,0.7,-101.90388,-164.06587,0.006759011,-11.522764,-5.011365,-4.0590677,-4.2731953,-3.9925144,8.654595e-06,0.3,-1.5778451,63.91674,63.83343,63.583786,63.8787,0.85941654,0.47812498,3.1373724937438965,5.434745653470357
8,80000,43.785318742745304,-69.31007,2.7409258e-10,-7.084813,5.045575,-4.649051,447.70337,277.7115,7.751365,101.06936,100.802284,100.76546,100.411316,87.778496,0.7,-101.24101,-208.6411,0.0058433604,-16.349308,4.1975217,3.789613,1.4068575,3.526733,4.906108e-06,0.3,-0.99979174,68.38718,68.28793,68.29732,68.4308,1.2265517,0.4265625,3.534503221511841,6.049412457148234
9,90000,99.09573062602351,-67.082085,2.3059556e-11,-0.10359025,2.7993693,7.9004107,495.9112,30.068274,9.482298,101.04946,101.08916,101.38466,101.000305,30.821804,0.7,-101.80336,-267.82666,0.0031023505,-10.025002,-6.337166,-7.1424484,-7.718877,-9.30941,0.00016824604,0.3,-1.7778181,65.720535,65.69224,66.154366,66.07791,1.2152934,0.44375,7.259405851364136,6.7272049268086755
10,100000,85.11023186531746,-69.18743,2.1342216e-12,-14.120893,3.8539577,-0.10174298,688.92816,164.04425,7.8240376,101.776596,101.534164,100.916916,100.13342,86.61203,0.7,-101.46381,-196.73985,0.005725556,-18.162516,1.8156269,-0.81451106,2.368933,-0.5031502,1.3522805e-05,0.3,-1.6433024,67.86034,67.96924,67.99648,68.039246,1.044586,0.44375,6.104820251464844,7.381368923187256
11,110000,85.18129203922568,-64.64306,2.2107676e-13,-7.5142126,4.958661,7.09077,804.9832,274.4227,9.9418335,100.21039,100.02141,101.16054,102.019775,36.793346,0.7,-100.78467,-322.20297,9.700889e-06,-10.462043,-15.892338,-17.833254,-28.536251,-12.951319,2.5348447e-06,0.3,-1.7015653,63.360367,63.224323,63.53296,64.095764,0.97385734,0.41562498,6.316553354263306,8.045999495188395
12,120000,58.38517549402591,-67.00375,2.4206765e-14,-9.702276,3.299457,-0.04008192,906.00024,45.727238,7.5583916,102.258995,102.76749,101.162,101.29989,24.878204,0.7,-103.275505,-261.109,0.0044020275,-14.237816,-3.192126,-0.3870542,-3.9372451,-2.1317122,1.754769e-06,0.3,-1.0823243,65.79941,65.85512,65.07982,65.19153,0.96837527,0.5203125,4.057864665985107,8.672383610407511
13,130000,100.7259946810936,-68.86679,3.0752035e-15,-14.915641,4.841133,-2.2206464,538.55804,139.90178,9.740965,101.39591,101.444664,101.761536,101.85828,37.34004,0.7,-101.61187,-261.94223,0.0015149883,-11.473729,-0.6269946,2.5825336,4.3570423,3.9269302,4.5955358e-06,0.3,-1.590762,67.46755,67.49438,67.66795,67.87837,1.3697256,0.44843748,7.2647387981414795,9.354197637240093
14,140000,85.48311334313878,-66.69,5.4845876e-16,-6.840767,3.8389082,-2.9444394,792.06366,54.549538,6.670404,102.20581,103.395386,102.069595,101.80992,171.88074,0.7,-103.05357,-251.8409,0.0059015388,-10.623024,-1.8163065,-0.44668734,0.22757836,0.10566178,2.5300587e-05,0.3,-1.5697436,65.07775,65.11998,64.942276,65.21931,1.3706329,0.4765625,6.126899480819702,10.01411674817403
15,150000,78.73188535807515,-68.21254,1.5263069e-16,-8.078952,2.5886884,-1.8029891,850.8906,62.743095,9.01227,100.84683,99.92978,101.49394,100.695206,183.73236,0.7,-101.8572,-314.59082,6.0022343e-05,-9.8053875,0.65850365,0.26349577,0.90140975,1.0267771,1.28551155e-05,0.3,-1.2287606,66.90253,66.84152,67.06695,66.89932,1.3872782,0.49999997,6.100182294845581,10.673808201154072
16,160000,71.54490167268575,-69.76533,5.7811984e-17,-8.177488,4.468311,2.4749274,893.6245,173.88779,7.0805283,103.41062,103.508644,103.200294,102.778595,35.502144,0.7,-103.61442,-360.0631,0.00375667,-11.91908,-1.7475902,-2.068705,-0.89974105,-0.7222834,5.554534e-05,0.3,-1.7512546,68.273,68.10686,67.92748,68.43508,1.1981678,0.44062498,5.731537342071533,11.317995524406433
17,170000,40.44591805965015,-69.58571,3.751379e-17,-2.122907,5.651483,2.0496216,1104.3419,145.79971,6.2628474,103.87769,104.060776,102.93006,102.75807,17.048239,0.7,-104.4237,-338.79672,0.022149596,-13.212439,-3.3996315,-3.760435,0.9457863,-7.54439,2.7934368e-05,0.3,-1.917208,68.2923,68.23576,67.521576,67.600426,0.971833,0.48125,3.187610149383545,11.927537612120311
18,180000,73.54958677842161,-68.046326,3.546495e-17,-4.215328,3.2316232,3.4872684,823.59814,74.37966,7.4091015,102.39109,102.3286,102.68359,102.88746,41.408554,0.7,-102.97622,-407.37003,0.0020478559,-10.345587,-4.2199063,-4.487052,-8.730554,-4.963487,1.0850555e-06,0.3,-1.5177083,66.61517,66.5215,66.63487,66.647125,1.2206424,0.45156252,5.820902109146118,12.577486364046733
19,190000,72.57994243649702,-67.43201,4.47195e-17,2.3115141,3.5266242,3.615254,1577.7661,65.6523,5.4755597,101.5708,102.01725,102.52218,102.875374,150.73776,0.7,-101.71299,-326.3982,0.019710539,-14.848482,-3.2815762,-4.82507,0.3688804,-4.0688004,1.4144462e-07,0.3,-1.4506936,65.96675,66.05792,66.615555,66.74651,1.4715136,0.415625,5.5851967334747314,13.227923731009165
20,200000,68.15174846482462,-67.83162,7.07026e-17,17.939407,6.503186,-1.3076278,1147.1263,63.493126,25.541803,104.26921,104.373474,104.19501,104.62512,18.554344,0.7,-104.298546,-296.37387,0.009242713,-11.136816,0.8095207,0.43361133,-0.26318744,0.11618319,1.18813475e-07,0.3,-1.5659344,66.49066,66.51829,67.59231,67.50621,0.8779804,0.39374998,5.133556127548218,13.868260375658672
21,210000,78.23996265664367,-66.70946,1.2951622e-16,-1.2858081,4.553485,2.472385,897.74554,133.99504,7.2562256,103.63686,103.864624,104.13912,104.14234,145.76134,0.7,-104.62273,-346.01712,0.005883114,-13.272394,-6.7022085,-6.2368393,-8.501439,-4.084278,1.9016444e-08,0.3,-2.022911,64.94775,65.033905,65.1587,65.58018,2.444353,0.40625,5.9443089962005615,14.523568940162658
22,220000,45.598181525296745,-67.0225,3.1404517e-16,-2.2150245,5.9032016,-1.5701543,1285.9124,88.0651,6.58552,102.242905,102.56713,103.459274,103.30942,114.8409,0.7,-102.2837,-340.82913,0.0046517784,-9.330456,-2.297213,-0.6642766,-0.6208971,-0.13530207,1.7742814e-05,0.3,-1.5244442,65.44357,65.467255,66.5181,66.700424,1.3686252,0.4296875,3.602945566177368,15.14096470673879
23,230000,80.2779851210655,-66.67653,8.966883e-16,11.678263,3.6673727,0.3635286,954.31,63.753105,8.418705,105.0604,104.75058,103.19356,103.0291,50.263935,0.7,-106.22819,-269.7309,0.0017620102,-11.066929,-1.1545992,-0.26535186,-3.4666743,-3.6445537,1.1187699e-05,0.3,-1.5125026,65.209076,65.40036,64.923065,65.03795,1.2630216,0.52187496,6.076310396194458,15.798386267820995
24,240000,88.62733635706628,-67.780914,2.7654419e-15,6.345484,5.031765,-0.283382,941.4233,153.28333,13.6531925,103.14198,101.98996,102.861115,103.365036,77.2831,0.7,-103.17754,-302.15164,0.0030228596,-13.111568,-6.108429,-6.6863565,-0.62650347,-6.897078,5.5776326e-07,0.3,-1.6445447,66.356895,66.19123,66.10216,66.18953,1.0479093,0.47031248,7.002227544784546,16.468405103683473
25,250000,71.77508347572696,-66.43858,1.11045215e-14,3.5751557,4.646146,8.745686,675.9469,117.39526,7.5155706,104.82208,104.36681,104.8137,105.40235,42.17061,0.7,-105.16385,-308.1867,0.0002402002,-12.439918,-4.026948,-3.1115606,-2.6270251,-7.529513,2.0785043e-05,0.3,-1.5258018,64.82609,64.79423,64.0079,64.34187,1.2036195,0.528125,5.601386308670044,17.11784682671229
26,260000,98.78233568825334,-66.76656,5.373477e-14,11.2781725,5.7351294,-2.3745873,991.0263,252.05722,6.576628,103.54657,103.6162,103.544106,104.042946,19.211283,0.7,-104.363335,-234.32053,0.0012355655,-8.48565,-0.07782522,0.10731435,0.62572837,-0.16715977,2.212025e-06,0.3,-1.460547,65.34691,65.27854,65.285904,65.68623,0.8869639,0.43906248,7.166008472442627,17.79132403930028
27,270000,69.47432594467047,-65.85173,2.6762284e-13,-9.96407,3.4156923,-2.7807574,805.16156,81.01172,6.741453,102.66934,102.810555,103.86689,103.60312,39.2967,0.7,-103.30845,-286.3303,0.0127482135,-10.497251,2.2677927,3.4839416,0.955663,-0.90101445,1.8887222e-05,0.3,-1.2882795,64.69852,64.92592,65.030914,64.87991,1.0668817,0.45468748,5.094081163406372,18.43716245094935
28,280000,94.44555201971369,-66.50332,1.4073477e-12,7.4236336,3.452799,1.4482944,951.0163,82.825615,6.585187,103.79635,104.58572,104.64489,104.40927,55.89389,0.7,-105.768745,-249.36118,0.0040305797,-14.610863,-0.60529745,-1.3476998,-0.27634913,-0.5630985,8.071948e-07,0.3,-1.7978966,65.34508,65.42508,65.296616,65.431046,1.6166259,0.4671875,7.095657110214233,19.11705620686213
29,290000,83.85044423194459,-69.17673,7.461224e-12,14.562028,3.51298,0.08497685,1208.3752,115.23928,10.691236,102.651184,103.08857,103.47553,103.775505,239.69777,0.7,-103.41911,-217.6324,0.0052429326,-15.231487,0.07521182,0.12909761,0.95978165,0.12591583,4.739984e-06,0.3,-1.0156914,67.43417,67.406845,67.78169,68.0567,2.2441335,0.421875,6.144815683364868,19.776875428358714
30,300000,55.55646016620038,-65.198425,4.4251443e-11,-1.5929832,4.6382775,-1.8668352,542.1945,165.78177,9.112826,103.95465,104.61761,103.72404,104.183945,190.62012,0.7,-104.233635,-216.41524,0.00035871298,-20.232649,1.2420788,1.0171273,0.9293309,0.50402665,1.7003691e-05,0.3,-1.8872327,63.494816,63.582985,63.327568,63.75216,2.4390929,0.4734375,3.946606397628784,20.400655786196392
31,310000,90.4916076430019,-68.81506,2.8418934e-10,18.248415,2.981924,-2.6748927,850.0126,60.003693,7.3766994,104.43142,103.694046,104.160164,104.30527,44.931118,0.7,-105.1659,-183.46567,0.0015242614,-12.7484865,-2.0014257,-1.8095778,-1.7339925,-0.23266438,5.673384e-07,0.3,-1.80577,66.78128,66.886284,66.73372,66.92999,1.2635101,0.41875,6.563194036483765,21.0709792137146
32,320000,87.46368932514831,-65.23276,1.8381263e-09,2.6590908,2.254271,0.031205475,756.8204,29.959114,20.063177,103.63917,103.69536,103.54027,103.52956,43.60803,0.7,-104.01729,-152.96455,0.0010965581,-11.270042,-0.16190735,-1.3547492,1.1906221,1.4157238,8.829123e-06,0.3,-1.5443492,64.10525,64.06328,64.184555,63.947765,1.5101998,0.465625,6.411412954330444,21.734604609012603
33,330000,76.98606370466652,-67.2518,1.2434947e-08,1.5745014,3.0170321,0.42154974,505.25772,94.05026,7.894496,104.90384,105.0177,105.74333,105.43963,119.853294,0.7,-105.14666,-130.88675,0.004951727,-10.884011,-1.3340951,-1.794873,-2.9877288,0.9753159,2.4165029e-06,0.3,-1.4700216,65.74302,65.773895,65.65572,65.70148,1.3747988,0.45156246,5.598256349563599,22.384689668814342
34,340000,69.58788049996343,-69.91286,8.320502e-08,15.493973,3.3624873,-1.0626078,690.7732,62.020447,6.722881,103.71714,103.96994,103.70576,104.11442,48.12247,0.7,-104.32274,-118.379974,0.0011887008,-9.674077,0.31223702,1.690227,0.599702,1.1446874,2.8544937e-05,0.3,-1.3923368,68.05829,68.15556,67.89873,68.20724,1.0468812,0.4375,4.92918848991394,23.029236022631327
35,350000,63.02650901554898,-66.07863,5.5862836e-07,-5.58845,4.891133,0.14756298,472.9231,104.37976,7.6429176,102.878,102.60315,103.159164,103.68901,124.80028,0.7,-102.44602,-116.08439,0.003613056,-9.974632,-5.547226,-3.852499,1.4350187,2.231391,3.182504e-09,0.3,-1.5382081,64.6391,64.67348,64.7527,64.735146,1.6922783,0.46249998,4.728201150894165,23.66836374203364
36,360000,43.61454809809911,-67.01297,3.7051389e-06,5.7860794,3.8687315,1.1952786,803.2033,97.15138,15.93782,103.13328,103.70368,103.59089,103.64712,97.63657,0.7,-103.76494,-99.13703,0.007062991,-11.421145,-1.1112952,-0.31625384,-1.4912616,-2.1225774,1.12304406e-07,0.3,-1.481734,65.62277,65.7564,65.97353,65.99683,1.4860106,0.43906248,3.37325382232666,24.28461250066757
37,370000,80.45534106439078,-66.065186,2.6537746e-05,0.38211048,3.6226997,-1.266606,309.93753,173.42761,8.136173,103.18699,102.96747,103.09035,102.99777,137.42642,0.7,-104.743675,-92.14314,0.0017908588,-10.117174,2.1100738,1.7872958,1.1011966,2.5364654,2.1391315e-08,0.3,-1.533221,64.65187,64.50166,64.63605,64.662796,1.5691515,0.45624998,5.898351192474365,24.941888066132865
38,380000,92.51696812385812,-67.13542,0.00017637273,4.5126047,3.6033034,-2.6247945,281.4859,173.6484,11.56729,101.71505,101.883,102.324776,102.04366,122.5304,0.7,-103.52196,-82.796,0.0021626947,-20.84802,-0.07843357,-0.3879218,0.07092118,-1.2086211,9.167707e-09,0.3,-1.6060892,65.67345,65.56438,65.732544,65.77168,1.3984706,0.45,6.725168228149414,25.612727844715117
39,390000,89.15406371492142,-69.6393,0.0010778232,-2.5708413,3.4111047,0.03503436,101.81844,56.748497,7.385338,103.01351,102.763374,102.45203,102.59301,75.61863,0.7,-103.64045,-48.418644,0.00047337782,-11.9112215,0.3012517,0.8450717,1.0710133,1.2014973,1.0958872e-06,0.3,-1.2579803,68.51521,68.6232,68.19217,68.27174,1.1994548,0.4453125,6.687674522399902,26.279758497079214
40,400000,84.02555020602667,-67.64929,0.004603508,-0.27024484,3.1184578,-1.0894365,127.28949,69.79431,7.068602,102.47255,102.966805,103.20092,103.37344,56.003765,0.7,-102.74305,-45.314926,0.0057466514,-9.293663,-2.944891,-3.980482,-0.5682429,-2.3178153,4.991307e-06,0.3,-1.5777625,66.31661,66.33793,66.07787,65.76263,1.4091932,0.53749996,6.294248580932617,26.944676065444945
41,410000,91.78801628503675,-67.44428,0.0071100085,1.227294,16.08676,-2.8459618,127.69179,3330.5708,7.9999027,103.16853,103.24286,102.72473,102.75465,178.61311,0.7,-105.0136,-36.902267,0.0057060374,-9.427069,-0.33386344,-1.4503956,-0.42414153,2.2971513,9.725802e-07,0.3,-1.6701478,65.47823,65.49122,65.00362,65.70242,1.7827252,0.4578125,6.758811950683594,27.612445259094237
42,420000,81.55080256342497,-68.32284,0.006063771,2.8814354,2.8412933,-0.343246,151.90323,65.03263,33.858498,104.14979,103.36847,103.92606,103.30257,64.79227,0.7,-103.364845,-35.310658,0.001309599,-9.72839,0.7892843,0.3562222,0.3920383,-0.51869977,1.66893e-07,0.3,-1.4679362,67.06994,67.17747,67.18072,67.073105,1.019712,0.4734375,6.052830457687378,28.273898760477703
43,430000,69.15223938160744,-67.813354,0.0056386017,-0.59481704,3.1102376,-4.5593987,166.57404,74.70124,5.6304493,103.19156,103.27968,103.567314,103.94705,31.343729,0.7,-103.82347,-44.90922,0.00038000534,-10.780495,4.940335,4.593857,3.200766,3.4002864,3.3003744e-07,0.3,-1.5333912,66.52901,66.52831,66.564026,66.54483,1.2084088,0.4671875,5.061941146850586,28.91726444164912
44,440000,90.87515186696638,-67.808685,0.006087826,0.5687245,3.9306307,-5.2027597,171.3724,77.398384,10.524815,102.847206,103.216225,103.881546,102.75461,360.1006,0.7,-103.19393,-53.71226,0.003231758,-12.84616,2.1741366,1.0198691,-2.7763577,4.7016225,4.2614297e-06,0.3,-1.655414,66.70851,66.6718,66.690125,66.72106,2.4770713,0.4890625,6.952988147735596,29.591889051596322
45,450000,82.45577756185436,-66.55613,0.006110659,1.5603708,3.7555628,5.695634,126.697,47.26612,6.8521156,102.14573,102.68748,102.44599,102.397224,30.975868,0.7,-102.62479,-38.162014,0.00331862,-8.856455,-4.374366,0.40770262,0.74943435,-5.3039618,1.4383521e-06,0.3,-1.3808492,65.16252,65.34646,65.42837,65.29181,1.2795863,0.47656247,5.984316110610962,30.251468483606974
46,460000,72.29575902583719,-68.40589,0.0060385033,-1.6851865,3.7516358,2.0313108,127.33549,65.99689,6.2837667,103.15,103.3246,103.72932,104.26657,22.466026,0.7,-104.68347,-51.08721,0.001641915,-11.991786,-3.757009,-5.0385194,-2.057801,-0.64092493,7.6065774e-08,0.3,-1.3531401,66.79734,66.94736,67.27937,67.36106,1.1335276,0.45937496,5.41755747795105,30.899315762519837
47,470000,85.46757786564481,-65.29481,0.00577376,0.112097144,3.5050097,-1.8541372,161.53412,108.51658,8.661701,102.42059,102.39634,102.52326,102.57491,51.254845,0.7,-102.4895,-47.644,0.0023600871,-12.935649,-6.3346367,-6.894102,-4.050908,-13.599115,9.9836325e-06,0.3,-1.3819174,63.32985,63.32766,63.417877,63.587624,1.1877472,0.47499996,6.413599729537964,31.565176514784493
48,480000,78.41656415161809,-64.048004,0.0056539453,-0.9713931,3.9249177,0.9055594,243.83887,61.54851,17.55114,104.86498,104.46791,104.93006,105.559586,16.148825,0.7,-104.64473,-43.544044,0.0029063616,-10.835178,0.452106,-0.8011331,1.1947466,1.8539897,4.2098286e-06,0.3,-1.4947208,62.818954,62.79111,63.165546,63.527634,0.9087285,0.38593748,5.849773406982422,32.222370032469435
49,490000,65.52703358563228,-67.04886,0.005548889,-0.9181715,3.3572817,4.6469,106.50583,177.54477,6.280416,103.48859,102.928566,103.654236,103.70611,29.814,0.7,-104.07198,-40.61304,0.0019189743,-17.0778,-5.870227,-6.894736,-7.31746,-5.854745,3.277499e-07,0.3,-1.7180059,65.52826,65.50398,65.745605,65.90716,1.1936095,0.45937496,4.76871132850647,32.8629486600558
50,500000,89.37499157934103,-67.10834,0.0050630285,0.3228835,2.754829,-0.2641275,105.01838,78.918365,8.116411,104.78304,105.493576,105.55933,105.54211,118.7945,0.7,-104.37254,-36.021774,0.005487961,-10.882921,-0.020609438,0.075218976,0.9142271,0.54478997,4.487128e-05,0.3,-1.4953709,65.32275,65.4389,65.24487,65.89526,1.6739722,0.40781248,6.477480888366699,33.52636174360911
51,510000,63.98750157977277,-67.26839,0.0051472127,0.19958591,5.6395206,-2.2552795,85.694336,769.65,13.91364,105.432175,105.68671,105.39296,105.80899,46.271507,0.7,-105.397896,-41.234665,0.0005474525,-12.253211,1.7168803,1.3543057,1.1168846,1.6634909,3.876805e-07,0.3,-1.3696086,65.89438,65.993256,65.83858,66.026146,1.3031044,0.45468748,4.704498529434204,34.164872634410855
52,520000,74.812471738624,-66.7143,0.0056758467,-2.999311,4.552157,-1.5606523,134.52107,145.57338,9.189032,104.482895,104.494,105.00973,105.16878,53.046814,0.7,-105.004425,-42.53973,0.005721825,-13.938473,1.7525871,1.8571429,1.2133399,3.305149,0.00015342831,0.3,-1.1119976,65.42186,65.50633,65.556625,65.752106,1.2106941,0.44843748,5.47577977180481,34.81745267709096
53,530000,64.83039668396651,-66.81409,0.0061083925,0.47205222,2.9450579,-0.5304978,175.70894,36.233307,9.756179,106.79891,106.96073,106.02998,105.34924,29.842623,0.7,-106.07568,-41.327457,0.0044891452,-10.433314,-0.9073326,-0.635194,-3.9071424,-1.469512,2.2179373e-05,0.3,-1.674267,65.01436,65.01053,64.40957,64.820595,0.8704621,0.4515625,4.811785697937012,35.45808634757996
54,540000,80.46805364116494,-67.058235,0.0055463756,2.2835972,3.0448067,-6.0035987,362.99612,48.860046,9.117655,104.383514,104.02149,105.438416,104.507675,50.72437,0.7,-104.62299,-48.858555,0.0038752137,-12.892845,6.180184,5.274488,5.3637495,5.879734,1.1513662e-05,0.3,-1.505917,65.81823,65.68061,66.17384,66.09938,1.3196595,0.4375,6.058582544326782,36.1195324420929
55,550000,74.87416144638644,-64.23864,0.005767222,1.7543006,4.4790373,3.9781146,183.31694,213.29599,10.273722,104.50881,104.67983,104.03366,104.27883,91.58474,0.7,-105.82535,-37.244194,0.007751918,-15.907598,-7.1740456,-8.825055,-0.63450575,-11.878486,4.803883e-06,0.3,-1.8604231,62.60495,62.542633,62.478172,62.804066,1.736383,0.4515625,5.485060453414917,36.774655282497406
56,560000,75.31542759058576,-69.71631,0.005557357,-0.7677878,2.7251785,5.073448,155.8783,55.872192,7.2943263,105.29993,105.747154,107.37201,105.82544,28.365702,0.7,-106.19977,-48.680412,0.010325713,-11.609952,0.7759148,-1.8729873,1.7097107,-3.9088247,5.879949e-07,0.3,-1.3583453,68.259186,68.285255,68.49513,68.64225,1.0542874,0.4421875,5.511911630630493,37.423441310723625
57,570000,85.95643575898337,-67.23485,0.0050568255,0.38639295,4.2639046,-0.93889236,146.84134,110.33499,6.149047,104.86772,104.33483,104.937675,105.087135,128.86052,0.7,-105.974365,-46.93431,0.00086502475,-11.127672,0.41076088,0.6450096,-0.5157765,-0.9540696,3.6386626e-07,0.3,-1.180523,65.33924,65.31514,65.45596,65.572586,1.8116359,0.4703125,6.576760768890381,38.09409150679906
58,580000,81.05494336815903,-67.908165,0.0049032746,-1.325721,3.1949394,-0.28030333,128.26956,60.33076,6.5545297,103.95552,104.31325,103.67838,103.30389,26.180244,0.7,-103.686066,-44.903202,0.00023507728,-9.2110615,0.29462975,0.45240837,0.92514616,1.2215037,4.9051596e-06,0.3,-1.0611951,66.50406,66.67111,66.76117,66.6532,1.0006316,0.4609375,5.905013799667358,38.75277807315191
59,590000,53.940074994132914,-67.08879,0.0051022447,-0.70875025,4.815194,-3.3395884,144.373,97.93761,12.792905,105.63605,105.21786,106.31603,105.82953,164.69946,0.7,-105.24247,-45.77242,0.0014593208,-17.855942,2.5933442,2.2661386,0.9450607,0.40425876,3.1355304e-07,0.3,-1.5624185,65.57997,65.625015,66.09474,66.42331,1.8051422,0.4234375,3.8466594219207764,39.37491028706233
60,600000,94.60240591587079,-63.28821,0.0050196555,-1.670611,3.127332,-1.5586973,148.47229,82.9873,9.415328,104.8281,104.06285,104.47466,104.452545,99.4378,0.7,-106.15839,-44.43526,0.0013134769,-11.581612,-0.94453686,0.36971587,-0.25848982,-3.0151935,8.287648e-06,0.3,-1.7594098,62.042564,62.040707,62.00299,62.211487,1.3463749,0.45156246,7.559293031692505,40.063887453079225
61,610000,84.71746180294984,-65.526794,0.004885917,-0.017367214,2.9308076,-3.2602153,119.467606,42.88614,7.100953,103.21156,103.42342,102.641785,102.61491,234.40576,0.7,-103.3827,-40.918846,0.00022604899,-10.25663,-6.4636164,-6.802029,-9.395275,-4.805746,1.6839314e-05,0.3,-1.300809,63.701744,63.837242,63.686043,63.953556,1.8270521,0.45,6.403665065765381,40.73388529221217
62,620000,83.0189600190023,-66.80032,0.0047653285,0.687438,5.6662474,-3.3977227,121.42471,53.086525,7.1367555,102.86403,103.75908,104.43412,104.09398,141.0871,0.7,-106.55851,-49.909576,0.0019150461,-12.397791,-13.337123,-12.452901,-12.122445,-17.5243,5.1019753e-05,0.3,-1.615386,65.02548,65.07425,65.88382,65.897736,1.6504104,0.46406248,6.18517804145813,41.39664979378382
63,630000,69.89728876965417,-67.463425,0.004599493,-1.911452,2.4094982,2.2173085,115.69084,27.891344,12.08753,104.48561,104.333206,105.07347,105.33531,266.71854,0.7,-105.93975,-51.928513,0.0021913475,-14.934382,-3.7112937,-1.938297,-2.8496027,-2.6059175,1.3944082e-05,0.3,-1.663396,66.086266,66.221306,66.002686,66.543564,1.8973999,0.421875,5.182872295379639,42.04228654702504
64,640000,84.90254511739276,-65.32181,0.0046162377,-1.8938508,3.5137846,0.41690618,173.06374,101.893936,6.6409273,102.530106,102.7296,103.40398,102.92237,80.79747,0.7,-103.325066,-50.127083,0.003322308,-12.984777,-2.067354,-1.1926479,-0.127482,-0.22681117,8.146611e-05,0.3,-1.7890587,63.512093,63.69072,64.067276,64.34381,1.5089388,0.38906246,6.710692405700684,42.71524046659469
65,650000,91.1397845687678,-64.60178,0.0045172977,3.461539,6.7041874,7.4458904,156.40524,666.24475,8.285834,104.74015,104.8952,104.55901,105.07313,101.91555,0.7,-105.675095,-42.943672,0.0002408163,-11.823644,-5.6357627,-4.8335643,0.29364502,-6.4894032,1.2191379e-05,0.3,-1.6205943,62.52053,62.53208,61.823105,62.197617,2.1503744,0.4859375,6.760482311248779,43.383703124523166
66,660000,86.86487777748579,-67.089714,0.004416222,3.8937287,2.9165187,1.1488807,204.42798,83.852905,6.3683343,103.237404,103.41152,103.48872,103.04845,38.216465,0.7,-104.37857,-37.237625,0.00083396817,-12.171145,-3.6629772,-3.0044882,-2.3516252,-2.4688401,6.4218357e-06,0.3,-1.3239119,65.52323,65.54799,65.245186,65.15654,1.1841305,0.5046875,6.494043588638306,44.04795432885488
67,670000,51.29073459568529,-66.187386,0.0043735784,1.4655012,2.9048886,-0.77908015,188.59377,71.4631,4.7264986,105.97186,105.333664,104.75007,104.369576,62.4437,0.7,-107.50888,-47.031,0.0016745222,-10.704176,1.3865342,1.4268534,1.2911093,1.5261185,2.0539737e-07,0.3,-1.9147725,64.93239,64.92682,64.91278,64.903534,0.79398495,0.4546875,3.7139925956726074,44.66859461069107
68,680000,86.80114798857822,-65.30609,0.004284276,-1.4928619,3.4520788,-1.7662914,369.797,99.508286,8.252195,104.39773,105.22542,105.230415,105.23933,33.530098,0.7,-105.06716,-46.101936,0.003840413,-10.175439,-0.9066083,0.9236078,0.20717514,-2.3411627,3.824942e-07,0.3,-1.2472241,64.083244,64.19131,64.1523,64.44935,0.9660185,0.403125,6.6230833530426025,45.332263386249544
69,690000,82.68419363383931,-63.53426,0.0043021133,0.55932415,2.919872,-0.50723684,153.91061,34.972923,9.627281,106.059875,105.262886,105.33095,105.499855,289.66763,0.7,-105.75496,-45.901154,0.004626156,-13.3506565,-0.39183402,1.2263983,1.2589477,0.43249455,4.588465e-05,0.3,-1.1088772,62.061962,62.12391,62.284714,61.935574,2.1370163,0.475,6.469896554946899,46.00195452372233
70,700000,85.8011579328553,-65.93248,0.0038333603,2.0681775,5.4560966,-1.3381975,148.00903,334.0458,13.110236,105.22898,105.2403,104.784195,104.82831,105.05391,0.7,-105.50119,-43.496822,0.0006180622,-14.797852,-2.0500774,-3.9129603,-0.7028024,0.20041761,1.8887222e-07,0.3,-1.2885484,64.10096,64.14374,64.52541,64.5793,1.7654115,0.43906248,6.79322624206543,46.66916914780935
71,710000,91.32880989310965,-64.75661,0.0036063583,2.4890175,3.8184605,6.668535,157.13762,93.66036,7.511614,103.62977,104.043365,104.15573,103.939865,121.05728,0.7,-103.87803,-49.2137,0.0004084838,-14.641748,-2.729804,1.3664619,-3.0537674,-2.7851906,6.3637526e-05,0.3,-1.8649205,63.301132,63.295395,63.053032,63.17047,1.46244,0.5140625,7.384642124176025,47.34929062128067
72,720000,68.02982446146022,-64.32219,0.0036192858,0.6663755,4.076017,1.7695006,125.30362,139.95343,8.763022,105.0211,104.614555,105.017525,104.34162,104.09614,0.7,-105.45887,-46.89128,0.009795086,-26.414534,-2.9702592,-0.29142654,0.8319063,0.75552464,2.1892034e-05,0.3,-1.4744303,62.572315,62.5346,62.54177,62.913345,1.6469058,0.43593746,5.079732179641724,47.98807516098022
73,730000,86.97773829135612,-64.36255,0.0035651335,2.3788218,3.766272,1.0387937,136.68683,153.34938,6.5345798,105.71296,105.37986,105.51736,106.169075,357.14685,0.7,-106.62324,-54.874424,0.00466153,-12.179815,-0.2942409,-1.2643995,-3.9280505,-4.2260942,1.0678615e-05,0.3,-1.9051657,62.72605,62.556015,62.2276,62.990654,2.4041953,0.48593748,6.691119909286499,48.65507944822311
74,740000,73.11004923090995,-67.90469,0.0036219705,-0.49260208,3.551044,-2.1282432,114.2237,63.530766,7.103151,103.99955,104.12419,105.2748,105.359764,81.066765,0.7,-105.164444,-52.1933,0.007007097,-12.324542,2.8440285,2.2056487,-0.005490184,-0.50681627,3.939931e-08,0.3,-1.3098419,66.34529,66.31505,66.76242,66.805374,1.5645294,0.4609375,5.5404791831970215,49.30057458877563
75,750000,86.24914660442492,-68.19278,0.0032501675,6.094204,2.9893975,-0.9960067,143.16653,79.842285,13.292352,105.32086,105.50209,105.632095,105.784454,57.575115,0.7,-105.3331,-39.949,0.009448535,-11.545124,1.4378726,0.70878017,0.5631941,1.3855207,8.362066e-06,0.3,-1.5622582,66.32739,66.370605,66.216995,66.41954,1.7361743,0.47031248,6.658509731292725,49.96916573842366
76,760000,67.62250548298772,-69.28702,0.0032390358,0.28387743,4.3113728,-2.3611376,198.233,87.77347,14.160365,105.42426,105.82885,104.76493,104.9265,38.447746,0.7,-105.38345,-75.87954,0.0029056014,-13.677834,3.1952276,2.7891984,2.959175,1.3811957,5.657785e-09,0.3,-1.3700486,67.795975,67.753525,67.162125,67.35338,1.6507498,0.46406248,5.134803771972656,50.610979517300926
77,770000,97.48578236945605,-66.967316,0.0034019472,0.48655975,4.4581175,0.0029538274,161.84018,104.06262,7.579312,105.00847,104.55699,105.331154,104.983,29.599028,0.7,-105.31208,-53.00253,0.0027931475,-10.59041,-9.268399,-8.271811,-6.134382,-6.025245,7.309921e-05,0.3,-1.3716542,65.504715,65.65962,66.36185,65.94232,1.0074642,0.4421875,8.119611024856567,51.30325390497843
78,780000,99.66370140767432,-66.80521,0.0033883546,0.48154938,3.461815,0.1913567,173.306,40.48258,27.201319,106.43613,106.126205,106.389145,106.18121,25.773163,0.7,-106.05211,-46.58902,0.011456817,-11.157711,0.7773809,0.8590267,-0.32469586,1.152499,6.404719e-07,0.3,-1.2245075,65.04392,65.0217,64.8064,64.833115,1.3155934,0.465625,7.435980796813965,51.98815722862879
79,790000,79.67864659908417,-68.577965,0.0032070554,-1.755098,3.5683937,0.3030405,104.560814,104.936905,9.251556,103.720024,103.46887,104.08111,104.05075,297.72528,0.7,-103.11322,-60.91211,0.0010073511,-11.225272,0.8736974,0.9154098,1.0310926,1.3410172,3.0803495e-08,0.3,-1.2469563,67.256836,67.22084,67.04007,67.35399,2.2073774,0.47812498,5.8001837730407715,52.640511977672574
80,800000,78.55973343162734,-66.325905,0.002879551,1.9785607,3.6669269,2.146941,228.81122,204.13524,7.7331195,104.844345,104.91961,103.88583,104.73397,181.24525,0.7,-105.22513,-58.602036,0.011713289,-12.752325,-1.5600291,-0.37827504,-1.6670163,-1.5147837,5.760416e-06,0.3,-1.614555,64.57321,64.81972,64.34999,64.80279,1.9721344,0.4546875,6.152420520782471,53.30471693674723
81,810000,83.60931648931374,-67.19103,0.002362604,0.14891422,2.4612172,-0.50567496,198.9332,54.06404,9.515242,104.452614,104.07584,104.037025,104.0058,26.834509,0.7,-104.97625,-54.18331,0.002122893,-13.071078,-2.05087,-2.0540245,-0.26048067,-3.2980223,2.6667065e-05,0.3,-1.2258635,65.8811,65.907295,65.8172,65.93384,1.0105201,0.4640625,6.212972640991211,53.96949634552002
82,820000,86.95986844900501,-65.87132,0.0022653935,0.7059115,4.033865,-2.8187983,185.65388,114.34488,7.0187736,105.66306,105.73387,105.66049,105.59159,21.94499,0.7,-105.880226,-46.17249,0.005030476,-12.448652,-0.94060373,-0.26014918,-0.2441282,-3.2236075,7.350975e-06,0.3,-1.4275542,64.22211,64.26993,63.90221,64.061775,1.0961201,0.4671875,6.4984376430511475,54.63091270128886
83,830000,92.60261675160041,-65.58392,0.0022115454,2.7661195,3.5953424,-0.03696257,145.44814,152.08038,5.7486863,105.45561,105.2594,105.73926,105.46137,168.11234,0.7,-104.859924,-46.662518,0.00090793404,-11.855606,-0.949276,-1.7305756,-2.8697639,-1.362891,2.0713678e-05,0.3,-1.4337443,63.938725,63.99613,63.95418,63.979652,2.0219023,0.47187498,6.82887077331543,55.29976979891459
84,840000,90.00176826187545,-65.83034,0.0021442403,0.6635773,3.6101148,-1.0364914,203.31406,112.51467,6.3401985,104.008644,104.40085,104.82836,104.57294,104.0507,0.7,-104.60146,-57.05295,0.0015388334,-19.106222,-4.0489817,-3.4578843,-3.388255,-2.7030487,7.343562e-07,0.3,-1.6716887,64.25112,64.287,64.622246,64.85318,1.3815236,0.440625,6.561296701431274,55.97197271982829
85,850000,92.41367997680761,-67.65687,0.0023110935,-0.35610038,4.7051306,-2.7860878,224.5171,164.20242,11.580614,105.17191,105.63894,104.325325,104.51414,20.169466,0.7,-105.44935,-49.34704,0.010543806,-11.370075,3.524277,3.2876282,0.31090057,-0.07714668,6.2864275e-10,0.3,-1.5868275,65.97356,65.97358,65.1778,65.483765,0.76691425,0.4921875,6.893085241317749,56.64609603484472
86,860000,65.6570827950176,-67.8177,0.002455319,-4.473941,3.0369194,-0.90177256,131.30804,36.64842,10.130824,106.89919,106.301994,105.45683,105.13273,40.224236,0.7,-105.93405,-54.974346,0.003441087,-11.154866,-0.7201047,0.21278316,0.89754456,1.3589532,7.1874815e-08,0.3,-1.4591572,66.88787,66.87007,66.34642,66.413155,1.2303452,0.46875,4.807624101638794,57.28517882029215
87,870000,87.22531252940901,-64.79674,0.0024575046,-0.6692864,4.6463184,7.7541857,159.46494,67.85044,7.1512756,106.333145,106.17371,105.843094,105.46287,160.24023,0.7,-107.20862,-59.535,0.013841005,-11.109373,-3.749138,-4.3801093,-0.8083726,-4.184743,7.270673e-05,0.3,-1.3550141,63.45601,63.69948,63.327812,63.223152,1.8391763,0.4296875,6.403532266616821,57.95299575328827
88,880000,85.95108248751058,-66.341866,0.002373227,0.47940856,3.725269,-1.0106412,175.97894,33.092995,6.5770106,105.39597,105.06465,104.151276,104.35836,13.593916,0.7,-106.71839,-51.991543,0.010915781,-10.811481,-0.5748092,0.2749508,-0.20948726,0.62509394,5.9958707e-05,0.3,-1.6929677,64.84918,64.84694,64.5339,64.77936,0.84579754,0.42187497,6.261904716491699,58.61152767340342
89,890000,91.66657808832319,-67.84641,0.0021220916,-1.3618804,2.476599,-3.3203294,122.08031,42.000736,8.900844,108.06331,106.928665,107.58152,107.60451,27.918962,0.7,-109.47484,-56.657135,0.0009650934,-11.956536,-0.72554076,-2.9390724,0.76396877,-2.0628476,7.838826e-08,0.3,-1.0886486,66.550934,66.454926,66.771576,66.91344,0.79937875,0.4484375,6.661774635314941,59.27976421912511
90,900000,89.18961834147527,-66.205124,0.001779669,-1.0989786,4.0486355,0.35768813,171.43385,85.532005,6.444708,106.86557,106.5013,105.65815,105.15571,45.896362,0.7,-107.23911,-57.785065,0.0036302318,-11.294501,0.6771283,-0.24323756,-0.65272295,0.27522162,6.1613277e-06,0.3,-1.5577679,65.00485,64.94242,64.33476,64.76182,1.2464998,0.46406248,6.568119525909424,59.94537474711736
91,910000,100.97755823193846,-64.98831,0.0018120719,-1.0656188,3.635287,-0.6645368,175.23622,81.020035,6.288636,106.16665,106.13063,105.62715,106.29268,28.191984,0.7,-104.92758,-55.0538,0.0046267817,-12.478569,-1.2964054,-0.6925736,-2.8008983,-2.2586296,5.3497893e-06,0.3,-1.5286776,63.216118,63.267895,63.425735,64.0576,1.3026608,0.3875,7.452986478805542,60.626069184144335
92,920000,77.44985933425397,-66.396866,0.0018933107,-2.685116,4.724641,-0.3902564,151.77818,198.43463,17.210184,106.19856,106.31479,105.14816,105.71782,35.143715,0.7,-106.67261,-55.776096,0.004156615,-10.516424,0.85355324,0.45629925,0.2378871,1.3567617,1.1627377e-05,0.3,-1.3742219,64.79535,64.83531,64.6774,65.0332,1.2539523,0.41562498,5.668758392333984,61.283414733409884
93,930000,100.78359526872667,-68.04137,0.0016165036,-1.120049,3.500008,3.8546252,180.45914,72.8178,8.077809,107.155655,106.39047,106.19716,106.4383,28.201168,0.7,-107.49421,-58.040726,0.0045149694,-10.510743,1.2011745,-0.7296717,-3.28236,-1.1946182,5.584273e-06,0.3,-1.3885888,66.47322,66.398285,66.000565,66.39383,0.92751116,0.4203125,7.371056079864502,61.96515877644221
94,940000,90.17902235203312,-63.818867,0.001557545,2.5696182,2.84304,-1.743617,152.47443,56.501106,8.487481,104.95868,104.989075,104.94082,105.33536,44.31962,0.7,-105.644714,-49.909336,0.0025824907,-10.605952,-7.503843,-7.2022996,-5.0455904,-4.5976896,6.5856686e-05,0.3,-1.5188246,62.143772,62.025436,62.086952,62.43924,1.3415536,0.4046875,6.58519434928894,62.62914688587189
95,950000,89.147422700446,-66.81949,0.0016280699,2.724462,3.9636314,-0.9854998,160.16548,59.383125,8.591342,106.03617,107.16592,106.54891,108.496826,110.21059,0.7,-107.76351,-55.39536,0.008017074,-8.986929,-0.8661084,0.06632793,0.6487204,-2.5091958,2.7723147e-05,0.3,-1.2741103,65.16202,65.36267,65.63081,66.000854,2.1846733,0.37343746,6.424750804901123,63.2972055276235
96,955000,100.52835906321032,-64.38809,0.0016406208,2.5987005,3.9099355,10.889771,129.99477,89.75296,8.606764,105.364944,104.55501,105.41743,105.526794,115.56994,0.7,-104.86031,-45.876106,0.0022684957,-12.596886,-0.8580396,-1.2008097,0.018768152,2.9233239,2.2886263e-06,0.3,-1.9136498,62.27876,62.197483,63.048935,62.758392,1.7349145,0.42031246,7.323797225952148,63.69727383454641
97,960000,96.9303163160677,-65.6453,0.0017228707,-2.289711,3.8197815,0.89876187,190.97975,29.00242,7.618372,105.76498,104.75435,104.879585,105.99766,399.2061,0.7,-105.60329,-47.927883,0.00040632073,-12.231551,-0.43101555,-0.47273886,0.93924534,1.8561225,5.6934255e-06,0.3,-1.824696,64.08068,64.16441,64.84837,64.859955,2.684389,0.4078125,7.028579473495483,64.0956184387207
98,965000,90.43909721295256,-66.10539,0.0016429325,0.50632155,2.8664231,-1.0706019,247.78036,35.080086,8.139683,106.38507,106.31176,107.0799,107.01651,128.88268,0.7,-108.504456,-48.033962,0.008377575,-13.714363,-1.6800604,-2.6089935,-0.2377531,0.46735328,2.0186418e-08,0.3,-1.2605485,64.49533,64.54727,65.00072,64.75085,2.1537743,0.48281246,6.60133171081543,64.48306863307953
99,970000,98.23631741168757,-64.0992,0.0015885981,-2.423999,3.083047,3.6439667,132.55846,80.21439,20.861286,104.761024,104.83965,105.225395,104.998474,31.675272,0.7,-108.33065,-59.17967,0.0007384262,-12.081555,-4.561228,-3.3054338,-3.4139936,-3.517138,4.8119114e-07,0.3,-1.3639252,62.660557,62.614857,62.492294,62.55235,1.1770134,0.49843746,7.145892381668091,64.8817112882932
100,975000,88.2352559314728,-66.406296,0.0015616427,1.8187284,3.9826334,6.5904603,128.96033,122.46353,7.6646338,105.704544,104.6647,104.033905,104.73893,35.424458,0.7,-108.10296,-51.250175,0.010449143,-11.505141,-6.778887,-6.206603,-3.11625,-3.365254,3.9237802e-05,0.3,-1.2270455,64.77346,64.86243,64.8624,64.93501,1.1931918,0.459375,6.48907995223999,65.26863474845887
101,980000,96.73173982044409,-62.87845,0.0015814053,0.45372045,5.788477,-0.11240381,198.66742,184.71527,13.982023,105.12498,105.47902,104.90711,104.4291,94.27383,0.7,-105.07909,-53.48314,0.004535324,-16.082909,0.8437952,1.2386186,-3.5236325,-1.7657464,4.5063907e-06,0.3,-1.6174648,61.241776,61.231533,60.423195,60.603863,1.7312638,0.53125,7.003726243972778,65.66046619812647
102,985000,96.39173649261016,-67.85382,0.0015617454,0.0006337166,5.094871,3.268556,163.19104,57.13683,24.20169,105.45461,105.059586,106.24489,106.29996,162.58127,0.7,-105.35037,-64.05445,0.0071029565,-11.244379,-0.33724415,-0.8963008,1.3635204,2.3255415,2.818316e-06,0.3,-1.1574725,66.26878,66.12559,66.97783,67.05954,1.878037,0.38125,7.039988040924072,66.05627927382787
103,990000,100.90958353820672,-68.0162,0.0015740446,1.5888889,5.4241066,8.777317,411.21744,238.82071,6.7550898,105.61825,105.0207,104.96845,105.092575,36.071804,0.7,-105.34046,-53.97616,0.004785966,-10.6888275,-4.090023,-3.323992,0.17214729,-4.8002467,2.7464044e-05,0.3,-1.3057711,66.60445,66.69734,66.98552,67.26207,1.2248497,0.459375,7.297663927078247,66.45637126763661
104,995000,99.97887063120804,-65.05906,0.0016255464,0.3282131,2.8147812,13.933424,338.65738,45.781258,9.109158,105.79632,104.99788,104.711754,105.411194,151.2533,0.7,-106.76038,-49.995132,0.004460343,-11.907225,-3.7876039,-6.2960477,-0.8735119,-1.2982886,3.1121746e-07,0.3,-1.203757,63.557438,63.533405,63.787956,64.17007,1.6096274,0.39999998,7.270326375961304,66.857337474823
105,1000000,96.7029871091863,-64.51488,0.0016697489,-1.8495181,3.4043934,6.05517,121.7674,86.541245,9.753716,107.03976,106.99397,106.14185,106.80572,51.037376,0.7,-106.85633,-52.636425,0.007922629,-10.32094,-4.4529476,-5.352625,-2.8593805,-4.709449,3.0074445e-06,0.3,-1.4212853,63.486645,63.448227,63.626785,63.580376,1.3624372,0.459375,6.997709035873413,67.25631586710612
