Xixo99/comfo/baselines/comfo6_perterbation_actor/20230225_noise0.01/hopper-medium-replay-v2/COMFO6_s0_20230224_114909_hopper-medium-replay-v2_93.28.csv
,step,reward,actor_loss,alpha,alpha_loss,critic_loss,max_actor_loss,max_alpha_loss,max_critic_loss,max_mle_prob,max_q1,max_q2,max_target_q,max_v,max_value_loss,max_weight,min_actor_loss,min_alpha_loss,min_critic_loss,min_mle_prob,min_q1,min_q2,min_target_q,min_v,min_value_loss,min_weight,mle_prob,q1,q2,target_q,v,value_loss,weight,eval_time,time
0,0,5.164250612917587,,,,,,,,,,,,,,,,,,,,,,,,,,,,,,,,,
1,10000,18.04430703411592,-30.062675,0.05744402,-8.025402,1.2666059,0.5520963,19.210712,86.55617,10.4027,52.798462,53.02039,54.10902,51.724148,4.282707,0.7,-52.848675,-23.938667,0.0001755829,-8.775578,0.0503224,0.38797325,0.14488232,0.82488537,9.538081e-07,0.3,-0.5365633,29.784653,29.830822,29.928646,29.603844,0.14105263,0.4265625,1.4623279571533203,1.8734177907307943
2,20000,19.20294789174579,-48.073456,0.0037514877,-7.555913,1.6918141,-1.8401366,95.340935,104.90373,16.842201,78.946045,79.097496,78.97517,79.08823,8.015905,0.7,-79.65867,-50.51335,0.0003359316,-10.577205,-0.16629647,-0.6561087,-0.25736013,-0.49307936,2.5205993e-05,0.3,-0.74924505,47.51539,47.562958,47.683483,47.267418,0.3906083,0.5359375,1.623429775238037,2.4690889000892637
3,30000,23.404062255077797,-55.58072,0.00024293427,-5.970592,2.899466,0.58619326,209.52106,97.14914,7.6757326,90.758286,90.40676,90.08625,89.488556,14.489461,0.7,-90.7138,-71.88088,0.000100416364,-9.296369,-2.3053262,-2.5960474,-3.10439,-2.7196567,3.6714483e-09,0.3,-1.4188498,54.667103,54.625195,54.449535,54.209736,0.53695863,0.46718752,1.8377971649169922,3.070458551247915
4,40000,23.249395124172953,-61.974075,1.5208565e-05,-8.1048765,2.7355833,1.2437776,263.59018,139.71388,8.307465,93.34444,93.124146,93.02694,92.89832,16.203321,0.7,-93.83987,-85.62842,0.00087795925,-10.413472,-1.8314413,-1.7876956,-2.4087353,-2.1535401,1.5693438e-05,0.3,-1.0379411,60.963806,60.876297,60.657623,60.918743,0.5826507,0.4765625,1.8250937461853027,3.6681400299072267
5,50000,31.978463232922238,-63.651443,9.920702e-07,-3.410345,3.714281,5.8264065,463.42105,177.26373,10.934625,98.9953,100.42036,101.533104,98.85785,27.405502,0.7,-99.87226,-91.36095,0.004055498,-9.413152,-5.835883,-5.019785,-6.2250457,-9.632434,1.2777745e-07,0.3,-1.3030791,62.623768,62.61876,62.583,62.525635,1.0857584,0.5109375,2.3217005729675293,4.277182734012603
6,60000,33.8965528261092,-68.00586,6.6190346e-08,-5.053072,3.178442,4.1620817,439.85855,48.706036,8.493429,102.97947,102.035225,103.131134,101.61815,38.429714,0.7,-103.17419,-137.00696,0.0051682633,-10.204706,-7.905204,-8.55396,-9.860916,-5.9671397,3.4385114e-06,0.3,-1.112056,66.91047,66.85765,66.68378,67.16905,0.8270625,0.3984375,2.448317289352417,4.885265743732452
7,70000,48.8828175186652,-64.05055,4.7458077e-09,-19.47942,28.933876,0.021356314,309.58743,6398.0684,9.513976,100.68546,101.24192,100.094795,99.880035,61.291824,0.7,-101.5946,-167.10423,0.006583258,-10.581313,-0.498346,0.15241241,0.81328315,-0.12257977,1.18852775e-07,0.3,-1.6533856,62.853226,62.867073,62.500614,63.04654,1.1338788,0.47031248,3.33911395072937,5.510769641399383
8,80000,77.44448708579198,-66.441765,3.7679213e-10,-5.707221,7.625675,-0.26112953,549.66644,353.81604,10.591888,98.2202,98.57607,98.941696,98.53555,34.098854,0.7,-99.05626,-149.50006,4.2372616e-05,-9.622985,1.2632385,0.29511106,0.58559847,1.15415,2.0905165e-06,0.3,-1.1603799,65.105606,65.07635,65.49286,65.70924,0.9602443,0.45624998,5.655246734619141,6.176547884941101
9,90000,92.65859775742976,-66.302505,3.136796e-11,-10.185517,3.7033973,-0.835459,1001.81433,193.00998,6.0001583,99.58308,100.17963,99.37786,99.19311,63.789143,0.7,-100.26186,-187.15579,0.008785433,-12.828151,0.215554,0.33260074,-1.1278267,-5.2804966,6.669271e-06,0.3,-1.4398707,65.22129,65.15991,65.07627,65.34056,1.5684772,0.446875,6.651119709014893,6.85300448735555
10,100000,52.8290030020621,-67.35996,3.278885e-12,6.398987,2.3510537,-2.204134,659.14056,62.371033,8.333344,100.528984,100.39099,100.44754,100.65314,38.20847,0.7,-101.156,-219.98396,0.0069764825,-9.837118,2.8288035,2.8688545,0.9646572,3.6253204,2.60807e-06,0.3,-1.512678,65.69234,65.77289,65.754486,66.20528,1.1207017,0.4421875,3.6246378421783447,7.485357928276062
11,110000,79.26762685303312,-65.7954,3.763606e-13,-10.627129,3.32101,7.1922917,749.5428,69.348785,10.253527,101.70337,102.11549,101.56093,101.0419,60.18993,0.7,-103.207085,-257.3116,4.7986396e-05,-16.574648,-4.059417,-5.7116966,-3.6530795,-5.822974,7.153358e-05,0.3,-1.4790912,64.53717,64.59575,64.909134,64.68498,1.4382848,0.5140625,5.870065212249756,8.15282347202301
12,120000,99.20826105903069,-64.66915,5.3351597e-14,-11.493486,5.4285984,-2.0307364,788.0161,375.02008,24.247622,100.386444,100.37189,100.2131,100.397285,51.29474,0.7,-102.40127,-256.67175,0.0006218648,-11.624812,-2.7742662,-3.6930435,-7.5094023,-1.9313673,3.3347578e-06,0.3,-1.2680058,63.478912,63.45457,63.30909,63.497982,1.0387199,0.4671875,7.204010486602783,8.839976632595063
13,130000,73.44630111147895,-69.86188,1.2202029e-14,-16.753113,3.7404375,-6.7755985,617.2246,137.31696,8.257641,102.09836,101.63603,102.51354,102.75903,63.649857,0.7,-102.180786,-332.21268,0.003573785,-33.714367,7.0100474,7.8236537,5.3191137,8.808107,6.479005e-05,0.3,-1.8220961,68.58817,68.53284,68.99416,69.392975,1.7658731,0.384375,5.128017902374268,9.496705122788747
14,140000,81.08470502405213,-67.827644,4.002186e-15,4.2215977,4.8424315,-2.1060667,1320.6715,152.69568,6.988058,101.341446,101.05901,100.84387,100.626434,80.18552,0.7,-101.933685,-312.82846,0.0058317175,-9.713138,-5.466177,-4.1615777,-0.44695,-2.0430517,2.229761e-07,0.3,-1.6450924,66.4115,66.30105,65.98984,66.481705,1.2080134,0.4515625,5.868722200393677,10.163305242856344
15,150000,80.80661213015993,-69.21034,1.9074426e-15,0.120595455,4.195,-8.673501,972.7024,148.48134,8.68032,101.188934,100.91603,100.596115,100.56762,20.638548,0.7,-102.03413,-276.69717,0.0058499724,-10.975367,-1.6642847,-0.598721,-1.446946,2.951628,1.7214916e-07,0.3,-1.6119447,67.877106,67.964714,67.79776,68.03784,0.9014472,0.475,5.629541635513306,10.822667781511942
16,160000,88.97239760122905,-68.6255,1.2955731e-15,-23.126802,2.9382517,2.3358214,1215.1342,60.685898,12.202422,102.156296,101.85812,101.77199,102.35456,111.477715,0.7,-102.188416,-309.87683,0.0066050915,-9.406499,-3.9501822,-5.0439405,-6.5789104,-9.999952,1.9731857e-05,0.3,-1.2852349,67.71617,67.680405,67.592224,67.57449,1.152347,0.41249996,6.529961109161377,11.5031947016716
17,170000,100.85185218210833,-64.66436,1.6703017e-15,0.76374817,3.4545121,-2.0410473,1531.01,72.88835,6.556449,101.51236,101.03137,101.53852,101.057365,34.404976,0.7,-102.74701,-346.1059,0.0063612815,-10.557612,-2.6127439,-1.7496938,-6.6232457,-3.3376703,1.4685794e-06,0.3,-1.4477361,62.90013,62.86222,63.3823,63.39566,0.96806324,0.4109375,7.310941219329834,12.192230534553527
18,180000,92.95019813588993,-67.77934,3.5932755e-15,14.876217,3.2933142,2.0577831,1140.1865,48.634037,9.269188,104.32977,104.81428,105.40646,105.63442,70.78089,0.7,-105.09751,-283.79227,0.004588055,-12.888766,-0.69811285,-4.687322,-6.689536,-3.3748562,5.220251e-05,0.3,-1.9718589,66.18466,66.11396,66.11106,66.47541,1.4523966,0.4515625,6.664538383483887,12.871018600463866
19,190000,91.14212505386432,-69.506836,5.869333e-15,4.631666,4.4747944,-4.076109,964.8201,87.861786,14.376207,103.96477,104.34272,103.283844,102.92056,143.8757,0.7,-103.62815,-283.8816,0.0028433092,-12.115567,4.647649,4.007261,1.7549865,2.4611251,1.6018183e-05,0.3,-1.2996497,68.23273,68.15152,67.7444,67.65016,2.441909,0.47656247,6.653746128082275,13.551203175385792
20,200000,64.9234982567942,-66.47183,1.2915496e-14,12.156652,3.3352647,-0.14796123,713.6274,92.01491,5.9889274,103.20937,103.31344,103.541245,103.247856,30.20219,0.7,-103.660095,-274.82495,0.001859867,-11.374734,-1.2493101,-1.7627069,-3.5073187,-2.170982,1.678127e-06,0.3,-1.5799242,64.96396,64.891014,65.24194,65.44394,1.0477312,0.4421875,4.568166494369507,14.194584810733796
21,210000,69.78449285631034,-70.05513,3.910179e-14,18.017294,2.67873,-5.640009,1175.2479,44.375076,7.630857,102.16433,102.14983,102.23244,102.5574,51.33444,0.7,-102.53007,-261.1253,0.007954908,-11.029242,-4.696228,-3.3553486,-1.5661306,-5.559263,1.745898e-06,0.3,-1.8099811,68.32858,68.41221,68.55321,68.68117,1.1841737,0.44687498,4.77944278717041,14.840060023466746
22,220000,91.64246644820356,-67.243195,1.4400867e-13,13.955211,2.4376335,7.696707,849.91406,34.256187,8.367608,104.12372,103.07191,102.82958,102.80306,307.54538,0.7,-103.87875,-253.11826,0.0035240017,-17.107067,-7.724254,-6.7562847,-8.722589,-6.0934405,4.3655746e-06,0.3,-1.5763829,65.3725,65.29097,65.19214,65.583595,3.2554152,0.49375,7.185118913650513,15.527754930655162
23,230000,77.90645863684831,-65.55431,5.565305e-13,10.42881,4.7366743,-2.0418305,1178.506,239.4917,10.238911,102.658615,102.38116,103.43796,102.62397,41.405518,0.7,-102.02583,-216.7129,0.006803655,-10.790878,0.074442744,-2.3084056,0.72597814,2.7926257,3.7433756e-06,0.3,-1.7426207,64.15668,64.17754,64.53719,64.11424,1.1818498,0.528125,5.402052164077759,16.179359463850655
24,240000,71.43878201016298,-65.51028,1.9699097e-12,5.6555986,3.900894,5.7820745,1132.1189,416.26202,27.10308,103.53775,103.74547,103.009026,102.64892,80.473816,0.7,-104.63097,-242.46405,0.010487729,-12.324152,-6.51088,-5.669794,-6.5424542,-4.439191,1.870605e-05,0.3,-1.5445085,64.34178,64.25674,64.12425,64.16388,1.0723376,0.48749998,5.428624629974365,16.833020651340483
25,250000,92.2611689188005,-65.69676,7.945204e-12,12.922633,5.396742,-1.8269362,831.3598,225.47092,7.957866,104.74084,104.58453,104.54571,104.84788,49.524326,0.7,-105.78818,-250.43509,0.0005941841,-10.183252,-3.2352636,-3.832208,-1.0256125,-1.5661223,6.712508e-08,0.3,-1.5165591,64.36523,64.355606,63.88803,64.02222,1.290911,0.4984375,6.783164739608765,17.512101066112518
26,260000,74.8709334503225,-66.66428,3.4131985e-11,3.1047025,3.7860813,5.7310467,858.89435,75.97734,8.441116,104.796715,105.12365,103.25772,104.57269,236.88324,0.7,-105.68689,-199.46107,0.001428365,-15.355795,-3.9131584,-4.1916842,0.3870601,-4.4491887,1.6298145e-10,0.3,-1.3907757,65.322266,65.34827,65.369484,65.46329,1.8291191,0.47812498,5.697457313537598,18.16943906148275
27,270000,61.10009765810754,-67.46259,1.4618799e-10,-3.0490115,3.600544,1.5371763,290.2636,92.06868,7.581097,104.65866,103.69632,105.13194,104.702156,47.12797,0.7,-103.77772,-160.2959,0.0015039591,-16.009445,-0.8648659,-1.0359671,-0.28833342,0.98523283,0.0001561147,0.3,-1.4881837,66.34593,66.26707,66.815186,67.01361,1.3659625,0.41875,4.424384117126465,18.813012421131134
28,280000,97.50464377649753,-68.303535,6.125501e-10,7.879903,3.7446523,7.55387,814.788,79.27565,8.813726,102.77584,103.08402,103.435844,103.44555,29.644213,0.7,-103.13607,-180.319,0.0019231045,-10.88814,-3.7415664,-5.3139567,-5.100451,-4.514203,4.710164e-08,0.3,-1.4019217,66.731476,66.86578,67.20914,66.964905,1.0214345,0.5,7.464329242706299,19.50248057047526
29,290000,92.9661703669316,-66.31989,2.7361793e-09,8.193005,2.8149457,-0.96894574,920.68463,54.88179,11.856426,103.78373,102.97072,104.54568,104.24502,38.134342,0.7,-103.16557,-178.5004,0.0009246648,-13.31737,-1.99884,-0.70409036,-0.23557028,-1.7835613,2.1515298e-07,0.3,-1.0014327,65.10727,65.13054,65.57287,65.47961,1.0308509,0.41562498,6.608279705047607,20.175762593746185
30,300000,96.26622799437405,-66.26857,1.3316117e-08,2.6293988,3.1762843,-1.1763502,461.27332,125.40636,11.644105,105.710815,106.43914,104.72726,103.98029,40.871567,0.7,-105.44046,-143.97398,0.0033334766,-10.761744,-0.8042064,0.026432961,-3.790888,-0.34633285,7.3421106e-05,0.3,-1.8236483,64.908966,64.98807,64.67427,64.87847,1.1973825,0.44843748,7.059101819992065,20.862148221333822
31,310000,84.19538497559967,-67.1191,6.185089e-08,1.5030837,4.619641,-1.3680938,516.02246,136.3821,5.895107,103.63576,103.322296,104.33888,104.23691,149.69513,0.7,-103.67524,-160.474,0.00044547865,-13.413077,-0.01941219,0.7399823,-1.1213591,0.3900384,7.4005397e-06,0.3,-1.9109824,65.04619,65.0067,64.38416,65.14774,2.0598903,0.46718752,6.182016611099243,21.52875606218974
32,320000,57.66436111023624,-66.282,2.7195998e-07,7.0146723,4.6153564,0.350695,486.31992,79.330025,7.9960413,103.042404,103.09404,103.3201,103.25676,134.09998,0.7,-103.50094,-142.01056,0.00032942614,-13.296064,1.0529598,-0.47402468,-3.5807767,-2.472247,8.14129e-06,0.3,-1.5965334,64.22836,64.37433,64.64202,64.9265,2.2347913,0.4265625,4.062625885009766,22.161031981309254
33,330000,52.87946755627966,-67.536514,1.3735962e-06,-2.9111912,2.790372,0.988583,231.10345,64.07661,8.265025,104.086754,103.269875,105.505455,104.11876,52.145466,0.7,-103.90362,-127.53952,3.7598656e-05,-14.494943,-1.722322,-2.3166723,-1.8682212,-1.9858497,0.0001622833,0.3,-1.5674496,66.220566,66.329575,66.664566,66.89427,1.2283642,0.42499998,3.7093725204467773,22.79286743402481
34,340000,94.84388944914866,-66.1198,7.956337e-06,2.7456594,3.757842,-2.8503265,495.1714,46.879387,7.1054,104.39501,103.56757,104.49287,104.22542,29.497952,0.7,-105.742714,-95.53046,0.009937255,-10.162771,0.376184,0.43514836,2.6507008,-0.9310913,3.2287792e-06,0.3,-1.376715,64.64657,64.57446,65.38032,65.50441,1.1238908,0.39999998,6.772705554962158,23.474258752663932
35,350000,53.424806040887574,-64.184326,4.5773377e-05,3.9795196,2.8005152,-4.545308,333.73898,83.51812,7.4954557,104.64085,104.42476,105.20793,105.19568,67.38555,0.7,-105.64202,-91.32095,0.008208072,-9.490939,4.585155,4.6061807,0.9388767,3.9531481,2.4557332e-06,0.3,-1.5600759,63.02309,63.063156,63.05182,63.384705,1.3235337,0.453125,3.775420665740967,24.104666697978974
36,360000,59.987621795614935,-68.473335,0.0002731123,2.2546954,4.737382,-1.6693463,179.01245,222.7774,10.3551855,106.05404,105.23407,105.51087,106.365166,19.291672,0.7,-106.27062,-76.80308,0.0014377558,-10.016055,-0.71553975,1.5700161,-4.320069,-4.4094687,4.0397998e-05,0.3,-1.7914217,67.04978,67.01776,66.73109,67.15782,0.86244714,0.4296875,4.196799039840698,24.74748363494873
37,370000,70.77016098169602,-66.89064,0.001658622,0.4841002,5.98108,-2.6112323,202.72081,81.467804,21.924805,104.26086,104.307686,103.08429,103.18445,90.917336,0.7,-108.73158,-68.51058,0.0016146892,-11.980084,-9.859193,-8.3117,-8.524553,-7.1762385,6.9307866e-08,0.3,-1.3753576,65.373344,65.46174,64.39566,64.86205,1.2259774,0.453125,4.881098985671997,25.396621318658195
38,380000,87.34646735373146,-67.74147,0.0054876483,-1.2504438,3.9867291,0.01189518,122.37525,60.607185,5.81308,108.45235,107.80379,105.758,106.40572,36.72517,0.7,-106.85327,-40.976097,0.0059977034,-16.169443,-3.4566162,-2.84016,-2.227757,-3.9991593,3.3653516e-06,0.3,-1.6399808,66.22081,66.35368,65.85187,66.15616,1.0725265,0.509375,6.222669363021851,26.07104243437449
39,390000,73.7431716196,-68.29996,0.0067508854,-0.33378136,2.9444346,-0.33184016,77.45035,92.30917,24.900536,104.76752,105.34068,104.20784,104.013756,208.07617,0.7,-105.030846,-37.998856,0.0043653073,-14.972682,0.464895,0.6415134,0.9457863,-0.3822074,1.2735534e-05,0.3,-1.4926473,66.323,66.21925,66.22735,66.54738,2.901269,0.4515625,5.217077255249023,26.729080053170524
40,400000,91.62743023764324,-66.976295,0.0053682774,0.7215653,3.5001397,0.5836185,129.60716,73.10133,7.022728,103.51909,104.2819,106.01203,103.85028,166.25952,0.7,-104.04901,-43.10753,0.0040617413,-11.068184,-0.18323904,-1.2310791,0.52563393,0.8591883,1.0246109e-05,0.3,-1.6807153,64.93092,64.95351,65.14398,65.595764,2.074686,0.409375,6.342980146408081,27.400868082046507
41,410000,52.046350738611714,-64.95569,0.005473348,-1.7557138,2.6484761,3.5948343,78.26019,28.152016,10.0760765,102.93558,103.78696,104.046585,103.07493,48.778236,0.7,-104.08401,-39.32459,0.0007901651,-10.808933,-2.4257839,0.45434844,0.9211646,0.9833149,1.8453879e-05,0.3,-1.4498084,63.842022,63.91408,64.43814,64.43697,1.1283449,0.4484375,3.637686252593994,28.02893581787745
42,420000,60.03662706184696,-66.878204,0.0057515735,-0.8737069,3.9479713,-1.2596347,152.12556,153.93655,7.6444683,105.36501,105.322914,104.7688,105.03834,213.52675,0.7,-106.550156,-45.286835,0.019854661,-19.301218,-1.7509577,-1.8790681,-1.2875952,-1.0275595,9.4758434e-07,0.3,-1.40586,65.336975,65.385765,65.25097,65.58366,2.7383418,0.4359375,4.127002477645874,28.664085777600608
43,430000,90.14441155598989,-66.607635,0.0054441663,5.0827537,4.147576,-3.6443324,220.2647,148.20815,14.162416,106.55646,105.806694,105.78016,106.8139,64.64586,0.7,-106.39917,-44.436996,0.0009222308,-14.488755,-2.360697,-3.535502,-4.476509,-3.081799,5.632667e-05,0.3,-1.3937871,64.65793,64.65846,64.637215,64.94835,1.5561327,0.4734375,6.47643780708313,29.338000126679738
44,440000,67.35344270295576,-66.42409,0.0051614232,-0.9996094,5.7356753,5.3158116,104.61406,151.94446,9.11126,104.30257,104.13659,104.9883,105.09216,1032.6298,0.7,-104.09576,-47.65576,0.0014675737,-12.187157,-3.5635805,-3.39939,-2.2000322,-1.0562357,5.657785e-09,0.3,-1.5634935,64.90241,65.029625,65.78537,65.35007,8.018391,0.4515625,4.61012864112854,29.9819877465566
45,450000,95.73834705330121,-63.1316,0.0053554224,-0.4218526,3.8219368,2.1615283,119.09817,67.28005,8.074524,106.83046,106.89328,107.39114,108.40816,38.498337,0.7,-107.41846,-60.114548,0.0015752183,-11.19477,-0.14705938,0.41867918,-0.9004186,0.41832146,1.8018618e-05,0.3,-1.6960654,61.427765,61.41076,61.30465,61.58329,1.3035288,0.44375,6.831756830215454,30.661764581998188
46,460000,77.46835363031659,-67.55856,0.005100114,4.0258017,2.7436924,-1.0817591,287.98206,51.28199,23.359104,105.98831,105.81236,106.11626,105.85535,16.422249,0.7,-106.656784,-41.99833,0.0038687747,-9.912627,-3.8536663,-2.8848684,-5.371287,1.074653,1.6324292e-06,0.3,-1.190799,65.880066,65.923004,66.04661,65.93367,0.85514027,0.5078125,5.459089756011963,31.31099195877711
47,470000,72.28287106762423,-70.39107,0.005136777,3.1840937,2.5066864,-1.5469573,243.35541,31.059063,12.977371,105.821754,106.08103,106.38193,106.32165,13.839068,0.7,-106.19133,-40.03315,0.0018394637,-11.372178,3.1618588,2.2999964,1.3936967,2.3153102,6.437967e-05,0.3,-1.444198,68.85823,68.935196,68.791046,69.0387,0.8050785,0.421875,4.928909540176392,31.963855250676474
48,480000,91.59089894144701,-63.79017,0.005276728,0.039236903,4.1454906,-1.5067905,152.13776,55.87233,7.451361,103.74357,103.394485,104.00206,103.942245,79.20268,0.7,-103.73393,-40.586933,0.0018561233,-19.033806,-2.8455412,-2.3377092,-3.1326516,1.3936487,6.261095e-06,0.3,-1.294802,62.111427,62.12093,62.55317,62.75589,1.4307053,0.446875,6.3305182456970215,32.63763705094655
49,490000,75.84895318249316,-67.83487,0.005100063,0.15248156,2.3098202,-1.9017085,122.14509,29.507954,6.0722013,106.12858,106.158714,105.816956,106.078476,39.33123,0.7,-107.348694,-47.440678,0.011847081,-12.432068,-3.1224222,-1.9821206,-2.2396374,-0.6729722,2.6424125e-06,0.3,-1.723304,66.1901,66.15524,65.921364,66.06276,0.9877987,0.45,5.238188982009888,33.2919904589653
50,500000,100.79109072763428,-68.66713,0.0056067184,-1.892431,5.8374367,-1.1880419,111.47159,289.68176,6.560034,102.526855,102.80703,103.11485,103.42596,231.10204,0.7,-102.40495,-54.885735,0.0033055157,-18.662867,-2.0096238,-1.2099195,0.6704044,1.1540216,6.0645397e-07,0.3,-1.415353,67.135635,67.30623,67.17331,67.60103,3.1579416,0.42812502,7.271365404129028,33.981829436620075
51,510000,78.55403019701508,-64.550865,0.0050589503,-1.3573823,3.3943114,-3.186916,157.50186,145.58449,6.458031,104.9622,104.7831,104.412926,105.035385,160.74315,0.7,-105.36631,-44.215923,0.0026477235,-10.900442,-2.9358182,-4.009683,-2.4544616,-2.1272907,9.767057e-07,0.3,-1.5200267,63.01625,62.86824,63.175808,63.41034,2.394763,0.44687498,5.366837501525879,34.641245408852896
52,520000,74.99750032652645,-66.76105,0.004465404,2.6403894,4.4066253,-1.1400914,221.06128,112.71575,19.553288,104.338936,104.62463,104.37245,104.74568,31.752523,0.7,-104.38086,-38.23414,0.0024313666,-9.454314,-4.433773,-5.122729,-0.73978657,-5.1113505,3.3436183e-07,0.3,-1.8075663,65.023605,64.97027,65.28401,65.51608,1.2756213,0.41875,5.208339214324951,35.29725298086802
53,530000,78.11162050643848,-66.88817,0.004901136,-1.0205034,2.5630333,-5.223431,209.73239,65.70909,8.018841,105.558784,105.27436,106.388756,105.3646,130.99983,0.7,-107.20348,-45.2985,0.0009987152,-9.617536,-18.830547,-13.237031,-13.906973,-11.760827,3.7550926e-05,0.3,-1.463719,65.23419,65.28978,65.54675,65.465324,1.6833594,0.4609375,5.520263433456421,35.95893170038859
54,540000,73.61335842850859,-65.77351,0.0046398067,0.3373382,4.8636947,0.0050172284,233.1092,94.170616,5.8523,105.04606,104.72325,106.50861,106.75326,52.93469,0.7,-105.46477,-49.450237,0.000937118,-10.383467,-2.34281,-1.8000829,-0.21411908,0.8215859,1.2919307e-06,0.3,-1.5406063,64.07501,64.13719,64.42253,64.75203,1.8663148,0.43593746,5.104769945144653,36.61173649628957
55,550000,101.08698112729144,-66.39155,0.004697504,0.35097793,4.8525534,-0.91783655,147.71756,180.44832,9.70034,107.88939,108.6807,108.35861,108.33489,54.850693,0.7,-108.25121,-43.003494,0.0046578865,-12.05917,-0.6935303,1.1597968,-2.1541727,-0.40763184,7.185787e-05,0.3,-1.2219152,65.270805,65.309685,65.74077,65.7358,1.4538288,0.45156252,7.265371322631836,37.29151622056961
56,560000,93.2012366839154,-66.84413,0.004896518,0.86020315,4.6355705,7.478596,114.3043,128.14613,7.489249,105.3877,104.97459,104.105865,104.778114,51.37795,0.7,-105.72942,-49.07889,0.0040772157,-13.564199,-6.2707667,-7.9544597,0.84756,-5.589179,1.0300835e-06,0.3,-1.4358594,65.30684,65.42739,65.19353,65.28677,1.3130906,0.46249998,6.670011043548584,37.96954587697983
57,570000,100.32937332680585,-67.08293,0.004181953,1.8638742,3.6588569,-0.39835262,121.33766,63.66845,6.654387,106.27106,105.414024,105.65309,104.545265,104.03518,0.7,-107.19167,-39.87637,0.0069506075,-11.694949,-1.3801715,-1.2327731,-0.348737,-2.3726583,2.118107e-06,0.3,-1.3929454,65.635,65.42875,66.07325,66.08641,1.216562,0.41875,7.322113275527954,38.66118454535802
58,580000,76.45301150681055,-67.18798,0.0043924325,-0.5664648,3.7379787,1.0635765,119.678925,57.01629,10.220823,106.44163,105.87157,104.63082,105.32826,65.33129,0.7,-106.83892,-57.985077,0.00026994268,-11.093632,0.508672,-0.41986716,-2.0715623,-2.4967942,4.654913e-06,0.3,-1.3226261,65.84963,66.008514,66.28432,66.17034,1.0934649,0.46875,5.437177419662476,39.32060685952504
59,590000,87.56517900591945,-68.638855,0.0042793397,-1.7930112,2.924179,-4.156844,155.45227,42.378048,7.8006005,104.34826,104.63206,105.02598,104.49139,14.521065,0.7,-105.773865,-42.511032,0.01193683,-12.683781,4.616955,4.8634353,4.303739,4.46108,5.9655287e-07,0.3,-1.6729237,67.19498,67.09927,66.69944,66.96919,1.0316556,0.490625,6.032722473144531,39.9928602774938
60,600000,99.72827759451023,-65.34164,0.0037587488,-0.60822475,5.2989836,0.30502695,116.3034,101.07597,10.281408,105.28057,105.183266,104.123314,103.30501,74.42667,0.7,-106.07756,-55.55496,0.0019324666,-12.199324,0.38359833,0.13728464,0.8493413,-0.7279252,2.3845203e-07,0.3,-1.4262433,63.913185,63.765717,63.232903,63.606857,1.5024717,0.4578125,7.245432615280151,40.68200470209122
61,610000,96.1260936902761,-65.23523,0.004200145,2.8924408,3.7909243,-0.06918791,187.9533,52.944923,8.809831,105.738144,105.32014,107.508156,108.14659,33.214275,0.7,-107.00353,-34.689365,0.0024052053,-11.274108,-0.4269675,-0.49439788,-0.20948726,-1.0880347,6.7700654e-05,0.3,-1.6160042,63.79032,63.710762,63.692146,63.83315,1.2319303,0.4921875,6.737585544586182,41.36312027374903
62,620000,99.7310856651782,-66.74573,0.004181905,-0.24294524,3.132489,-3.6301315,148.49005,81.35105,6.529111,106.46988,105.71854,105.73907,106.19578,55.694645,0.7,-107.6493,-43.487896,0.00092263706,-9.879317,3.9744496,3.417571,3.7292802,5.4632587,3.6386626e-07,0.3,-1.4779,65.36544,65.15915,65.79135,65.78406,1.1677136,0.4828125,7.8680901527404785,42.06247208515803
63,630000,73.09313875319485,-63.602905,0.0039776224,1.0636168,3.7755985,0.20655802,176.90648,45.079136,7.5973396,105.782936,104.76027,105.83689,105.75652,98.24935,0.7,-105.29835,-50.104263,0.000686494,-17.727528,-0.21204263,-0.089232266,1.2068857,1.1857859,5.9248952e-05,0.3,-1.6263847,62.16417,62.163696,62.492065,62.384872,1.2666817,0.4734375,5.32649827003479,42.71353580156962
64,640000,81.41999894625773,-69.103516,0.0039870185,0.46437895,3.8580332,14.25946,194.10973,171.76913,6.8363657,105.91675,105.937935,106.07701,105.45549,21.557285,0.7,-105.75613,-43.63675,2.7724076e-05,-9.535385,-4.5943537,-4.3040247,0.26988062,-4.7625117,8.200102e-05,0.3,-1.2495004,67.776474,67.69162,67.52815,67.65163,0.8404577,0.44687498,6.287405967712402,43.38487366437912
65,650000,74.979002354302,-68.60487,0.0035379091,1.5240571,3.0017898,-4.7429676,147.50838,56.494,15.619355,106.06669,106.528885,105.44763,105.78504,23.080841,0.7,-107.14117,-49.07026,0.005273412,-12.898116,-1.119658,0.50047755,-4.264685,1.4780756,9.480107e-07,0.3,-1.1650659,66.9283,67.04323,66.685036,66.828094,0.9816923,0.434375,5.585747957229614,44.04660062789917
66,660000,98.98597725609449,-67.3405,0.0036576905,2.720653,3.4062448,-4.111536,267.81943,47.0801,15.308211,107.07817,106.51587,106.62981,105.14595,58.702248,0.7,-108.36686,-43.63455,0.008047814,-11.8186865,-4.0367126,-7.6870313,-5.2822914,-5.4289913,1.3522805e-05,0.3,-1.6872432,65.438416,65.19846,65.19242,65.27261,1.1143391,0.4671875,7.147299528121948,44.72950144211451
67,670000,99.41880974332273,-65.337845,0.0033031988,0.039033115,4.380766,0.22429883,262.87097,77.84338,8.590977,103.645065,103.19641,105.03334,104.061386,22.35077,0.7,-105.663666,-55.685093,0.0040911157,-9.610236,-1.4098008,-1.5007036,0.00757356,-0.38952827,5.673384e-07,0.3,-1.4489098,63.56385,63.61345,63.81382,63.64791,1.2538779,0.515625,7.441639423370361,45.42072001695633
68,680000,94.54345375892548,-67.75014,0.003512195,0.26496494,3.378245,0.92918503,155.31017,49.128014,11.37381,105.122795,103.97875,105.653206,105.23638,18.25543,0.7,-105.1863,-43.86841,0.004751828,-9.847115,-2.9864633,-1.3699923,-7.068091,-7.998939,4.813046e-06,0.3,-1.4763017,66.56888,66.4205,66.27984,66.313934,0.74129945,0.4671875,7.325836420059204,46.110270261764526
69,690000,71.09045471039214,-66.10327,0.0035184943,-0.06509012,2.895732,4.9008484,154.67693,56.198715,7.2824693,106.280045,106.03235,106.30603,106.460236,15.363608,0.7,-107.27435,-49.301235,0.00068605144,-9.292481,0.45652074,-5.8395405,0.17374267,-6.0532603,7.019076e-06,0.3,-1.1193497,64.95018,64.873505,64.933105,64.993454,0.75120723,0.421875,5.219828844070435,46.76532300313314
70,700000,75.04179325096217,-66.12722,0.0035729758,-1.0029355,3.4695773,-4.809145,118.02302,142.82504,7.3170056,105.59332,105.46809,104.55141,104.48645,257.45926,0.7,-106.60662,-53.305237,0.0065973634,-13.812605,-0.9629882,-1.3580394,0.05764907,0.086507976,4.4146438e-07,0.3,-1.3407302,64.466675,64.39047,64.11257,64.160835,2.2702177,0.4765625,5.653550386428833,47.42455875476201
71,710000,90.72594019886527,-69.00422,0.0033310354,0.41097438,3.8929644,-1.4945682,238.71371,53.655296,12.300769,105.7464,106.07534,105.6654,105.801346,40.798264,0.7,-107.581406,-51.21078,0.0007549612,-9.913237,-3.4244032,-1.9675735,-3.4166064,-0.5320729,3.677269e-09,0.3,-1.0368031,67.41437,67.43314,67.143295,67.370285,1.3901346,0.4515625,7.240931272506714,48.11246891816457
72,720000,98.34888072731354,-66.99146,0.0031701033,-1.0655172,2.7035873,-2.1574192,172.49767,53.408737,10.610707,109.08342,108.32729,106.74836,107.7449,26.050049,0.7,-110.468315,-68.21814,0.00062420714,-10.794706,-0.5558052,-2.2121942,0.91633385,2.6827786,1.04882936e-07,0.3,-1.3434026,65.81593,65.717834,66.05922,66.016205,0.91201425,0.4578125,7.213296175003052,48.800654466946916
73,730000,67.93795395586606,-69.110344,0.0034057486,0.11375761,4.818421,-4.636006,234.16034,226.4945,8.766631,104.43634,104.31646,105.2334,105.640495,108.23296,0.7,-105.51005,-41.77269,0.0033672655,-11.505274,1.6131155,1.2402271,3.9721103,2.4548826,8.649625e-05,0.3,-1.5118809,67.59392,67.67067,68.14924,68.386505,2.0105705,0.43593746,4.89594578742981,49.450360318024956
74,740000,88.36368613104726,-66.92825,0.0031492617,-0.19563577,3.297437,-1.8603927,134.34076,78.43306,6.5305834,105.08545,105.36593,105.28369,105.59537,147.3729,0.7,-107.561676,-46.736637,0.016546233,-18.676413,2.0076318,1.0368946,-0.6481057,-0.3234967,8.321639e-05,0.3,-1.6944506,65.380844,65.395874,65.24209,65.53855,1.7450336,0.4421875,6.480008602142334,50.129298679033916
75,750000,86.42783307447276,-66.25871,0.003096411,0.59857315,3.2725081,-4.1203527,181.27283,73.52091,5.9301906,105.22124,104.996185,104.16899,104.3641,12.700096,0.7,-105.03494,-46.64904,0.0008573498,-13.165086,-1.7148203,-0.7968741,-1.7098032,-0.40038925,2.508302e-06,0.3,-1.4745721,64.93054,64.87828,64.810036,65.12743,0.64726335,0.40937498,6.174443960189819,50.80689184268316
76,760000,92.66874874657641,-64.23285,0.00303008,-0.15075946,3.4359834,2.5068808,131.87175,49.911964,7.3065434,104.329605,103.82885,104.786385,104.840675,24.071436,0.7,-104.62317,-51.98414,0.00022728054,-11.773645,-3.415547,-3.5884137,-1.1454388,-1.3288522,5.6688614e-06,0.3,-1.3466766,62.867912,62.92935,63.415367,63.529068,1.0413272,0.4453125,6.799638032913208,51.49055094321569
77,770000,88.0672476208474,-66.50271,0.0028950835,1.1012132,5.1562634,-9.286991,178.16266,123.86247,17.629147,105.152435,105.318825,105.53312,105.59524,179.69966,0.7,-105.95884,-60.189404,0.012956221,-10.121151,-4.732916,-8.454765,0.5717507,-5.457748,1.7954666e-05,0.3,-1.3179066,64.49192,64.516266,64.58,64.96213,2.2532558,0.45468748,6.3234827518463135,52.167001469930014
78,780000,71.75605302569389,-65.745056,0.0023531732,0.27223158,2.898826,-1.2482221,159.10518,72.94123,30.752771,106.843994,106.881775,105.354324,106.10568,51.95722,0.7,-106.64301,-43.93134,0.0045677843,-12.197519,0.32324618,1.1562891,1.4828236,2.4589238,5.7191515e-05,0.3,-1.2439191,64.18086,64.29816,64.04444,64.50684,1.2816525,0.4578125,5.047984600067139,52.82107632557551
79,790000,95.60141775038369,-64.15352,0.002246996,-1.2008286,2.5714655,-1.5987959,160.98389,25.482244,25.080065,108.50074,106.85691,107.246216,109.0981,84.947266,0.7,-106.54131,-46.92456,0.00011020043,-10.623946,-1.4072171,-0.75471854,-0.306299,-1.1527011,3.1553208e-07,0.3,-1.4159839,62.7138,62.6898,62.73998,62.87818,1.0531586,0.43281248,6.8023293018341064,53.502916951974235
80,800000,95.54051525544035,-68.508865,0.0021525547,-0.7470488,3.3775778,1.474561,149.27989,60.09746,8.474094,104.26218,104.28349,103.68673,105.048325,41.301056,0.7,-105.63946,-64.5638,0.007900062,-9.291109,-0.3730172,-0.7846784,-3.0725267,-1.7367241,1.0353397e-07,0.3,-1.4227229,66.67557,66.629776,66.41783,66.62675,1.3072524,0.47499996,6.93523097038269,54.18573100566864
81,810000,85.45601031275913,-65.96408,0.0022242363,0.7572825,4.3370724,0.6816321,266.04492,65.30654,19.51188,105.503136,105.58041,105.472946,105.61238,247.38997,0.7,-105.86868,-48.323517,0.0024256299,-10.375283,0.26086825,-2.7218988,1.3965087,-4.7323713,1.170598e-05,0.3,-1.0585618,64.409164,64.40726,63.77871,64.35683,2.278521,0.421875,6.047121524810791,54.85769398609797
82,820000,82.23125957450137,-65.57643,0.0023830994,1.5011964,3.009438,-0.674412,172.68468,63.666428,22.731117,102.4253,102.28791,101.844925,101.750206,48.74056,0.7,-103.06806,-52.98635,0.011502241,-12.4204445,-3.3423228,-6.0109644,0.5703089,-7.080414,6.9849193e-07,0.3,-1.6152306,64.109024,64.10091,64.006386,64.172104,1.2719015,0.42499998,5.861653566360474,55.52569503386815
83,830000,98.8782725481818,-67.15229,0.0020804426,1.016624,3.1656847,0.2282113,123.71805,95.445694,6.7247744,106.21692,106.50867,105.75518,105.53026,36.97699,0.7,-106.67248,-51.99257,0.0029592137,-13.792347,0.7417003,0.39013308,0.28929645,0.42256927,3.0803495e-08,0.3,-1.3871436,65.45548,65.597015,65.84108,65.6786,1.1761892,0.4734375,7.245335578918457,56.21567434469859
84,840000,84.2206759169298,-66.86124,0.001784997,1.3208587,3.6952605,-2.7857969,219.83762,59.048653,22.256237,103.088524,102.75223,104.20739,104.15986,298.9623,0.7,-103.19231,-51.30843,0.008859768,-16.231228,-2.8061743,-5.387539,-8.140037,-2.2268858,1.5662517e-05,0.3,-1.7017466,64.98753,64.987686,65.14366,65.51694,2.2901354,0.42031246,6.2336859703063965,56.889335703849795
85,850000,96.3253577680966,-67.744064,0.0016269082,-0.33642542,3.843394,-0.49497896,165.54759,94.513596,8.331234,106.379036,106.583885,106.70222,106.70001,440.4206,0.7,-105.93483,-56.824604,0.002226282,-13.723677,-2.6061597,-4.20488,-1.0886836,-3.130559,1.6135571e-06,0.3,-1.3288076,66.25404,66.43885,66.45465,66.39633,2.808006,0.459375,7.008455038070679,57.57529242038727
86,860000,97.56337661141285,-64.50008,0.0013917004,1.879484,4.7199187,-0.94610506,232.40343,239.52673,8.450851,103.79643,104.30878,104.05833,104.41343,24.977375,0.7,-104.7494,-46.61368,0.0010047925,-12.955932,0.5763752,0.7271155,0.07793945,1.9592046,8.361315e-06,0.3,-1.1873312,63.401123,63.451946,63.467167,63.48985,0.84339297,0.46718752,7.0468549728393555,58.26001716454824
87,870000,92.65473536845947,-64.12021,0.0012801525,1.105552,5.376959,2.0292826,196.76096,99.53113,6.4445066,106.083084,106.45437,105.58274,105.26043,46.49667,0.7,-105.89409,-72.879974,0.007391645,-11.24484,-0.55607015,-2.2704313,-7.9116683,0.12650621,2.377684e-06,0.3,-1.5786238,62.444065,62.402634,61.685257,62.105263,1.2381339,0.47968748,6.963840007781982,58.948461616039275
88,880000,97.14244813354203,-66.60101,0.0011864149,1.1860447,2.418418,-2.7337332,227.0302,24.289537,6.951671,104.892944,104.899925,105.28727,104.94501,20.247337,0.7,-104.3868,-61.636543,0.009339339,-11.908307,1.9269584,2.125187,3.01192,2.9421554,6.0992493e-06,0.3,-1.2957904,64.822044,64.89284,64.99329,65.054535,1.012728,0.45937496,7.257249116897583,59.63598505655924
89,890000,97.53792182123419,-68.56517,0.0011975094,-0.6155619,2.4085793,2.116932,182.31172,56.99193,7.0717254,104.4542,104.546165,105.40719,105.010185,72.20871,0.7,-104.75297,-52.939037,0.0022787184,-14.054478,-0.74938387,-2.3592954,-6.831461,-8.158218,1.4685794e-06,0.3,-1.23947,67.441055,67.373314,67.37932,67.26459,1.3587396,0.44687498,7.26354718208313,60.32676358222962
90,900000,87.64056969199035,-65.4604,0.0011416546,-0.8915181,2.3201587,-1.7152021,166.5825,37.43827,10.930689,105.059166,105.6772,105.93181,106.04199,146.51358,0.7,-106.217285,-51.021336,0.0005184969,-11.028046,-1.2212281,0.83728105,-1.5506756,-1.291297,3.7343838e-05,0.3,-1.222801,64.03904,64.37273,64.054596,64.33616,1.5134534,0.44375,6.344892501831055,61.004697902997336
91,910000,96.3113910965976,-67.96999,0.0009358188,0.7268815,3.97829,-3.4957,205.95004,102.83217,8.354727,103.50861,104.23839,104.9511,104.59519,38.301773,0.7,-104.77323,-53.09472,0.0051351753,-14.092014,-0.7552278,2.0028067,-0.024242878,0.36128992,3.0146957e-06,0.3,-1.6204364,65.992676,66.12312,66.23309,66.6548,1.519239,0.4109375,7.128215789794922,61.69487478335699
92,920000,93.48011201954594,-66.78639,0.00088581984,-0.30271342,4.548217,-4.356277,176.60718,150.10255,8.424384,106.032425,106.32779,106.60164,106.40365,455.8356,0.7,-106.05179,-54.733948,0.00019883487,-14.268496,4.7302294,3.566508,3.7986977,3.651826,3.1912787e-05,0.3,-1.513021,65.19453,65.24001,65.403564,65.57108,3.7282872,0.4375,6.907420635223389,62.37350170612335
93,930000,92.4120907238797,-65.70858,0.0008396193,5.5229197,13.510134,1.0773946,219.12276,2449.5195,9.620564,105.8166,106.678,106.20499,105.8913,20.389381,0.7,-106.95601,-55.256844,0.00127352,-11.741213,-2.174505,-2.8127763,0.44359186,-2.6097403,2.6418712e-07,0.3,-1.1154356,64.155136,64.17968,63.95257,64.33497,1.0122614,0.4359375,6.560683012008667,63.05287763675054
94,940000,87.92826107749717,-64.638084,0.00075857446,2.5112662,3.5603786,-1.1528567,177.36131,76.49504,15.596123,106.81806,105.47427,106.24867,106.09306,58.423298,0.7,-105.641594,-56.903656,0.0005708533,-11.908007,0.78430426,1.1452005,0.41570458,0.5256292,2.0670892e-05,0.3,-1.4768612,62.905373,62.96601,62.812263,63.05911,1.5197946,0.421875,6.462581157684326,63.73044086694718
95,950000,87.98303188010223,-63.457203,0.0007176356,0.46420825,4.541741,-0.21885967,158.75594,164.28027,13.004972,106.58455,106.12496,107.037704,107.195564,196.14783,0.7,-107.31305,-59.72953,9.892555e-05,-10.884336,-4.2377777,-3.0685465,-6.2135015,-0.9604155,3.2362923e-06,0.3,-1.5450048,61.42924,61.667416,61.82902,62.1046,2.2170663,0.45625,6.611359357833862,64.40723437865576
96,955000,95.24918013180603,-66.69635,0.00070126634,1.1686622,3.6941807,0.071637094,237.07927,63.242012,7.8187437,108.03924,107.12788,107.67624,107.879196,38.46777,0.7,-107.1386,-57.77894,0.00076879153,-11.1376505,-2.4672627,-3.9461653,-0.24729574,-3.290211,1.6297607e-06,0.3,-1.5372118,64.92558,64.89589,64.8524,64.95068,1.078651,0.46875,6.960403680801392,64.80540230274201
97,960000,83.94899381944502,-65.146736,0.000681173,1.7838519,4.3221917,-1.5845733,165.19165,187.562,11.747658,105.06494,105.39341,105.35289,105.06387,263.10107,0.7,-105.37629,-62.91605,0.0048959814,-18.447182,-0.076704025,1.1644795,-1.7137392,-0.8273365,2.7080694e-05,0.3,-1.1211984,63.123978,63.149063,63.41661,63.9684,3.2039614,0.4265625,6.12055516242981,65.19246513843537
98,965000,90.64202976525266,-66.24592,0.0006778428,1.4294326,4.51165,-0.5458086,226.56781,198.41776,10.567776,108.69581,108.34574,108.608475,108.83342,100.665504,0.7,-108.15723,-97.58021,0.012508579,-13.011352,-1.6478999,-1.4527106,-1.8962402,-1.1967206,0.00010290107,0.3,-1.7695866,64.28244,64.07763,64.12532,64.59483,1.8844008,0.4203125,6.5153186321258545,65.58608206113179
99,970000,93.46673448966159,-67.428116,0.0006810006,3.6590524,3.2351053,2.589776,282.71213,98.78244,8.218676,106.63215,107.784454,106.836365,105.9988,54.420197,0.7,-107.87817,-53.97787,0.0015242491,-15.063558,-0.9040744,-2.998661,-1.3107657,-3.7823012,2.8749926e-07,0.3,-1.6078346,65.76501,65.757545,65.80681,66.01044,1.2484992,0.4671875,6.850719928741455,65.98327111005783
100,975000,91.43491883794948,-64.11514,0.00067583896,2.631466,3.8311915,0.14703001,242.81549,131.31776,7.372881,108.04923,108.09813,107.38083,107.50829,322.69122,0.7,-108.60145,-60.346848,0.0072945748,-9.793073,0.1380502,-0.6366446,0.8650854,1.0982282,8.924212e-06,0.3,-1.2352891,62.69636,62.597305,62.822876,62.756493,2.2155435,0.44062498,6.694324016571045,66.37606378793717
101,980000,94.45407586960879,-64.76236,0.0006932897,-1.9119316,3.5286562,-1.0062033,129.8964,74.72958,6.9921803,104.40164,104.91206,105.10452,105.13312,28.51681,0.7,-106.38173,-70.3249,0.002512407,-15.83743,-1.0347624,0.052740395,-2.3467805,-3.2954311,3.1121746e-07,0.3,-1.164113,63.58261,63.769394,63.85544,63.958885,1.1504829,0.46093747,7.06364107131958,66.7816959341367
102,985000,97.65971815498243,-65.68066,0.00071378873,0.8095071,5.611974,-1.4339161,187.88554,176.42126,6.3515863,104.86316,105.111565,106.667915,105.46348,59.91553,0.7,-105.15395,-85.799286,0.0024952975,-11.108061,1.4673631,0.5745053,0.06589931,1.1314179,1.1713885e-06,0.3,-1.7653581,63.77359,63.725967,63.77799,64.31224,1.6894126,0.3828125,7.359476089477539,67.18932605187098
103,990000,91.43385090835588,-66.102066,0.0007018682,1.1751627,2.4566545,-0.8720357,303.24973,30.190828,7.830724,104.495056,104.57028,106.21496,105.612076,159.6452,0.7,-106.09707,-76.438705,0.0024623163,-15.583038,1.0853992,-0.8519414,-0.509488,1.3165207,1.0171672e-06,0.3,-1.2265859,64.32206,64.381424,64.63666,64.88051,2.3392186,0.4671875,6.685380458831787,67.58265545765559
104,995000,97.00904435500199,-67.93405,0.0006713512,-0.19547439,2.3135126,-0.39785957,150.45758,53.984642,7.150942,106.54519,106.89895,106.64959,106.881546,100.745766,0.7,-107.68966,-65.952736,0.0076833707,-13.532133,0.019840002,-1.2797561,-2.202037,0.31767762,5.4664024e-06,0.3,-1.3709275,66.61863,66.62131,66.631,66.927605,1.2727532,0.41250002,7.084745407104492,67.98618146975835
105,1000000,97.46933434614822,-63.47852,0.0006579528,-0.7619322,3.6151118,-1.9281375,269.0718,62.582634,11.091916,105.03208,105.927216,104.90315,106.59681,59.83814,0.7,-109.750656,-61.722767,0.00029768137,-13.368375,-2.8328612,-2.3824208,-6.17802,-6.8661203,5.835174e-05,0.3,-1.3496715,61.758804,61.92673,61.67308,61.997078,1.325149,0.4609375,7.199244022369385,68.39193766117096
