Xixo99/comfo/baselines/comfo7_copy/20230223_cw0/halfcheetah-medium-replay-v2/COMFO7_s0_20230224_033824_halfcheetah-medium-replay-v2_34.03.csv
,step,reward,actor_loss,alpha,alpha_loss,avg_conservative_loss,avg_smooth_loss,conservative_weight,critic_loss,max_actor_loss,max_alpha_loss,max_critic_loss,max_mle_prob,max_q1,max_q2,max_target_q,max_v,max_value_loss,max_weight,min_actor_loss,min_alpha_loss,min_critic_loss,min_mle_prob,min_q1,min_q2,min_target_q,min_v,min_value_loss,min_weight,mle_prob,q1,q2,target_q,v,value_loss,weight,eval_time,time
0,0,2.255345450074763,,,,,,,,,,,,,,,,,,,,,,,,,,,,,,,,,,,,
1,10000,-0.3151766934788306,-21.847,0.073440254,-4.7926207,-0.000106327956,0.59343225,0.0,2.1763783,5.0328245,17.83373,61.822132,11.934494,39.231194,38.945667,39.502613,38.60203,1.8808941,0.7,-38.98068,-32.07426,0.0013050084,-140.53145,-5.132533,-5.5121684,-5.1921473,-4.9126053,7.392326e-07,0.3,-9.886532,21.531487,21.646822,21.647085,21.252707,0.10405462,0.43124998,5.751974105834961,2.7566165884335834
2,20000,-0.6386420614264646,-39.822445,0.08373893,0.3859403,0.0002576705,1.0020322,0.0,3.2378798,3.5594063,17.785242,75.40493,10.155094,60.694553,61.495853,60.944504,61.18351,5.7196717,0.7,-61.48715,-29.13116,0.00035773055,-395.25385,-3.9760637,-3.868758,-3.9594288,-3.8692348,2.8748559e-08,0.3,-11.669115,39.50392,39.692146,39.49404,39.365463,0.17819288,0.45,5.740123987197876,3.7941649476687114
3,30000,2.0043392375284976,-46.20288,0.08563129,-0.586275,0.0009980174,1.2355177,0.0,3.7519598,7.69713,25.807125,101.749466,12.648735,74.26987,73.785065,74.832664,74.364586,4.5085707,0.7,-73.39374,-29.813936,0.00017258071,-259.34082,-8.396062,-7.3657384,-7.1815443,-7.6128597,3.6670826e-08,0.3,-9.035581,45.944477,46.125465,46.148563,46.05719,0.1813628,0.428125,6.269806861877441,4.839477241039276
4,40000,12.89069580099755,-52.739567,0.07992002,-0.936715,-0.0021418063,1.3253106,0.0,4.708175,12.465405,39.885433,209.22467,14.6422615,79.9191,80.46305,80.60766,80.43669,13.521405,0.7,-81.20073,-30.46109,0.0018007115,-202.04996,-12.768909,-11.912806,-11.639928,-11.239824,8.802745e-08,0.3,-8.406749,52.41797,52.844254,52.939247,52.91327,0.2968933,0.4359375,6.1833882331848145,5.881394330660502
5,50000,26.969485828485553,-56.877514,0.077591635,-0.80646574,-0.0028069273,1.367082,0.0,3.4968684,12.41503,36.921654,61.90212,13.230084,81.788055,81.54257,81.89132,81.89302,5.236307,0.7,-81.31173,-29.445423,0.008382682,-225.35501,-12.164921,-12.428682,-11.196593,-11.876695,9.277763e-07,0.3,-9.6951065,56.7029,56.759686,57.251656,56.97259,0.27866653,0.453125,6.123485565185547,6.9234898289044695
6,60000,20.019907330202464,-56.505997,0.07387111,-0.8847859,-0.0008876342,1.3195,0.0,4.4232388,8.473651,34.687706,384.18805,14.827221,83.819115,85.248695,84.04584,84.54584,6.885963,0.7,-84.679115,-29.334703,6.213197e-05,-248.859,-9.321517,-8.468492,-8.519221,-10.132154,3.228779e-08,0.3,-11.631496,56.026688,56.54411,56.04853,56.2109,0.29917878,0.4421875,6.126035213470459,7.966868595282237
7,70000,19.416895373946282,-60.906757,0.07197858,0.26259333,0.0009973276,1.5131041,0.0,3.5682864,7.289395,29.867958,79.34647,13.142337,84.381836,84.74054,85.21506,84.95527,9.30685,0.7,-85.44641,-29.745241,0.0006766986,-257.73502,-7.7372503,-7.045676,-7.0382085,-6.921799,2.4258159e-06,0.3,-11.652519,60.595345,61.123116,60.867058,61.015957,0.32065582,0.4265625,6.034193277359009,9.008017547925313
8,80000,29.467128789792845,-60.03398,0.069892585,0.1544851,-0.00025718092,1.3325865,0.0,3.114821,8.090718,37.917007,71.09844,12.733799,85.162384,86.63646,86.32945,85.15348,4.0420103,0.7,-86.00808,-30.936455,0.0011944866,-250.93889,-8.42569,-8.227267,-8.295258,-8.745654,3.7757857e-06,0.3,-11.676002,59.8272,60.026615,59.764744,59.736763,0.26840323,0.465625,6.07275390625,10.04930993715922
9,90000,31.465584742400697,-64.01959,0.06671971,0.57836825,-0.00044270905,1.3188097,0.0,3.5155654,7.710172,30.964155,192.0844,12.584323,84.55615,86.044815,84.81459,84.65713,7.4623165,0.7,-85.01445,-31.331842,0.0015048299,-420.46008,-7.685236,-8.673221,-8.449117,-8.726294,3.309542e-06,0.3,-15.91631,63.672993,63.83436,63.360107,63.471878,0.31247053,0.475,5.803603887557983,11.0860715508461
10,100000,35.07585035507926,-59.069767,0.0649195,0.19523048,0.0017512918,1.4210882,0.0,4.222859,6.732113,53.189114,143.73778,13.157633,84.908104,86.30017,86.10976,86.26727,12.91325,0.7,-85.349625,-31.328693,0.0010120107,-268.92715,-6.8730993,-7.314627,-7.904812,-7.368227,6.102392e-06,0.3,-16.048397,58.76764,58.92065,58.632545,58.792282,0.40548742,0.478125,5.698442459106445,12.12443885008494
11,110000,32.761903478172286,-61.97553,0.0639275,-0.24449962,-0.0001472774,1.2916968,0.0,3.4241953,7.468544,33.109547,89.29632,15.321857,86.70606,86.46896,86.216095,85.82431,5.617581,0.7,-86.14158,-30.045107,0.009433023,-701.3436,-5.3973336,-8.303277,-7.91667,-7.0312667,4.3226754e-07,0.3,-17.352894,61.79849,61.786137,62.156334,62.14353,0.2529713,0.3890625,5.782426834106445,13.162946832180022
12,120000,32.68381362379837,-64.38233,0.06135124,-0.096127585,-0.00012738537,1.2480649,0.0,2.6427915,5.414593,34.87197,65.322495,15.066167,84.545746,84.66848,85.769844,84.51367,13.597706,0.7,-84.06236,-33.96538,0.003179228,-357.62555,-5.863126,-6.1224275,-6.1377273,-5.893054,1.19695205e-05,0.3,-16.719704,64.15709,64.065636,63.963394,64.241196,0.3378089,0.45,5.75736403465271,14.20251673857371
13,130000,33.530792855097644,-62.129955,0.059591696,-0.46758914,-0.0010288571,1.2946434,0.0,2.6559653,7.089031,28.136543,87.20426,13.187898,85.223175,85.00479,85.673676,85.28592,28.876116,0.7,-84.81582,-35.969193,0.0016501874,-398.62003,-8.2893715,-8.805986,-7.6627555,-7.8859944,5.0466045e-09,0.3,-18.279884,61.941612,61.78112,62.173683,62.072884,0.40106112,0.4625,5.70535945892334,15.239355782667795
14,140000,34.967008679046835,-63.3773,0.059681326,0.9817778,-0.00253781,1.3512577,0.0,3.347444,4.404246,30.800512,84.66669,9.493477,87.324974,87.13953,86.86701,86.324585,10.058113,0.7,-86.705696,-35.83413,0.00022949936,-364.81595,-5.288415,-5.0352926,-5.2980433,-5.044713,3.939931e-06,0.3,-19.87116,62.998142,63.06255,62.85545,62.689697,0.3395306,0.509375,5.771283149719238,16.273198386033375
15,150000,35.18985105334064,-57.378403,0.058821738,-1.0064613,-0.0018929541,1.321907,0.0,2.8837001,5.3353257,51.212196,45.052628,12.414624,85.289856,85.87267,85.82005,85.18022,4.4098926,0.7,-85.49212,-33.666496,0.00019916767,-938.6837,-7.5211864,-6.5588937,-6.709,-8.519288,3.677269e-07,0.3,-32.4024,56.869728,56.816704,56.973206,57.039448,0.29215688,0.459375,5.741933107376099,17.304497746626534
16,160000,35.71151532137321,-63.8379,0.05870152,0.7668578,0.00073903555,1.4965069,0.0,3.9378953,5.5962224,40.524784,157.55107,11.524084,85.009476,84.2914,84.527664,84.197044,7.580933,0.7,-83.9629,-34.441715,0.002480952,-704.29565,-8.870162,-7.109784,-7.9753847,-10.895227,4.2332962e-05,0.3,-27.178051,63.51468,63.368195,63.164066,63.226166,0.33786058,0.496875,5.764236211776733,18.340808113416035
17,170000,33.29223452088112,-60.48426,0.0593059,-0.45040232,-0.0015803383,1.0648106,0.0,2.895061,5.009297,38.842785,95.193985,13.724951,85.18983,84.3223,84.03973,83.77114,17.35782,0.7,-83.89548,-33.551216,0.0024113883,-325.64435,-5.3438835,-6.651779,-7.4231076,-6.5888896,8.449904e-08,0.3,-22.975727,60.75544,59.97847,59.999386,60.319542,0.3260148,0.4765625,5.774612188339233,19.37840887705485
18,180000,34.31977604325114,-62.923683,0.058449287,1.4995562,-0.0035027124,1.2177906,0.0,2.536416,4.582407,35.06125,45.04338,13.857761,84.59256,84.294044,84.31479,84.36069,6.2541776,0.7,-83.66847,-31.181122,0.0017797903,-222.15065,-6.299385,-6.2694616,-5.895776,-5.5737996,4.3655746e-06,0.3,-19.53501,62.63459,62.61492,62.912933,62.841785,0.2935115,0.39999998,5.719289302825928,20.414608240127563
19,190000,33.75138671156354,-60.183914,0.05721307,-0.6778092,0.0009915078,1.2211504,0.0,2.834077,4.94373,33.654564,63.231636,12.405827,84.777985,86.406555,85.688835,85.34892,3.1959445,0.7,-84.23328,-33.033195,0.0010308749,-513.72534,-6.752059,-6.0530543,-8.342417,-7.7155557,2.0080945e-06,0.3,-28.156662,59.63966,60.12849,60.153942,60.100918,0.21558258,0.43281248,5.811215877532959,21.4508727312088
20,200000,34.333042657221746,-61.15248,0.057070106,0.87202,-0.0009192801,1.4569618,0.0,5.114454,5.318681,28.489267,577.1405,12.375189,84.51174,85.046165,85.08147,85.39968,15.588313,0.7,-83.73223,-33.002266,0.0072207614,-402.85553,-7.537977,-6.582912,-7.2196174,-7.545396,6.708317e-07,0.3,-28.002712,60.65317,60.73764,60.710854,61.060574,0.40021583,0.40625,5.717396259307861,22.484449362754823
21,210000,36.027037828810066,-56.99288,0.056772195,-0.07734501,-0.00085708377,1.4532503,0.0,2.267329,5.697253,52.66251,34.372494,11.197602,83.58613,84.153175,84.48067,83.92487,28.233011,0.7,-83.22025,-32.96701,0.00062042946,-533.59314,-5.948035,-4.3023853,-7.059589,-6.0077124,2.4295123e-06,0.3,-21.970686,56.55368,56.77037,56.78501,56.7007,0.5058894,0.4421875,6.111857891082764,23.5278039932251
22,220000,35.22164775256522,-59.669216,0.05629438,-0.2813645,-0.003047064,1.6451432,0.0,3.138973,5.967438,33.023865,113.36516,13.832503,84.03574,83.53779,82.99984,83.75719,14.440165,0.7,-83.36083,-42.582916,0.004907863,-874.8544,-6.317047,-7.740855,-7.384882,-6.4973125,1.8548242e-07,0.3,-43.146538,59.415314,59.07936,58.901436,59.115555,0.38740668,0.484375,5.9806599617004395,24.56456839243571
23,230000,36.59303385607236,-60.509514,0.056589298,1.7155447,-0.003922256,1.4828479,0.0,5.1789737,5.823817,47.316425,514.02985,14.480897,84.93385,84.44164,84.82045,84.98582,21.28011,0.7,-83.63854,-32.175922,0.0003758818,-995.173,-7.929923,-7.2648005,-7.802884,-7.6431556,2.3905886e-06,0.3,-25.764183,60.0381,60.15097,60.425377,60.275013,0.5782417,0.4734375,6.048417329788208,25.603455487887064
24,240000,36.33839551498305,-62.552475,0.057294756,1.443216,0.00033060444,1.4456159,0.0,3.0194538,4.0079017,25.478706,94.281586,14.010075,82.70262,83.00422,83.68993,83.47865,6.0228333,0.7,-82.372246,-33.277664,0.0039824955,-511.07132,-5.5185127,-5.706238,-3.9314437,-5.758548,1.2919307e-06,0.3,-28.675968,62.197243,62.163937,62.159092,61.971832,0.34861627,0.4984375,6.294618844985962,26.64199631214142
25,250000,36.209132030146186,-59.59382,0.05726769,0.9279057,-0.0026551106,1.3114268,0.0,4.0997505,8.030058,41.14381,339.69934,16.57552,82.58902,83.053635,83.01541,82.82175,14.142214,0.7,-82.49541,-31.789669,0.00043508987,-981.7603,-5.659675,-5.8523326,-4.7735248,-4.4978867,1.852978e-06,0.3,-42.680717,59.2649,59.062103,59.10317,59.251987,0.36455488,0.465625,5.9816060066223145,27.68258591890335
26,260000,35.19382733255054,-60.088867,0.057111334,0.21138826,-0.0044247466,1.3095644,0.0,2.8860786,3.7491655,38.60242,82.52722,13.444433,83.18673,82.41499,83.578575,82.8533,6.0424867,0.7,-82.3375,-31.427814,0.0014066944,-239.7872,-4.3491173,-5.250812,-5.1187572,-5.124781,8.074567e-06,0.3,-24.728958,59.80812,59.580215,59.80227,59.807205,0.32782358,0.45625,5.9360222816467285,28.716932928562166
27,270000,34.20721660784385,-58.480957,0.057199337,-0.4559381,0.0013189897,1.2816118,0.0,4.1688223,3.8056412,47.10936,453.43353,14.252736,83.94838,83.69132,84.02172,83.7634,4.890437,0.7,-83.473946,-34.20891,0.021787785,-507.78732,-4.1720924,-4.726107,-5.3176684,-4.670184,4.3514493e-08,0.3,-24.890266,58.501583,58.08967,58.47904,58.45347,0.2557277,0.4578125,5.982174396514893,29.751155559221903
28,280000,36.78881497495232,-60.25639,0.05801321,1.3434632,-0.0021662153,1.3667902,0.0,2.2580636,3.27884,35.6783,100.37244,13.22896,82.328896,83.21286,84.68563,83.33589,7.112688,0.7,-81.91004,-30.28753,0.0007939097,-187.4957,-4.375428,-4.8220606,-5.038639,-4.086651,1.4709076e-06,0.3,-22.21589,59.897263,59.773346,59.563263,59.703415,0.27909473,0.434375,6.260128736495972,30.787285407384235
29,290000,33.42183690341635,-59.29975,0.057033043,-1.1597717,0.0024928271,1.4036733,0.0,3.3861022,4.325719,36.17734,198.88603,14.540359,83.09347,83.56217,83.336426,83.70829,5.152748,0.7,-82.188324,-33.430923,0.02000653,-461.08704,-5.0221624,-4.891101,-4.370555,-4.1353903,5.657619e-07,0.3,-29.959457,58.837788,59.300262,59.288605,59.36669,0.2442038,0.43124998,5.869177579879761,31.80224826733271
30,300000,35.827215695897536,-60.54026,0.057075314,-0.29600918,-0.0030668925,1.3172874,0.0,3.1879601,5.26595,46.36591,178.33647,13.213841,82.867355,81.89989,82.73463,82.309746,20.61757,0.7,-82.00491,-34.123127,0.0024596187,-472.80048,-4.2645645,-5.9819274,-4.935364,-4.900596,5.620129e-05,0.3,-32.198837,60.326294,59.93776,60.366142,60.359035,0.42294297,0.43593752,5.864656448364258,32.80613440672557
31,310000,35.6403670768254,-58.46659,0.05651831,0.41338986,-0.0017320756,1.1978699,0.0,7.4453397,4.0567603,33.53265,565.5028,13.507679,84.25976,83.317894,83.36027,82.96056,23.709099,0.7,-82.8222,-30.99358,0.03545556,-688.92017,-3.8344374,-3.9902596,-3.8561845,-4.383181,3.1489647e-06,0.3,-32.065567,58.41458,57.649128,57.714203,57.803703,0.5398898,0.4796875,5.769420146942139,33.83616764942805
32,320000,34.35591203769889,-56.94512,0.057057045,0.035756826,7.773266e-05,1.6082977,0.0,3.7379506,3.9424524,32.608604,93.78456,12.262056,83.69986,83.23058,84.35218,83.54549,9.779293,0.7,-83.16668,-32.43822,0.020636095,-914.7378,-4.713085,-4.450226,-4.225519,-5.034384,1.2175152e-05,0.3,-40.431694,56.13819,56.58798,56.699486,56.285942,0.44577187,0.465625,5.748431921005249,34.874018760522205
33,330000,33.15715953684658,-59.218548,0.056075435,-0.40984124,-0.0042193756,1.2293965,0.0,2.7310991,5.0807223,40.076405,122.297035,14.396909,82.57708,83.299706,83.39424,82.69421,9.578592,0.7,-82.45511,-37.26458,0.00048018812,-728.5604,-5.6091485,-4.863039,-4.912033,-5.30299,2.3877847e-05,0.3,-30.659311,58.9114,58.973526,58.80329,58.827965,0.30670848,0.49374998,6.121796607971191,35.91550081173579
34,340000,36.81952065040537,-57.654827,0.056744345,-1.0192116,-0.00067683664,1.33534,0.0,3.9044511,4.744062,29.250502,284.3178,13.877841,83.44161,84.52131,83.92295,83.72873,37.20905,0.7,-83.0188,-33.062054,0.001110889,-747.49146,-4.234239,-4.970586,-4.9815364,-4.5086546,1.9398867e-07,0.3,-33.83948,57.098145,57.257202,56.95103,56.92916,0.57138884,0.56875,5.786219120025635,36.94350189765294
35,350000,35.887077635504845,-57.15372,0.057424564,-1.605358,-0.0007314211,1.2233089,0.0,2.2867837,3.2956445,30.306969,66.0378,11.079089,82.96199,82.79115,82.72321,82.30834,24.69038,0.7,-83.16796,-31.87332,0.0059479848,-1000.4922,-2.9489722,-3.6787422,-5.399451,-5.69427,2.7939678e-10,0.3,-33.604965,56.63046,56.620132,56.39854,56.349117,0.4269926,0.5171875,5.792243003845215,37.98345651626587
36,360000,35.41078871445827,-56.75882,0.056732412,-0.208318,-1.5526732e-05,1.2967299,0.0,3.4548402,4.4495926,31.556236,204.45352,13.970594,82.28259,82.24164,82.627045,82.42427,7.484381,0.7,-81.438896,-34.09115,0.0032696603,-1237.2622,-3.9567325,-4.3304033,-4.780565,-3.9831223,5.477527e-09,0.3,-34.15542,56.25844,56.34665,56.599716,56.576134,0.28955948,0.421875,5.695324897766113,39.020951533317564
37,370000,34.33827468036198,-58.85711,0.056804407,-0.5382937,-0.0041423943,1.3493897,0.0,2.596334,4.0642595,36.91461,82.77527,11.87708,82.71876,82.87309,83.19799,82.526,7.6308165,0.7,-82.395676,-33.429108,0.006788619,-440.74487,-4.1637697,-3.721529,-5.8483815,-4.372065,2.3136847e-06,0.3,-34.001854,58.422516,58.49762,58.12135,58.23658,0.37818387,0.521875,5.722356557846069,40.05730223258336
38,380000,34.83964371690661,-57.24094,0.056661785,-0.124455385,-0.0007961085,1.4285492,0.0,3.8540316,3.4185164,52.664246,137.83974,12.821552,81.94135,82.54013,82.764755,82.84684,17.49004,0.7,-82.01249,-34.380913,0.0018050947,-423.65488,-4.338809,-3.061539,-3.3787882,-3.023334,2.229761e-07,0.3,-34.869938,56.31933,57.101322,56.568077,56.813972,0.49582645,0.4109375,5.687865734100342,41.09054708480835
39,390000,35.45430183979075,-59.194405,0.057774227,-1.1336915,-0.002016465,1.2880713,0.0,2.9168024,2.459192,42.542957,113.25827,12.115304,81.907394,81.53953,81.1188,81.529366,14.895438,0.7,-80.77486,-35.015213,0.010477701,-494.76855,-3.385583,-2.7268932,-4.512471,-4.162963,1.3763977e-05,0.3,-29.79468,58.800095,58.792076,58.21176,58.61219,0.41930753,0.471875,5.73007869720459,42.13104869127274
40,400000,37.07327213760367,-62.513786,0.057961974,0.6394609,-0.002491893,1.2458725,0.0,2.9363263,2.9927375,35.537743,42.29294,13.696138,83.26143,82.91884,82.77499,82.54131,14.402064,0.7,-82.83581,-30.946714,0.011816744,-560.1897,-3.3040285,-3.581598,-5.0213914,-5.5310383,8.472428e-06,0.3,-24.345814,62.07127,62.036705,62.19281,62.012085,0.38886955,0.45000002,5.699233055114746,43.170483370622
41,410000,34.22436737412677,-60.59068,0.057131313,1.5301943,-0.00632865,1.7617416,0.0,3.1012993,6.2385383,61.40325,85.23402,13.875534,82.47729,81.86118,82.149414,81.59662,12.307551,0.7,-81.45491,-30.586731,4.5012403e-05,-383.927,-6.4815865,-1.0337976,-1.6273111,-3.6823895,8.6217185e-08,0.3,-31.962227,60.13845,60.016945,60.011635,60.06098,0.4223252,0.465625,5.716057062149048,44.207778521378835
42,420000,33.92000061124869,-60.15037,0.0575224,-0.36854205,-0.004187502,1.1733366,0.0,3.7985349,2.856657,37.447086,193.10321,11.58433,82.45553,82.58679,82.67273,82.80842,15.81565,0.7,-82.190895,-32.905926,0.00072549295,-673.2354,-3.0617375,-3.2967658,-3.1128707,-3.2501488,5.251303e-06,0.3,-34.865685,59.488503,59.681206,59.62141,59.71009,0.3456975,0.41562498,5.709401607513428,45.2423512339592
43,430000,34.98475466629827,-61.18552,0.05767159,1.5321169,-0.0015728645,1.262858,0.0,2.4849446,3.0079665,54.83821,87.347626,12.915892,81.88975,83.016235,82.842766,81.73728,4.9805884,0.7,-81.14814,-29.789251,0.0016322874,-1100.5231,-2.948627,-3.647967,-3.2084584,-2.8197336,4.541944e-08,0.3,-35.70614,60.76,60.792442,60.812973,60.71002,0.2497999,0.44375,5.744730472564697,46.28212218681971
44,440000,35.70670213328741,-60.2992,0.05769017,-1.229043,-0.00014755949,1.3434297,0.0,3.8610566,0.6715446,48.428493,162.70609,12.789169,82.27591,82.80486,82.096115,81.87939,6.22713,0.7,-81.76074,-30.820137,0.0066533466,-659.26355,-0.9911301,-1.9436167,-3.1668777,-2.9204187,9.837943e-06,0.3,-35.85061,59.846104,60.03387,59.53869,59.65497,0.25157744,0.47031248,5.781154632568359,47.320855192343394
45,450000,35.8094886188704,-60.300003,0.056571167,-0.6049408,-0.00054117496,1.396739,0.0,2.4568071,4.0095143,47.494797,41.418686,12.041087,82.16035,82.136215,82.30889,81.99039,6.637659,0.7,-81.38455,-33.445324,0.00053316564,-1096.1525,-4.3329473,-5.524836,-4.0807405,-4.2502756,2.0539737e-07,0.3,-39.632664,59.892174,59.760796,59.762146,59.829735,0.36495292,0.42499998,5.808929920196533,48.35890433390935
46,460000,35.68520529646048,-59.20085,0.057081565,-1.1837075,0.0008826569,1.5171946,0.0,2.4769282,2.700883,32.483738,45.720913,11.480743,81.426765,81.526054,82.82354,82.53192,11.615303,0.7,-81.133354,-30.559418,0.0006555837,-688.74225,-2.5290058,-2.8217056,-3.323316,-4.0456715,7.92247e-07,0.3,-29.110842,58.876347,58.834965,59.15127,58.935444,0.28187445,0.46406248,5.723071336746216,49.396710483233136
47,470000,34.050239194687855,-60.594437,0.057567004,1.7231152,-0.00029656646,1.3243073,0.0,2.543931,3.0361814,60.386616,65.27771,12.52861,82.51113,83.47998,82.54596,82.53973,42.02536,0.7,-82.466965,-30.356852,5.9864007e-05,-351.98184,-4.2042193,-2.2758274,-3.0646427,-2.312809,4.1413587e-05,0.3,-27.402348,60.05677,60.26856,60.16142,60.116394,0.5437466,0.4859375,5.751161098480225,50.43507841428121
48,480000,35.2292607196865,-57.206764,0.057310466,-1.345557,0.0014274685,1.2501547,0.0,2.4562027,2.3463373,51.975403,133.88412,12.982173,84.45242,83.37534,85.09285,83.982285,13.440257,0.7,-82.79167,-33.20856,0.0015606575,-415.94553,-2.5485094,-1.6621059,-2.1222227,-2.0294533,1.3522805e-07,0.3,-32.492073,56.706245,56.717606,57.00315,56.951946,0.35696912,0.4203125,5.739445209503174,51.47165955702464
49,490000,32.38760596387574,-58.56712,0.057655048,0.25231946,-0.003512855,1.3528801,0.0,1.6778877,1.8286465,34.148705,26.00692,12.087018,82.3036,82.5152,83.269394,82.71069,4.670185,0.7,-81.80858,-31.481714,0.0052544596,-628.727,-1.2674717,-1.9738791,-2.3514776,-1.6680276,3.2191656e-06,0.3,-40.198112,57.926903,57.975418,57.911293,57.89915,0.22060984,0.41562498,5.823075294494629,52.504569605986276
50,500000,36.003028809886466,-58.020065,0.05721678,0.35321224,-0.002886294,1.3787597,0.0,2.6181233,2.702412,45.794827,77.40566,13.159927,81.29839,81.96696,82.069176,82.33683,15.25041,0.7,-81.78952,-32.145416,0.0031906657,-561.0329,-4.5398984,-2.9435706,-3.3376591,-2.8069978,1.4711125e-06,0.3,-34.40213,57.738556,57.373276,57.35929,57.45114,0.39245963,0.4515625,5.740935802459717,53.54052962462107
51,510000,32.963980549934455,-59.378124,0.05676941,0.7296765,-0.0016467341,1.2185129,0.0,2.284949,3.0192633,36.6163,54.92179,14.174092,81.76047,81.56497,82.04169,81.0697,9.404868,0.7,-81.074265,-33.724464,0.00030009495,-1325.15,-4.4774475,-1.4716932,-2.8064957,-3.1400998,9.760432e-06,0.3,-34.923027,58.808933,58.82109,58.765755,58.765854,0.30842716,0.4578125,5.68325400352478,54.57585929234823
52,520000,32.68961841497921,-58.48343,0.05800583,-1.8542979,-0.0030864298,1.4882611,0.0,2.7310145,2.5400555,29.039526,104.25029,14.7174,81.9049,82.128426,82.90185,81.44343,12.332659,0.7,-81.33728,-33.270958,0.004894633,-502.8526,-2.9532151,-1.7291092,-0.6367393,0.271092,6.519258e-10,0.3,-30.817778,57.934593,58.00389,57.89762,58.047234,0.3682919,0.43593746,5.67116117477417,55.610192493597665
53,530000,34.84699721070206,-59.565536,0.056774527,-1.5295237,-0.0038189858,1.3554665,0.0,2.3023782,1.7295257,29.775328,55.566097,11.879625,82.952156,81.36867,81.70309,81.63185,4.9477043,0.7,-80.93077,-31.528519,0.00042692036,-756.46893,-1.2114756,-1.3340347,-1.1001996,-0.3931719,2.8209313e-05,0.3,-36.501205,59.600136,59.044098,59.10611,59.214287,0.29581654,0.446875,5.798431396484375,56.64664258559545
54,540000,33.31593104035937,-60.215103,0.057815235,-0.23411274,-0.0014223246,1.2466767,0.0,2.3893633,1.4905576,36.37538,61.236664,11.240755,82.05359,81.066154,80.98927,80.970375,13.1580715,0.7,-80.68929,-30.962286,0.0019437501,-772.6502,-1.1544154,-1.287112,-3.4425519,-3.3672173,1.9230547e-05,0.3,-43.103836,59.82388,59.595608,59.609398,59.661827,0.35758948,0.459375,5.702730178833008,57.68294817209244
55,550000,33.03551330350497,-59.61039,0.058043204,-0.6968334,-0.005231015,1.3826811,0.0,4.009693,1.8985388,28.875906,193.01651,12.603829,82.02352,83.30341,83.53786,82.95829,14.6464815,0.7,-82.26334,-33.357998,0.010445509,-1352.7826,-1.5431426,-1.8683326,-1.2323412,0.038432002,7.8482554e-07,0.3,-37.080376,58.952675,59.453648,59.43927,59.432175,0.42517936,0.4296875,5.964435815811157,58.722167964776354
56,560000,34.025093766020916,-60.002747,0.05763142,1.4974339,-0.0013564558,1.5173975,0.0,5.4914217,1.9747858,40.577473,668.8026,14.478991,80.074745,80.86382,81.05657,80.89538,51.66407,0.7,-79.93952,-31.72,2.824451e-05,-518.0996,-2.1639514,-0.97801244,-2.3503203,-2.5305789,5.0911524e-07,0.3,-33.20122,59.51599,59.460846,59.58423,59.6538,0.5633153,0.4640625,6.149013996124268,59.76478272279103
57,570000,32.96081787958266,-56.299988,0.058057807,0.04071006,-0.00057990255,1.60101,0.0,2.8335164,1.317123,32.563534,92.4136,11.131552,82.043655,81.77493,82.33367,81.484085,8.006736,0.7,-81.242256,-32.297085,0.021988705,-989.60645,-1.1253499,-1.0579836,-4.4937706,-1.7653568,2.5566553e-05,0.3,-38.048485,55.9155,55.675713,55.920296,55.928925,0.3530861,0.3828125,6.689331531524658,60.81651568015416
58,580000,36.16304454822066,-61.204044,0.05793462,0.49439362,-0.0017531988,1.4717245,0.0,3.001396,0.6957784,49.876015,136.23048,14.52793,82.01201,82.64455,82.52013,82.213005,21.071526,0.7,-81.66711,-30.970644,0.0008107179,-573.23663,-0.095936656,-0.7278296,-1.3135417,-1.8103145,8.3138e-06,0.3,-28.013535,60.604824,60.952698,60.8277,61.02846,0.39381462,0.38906246,6.48873233795166,61.86471403042476
59,590000,33.05038993363868,-59.901352,0.05847357,0.04836476,0.0054937177,1.5422778,0.0,4.2012787,-0.014586169,38.083733,145.53114,13.426489,81.353874,81.41983,82.60051,81.785675,15.796259,0.7,-81.01331,-31.126139,0.0015305625,-767.28864,0.29546547,0.6623777,-0.31311482,0.84603995,3.0365018e-06,0.3,-39.45431,59.2671,59.22524,59.37751,59.471085,0.5268388,0.44375,5.925619125366211,62.90349271694819
60,600000,34.0923129011373,-59.27142,0.057884794,0.8947941,-0.005657865,1.8335158,0.0,2.7570975,-0.020599514,63.812435,88.09867,15.66029,82.37972,81.68752,82.16703,81.82379,23.11263,0.7,-81.69246,-31.615675,5.896768e-05,-547.8393,-0.0067133904,-0.008916378,-0.24072576,0.29230088,1.9252185e-07,0.3,-35.73348,58.412422,58.58006,58.516613,58.65149,0.4766892,0.40781248,5.9189677238464355,63.937242503960924
61,610000,33.69295031916272,-60.73077,0.058601603,2.1368942,-0.00061096216,1.5551857,0.0,2.5840173,0.86071414,50.776005,65.71875,11.665291,81.717224,82.305115,82.226395,82.03063,11.753451,0.7,-81.499084,-31.10439,0.00109267,-766.4559,-0.78253436,-0.08644199,-0.51055634,-0.13760024,5.58338e-07,0.3,-44.02529,59.920506,60.395386,60.19082,60.286213,0.35200712,0.4484375,6.192113876342773,64.97448664506277
62,620000,34.153238340789464,-58.545853,0.05943533,-0.17129093,-0.0021259268,1.4886432,0.0,3.9532845,-0.35907063,43.503937,374.95538,11.666941,82.63961,82.7496,82.87346,82.18958,11.688222,0.7,-82.26766,-31.15284,0.006177876,-542.7118,-0.89191544,-0.6657114,-0.1549907,-0.22772092,1.9171628e-06,0.3,-40.74221,57.946053,57.745277,58.12337,57.971138,0.4956227,0.434375,5.745957851409912,66.00824032624563
63,630000,32.806261643663476,-56.271923,0.058430925,-1.4790833,0.0013705416,1.3249949,0.0,2.5540788,-0.38900554,45.504124,40.234566,14.996776,80.121956,80.964935,82.0578,80.556946,4.4832473,0.7,-79.97065,-31.929394,0.0068730596,-2647.3118,0.41441858,0.725278,-0.8402174,-1.1303031,6.572111e-07,0.3,-49.742035,55.810898,55.71019,55.99115,55.828346,0.33562064,0.453125,5.735882997512817,67.03698808749517
64,640000,35.059272829270405,-56.18378,0.05937535,-1.3724569,0.0011150669,1.276564,0.0,2.405401,0.8042821,33.461155,45.418392,11.525848,81.317345,81.00374,81.98022,81.016335,48.81776,0.7,-80.73874,-32.707226,0.006914882,-566.08386,-1.3235221,-1.470104,-0.9256684,0.008093655,1.5892718e-05,0.3,-36.53936,55.70646,55.386223,55.485992,55.81946,0.5356787,0.3796875,5.73404860496521,68.06881430546443
65,650000,34.3200016236264,-55.703423,0.058902126,-0.28298175,0.00088340323,1.8160175,0.0,2.9512348,0.332559,47.525394,67.61303,12.340229,81.34982,81.03562,81.20999,81.700264,11.353906,0.7,-80.90468,-36.208797,0.006573484,-512.32715,-0.36010456,-0.9502307,-0.9433125,-0.27803254,7.207447e-07,0.3,-40.68831,55.14657,55.00251,55.202168,55.2231,0.45107502,0.43906248,5.7496020793914795,69.09960130055745
66,660000,34.20760603153041,-58.92594,0.057961687,0.62876874,-0.0039573675,1.6109596,0.0,2.8081112,0.08510944,62.9027,70.422935,9.555481,81.30667,80.63798,80.76534,81.14397,7.1123147,0.7,-80.13198,-33.167793,0.0024120074,-874.3242,-0.13827002,-0.118044496,0.13052991,0.8499681,3.0074445e-06,0.3,-43.288383,58.368645,58.032772,58.319237,58.296703,0.3657157,0.42187497,5.748542070388794,70.12952778736751
67,670000,33.98886832032061,-56.020264,0.058861002,-0.78603995,-0.0035275898,1.3988831,0.0,4.2275643,-0.643144,60.69131,247.48254,12.276489,81.899376,81.378555,82.11106,81.33591,13.374732,0.7,-81.87303,-33.37674,0.0036465873,-479.98987,0.735286,0.82360995,-0.080331475,-0.8367357,1.0142278e-06,0.3,-36.516045,55.518745,55.446133,55.407738,55.469707,0.41628516,0.43906248,5.714929580688477,71.16632916529973
68,680000,33.46197970293085,-60.238163,0.059702773,-0.52609336,3.395416e-06,1.4583191,0.0,2.9130592,1.6370807,31.962618,120.53517,15.834255,81.761856,81.90265,81.508095,81.98374,23.954182,0.7,-82.31933,-32.16898,0.0016808496,-738.87964,-1.587195,-0.027709246,0.026739132,-0.60110956,1.9597064e-06,0.3,-38.230415,59.698944,59.717365,59.674553,59.494297,0.50052905,0.496875,5.766438245773315,72.20161627531051
69,690000,34.88657978832227,-60.6884,0.058385022,2.0985427,-0.0064334027,1.5961382,0.0,2.7638946,0.5010329,38.682983,216.67012,13.389711,80.827354,81.34353,81.43906,81.82697,34.811016,0.7,-81.64665,-30.60744,0.00034591474,-450.11676,0.1323744,-0.47253525,0.35062996,0.41750735,6.939037e-05,0.3,-37.237335,59.942192,60.104637,59.810833,60.08961,0.45632344,0.453125,6.126728773117065,73.24568356275559
70,700000,32.16371753051398,-58.56873,0.05923373,-0.20852979,-0.009320895,1.8186285,0.0,4.3674765,-0.22992542,48.39078,171.77095,11.732735,82.358696,80.888985,81.53053,81.34786,18.97393,0.7,-80.78045,-30.781063,0.0042462833,-1197.5645,0.52612615,-0.7474457,0.009322114,-0.3313282,1.0232737e-05,0.3,-51.060436,57.994232,57.581104,57.61922,57.931133,0.5743825,0.40156248,6.101922988891602,74.28904815117518
71,710000,33.995089962274385,-61.059353,0.057933226,1.2066944,-0.0028341329,1.5982834,0.0,3.0081642,-0.008512635,50.798336,71.26651,11.060729,81.42494,81.86597,81.71823,81.64852,13.549986,0.7,-80.77772,-31.364216,6.115988e-05,-809.3146,-4.6655626,-5.2608886,-3.668519,-6.126731,3.3741233e-07,0.3,-38.99842,60.441723,60.6326,60.37961,60.54531,0.4342879,0.43906248,5.779844045639038,75.32617863019307
72,720000,35.08567285071813,-56.799416,0.059481725,-1.5097516,-0.0022221773,1.4232447,0.0,3.0862842,0.8080596,31.163492,63.603542,12.969864,80.91522,80.604675,80.62733,81.17778,55.218845,0.7,-80.53255,-30.375395,0.013642568,-1034.3645,-0.5224576,-0.0628165,-0.7771069,1.0891712,5.512296e-06,0.3,-41.888783,56.3248,56.312145,56.393143,56.52311,0.58533883,0.4203125,5.725532054901123,76.35620243151983
73,730000,33.509004419471246,-56.9937,0.060087424,-0.50237393,0.0020011116,1.474056,0.0,3.542664,-0.4554568,59.852318,197.09113,12.061154,81.162704,80.174355,81.57796,80.53506,23.4917,0.7,-79.65923,-31.74452,0.0020586737,-1722.2383,0.03723824,-0.21672595,-0.24262556,-1.503851,4.2786996e-06,0.3,-40.725105,56.529636,56.14437,56.219936,56.32335,0.52767205,0.478125,5.757503271102905,77.39264609813691
74,740000,33.58362234786009,-58.181633,0.058846436,0.01427687,0.00093695614,1.3066057,0.0,4.6551046,0.34460235,30.533014,215.46545,14.974433,80.10593,79.90301,81.06522,80.14067,105.64121,0.7,-79.59128,-30.449932,0.0066472734,-944.55646,-1.7746997,0.50297797,-0.96835995,0.15633017,1.0068765e-06,0.3,-33.985565,57.56558,57.6228,57.405014,57.678093,0.73615384,0.44375,5.725829124450684,78.4312914053599
75,750000,32.96464590121093,-56.294518,0.05991004,-1.2272979,-0.0019182506,1.3571858,0.0,2.0850804,-0.08695943,31.682922,52.043053,13.459747,80.42132,81.37182,80.47557,80.46894,6.123635,0.7,-80.34825,-32.489582,0.0075128293,-606.2327,0.9244236,0.0263443,0.31081828,0.24018997,5.784212e-07,0.3,-38.10649,55.861877,55.920277,55.792942,55.6055,0.25833434,0.5109375,5.710043907165527,79.46627308130265
76,760000,35.098260314936255,-57.282394,0.05827166,-2.0948808,0.0042772903,1.6461766,0.0,3.6584675,1.179484,35.20386,220.30246,11.165287,80.39137,80.40969,80.775566,80.55575,15.8339815,0.7,-80.03846,-38.285774,0.0003356302,-650.4604,0.11522746,-1.7263712,1.0415046,0.77947843,1.5360838e-05,0.3,-43.091755,56.729485,56.428917,56.654488,56.563942,0.33364663,0.49843752,5.799813985824585,80.50277349551519
77,770000,34.83536202782507,-56.14674,0.059000492,-1.1059314,-0.0004164966,1.3400515,0.0,3.4281693,-0.28618044,58.15576,161.75844,11.191523,79.76873,79.87171,79.602776,79.729805,8.741641,0.7,-79.51284,-31.826666,0.003555102,-1697.3807,0.43420422,-0.43521297,0.6943542,-1.2312545,4.2603515e-06,0.3,-66.139984,55.469482,55.448555,55.06335,55.1318,0.3462245,0.4984375,5.731676816940308,81.53738099336624
78,780000,35.26424682629779,-57.90743,0.0585603,0.09635386,-0.0027282625,1.2860479,0.0,2.1827126,0.8854809,52.51499,71.498825,11.560037,80.96356,81.27633,80.24072,79.9613,4.435375,0.7,-81.188484,-32.212494,0.00086198817,-1288.8163,-0.47816467,0.2941414,-0.32729235,0.058230877,9.674357e-07,0.3,-37.770744,57.258636,57.617638,57.16082,57.18847,0.27775905,0.503125,5.6457014083862305,82.57315083742142
79,790000,30.130805031585588,-58.765,0.058953654,0.13314325,-0.0019675617,1.2791638,0.0,2.4722507,-0.45679796,41.43674,53.36444,13.615949,80.56509,80.18423,80.26923,80.13673,2.6232102,0.7,-79.65333,-31.33567,0.003975325,-622.6059,0.45377588,0.22844052,-0.0044925883,-0.11184758,3.6670825e-10,0.3,-38.223274,58.185364,58.3597,58.31803,58.429066,0.27341104,0.4375,5.698943376541138,83.60237661997478
80,800000,33.91303659338516,-56.402233,0.05943346,-0.43918616,-0.0027087505,1.3465477,0.0,3.8972244,-0.07342456,47.015022,364.85672,11.199153,80.89497,80.913994,81.76453,81.77789,23.60205,0.7,-80.747345,-30.974442,0.0042308653,-682.8454,1.1282179,-0.34574795,0.90552163,1.5206025,1.856178e-08,0.3,-41.321423,55.45016,55.592735,55.55961,55.762245,0.46107525,0.42499998,6.2199602127075195,84.6477738459905
81,810000,33.368337371424076,-57.400757,0.05892513,0.09053981,-0.0015311673,1.3348615,0.0,2.3736813,0.47365302,40.539757,35.26733,11.248907,80.32942,80.636536,80.19975,80.48443,9.779128,0.7,-80.07048,-34.25591,0.0032633313,-778.1081,1.6540638,-1.0534295,0.0641633,0.20335048,3.910179e-08,0.3,-35.11051,56.995632,56.700172,56.96295,56.800728,0.3619029,0.45624995,5.698509216308594,85.68210284312566
82,820000,33.78443633551523,-58.56612,0.060238104,1.0702665,-0.004172744,1.4157686,0.0,2.6498032,-1.3217573,44.961727,65.91983,11.53233,80.642525,80.491745,80.340065,80.50817,13.200265,0.7,-79.68407,-31.830515,0.005954425,-660.0961,1.1162974,1.3372607,0.35152006,0.50034595,2.054422e-06,0.3,-49.552364,57.80649,57.911324,57.609566,57.740704,0.36985892,0.5,5.708892822265625,86.7168895761172
83,830000,33.73177609381572,-57.05895,0.059044693,0.115823716,-0.0013374853,1.2731564,0.0,2.2824745,-1.5759428,51.991486,33.354637,11.44854,80.52191,81.06525,80.82484,80.27956,14.872376,0.7,-80.73804,-30.688877,0.0009970637,-1084.1307,1.7166729,2.2318845,-0.08040311,1.3158634,1.9620639e-07,0.3,-41.61551,56.407494,56.67088,56.258312,56.40545,0.34010544,0.44375,5.8160974979400635,87.75279296636582
84,840000,34.41559199503173,-56.68954,0.058935132,0.055503666,0.0010824098,1.4817803,0.0,2.5298486,-2.119802,40.905724,54.692467,11.107684,81.111786,80.729,80.39646,80.42035,12.683913,0.7,-80.25729,-32.110825,0.000328833,-1175.3539,1.9353763,2.0001194,2.0673034,1.0714505,2.46875e-06,0.3,-53.803886,56.17607,56.03151,56.164722,55.98069,0.3530009,0.459375,6.1072609424591064,88.79509641329447
85,850000,34.48133254990607,-56.67859,0.061274774,0.29102138,-0.0015486382,1.2873514,0.0,3.603261,-0.33027574,28.50294,49.508038,11.853323,80.07039,79.938515,80.45383,80.130356,22.812305,0.7,-79.42936,-30.447483,0.0010259212,-684.4766,-0.7508609,0.8131136,0.73845255,-0.512606,4.710164e-08,0.3,-36.606102,56.189545,55.945904,55.847748,56.06138,0.5240495,0.47812498,5.747334241867065,89.83490285873413
86,860000,33.18225530293882,-56.832882,0.06042402,-0.14953141,-2.6519132e-05,1.5009805,0.0,2.1384597,-0.6925806,47.441456,24.598934,12.819491,79.54056,79.25191,79.88563,79.141174,14.240493,0.7,-79.25874,-31.327402,0.013586905,-775.039,0.94123626,2.1923323,1.8577225,1.1617703,3.013527e-05,0.3,-44.313835,56.166584,56.287323,56.1063,55.98306,0.3581289,0.484375,5.841277837753296,90.87348391215006
87,870000,34.00868255581527,-58.183647,0.058136746,0.49094698,0.002370501,1.877284,0.0,5.7316437,-1.1893647,50.160244,473.20056,14.501814,81.225815,80.79712,81.80701,82.515785,32.51858,0.7,-80.438866,-33.9267,0.0005072486,-565.5824,0.34866202,-2.6535473,0.0071449876,-0.15344656,2.7543864e-08,0.3,-36.576324,57.366806,57.51573,57.579704,57.852554,0.52248627,0.3703125,5.7022864818573,91.90880860090256
88,880000,34.06430706609911,-60.181572,0.059989467,0.8392319,-0.0005550442,1.482417,0.0,2.6973724,-2.0173714,59.41394,66.32827,12.337349,81.12947,80.38287,79.92121,81.02787,15.34026,0.7,-80.431274,-31.514374,0.0128879575,-373.96896,1.958196,2.1557555,1.5026736,1.7761135,4.3655748e-10,0.3,-35.645813,59.70298,59.555946,59.69872,59.63578,0.36838555,0.4765625,5.671149492263794,92.94459942976634
89,890000,33.63897556418897,-57.467617,0.0592706,-0.22577524,-0.0034538142,1.4196936,0.0,2.6071508,-2.0230808,31.710981,53.32547,12.221411,79.807076,80.049706,79.97725,79.67567,10.779205,0.7,-79.12742,-33.32458,0.007856909,-701.6983,0.7899463,0.38321674,-0.8127859,-0.2624321,2.0443533e-05,0.3,-32.62264,56.88396,56.98473,56.735798,56.834335,0.33578762,0.42187497,5.712287664413452,93.97974896430969
90,900000,34.15880054097474,-58.944298,0.059296623,1.0605946,-0.00040469653,1.4881915,0.0,2.5645308,-1.9116625,51.699654,80.533966,13.55975,79.9492,81.04141,80.63976,79.69732,6.601692,0.7,-80.047455,-30.174437,0.0031826221,-3608.2754,1.6992242,0.31569123,-0.90942645,0.4324788,2.7939678e-10,0.3,-56.587864,58.332764,58.298862,58.419193,58.187508,0.39569068,0.4765625,6.410126209259033,95.02678763071695
91,910000,34.36332087153355,-57.719955,0.060244717,-1.8759081,0.00021271799,1.637524,0.0,5.0991197,-0.78212506,31.194708,538.74585,13.366166,80.30976,80.32216,80.38891,80.50746,20.314585,0.7,-79.97175,-30.629955,0.0019234796,-905.6103,-0.18740594,2.0990076,-1.4357595,1.1813362,3.243814e-06,0.3,-44.765842,56.826767,56.87523,56.875504,57.101326,0.47298932,0.434375,5.807028532028198,96.06198376019796
92,920000,32.27364440040795,-56.62523,0.06065847,-1.0905108,0.0018105422,1.4947613,0.0,3.768756,-1.8368549,43.883778,162.47809,15.244253,79.61976,79.55112,79.98445,79.79618,8.988316,0.7,-79.40382,-30.96978,0.00012464385,-638.5562,1.833551,1.5583154,0.704403,1.6857773,3.4226106e-09,0.3,-48.106655,55.841637,55.665085,55.8758,55.648697,0.46720093,0.484375,5.6758339405059814,97.09116204977036
93,930000,33.95970212722011,-58.70601,0.059595887,-0.25020844,-0.0015966172,1.434146,0.0,2.6538486,0.008216202,52.651512,97.60007,12.7653675,79.27281,79.67755,79.84823,79.23555,10.153596,0.7,-79.435776,-30.494637,0.005000835,-2375.403,0.7828052,0.60705245,1.7820673,0.25901318,8.1236533e-07,0.3,-49.180473,58.26926,58.187843,58.243526,58.01087,0.31441003,0.475,5.700240612030029,98.1218426903089
94,940000,34.43315128826996,-57.63279,0.060571373,0.09903014,-0.0021016037,1.2900841,0.0,2.3164618,-1.6432205,44.92682,30.276611,10.690328,79.9965,80.55661,80.11302,80.277885,3.7845602,0.7,-79.83998,-30.119188,0.0063357027,-451.2777,1.6871976,1.7092212,1.5765079,1.7402382,1.0396354e-06,0.3,-42.25592,56.92737,57.00006,56.787346,56.934578,0.26733914,0.43125,5.907743692398071,99.15320290724436
95,950000,34.73225537232474,-55.03389,0.059999928,-0.5122247,0.0017879207,1.5225147,0.0,2.7291508,-2.2233298,58.07423,40.61438,12.858403,79.96399,79.234406,79.913345,79.368515,5.3025723,0.7,-78.62579,-31.81496,0.0014273324,-1374.7207,2.0763822,2.0981112,2.0686195,2.3164845,1.1827721e-05,0.3,-45.830643,54.14945,54.24224,54.3519,54.216423,0.4141179,0.4828125,5.882390975952148,100.18738761345546
96,955000,33.96629889781363,-57.603203,0.059946932,-0.43409878,-0.0049562086,1.3118765,0.0,2.6542587,-1.0389453,45.578392,45.0343,11.453374,80.80072,81.26903,81.79486,80.21951,4.338427,0.7,-80.96714,-31.158018,0.0080708405,-619.24866,0.051425457,-0.14882052,-0.34995967,0.050762832,4.9628256e-06,0.3,-34.089554,57.188137,57.18396,57.39353,57.055386,0.28329235,0.484375,5.910617113113403,100.7576494773229
97,960000,33.77422300325152,-56.95014,0.06057039,-1.0206527,0.00043010173,1.2216177,0.0,2.7621918,-1.6323717,49.115784,45.64473,11.362924,80.23478,80.08461,80.53339,80.15317,32.676285,0.7,-79.81548,-30.794933,0.0012270107,-1119.5574,1.5035661,1.5885148,1.587624,1.3168156,3.0219555e-06,0.3,-37.927856,56.424248,56.260372,56.610657,56.461723,0.5261022,0.45468748,6.210489511489868,101.32699546813964
98,965000,33.95420161751211,-57.79027,0.059149817,1.4053569,-0.0035426372,1.833276,0.0,4.4172354,-1.5484818,50.642986,337.49954,12.04294,81.2121,81.697495,81.89668,81.540016,29.405094,0.7,-81.05992,-31.183512,0.0006261921,-762.80945,-0.021786928,-1.4745598,-1.253756,-0.5660335,1.8979445e-07,0.3,-47.048378,56.94404,56.970802,56.61682,56.822056,0.6589991,0.484375,5.684326171875,101.89047122399012
99,970000,33.94589520998154,-57.32914,0.05825345,-0.24373901,0.0016453266,1.5978216,0.0,3.2488606,-0.028702583,72.392914,138.63936,10.724606,79.749695,79.70198,80.24813,79.96964,25.284216,0.7,-79.908615,-31.674664,0.009603206,-1911.2274,-0.699335,-0.2688868,-0.18786389,-0.51465243,1.3447037e-05,0.3,-42.66757,56.88549,56.715088,56.94194,57.05998,0.40026665,0.434375,5.7116639614105225,102.45189613103867
100,975000,35.06861792886305,-60.263893,0.05968012,0.72635216,-0.0014961412,1.4374703,0.0,3.0368204,-2.145024,35.298363,60.797585,12.287859,79.776634,80.019424,79.55792,80.08652,4.516296,0.7,-78.99593,-32.64281,0.0034714725,-406.95184,1.7469757,1.8340199,0.92269295,0.9881486,4.0745363e-09,0.3,-29.503492,60.223145,59.726257,59.932,59.873604,0.3419273,0.484375,5.751843214035034,103.0209948182106
101,980000,34.891794809232145,-58.41924,0.06344318,-0.5637115,-0.00944564,1.5092689,0.0,3.1151042,-0.6499256,42.308342,89.66873,11.335212,80.10833,80.17907,80.45894,80.46244,131.31808,0.7,-79.759705,-30.024197,0.003414766,-887.43274,0.9873266,2.1335292,1.2079581,1.4139235,1.9620639e-07,0.3,-35.987255,57.770157,58.19883,58.212265,58.266396,0.87634283,0.396875,5.804992198944092,103.58591179052989
102,985000,31.199279479493065,-59.71226,0.05830034,-0.40556368,0.0017774322,1.693889,0.0,2.2291873,-1.1242925,40.169456,32.049866,10.26383,79.55089,80.093994,80.6717,80.390686,7.157786,0.7,-79.44001,-34.050922,0.005091506,-448.36526,-0.5852845,0.7134042,0.9232626,0.08772093,1.02193735e-05,0.3,-34.79323,59.15345,59.36568,59.517433,59.254234,0.37549147,0.4359375,5.694483280181885,104.15255682865778
103,990000,33.90112172731349,-57.569725,0.059472453,1.1236103,0.0009773208,1.4837958,0.0,3.3480902,-2.0013485,40.556267,128.75557,10.949378,80.81696,79.11792,81.473816,80.80106,11.021815,0.7,-79.671425,-30.509905,0.0011644918,-732.14716,1.0177737,-0.04457879,1.3710542,-0.90820014,7.780436e-06,0.3,-42.476868,57.47879,56.80313,57.53502,57.30581,0.41892427,0.39999998,5.7496654987335205,104.71956595579783
104,995000,35.585402919085034,-57.643494,0.06350324,0.5437272,0.0020614162,1.4708691,0.0,2.4880595,-2.085483,56.41826,34.25813,12.032503,79.43018,79.48532,80.14039,79.95197,15.123742,0.7,-79.55852,-29.11484,0.0010744748,-1180.1108,1.9762537,2.2073603,2.4281158,1.4787028,9.653024e-06,0.3,-44.120277,56.87543,57.10296,57.38514,56.974564,0.48491263,0.46718746,6.070928573608398,105.2923121492068
105,1000000,33.99422966813966,-59.50993,0.06495646,-0.28556353,0.0035830631,1.412609,0.0,3.009502,-2.5176928,34.03935,54.225254,12.392179,81.70974,80.90313,82.04895,81.31076,11.718664,0.7,-80.69127,-29.92535,0.0006410951,-464.25342,2.3121972,2.3872144,1.4857173,0.99473923,1.9002036e-05,0.3,-38.842484,58.681984,59.15838,58.677025,58.916298,0.4443156,0.4625,5.705407381057739,105.85909041961034
