Xixo99/comfo/baselines/comfo6_perterbation_actor/20230223_halfcheetch_maxQ/halfcheetah-medium-replay-v2/COMFO6_s1_20230222_213847_halfcheetah-medium-replay-v2_53.51.csv
,step,reward,actor_loss,alpha,alpha_loss,critic_loss,max_actor_loss,max_alpha_loss,max_critic_loss,max_mle_prob,max_q1,max_q2,max_target_q,max_v,max_value_loss,max_weight,min_actor_loss,min_alpha_loss,min_critic_loss,min_mle_prob,min_q1,min_q2,min_target_q,min_v,min_value_loss,min_weight,mle_prob,q1,q2,target_q,v,value_loss,weight,eval_time,time
0,0,2.255941380949243,,,,,,,,,,,,,,,,,,,,,,,,,,,,,,,,,
1,10000,-0.9370543015446939,-23.686848,0.07331837,-5.2487116,1.7639575,1.76096,19.064985,65.48154,11.217718,40.114197,39.89314,40.01788,39.32948,1.6284597,0.7,-41.692738,-37.73648,0.00031947793,-300.66772,-2.8152657,-2.74152,-2.245873,-2.148104,3.7903373e-08,0.3,-8.142156,23.400337,23.42645,23.360756,23.077137,0.09865469,0.4515625,5.554594039916992,1.9431723356246948
2,20000,1.2111867481734466,-36.39131,0.0772042,-1.3306519,2.6845984,7.2239146,21.24463,44.76472,14.190726,63.936275,64.11216,64.76837,63.755424,3.7614877,0.7,-63.575375,-29.750984,0.0037744772,-234.55978,-6.160998,-6.2787395,-6.2516184,-6.8013086,4.991307e-06,0.3,-9.198387,36.092735,36.119785,36.399017,36.29615,0.23360585,0.41875,5.508143663406372,2.619650693734487
3,30000,7.951330659176891,-44.981567,0.079115316,0.109141946,3.6323256,7.1364617,42.83595,106.141045,14.9989395,74.66639,74.836235,76.3176,74.40329,6.1739006,0.7,-74.1914,-29.28025,0.0020947766,-106.881516,-7.974196,-8.736191,-7.7056875,-7.8733983,5.7810053e-06,0.3,-6.1746426,44.767036,44.826942,45.207664,44.99618,0.2793269,0.465625,5.738986253738403,3.3038760860761007
4,40000,34.07095362556429,-52.93093,0.07893286,0.8285982,5.788238,8.977427,26.943079,317.49442,13.739085,79.59861,79.38408,79.87213,79.39688,13.047752,0.7,-80.106346,-32.478848,0.0051010326,-199.52234,-9.380139,-9.285865,-10.369844,-9.199836,3.4206303e-07,0.3,-11.029596,52.65765,52.806572,52.871155,52.724586,0.5211388,0.4796875,5.504108190536499,3.986130408445994
5,50000,46.23272705571555,-55.800846,0.07670901,-1.2966235,5.421897,8.619086,32.00984,177.25223,13.128784,84.84687,84.83303,85.84457,86.01462,11.220843,0.7,-84.21183,-32.844685,0.0013722363,-115.48528,-9.567844,-9.694226,-9.795886,-9.774782,7.768785e-06,0.3,-9.372035,55.64891,55.652893,55.367413,55.162827,0.40730315,0.5140625,5.408586263656616,4.662668065230052
6,60000,49.287068745607485,-57.50276,0.07497668,0.7012076,4.1199636,16.732199,30.829327,64.82651,14.8201275,83.52309,83.707596,85.27144,84.77673,13.322126,0.7,-83.275696,-39.39257,0.0013608222,-408.1788,-15.787025,-16.819788,-15.063977,-16.465343,3.4741126e-06,0.3,-13.091059,57.3684,57.2631,57.91971,57.58716,0.4449644,0.478125,5.685827255249023,5.34598403374354
7,70000,48.106197116648026,-60.02903,0.07171251,0.2923951,3.9424276,18.501804,31.760313,321.85388,14.512492,86.17837,86.992935,87.19074,86.40132,12.924872,0.7,-85.67552,-30.062122,0.001434407,-251.01672,-18.863346,-18.894299,-16.762846,-18.031828,6.7494284e-06,0.3,-16.231735,59.71629,59.621826,60.030197,60.105064,0.4269541,0.4125,6.00750732421875,6.030514756838481
8,80000,51.729737757893965,-62.760117,0.06984441,1.4377913,2.8527937,17.143354,54.001354,72.94299,13.168829,86.69656,86.039696,86.405815,86.33516,15.579313,0.7,-85.685455,-35.63394,0.0004349,-259.92795,-16.47794,-17.14174,-16.704205,-17.077705,2.3497269e-07,0.3,-15.766352,62.542816,62.40483,62.690357,62.576023,0.48956245,0.4265625,5.683988809585571,6.709128709634145
9,90000,52.61262611041065,-64.08005,0.06713549,1.043462,4.8964605,8.249238,27.864607,282.21814,14.141734,86.54254,86.268166,86.48857,87.07945,15.102753,0.7,-85.80722,-32.319115,0.006286745,-179.98993,-9.962885,-10.33194,-11.698048,-10.003768,9.045878e-07,0.3,-14.718661,63.660564,63.819054,63.675858,63.8519,0.6465565,0.41875,5.954914331436157,7.393630143006643
10,100000,49.4339718478408,-63.37819,0.065040804,-0.39655912,2.9024637,15.749939,31.642704,55.937286,12.127643,86.34542,87.02797,86.70943,86.08819,18.001415,0.7,-85.90909,-29.471546,0.00041143835,-355.56244,-16.088139,-15.097861,-14.797628,-15.325352,6.947987e-06,0.3,-17.176815,63.18057,63.23864,63.50359,63.130775,0.43354666,0.48125,5.923786401748657,8.079589712619782
11,110000,52.70569785864427,-59.226562,0.06513415,-1.0747323,2.7850518,14.739256,29.143835,66.186035,12.710271,89.96129,89.328705,89.06856,89.35874,20.884212,0.7,-89.3455,-30.977592,0.0018488907,-620.48676,-14.112833,-14.573382,-14.08707,-13.529235,1.525598e-06,0.3,-30.090816,58.799545,58.853603,58.687004,58.885086,0.5371472,0.41562498,5.818972587585449,8.759919766585032
12,120000,51.091459375613915,-60.00043,0.064801686,-1.5535595,2.8572283,12.158557,31.011463,104.46897,13.098892,87.66343,88.352425,87.6864,87.45739,9.701642,0.7,-87.42347,-32.482155,0.0005675303,-476.2442,-11.630475,-12.270592,-12.633152,-12.219124,5.9964837e-06,0.3,-21.590958,59.53569,59.620003,59.5599,59.640602,0.4070208,0.3953125,5.7529919147491455,9.437603294849396
13,130000,53.73918100621502,-64.01572,0.06346533,0.66298276,3.7926178,11.031568,42.4203,83.00242,11.642078,87.79305,88.11673,87.81771,88.61485,9.313654,0.7,-87.82452,-30.694008,0.0012159687,-224.60345,-10.466799,-11.082691,-11.226046,-12.125306,1.2542122e-06,0.3,-18.353752,63.47972,63.55936,64.07167,64.05927,0.37537813,0.43281248,5.605799436569214,10.113963353633881
14,140000,50.48114802013583,-62.584045,0.06356849,-0.29931307,2.7738457,9.647551,30.30223,201.15453,12.551313,87.44145,87.913216,86.51623,87.53476,7.813581,0.7,-86.926636,-33.463142,0.00086768647,-575.35724,-10.912667,-8.532512,-10.535549,-9.177535,1.2078498e-06,0.3,-21.462503,62.134922,62.169353,62.300537,62.312084,0.33938432,0.44375,5.760700464248657,10.792669999599457
15,150000,53.90871826264711,-62.24385,0.06222008,-0.2565152,4.044241,7.0295386,28.804657,138.38329,13.554478,87.69066,88.46178,88.59556,88.28202,40.631824,0.7,-87.5494,-31.555508,0.0030946694,-538.76556,-7.825336,-7.6646366,-10.284015,-9.96443,9.1677066e-07,0.3,-29.860554,61.767513,61.769203,61.494766,61.68074,0.5031817,0.4734375,5.685045480728149,11.469152808189392
16,160000,52.60621351768327,-62.04129,0.062645055,-0.31784883,9.992882,9.334716,30.377476,1221.9905,12.532311,86.84169,86.97807,86.41142,85.94152,20.929684,0.7,-86.53997,-31.612646,0.00067656377,-375.79,-9.3855,-10.0771055,-9.655492,-9.810793,1.6137958e-06,0.3,-24.15307,61.64779,61.715923,61.367065,61.483063,0.4873155,0.48125,5.481069803237915,12.14599895477295
17,170000,52.51674433926672,-60.943832,0.061653264,-0.8549411,3.2606225,8.85795,33.541348,47.407955,11.637145,86.32505,86.81779,87.34586,86.53086,5.263334,0.7,-85.51767,-32.182484,0.00079775794,-370.64597,-9.738351,-9.483706,-7.772444,-9.027332,4.52415e-06,0.3,-22.925919,60.290115,60.34754,60.99025,60.74276,0.34365392,0.459375,5.526282072067261,12.82666887442271
18,180000,54.942967401147605,-63.302162,0.061267834,0.09145329,3.1365561,8.885648,26.257076,41.80796,13.02029,88.48455,87.956696,87.4703,87.25265,4.4665513,0.7,-87.90688,-31.507772,0.0002103221,-465.2166,-8.24617,-8.4126625,-8.96792,-10.360547,2.3391797e-06,0.3,-27.613205,62.748672,62.867043,62.34979,62.370514,0.3435831,0.496875,5.431863307952881,13.50543782711029
19,190000,54.54609565021362,-61.34872,0.060970057,0.80567235,3.6059852,7.565861,47.816467,215.54105,12.0109215,86.373,86.10549,85.00969,85.748085,9.774393,0.7,-86.090004,-30.57352,0.0007573723,-560.2808,-8.458752,-8.249778,-7.7044187,-7.4529195,1.9062962e-05,0.3,-27.212189,60.870735,60.961555,60.888115,60.903442,0.4469825,0.521875,5.621588706970215,14.186794590950011
20,200000,52.95902981808746,-61.308258,0.06121901,-0.10986757,3.5950828,5.538971,45.048954,123.154755,15.262368,85.63137,85.58417,85.36514,85.51857,11.828067,0.7,-85.42521,-31.656132,0.00092301785,-612.5192,-6.339748,-5.0401983,-8.172638,-6.92394,1.6316548e-07,0.3,-26.468098,60.772655,60.727295,60.66186,60.525513,0.4706935,0.50468755,5.533129453659058,14.869339875380199
21,210000,53.35038911496468,-60.27141,0.06074574,-1.2435346,2.3406327,7.024819,32.20123,64.03993,14.281291,85.37401,85.92282,85.95271,85.276276,13.174006,0.7,-84.74818,-33.808216,0.009667944,-694.94244,-7.537025,-7.6074834,-7.625791,-7.1231966,1.7437153e-06,0.3,-30.84349,59.867847,59.840458,59.904846,60.147476,0.43249202,0.4296875,5.490429878234863,15.546116761366527
22,220000,52.318864370022666,-61.81604,0.06088846,0.7958145,3.8664408,7.24928,42.467766,72.46106,13.730081,87.91299,88.06273,88.28744,87.41795,12.507073,0.7,-87.670616,-29.99346,0.007306449,-374.7911,-12.40972,-13.26335,-8.779337,-11.183368,2.6087218e-07,0.3,-28.214685,61.41291,61.36406,62.1298,61.814865,0.48586196,0.47031248,5.435407876968384,16.22618514696757
23,230000,52.49792158733523,-61.959347,0.06138249,0.71903026,3.5054338,6.1518617,70.31692,89.02728,12.839438,87.22487,86.31907,86.70177,86.78247,9.550013,0.7,-86.15516,-35.25734,0.0001928705,-607.8635,-6.697448,-7.970041,-6.591352,-6.9388356,4.893418e-05,0.3,-34.928864,61.295616,61.27696,61.779236,61.486588,0.5108206,0.45624998,5.431941270828247,16.90653243859609
24,240000,52.5024324843405,-62.2285,0.059747733,1.0239054,2.3632483,6.702968,28.908722,32.754414,12.040114,86.12938,86.08764,87.39064,85.450645,8.52009,0.7,-86.10214,-33.709072,0.014434551,-431.46378,-7.580089,-8.186419,-7.320141,-9.345983,2.4535879e-05,0.3,-33.013275,61.629135,61.66156,61.693413,61.696213,0.40109128,0.425,5.446225166320801,17.583512663841248
25,250000,54.299172135016526,-63.75611,0.06119864,1.5193605,3.5879261,5.8517814,49.947014,135.60721,9.367399,86.09479,85.814,85.954094,85.61672,15.512279,0.7,-85.18182,-30.423899,0.0076609612,-510.96112,-6.5742574,-7.3869867,-7.2306147,-6.52623,1.3201498e-08,0.3,-36.83923,63.2836,63.265842,62.88896,63.08732,0.47348627,0.45156246,5.54607892036438,18.258976737658184
26,260000,53.758304276761415,-62.064922,0.061933298,0.20887205,2.7058716,7.5087304,29.61337,101.67542,12.259894,86.279884,85.73389,86.09038,85.906265,10.59809,0.7,-85.74431,-31.938772,8.011528e-05,-355.88065,-6.9513855,-7.621203,-6.089705,-6.0809813,9.387731e-08,0.3,-31.66325,61.57263,61.454147,61.569973,61.709236,0.4442239,0.4515625,5.401485204696655,18.936398458480834
27,270000,55.13608017932942,-59.85724,0.061616376,-1.0247582,2.2258434,6.147548,28.488237,34.45539,12.49909,85.31552,85.84979,85.98973,86.0483,22.681677,0.7,-85.67858,-36.627773,0.0012955703,-1430.5474,-7.0332475,-7.233502,-7.1113396,-7.656703,8.924864e-07,0.3,-38.45507,59.250248,59.20263,59.231598,59.1682,0.53071934,0.4515625,5.4898681640625,19.612769814332328
28,280000,54.065078907758725,-62.3659,0.060610883,-0.5323314,3.3207433,5.727896,29.552973,59.900394,11.515547,86.69093,86.32379,87.55615,86.40064,25.833588,0.7,-86.23689,-31.45854,0.0060753515,-340.1431,-5.598717,-5.4150515,-6.0761876,-4.9856973,7.264753e-06,0.3,-29.495565,61.893337,61.85998,62.521812,62.201134,0.5011105,0.40468752,5.5061328411102295,20.288707304000855
29,290000,51.802078830427064,-64.32212,0.0612887,0.295537,2.6236084,5.043172,33.07473,49.38258,13.602488,87.33316,86.739075,87.96086,87.71848,19.394114,0.7,-87.10113,-34.265457,0.013308719,-535.2224,-5.4793186,-5.520597,-5.895812,-5.134482,7.6065774e-08,0.3,-34.382523,63.79521,63.723835,64.10798,64.125694,0.5137575,0.43281248,5.353629112243652,20.966102627913155
30,300000,53.73133064397313,-62.25309,0.060736384,-0.062010795,2.653785,4.7703876,30.367424,39.455994,10.919259,87.71547,87.2682,87.62905,86.85632,12.936781,0.7,-86.95175,-37.97497,0.0010177679,-270.62482,-4.402459,-4.996696,-5.022722,-4.9525065,3.309542e-06,0.3,-26.097046,61.757442,61.82347,61.785275,61.731815,0.4433416,0.490625,5.332758665084839,21.640390261014304
31,310000,51.901086943921314,-62.907158,0.060268346,-0.5282853,3.0749476,5.5135007,37.057358,78.6054,11.259748,86.93079,86.64887,86.469574,87.42154,14.338208,0.7,-87.15306,-35.487232,0.00069159607,-994.35986,-7.5881658,-5.317311,-7.585411,-6.438357,2.229761e-07,0.3,-37.722935,62.495255,62.406902,61.940216,62.298008,0.5084905,0.4609375,5.44132137298584,22.31819493373235
32,320000,52.74910567238587,-61.681435,0.060697533,0.64989614,3.3583636,7.325509,32.02975,171.33604,11.541904,88.20986,87.37699,88.78447,87.013466,5.072896,0.7,-87.08055,-31.693712,0.00076225377,-633.0458,-7.5716667,-7.774003,-6.393324,-6.2165875,2.5729303e-06,0.3,-37.77731,61.004356,61.080925,61.113094,61.001663,0.40048796,0.5234375,5.4097301959991455,22.992929311593375
33,330000,53.840927354030754,-62.4687,0.060254365,-0.34630853,2.921088,3.1998153,50.269512,174.88474,11.482668,85.18752,85.22135,85.83886,85.87174,14.227675,0.7,-85.1093,-32.036438,1.23356e-05,-541.5367,-4.8073425,-4.17933,-6.860794,-6.7302465,1.4096265e-06,0.3,-36.184093,61.878254,61.895245,61.94149,61.931484,0.44995618,0.434375,5.517680406570435,23.668785266081493
34,340000,51.95944663430295,-65.018234,0.060334664,0.83640313,2.3358822,7.066154,56.554688,21.55293,13.192026,85.61481,85.81667,85.29173,85.425186,4.6084323,0.7,-85.17841,-30.270596,0.0021436925,-637.8775,-7.5055623,-6.9093027,-4.9372845,-5.3248615,5.657785e-09,0.3,-32.583614,64.629,64.72957,64.85367,64.67107,0.3447584,0.5015625,5.506133317947388,24.34917532602946
35,350000,53.86328454649379,-58.792526,0.060201753,0.1780543,1.973671,5.7104645,58.10297,37.6937,11.933191,86.704384,87.1125,87.82235,87.45772,6.0396104,0.7,-85.85491,-35.685886,0.0011054398,-1504.6492,-5.8935595,-8.009535,-6.4740534,-6.3611336,1.9435975e-05,0.3,-39.22034,58.410236,58.365692,58.708855,58.589058,0.35857877,0.4609375,5.444555282592773,25.023197702566783
36,360000,53.68085830734077,-63.51854,0.060792815,0.15644477,2.5706427,4.995279,37.65739,37.331863,10.282291,85.69745,85.78377,85.43876,85.89479,28.869425,0.7,-86.01428,-34.90445,0.0006208499,-404.3104,-7.047415,-5.4931707,-6.149837,-5.780368,3.7757857e-06,0.3,-36.319084,62.652733,62.805634,62.411423,62.61819,0.5473969,0.4609375,5.407160997390747,25.703651324907938
37,370000,52.15549125693324,-59.193275,0.06108888,-0.7923112,2.8671274,4.2385798,26.610044,42.267735,11.436613,88.160515,87.86057,87.649796,86.80209,20.209217,0.7,-87.43367,-31.256737,0.004615158,-1079.8573,-5.1864247,-4.573603,-6.0641522,-4.1443186,9.891345e-05,0.3,-43.49256,58.560394,58.498596,58.610214,58.515766,0.6449551,0.440625,5.5046422481536865,26.38278874953588
38,380000,52.85143038604947,-62.057163,0.06056187,0.4918903,2.0827456,3.7557755,39.21721,22.513405,11.839521,85.327156,85.63204,85.928055,85.111786,13.520915,0.7,-85.063,-34.06117,0.0033441517,-500.9993,-5.8940215,-7.317507,-6.265076,-5.265588,3.0950353e-06,0.3,-40.183983,61.316185,61.516136,61.29862,61.50229,0.5270283,0.45,5.549845933914185,27.06391656001409
39,390000,52.82130436442253,-60.4057,0.06081946,-1.2320437,2.5966961,4.616333,36.59593,53.453735,14.196377,86.76697,87.09862,86.96059,86.607544,15.4349575,0.7,-86.422806,-34.543526,0.0024119595,-1000.666,-5.088122,-5.1287565,-5.63441,-4.2030916,2.1904708e-07,0.3,-39.54286,59.809532,59.7513,59.625763,59.749176,0.53228533,0.48749998,5.496275901794434,27.740691963831583
40,400000,52.614208716383004,-62.32408,0.0604202,-0.7462057,2.7772431,3.754542,42.780968,84.70455,13.0701,87.62563,86.65987,86.87688,86.43862,23.87373,0.7,-86.50342,-31.949936,0.0068967557,-1991.7356,-3.7286835,-3.5317485,-4.99422,-5.9684935,2.6153111e-06,0.3,-45.67411,61.823498,61.654747,61.37715,61.347816,0.7357469,0.5125,5.454983711242676,28.42066396077474
41,410000,52.00019940759768,-61.12232,0.060235377,-0.2703017,3.8250206,3.1031828,35.858395,210.7435,10.966358,86.34044,86.038055,87.78169,86.46419,5.7971745,0.7,-85.58688,-34.293797,0.0077075236,-796.4543,-3.506451,-3.9274523,-3.7291834,-4.004192,1.1798996e-05,0.3,-41.441013,60.598152,60.528896,60.476364,60.47075,0.3614394,0.475,5.472062110900879,29.09891891082128
42,420000,52.31571864093549,-61.100628,0.05989496,0.17245194,2.336779,6.5279727,39.187496,48.897404,13.619425,86.30234,86.80048,86.494606,86.542145,8.10923,0.7,-85.36561,-31.961834,0.005940832,-579.2608,-7.341959,-5.532063,-2.1909752,-3.0897093,8.5565266e-10,0.3,-35.738625,60.517025,60.571053,61.002354,60.659447,0.48422694,0.4875,5.47856068611145,29.777066067854562
43,430000,52.9685314911845,-61.23917,0.060665328,-0.18040963,3.1857464,5.510467,40.96482,53.322395,9.581491,85.71089,86.122406,86.717316,86.99175,6.961747,0.7,-85.94707,-36.14214,0.0038678297,-2488.8904,-6.1713567,-4.886074,-4.108116,-4.264136,9.72602e-05,0.3,-52.04141,60.58509,60.695557,61.10794,60.812767,0.4400341,0.465625,5.443636417388916,30.453561345736187
44,440000,51.76683541265721,-61.290527,0.06025171,-0.43848598,5.0824714,5.944606,38.892483,275.1059,10.104019,85.53915,85.32688,86.02916,85.43889,25.862925,0.7,-84.80635,-37.943398,0.0055774357,-574.6619,-5.9128065,-4.293209,-6.063405,-6.2269306,3.6754057e-07,0.3,-44.145283,60.70476,60.734383,60.334232,60.675117,0.560048,0.43906248,5.449963092803955,31.132970674832663
45,450000,52.44614164260493,-59.428368,0.061369456,-0.20867053,3.8023639,5.0898156,58.051346,360.5977,12.943172,84.470474,84.21633,84.5549,85.17731,8.345339,0.7,-83.69026,-33.07581,0.00286451,-1334.9663,-5.397943,-5.319063,-4.0543547,-3.607971,1.2336066e-06,0.3,-52.295303,58.692196,58.83355,59.040985,58.864307,0.41414076,0.515625,5.413660287857056,31.812642308076224
46,460000,52.365391517022054,-61.150932,0.061390866,0.2628553,2.8073971,4.773572,48.634396,45.031143,11.985964,85.83862,85.32857,86.14706,85.573235,43.1138,0.7,-85.17001,-29.698128,0.0014306342,-968.1459,-6.15195,-5.8454757,-5.066861,-4.032812,1.5233341e-05,0.3,-41.425247,60.496964,60.673134,61.033295,61.1597,0.5933298,0.42499998,5.4856109619140625,32.49010707934698
47,470000,53.15715943846471,-62.82399,0.061161675,0.70537305,3.255953,3.6734166,30.3184,183.81102,10.324464,85.610664,85.84681,84.41995,85.23094,7.762776,0.7,-85.40326,-32.271923,0.0053661955,-982.7097,-5.77104,-5.7416377,-6.697038,-5.710534,5.051945e-05,0.3,-46.9215,62.299194,62.21673,62.340393,62.2863,0.38446718,0.46875,5.361068248748779,33.16536572774251
48,480000,53.25249729973173,-61.19915,0.060617093,-1.3510695,2.9828796,4.8776464,30.293776,113.2359,10.497465,86.70976,86.06105,86.29439,85.32787,17.377571,0.7,-85.68702,-31.015352,0.0010618214,-981.8034,-5.152172,-5.632153,-4.743526,-3.8919806,3.4226105e-07,0.3,-53.978065,60.384468,60.527863,60.30126,60.36377,0.4655723,0.47812498,5.416198968887329,33.842616180578865
49,490000,53.01428271368855,-61.039658,0.06057468,-1.5557237,4.377386,3.9128537,32.394962,464.6881,11.914824,85.39586,85.36149,85.34298,86.051575,29.405312,0.7,-85.02616,-33.00444,0.0025496173,-1197.3397,-2.7003717,-2.2048671,-3.6723442,-2.0698462,7.514656e-06,0.3,-50.73771,60.14684,60.23194,60.05298,60.476677,0.5464219,0.4046875,5.452073097229004,34.521882593631744
50,500000,53.04321145394829,-61.60103,0.060499046,-1.2594004,3.8658442,0.4654214,33.813194,249.16711,12.151831,84.83645,85.11223,85.682144,85.60469,10.94115,0.7,-84.74535,-31.5867,0.009221997,-415.21478,-2.5075457,-2.518189,-3.7771766,-2.8988323,6.171875e-07,0.3,-38.55701,60.96633,60.88785,61.50258,61.332626,0.41002047,0.4203125,5.308343172073364,35.19297815561295
51,510000,53.11225208636194,-62.422485,0.06155025,-0.42331415,3.5719435,-1.0590076,40.307404,156.73262,12.16204,85.91681,86.509346,86.39339,87.1769,70.47192,0.7,-85.06844,-29.949894,0.002561492,-629.82916,0.83424425,0.9402984,1.0394962,0.979509,2.1391315e-06,0.3,-38.169083,61.753,61.80374,62.053066,62.108837,0.76693535,0.4609375,5.916080951690674,35.877134291330975
52,520000,51.27595843845566,-60.96808,0.061489888,-0.2909593,2.2536452,4.8515477,39.460575,56.301292,10.686878,85.53404,85.49064,85.67306,85.373535,48.393578,0.7,-84.90991,-32.377735,0.0011333257,-455.32077,-5.8096313,-5.6403704,-3.5888329,-3.748606,6.5045316e-07,0.3,-43.242996,60.381226,60.412827,60.738613,60.587837,0.56543946,0.4265625,5.480011463165283,36.55481784343719
53,530000,51.718286008286555,-57.879963,0.061163485,-1.3603101,2.478664,3.0717056,47.834656,32.735134,9.825016,86.82402,85.847984,86.57739,87.03957,17.389917,0.7,-85.77962,-34.611942,0.0009787837,-1674.0465,-4.425739,-3.8495426,-4.876759,-3.139026,3.0769308e-05,0.3,-53.391155,57.170265,57.232414,56.985844,57.079502,0.5181482,0.484375,5.955047369003296,37.24084171056747
54,540000,53.14798762212079,-62.094444,0.061256036,0.24717411,2.751225,3.682023,34.90548,78.731865,10.784015,86.1874,85.903656,85.63044,85.9598,10.3483515,0.7,-85.811935,-29.830616,0.00081286154,-705.5055,-4.4439764,-5.3047857,-3.5130677,-5.532194,1.0308943e-05,0.3,-43.548058,61.444206,61.600433,61.20227,61.18915,0.4541048,0.4734375,5.5157341957092285,37.92009735107422
55,550000,52.959050882239445,-61.880917,0.061621975,-0.4158341,2.3491035,1.9290773,50.668488,31.883114,9.955845,87.70052,87.393036,87.47501,88.15527,6.7841372,0.7,-87.88322,-32.570183,0.003268357,-803.8916,-1.0019389,-1.6615349,-3.390569,-4.778875,8.801042e-05,0.3,-44.083412,61.318584,61.166153,61.36949,61.338722,0.3772781,0.4265625,5.479066371917725,38.597475167115526
56,560000,53.63911741514305,-60.955757,0.06157615,0.75019985,3.1773825,2.2564802,42.250175,56.0039,11.460121,86.736,86.50066,86.90841,86.22685,7.7601447,0.7,-86.03201,-28.950012,0.0036662354,-624.7271,-2.420104,-3.5544035,-3.1692574,-1.84875,5.6735008e-08,0.3,-47.259,60.226917,60.36405,60.542534,60.575077,0.37751484,0.4265625,5.540410995483398,39.27584187587102
57,570000,52.30792095667215,-61.788303,0.06179763,-1.0243237,3.6345286,3.1921847,33.941647,109.87058,11.841021,86.37395,86.339516,85.96527,86.04439,13.504494,0.7,-85.78152,-30.628798,0.00051622547,-1064.3453,-4.8009396,-3.3142114,-5.251099,-5.6169004,1.4709076e-08,0.3,-48.30684,61.07092,61.110703,60.74026,61.036633,0.50582665,0.43125,5.548129081726074,39.95202639897664
58,580000,52.580771352014764,-60.715797,0.062046837,0.018944412,2.1444345,4.9428115,39.843372,27.483944,13.256063,85.03782,85.22734,84.39279,84.98715,11.579136,0.7,-85.031395,-38.623535,0.00025643018,-1114.3655,-5.973881,-8.071237,-4.083513,-4.30837,3.22744e-07,0.3,-60.975582,59.9497,60.000107,60.00822,60.242752,0.46018803,0.45937496,5.526602506637573,40.62771790822347
59,590000,51.369256795132415,-62.58355,0.06153229,-0.9355036,2.717603,2.0133097,61.5579,96.09148,11.057453,86.66605,86.408554,86.23779,85.657036,11.81627,0.7,-85.800964,-35.769886,0.0010024426,-1078.1335,-2.6969473,-3.6940866,-4.170477,-3.6451669,4.195317e-05,0.3,-51.526417,62.069214,61.847637,61.8218,61.98065,0.43720365,0.43125,5.602119445800781,41.305103770891826
60,600000,52.714113000042964,-56.907806,0.06231795,0.13331552,2.1604223,4.16944,36.381706,33.53026,12.760092,84.35818,84.45537,84.85093,84.9633,5.5943036,0.7,-84.907364,-33.33373,0.0023909626,-1645.1627,-6.4085793,-7.207538,-5.024294,-4.186138,9.584328e-06,0.3,-57.014862,56.01558,56.12215,55.955498,56.238037,0.45555472,0.42187497,5.712031364440918,41.982480788230895
61,610000,53.916555114600094,-61.93644,0.062127557,-0.3835559,2.9175496,-0.4348797,33.51995,35.942833,12.551924,86.45429,86.02852,84.83886,85.66022,26.74679,0.7,-85.88072,-33.7592,0.00090683025,-695.916,-1.2691071,-1.9910202,-4.6659946,-4.6876097,6.9528064e-06,0.3,-45.56069,61.26509,61.020042,60.623497,60.61232,0.73284924,0.50312495,5.419641017913818,42.65917112429937
62,620000,51.67881205318784,-62.588688,0.061837558,-0.37190172,2.37564,1.0994766,36.215256,60.04756,10.960533,85.48698,85.95952,86.44179,85.97741,12.254255,0.7,-85.7911,-29.788746,0.0030889502,-1092.272,-3.4825263,-3.5603185,-2.4252217,-3.2090054,6.9849198e-09,0.3,-53.355553,61.885056,62.034927,62.231964,62.276756,0.5692382,0.4078125,5.381983518600464,43.337019085884094
63,630000,53.29046282946786,-57.300007,0.06083399,-0.3529324,2.9364388,4.130623,52.967236,55.101494,13.158015,85.81277,86.0172,86.426674,86.00099,11.585322,0.7,-85.62679,-32.99645,0.004743508,-984.4683,-4.4270334,-5.622095,-3.8965056,-2.8897264,1.4281901e-06,0.3,-57.695442,56.517426,56.436745,56.515526,56.574474,0.536253,0.43906248,5.370634317398071,44.01619022289912
64,640000,52.866045259525485,-61.338543,0.062178355,-0.1654651,2.2411845,2.7578545,44.277405,43.1513,12.125973,86.25971,86.06334,85.115776,84.85434,10.924054,0.7,-85.61503,-38.606506,0.0009566724,-816.9368,-2.8807836,-2.8488336,-3.6445613,-3.8488202,9.045878e-07,0.3,-63.307693,60.717415,60.6519,60.39621,60.15873,0.4390689,0.5296875,5.487811088562012,44.69066146214803
65,650000,51.85589532631316,-59.97769,0.062334683,0.79556745,2.391123,2.8942964,55.54576,21.320948,10.83787,86.6618,85.969666,86.41917,86.61384,76.29911,0.7,-86.09824,-31.014778,0.0029143929,-902.3167,-4.3531895,-3.6188793,-3.6894388,-2.9995039,2.5439933e-05,0.3,-53.214806,58.94191,59.052727,58.754097,58.9122,0.73582584,0.42812496,5.464731931686401,45.367799464861555
66,660000,52.59644998132794,-59.403214,0.06172658,-1.3086652,3.4669862,1.28006,41.602276,61.862522,13.402783,87.10609,87.49176,86.40835,86.2578,5.300371,0.7,-87.259285,-35.568756,3.9852275e-05,-1201.2224,-3.07579,-4.795444,-6.1395407,-5.4701967,7.174927e-06,0.3,-63.143013,58.319725,58.44199,57.70011,58.065468,0.3741794,0.47500002,5.39605975151062,46.04870039621989
67,670000,51.32776185562216,-60.07474,0.062364053,0.26060742,2.233496,3.6355762,48.596386,58.172604,10.578091,85.391594,85.67216,84.943375,84.56833,157.85516,0.7,-85.05977,-31.53859,0.0015614266,-981.2859,-4.8281946,-2.9587274,-4.019431,-4.249057,1.18813475e-07,0.3,-48.320194,59.143646,59.174343,58.969536,59.132088,0.9940205,0.4890625,5.547059774398804,46.72993381023407
68,680000,52.441836390301056,-62.876667,0.061983656,0.4379341,2.5912597,1.1539185,31.26646,43.20456,12.628078,87.362114,86.55456,85.859985,86.719536,11.763138,0.7,-86.41368,-31.31373,0.004763646,-2214.2498,-4.2077394,-3.9649062,-3.7972567,-3.3006017,1.6298145e-10,0.3,-69.4387,62.109074,62.148277,62.139507,61.817066,0.52535576,0.46875,5.4205162525177,47.40692134698232
69,690000,52.569149415330074,-63.176918,0.061866608,0.8792363,3.2164612,2.5723622,60.2084,46.358925,12.125458,87.87453,86.753174,85.54474,86.11222,43.966232,0.7,-85.79438,-30.801208,0.0016965572,-1146.3558,-5.7778206,-5.1378307,-7.9289675,-5.935355,3.4716797e-07,0.3,-67.346725,61.986237,61.80562,61.64726,61.739162,0.7417405,0.4671875,5.399802207946777,48.0842194835345
70,700000,51.72757931789377,-59.95983,0.062302317,-1.3854063,2.8689513,3.1333473,56.952465,70.97528,12.588415,84.16412,84.07967,84.78248,84.2498,13.624989,0.7,-83.56504,-35.858925,0.0052301176,-1183.3949,-7.644599,-5.410247,-5.727627,-7.048714,1.6171835e-07,0.3,-64.396805,59.108635,59.175156,59.573288,59.53145,0.49168697,0.4140625,5.331872463226318,48.7614088177681
71,710000,51.99665658727951,-62.980766,0.06240011,0.24102542,2.6531088,-2.108928,33.1139,78.21167,9.995447,86.670944,85.455864,85.91643,86.4189,44.732605,0.7,-84.75115,-33.025135,0.003333187,-1587.5782,-0.8466203,-1.4288627,-1.7230653,0.4066645,8.8481e-06,0.3,-49.150513,62.209435,62.074482,62.085747,62.59038,0.7317362,0.39218748,5.584054708480835,49.444515975316364
72,720000,52.76546579511072,-60.492584,0.061689973,1.0589972,3.295247,5.778398,51.338818,130.33969,11.31294,85.48819,85.39844,84.971176,84.8184,22.234678,0.7,-84.48605,-32.25861,0.0015099735,-2288.9019,-5.5476036,-5.719725,-4.6425223,-3.5406928,1.4183752e-08,0.3,-68.269,59.672768,59.741676,59.980213,59.94709,0.44546157,0.4453125,5.4715940952301025,50.12465008894603
73,730000,52.117736367972675,-62.33388,0.062239446,0.34781325,2.3325963,2.246024,37.62856,25.526602,9.680637,85.82983,85.30778,86.329384,85.37994,42.279552,0.7,-84.3044,-36.896854,0.0017838394,-1378.3656,-2.92475,-2.1226745,-2.5549815,-3.6028013,8.802745e-08,0.3,-50.60904,61.398903,61.409016,61.087395,61.364643,0.80882293,0.50312495,5.503586530685425,50.800262180964154
74,740000,52.63878599727223,-59.640427,0.06302679,0.2516682,2.105067,5.643489,63.277103,63.98564,12.925309,86.52254,86.17751,85.77443,86.62829,5.5040183,0.7,-85.593605,-31.551586,0.0019774102,-1671.9738,-6.588214,-5.98875,-5.760056,-4.987608,5.5327547e-07,0.3,-65.54744,58.80814,58.70671,58.61591,58.786438,0.41488254,0.4578125,5.45057487487793,51.474072472254434
75,750000,52.507905274252245,-60.397995,0.06117051,0.99477905,2.7725337,3.4325383,50.139343,40.736084,10.318773,83.58409,83.53848,84.49676,83.51299,17.107138,0.7,-83.20147,-31.248365,0.0028100763,-1056.3859,-4.9344525,-4.6626377,-2.5051045,-2.6993227,8.217688e-06,0.3,-65.10254,59.249054,59.185505,59.444035,59.5597,0.5302044,0.40625,5.502026796340942,52.152020847797395
76,760000,52.278678987880355,-61.957115,0.06282914,-0.080512166,1.8682771,2.5086997,50.445507,37.72378,13.483833,86.31105,85.15229,85.9687,85.19224,11.964391,0.7,-85.03239,-34.0164,0.0054349853,-710.76306,-1.6548471,-2.7491508,-2.3603904,-2.367743,2.7522156e-06,0.3,-56.17074,60.94789,60.932877,60.959663,61.10825,0.49710923,0.45156246,5.33634877204895,52.83034777243932
77,770000,53.00541528438145,-63.076607,0.06247934,-1.4045496,2.0631442,1.5724401,34.494316,73.84508,11.366606,84.79426,84.83423,85.75313,84.43446,21.956312,0.7,-84.387146,-31.49776,6.5299726e-05,-1495.3553,-3.5287952,-3.2305903,-4.2518497,-3.5714128,1.3801432e-05,0.3,-58.83826,62.36168,62.312317,62.17996,62.233124,0.46545467,0.47812498,5.51913595199585,53.50929272174835
78,780000,52.69833378911911,-60.325466,0.062027134,0.18314464,2.995613,3.9263947,38.098255,55.110294,10.862039,86.16322,85.331375,85.95638,85.19282,88.632645,0.7,-84.91453,-30.344152,0.0022125146,-2640.5461,-4.0951524,-4.2643566,-1.207684,-3.4463093,5.82186e-06,0.3,-76.64106,59.366108,59.387253,59.389023,59.362762,0.88071126,0.4578125,5.4896416664123535,54.187758819262186
79,790000,52.87993089566496,-59.46633,0.06361362,-0.013573766,2.6961043,-1.5196934,55.45097,48.669262,12.198176,83.75507,84.6858,83.67098,84.11539,14.943393,0.7,-84.05962,-32.924515,0.0010273212,-1504.6913,1.1929346,1.2542838,1.8159125,1.7809018,5.46396e-06,0.3,-68.16307,58.678017,58.6852,58.798653,58.84155,0.51718307,0.453125,5.472745656967163,54.86582668622335
80,800000,53.065309525471314,-61.059464,0.061463628,0.4768622,2.102315,4.0254493,62.858604,52.3963,10.576044,85.852455,85.44025,85.50548,85.35809,20.961294,0.7,-85.249405,-33.141254,0.00016676803,-1772.6095,-4.0414333,-4.8587027,-2.2670054,-1.9587746,1.4768199e-06,0.3,-63.627235,60.353832,60.425484,60.267143,60.246918,0.50783455,0.48281246,5.52645468711853,55.54119718472163
81,810000,52.916127621400534,-61.12731,0.061791986,1.0994374,1.8331026,5.152098,59.26316,44.285343,11.943079,85.405396,85.76795,85.52511,86.24204,7.6192603,0.7,-85.59088,-35.269913,0.00025243248,-1740.091,-4.30769,-2.2374477,-1.3009133,-1.4552624,4.26327e-06,0.3,-66.328064,60.267746,60.222878,60.320984,60.38069,0.44107518,0.4453125,5.434950828552246,56.217618648211165
82,820000,53.10159855378516,-59.73381,0.06218541,-2.4374518,2.676759,4.5561557,39.523827,56.645607,9.937017,84.86457,85.42111,85.08355,85.574875,9.089497,0.7,-84.597626,-31.360231,0.012978852,-718.6236,-5.683059,-6.0471516,-2.7289586,-3.7835228,3.0165098e-10,0.3,-59.4461,59.041443,59.01529,59.07655,59.05332,0.37461674,0.43906248,5.681854486465454,56.89649071296056
83,830000,53.10204327524517,-63.774406,0.0619179,0.089061245,3.1352043,5.8046937,38.605503,43.196987,10.865201,84.99054,84.548996,85.78419,85.30892,21.745329,0.7,-85.41975,-31.241386,0.0012226608,-1415.0437,-3.776067,-5.3057923,-2.7067523,-5.029708,9.1448015e-07,0.3,-61.125107,63.00216,63.053955,63.57945,63.248016,0.62011683,0.45937496,5.751391649246216,57.576295085748036
84,840000,52.8909873098388,-62.157642,0.062881514,0.5995358,1.9761177,4.0771713,62.727333,87.88558,11.381656,86.92948,86.902245,85.94142,85.79224,11.346545,0.7,-86.357414,-31.04461,0.0013492048,-1313.0723,-3.9443178,-3.7966287,-4.216155,-5.149886,2.6850032e-07,0.3,-60.34285,61.56069,61.454613,61.34882,61.288147,0.5023009,0.4890625,5.740664482116699,58.2559824069341
85,850000,52.988599070743426,-61.867233,0.06234229,-0.6508217,2.2938442,2.390592,99.487366,41.79745,9.881893,84.09535,83.96753,84.50555,84.618515,42.956886,0.7,-84.427765,-31.921272,0.00060270657,-1395.0051,-2.348826,-3.2117987,-3.5629997,-2.6055963,8.173634e-05,0.3,-58.786255,61.248775,61.39812,61.426735,61.57499,0.5368973,0.40625,5.725955486297607,58.93522531588872
86,860000,52.78024824990904,-61.069077,0.062016193,-0.924504,2.1606557,2.259803,32.60305,32.001892,10.131683,84.74512,85.70622,86.44841,84.94566,7.12403,0.7,-85.232796,-32.52275,0.017699584,-993.1525,-2.4521418,-2.6589675,-2.0131269,-3.137405,6.0645397e-07,0.3,-51.61424,60.25792,60.41745,60.543056,60.288677,0.5424819,0.471875,5.5161004066467285,59.61203486124675
87,870000,53.098986923295875,-60.181023,0.061555106,-1.5363755,1.9307259,4.2059546,42.947094,34.873745,12.550442,84.435486,85.137886,85.08757,85.33532,13.053299,0.7,-85.16686,-32.811176,0.0046553425,-505.30566,-3.3401072,-3.035699,-3.0203211,-3.05646,8.6838264e-07,0.3,-42.455246,59.49745,59.613014,59.547077,59.51023,0.4937303,0.5109375,5.726988315582275,60.29164739847183
88,880000,53.60593099319395,-65.61912,0.062248986,0.6851311,3.0977082,-0.2110945,55.900833,41.702576,10.966175,86.18609,86.64573,87.88679,86.76772,5.5461226,0.7,-87.230156,-31.155275,0.0004190181,-670.08154,-2.1764607,-2.8854146,-3.1578696,-1.5876554,3.8179383e-05,0.3,-58.256874,65.106064,65.04787,65.69163,65.35381,0.45617944,0.42031246,5.767499923706055,60.97153939008713
89,890000,53.14628893110319,-64.71561,0.06311148,-1.0761704,2.9510834,1.9605274,32.30244,54.98696,9.338642,85.11872,85.19942,85.021675,86.203445,6.778705,0.7,-85.22162,-31.761831,0.004435408,-3367.0227,-4.282506,-4.084554,-4.004594,-4.603853,3.426685e-08,0.3,-60.245373,64.13031,64.08701,64.67128,64.604065,0.4337501,0.40781248,5.475735425949097,61.64901614189148
90,900000,53.15235043020772,-62.12641,0.06235236,-0.81304556,3.2178504,2.5538456,42.3527,59.45141,11.686199,83.79356,83.93368,84.44177,85.14914,11.186281,0.7,-84.13261,-30.722866,0.0021259245,-1280.6191,-0.81683767,-2.1071575,-2.7384257,-4.2748575,7.089832e-08,0.3,-58.421116,61.381516,61.351963,61.58969,61.399498,0.5578576,0.46718746,5.481132984161377,62.328205573558805
91,910000,53.444096845535014,-62.50142,0.061949957,-0.30074573,2.6055613,0.53774416,49.98886,45.117775,11.06452,83.45332,84.21519,84.12748,83.94021,5.707858,0.7,-83.42883,-32.443615,0.007608303,-4880.284,-0.6319138,-1.6406033,-1.5568912,-2.3662086,4.2891665e-05,0.3,-81.95935,61.844337,61.822983,62.30532,62.115433,0.388712,0.40625,5.434508323669434,63.005194358030955
92,920000,53.85161536260491,-62.469162,0.062065996,0.9057502,2.8475122,5.126337,36.902866,163.44441,11.023121,84.355095,83.79396,83.931145,84.555466,80.859726,0.7,-84.152084,-29.584011,0.0033547748,-1147.9678,-7.637743,-7.903631,-6.9840555,-9.211061,2.1360513e-05,0.3,-66.31836,61.74842,61.756348,61.726955,61.972702,0.7265443,0.44375,5.54571008682251,63.68574367761612
93,930000,52.685397598941954,-63.062897,0.062247373,0.9979186,2.1335835,3.4385333,31.182957,36.311356,9.366356,84.253876,84.86177,84.65557,84.23756,15.092734,0.7,-84.7443,-29.351555,0.0019732872,-2946.1233,-3.9601145,-4.0799723,-4.0345087,-2.461934,1.053261e-06,0.3,-68.30913,62.140984,62.071213,62.012146,62.168083,0.60980225,0.49062502,5.543883800506592,64.36552945772807
94,940000,53.058149189042624,-63.255844,0.062084332,0.3183469,2.5101073,0.5044303,87.75731,30.791208,12.469473,85.15907,84.982285,86.320946,85.42174,3.867778,0.7,-84.69687,-30.836857,0.002192639,-674.5943,-2.0136342,-1.7131112,-2.5377429,-2.1493516,6.0645397e-07,0.3,-53.000153,62.58011,62.633068,63.173996,62.942772,0.28110164,0.4296875,5.447811126708984,65.04403634866078
95,950000,53.379574394767545,-57.188774,0.062351774,-0.84431636,3.0125659,3.3208194,52.612705,93.422714,10.4732,83.42959,82.72856,83.55021,83.640945,117.567635,0.7,-83.025925,-32.33984,0.0016293674,-2073.065,-3.6456146,-3.5920372,-2.8723574,-2.7888658,9.6400445e-06,0.3,-71.68965,56.104137,56.11181,56.410084,56.491035,1.0416564,0.4640625,5.538371324539185,65.72323232491811
96,955000,53.31779113275149,-63.174583,0.06198209,0.015082568,2.3690658,3.2030547,39.67737,26.39661,11.242012,85.446594,85.59436,85.8296,85.79561,5.4308,0.7,-84.78747,-29.898436,0.0007639441,-940.51416,-3.0247352,-3.0245838,-3.827277,-3.8166504,5.0920065e-08,0.3,-48.616768,62.61918,62.65803,62.865345,62.69287,0.37245005,0.45,5.524879217147827,66.11077272097269
97,960000,54.05356466151513,-63.211014,0.062330324,-0.14542577,2.599897,1.8865883,46.34159,55.822407,9.861722,85.765976,86.07306,87.643936,86.91424,14.182473,0.7,-85.7005,-29.943022,0.0012829534,-1164.0461,-0.7878121,-0.2665496,-3.3233814,-1.6329683,7.568899e-06,0.3,-58.50482,62.54165,62.642044,63.102962,63.169674,0.5489102,0.3828125,5.490688323974609,66.49618989229202
98,965000,53.20839387393357,-63.48907,0.062045313,-0.48930335,1.9402072,2.6866617,29.12766,56.49285,12.5851345,84.27186,84.448166,84.96771,84.22781,13.812934,0.7,-84.41966,-30.24856,0.00053316646,-1179.7733,-2.6273541,-2.395109,-2.8414862,-3.4159508,5.6577846e-07,0.3,-62.997803,62.662605,62.800415,62.714355,62.637577,0.4809989,0.45,5.4214091300964355,66.8820425550143
99,970000,53.18881946668385,-62.35865,0.064176306,-0.6193321,2.5936484,3.449689,51.904003,37.02143,13.484567,84.23105,84.441,84.91543,84.58654,16.848919,0.7,-83.700424,-31.470345,0.0034595218,-981.7047,-2.7556472,-4.914168,-1.5816549,-1.4273158,7.4103014e-07,0.3,-64.584946,61.554466,61.542595,61.707443,61.81682,0.565639,0.43124998,5.386282444000244,67.26617869933446
100,975000,53.628319111394816,-61.442196,0.060963143,-0.7645175,2.2228875,-1.4597554,40.997414,19.553158,9.87828,84.21091,83.65771,84.48659,83.59098,8.250436,0.7,-84.0374,-30.42205,0.0009132805,-1024.2339,-2.9384484,-2.6139054,-4.7735558,-2.2016535,3.229707e-05,0.3,-57.95499,60.638504,60.597775,60.114395,60.46257,0.4329279,0.4203125,5.421576976776123,67.65271814664204
101,980000,53.6687315809806,-59.349907,0.062148523,0.23800558,2.4797635,2.15092,51.366066,61.283943,10.874654,85.46071,85.82466,86.586845,85.49037,67.47906,0.7,-85.21156,-31.159002,0.0023361885,-3597.234,-1.9621248,-3.9734213,-1.3167259,-2.1926916,4.1564343e-07,0.3,-86.98616,58.33512,58.290977,58.169743,58.2407,0.8641134,0.47812498,5.395756721496582,68.03809676170349
102,985000,53.608819967136355,-61.397205,0.061158057,-0.7913408,2.7237816,-0.3466347,36.41864,63.379433,10.054163,83.875916,84.06138,85.000984,84.399796,13.427506,0.7,-83.81315,-31.054808,0.0042705424,-1098.4626,-1.1113772,-0.8392559,-3.2877948,-4.208564,3.0620415e-06,0.3,-65.4423,60.475502,60.645966,60.46874,60.639183,0.4773429,0.4484375,5.488158464431763,68.42516345183054
103,990000,53.44259507572205,-61.958527,0.05968053,-0.3120551,1.9610302,0.3050949,44.16795,20.43279,14.582933,84.206245,84.14946,84.663895,84.50576,9.079961,0.7,-83.76253,-32.391537,0.00046992418,-759.5479,-3.1392012,-2.3680084,-1.8740262,-2.2763076,0.0001649226,0.3,-50.20572,61.40163,61.391304,61.640175,61.69099,0.39823186,0.421875,5.398317098617554,68.81101606289546
104,995000,53.40277538290441,-60.1858,0.06795547,0.12069234,2.8953416,3.1075628,47.287457,66.14903,10.570107,84.987335,85.836685,84.93808,84.3493,10.712316,0.7,-84.73244,-29.613216,0.005430872,-1446.8077,-3.7110667,-4.615301,-4.3965864,-2.8807256,0.00019638035,0.3,-64.28779,59.346085,59.43599,59.969646,59.703083,0.5221087,0.44687498,5.337889194488525,69.1966335217158
105,1000000,53.543828553210105,-59.68242,0.07371438,0.29458815,2.638564,1.2792666,47.224586,33.416893,9.799731,86.041824,84.890594,84.93343,87.15438,4.6605678,0.7,-84.30304,-28.787676,0.0015160907,-1435.112,-1.6975517,-2.1932921,-3.4237652,-2.2400143,1.455465e-06,0.3,-80.71533,58.861187,58.777863,59.121033,59.192974,0.42005628,0.44062498,5.364913702011108,69.58043028116226
