Xixo99/comfo/baselines/comfo6_perterbation_actor/20230223_halfcheetch_maxQ/halfcheetah-medium-replay-v2/COMFO6_s0_20230222_203020_halfcheetah-medium-replay-v2_53.13.csv
,step,reward,actor_loss,alpha,alpha_loss,critic_loss,max_actor_loss,max_alpha_loss,max_critic_loss,max_mle_prob,max_q1,max_q2,max_target_q,max_v,max_value_loss,max_weight,min_actor_loss,min_alpha_loss,min_critic_loss,min_mle_prob,min_q1,min_q2,min_target_q,min_v,min_value_loss,min_weight,mle_prob,q1,q2,target_q,v,value_loss,weight,eval_time,time
0,0,2.2488506014259837,,,,,,,,,,,,,,,,,,,,,,,,,,,,,,,,,
1,10000,-1.036001695675064,-22.793285,0.07291249,-4.664976,1.9582088,7.2772036,19.041656,79.21667,10.275038,38.994015,38.90537,39.11261,38.77421,3.6598496,0.7,-39.13388,-32.1254,0.0026855848,-109.42879,-7.8488173,-7.683576,-8.537904,-8.032364,8.196022e-06,0.3,-9.272699,22.44625,22.460331,22.35797,22.003944,0.1370306,0.47500002,5.7331461906433105,1.925495731830597
2,20000,0.8399344887326748,-39.13726,0.07833388,0.41537935,3.769775,11.36149,28.389614,266.79495,12.106861,63.23612,62.91713,62.777454,62.78583,3.3202822,0.7,-62.79243,-28.000368,0.000913267,-82.88689,-11.722447,-11.826921,-11.909066,-11.97981,5.016962e-07,0.3,-6.501012,38.896595,38.961475,38.86818,38.637817,0.18216103,0.47187498,5.698822736740112,2.5973649422327676
3,30000,15.287395226117468,-49.420883,0.07782921,0.286675,5.356917,5.8876314,24.860561,195.94408,11.751694,73.32693,72.60107,73.55244,73.14035,8.891977,0.7,-74.698456,-31.083952,0.005197774,-116.54142,-7.378108,-7.3028173,-7.709164,-6.7532554,1.7974053e-06,0.3,-5.8731728,49.292007,49.1895,48.96087,48.991615,0.27772605,0.45625,5.661691904067993,3.2673611998558045
4,40000,28.72412833627706,-53.15422,0.08013894,0.48513025,4.754527,15.055947,32.348988,163.73285,10.904016,80.57734,79.832405,79.84105,79.192,26.867441,0.7,-81.15328,-29.534058,0.003433329,-159.78525,-14.466468,-15.388257,-16.207113,-16.298246,1.1770306e-05,0.3,-10.603633,52.97509,52.90605,52.745544,52.74913,0.41405588,0.471875,5.621257066726685,3.9375046491622925
5,50000,46.42616561354168,-55.20877,0.080092974,-0.78389955,3.6039128,19.204325,23.382212,105.6395,12.057587,84.44134,83.920525,86.22498,83.64324,12.23234,0.7,-83.45899,-32.925102,0.000839661,-222.13977,-18.9947,-19.24941,-17.86695,-17.787313,6.2864275e-10,0.3,-10.973841,54.81227,54.881836,54.998604,54.87332,0.32653707,0.453125,5.5173869132995605,4.603381812572479
6,60000,48.21840520347547,-61.070854,0.07730747,0.106074795,5.377985,17.636152,47.185863,186.8768,11.564721,86.049805,85.71888,86.763725,86.06242,25.404915,0.7,-85.48574,-29.527983,0.0018110783,-206.29865,-16.59306,-17.912024,-18.212622,-18.733664,1.9010156e-06,0.3,-12.121681,60.83081,60.782524,60.9304,61.07097,0.55453205,0.4359375,5.5756871700286865,5.27024841705958
7,70000,51.04504645060297,-57.2116,0.074389964,-0.6035892,4.8848276,16.94272,29.277113,224.74008,12.454313,87.684525,87.31746,86.55004,88.039116,9.701889,0.7,-86.96012,-29.157253,0.0010936668,-286.6609,-17.240898,-16.62,-17.5301,-17.134607,1.9720756e-06,0.3,-14.721124,56.951935,56.860107,56.91967,56.982357,0.326815,0.409375,5.651580095291138,5.931778065363566
8,80000,50.172093810476284,-58.42695,0.07246054,-0.37137038,3.385734,16.970118,30.095522,45.57415,13.559105,87.89023,88.85965,87.729706,88.080444,140.68759,0.7,-87.863235,-30.502901,0.0031533474,-460.95627,-17.52757,-16.644781,-18.971733,-17.127949,5.482696e-07,0.3,-18.78172,57.914406,57.87845,57.558746,57.873737,1.07419,0.475,5.70580267906189,6.597367000579834
9,90000,49.48755271924449,-61.342224,0.07106226,-0.9155657,3.6977792,16.0173,44.397903,109.79727,11.700258,89.3661,89.58601,89.17209,89.28914,7.830001,0.7,-88.48445,-33.39152,9.360042e-05,-342.58664,-15.918323,-16.258757,-16.496948,-15.785878,4.5771496e-05,0.3,-20.807434,61.044518,61.12758,61.50905,61.45869,0.3803842,0.4359375,5.902700185775757,7.262372219562531
10,100000,51.08998247571157,-59.130936,0.06898756,-1.413842,4.4333496,14.970666,25.555494,298.60388,13.739517,88.64192,88.464165,89.02889,88.32899,9.160475,0.7,-87.94922,-34.153778,0.00085479516,-472.77496,-15.1208105,-14.967752,-14.595221,-15.03092,1.06428e-05,0.3,-25.510754,58.719982,58.842762,58.719,58.489426,0.5408833,0.5046875,5.859785795211792,7.930162175496419
11,110000,50.959929412859275,-65.024216,0.06807774,0.45876947,3.4424286,8.332072,35.335148,131.17241,12.0170145,88.023575,88.13146,88.90787,88.252045,14.197129,0.7,-87.01336,-29.507317,0.012762208,-225.98706,-9.438265,-8.502273,-8.147304,-8.464133,4.906108e-06,0.3,-18.406864,64.50612,64.66649,64.64999,64.66513,0.47491634,0.45,6.06376314163208,8.597727199395498
12,120000,53.92882083326438,-64.80334,0.06614305,0.32830697,5.0428767,11.570746,38.47504,186.18954,11.779363,88.65457,88.26294,89.4824,88.125694,10.66113,0.7,-87.98288,-31.487791,0.005633761,-422.80194,-12.626676,-13.445903,-12.526884,-11.968951,5.8933114e-08,0.3,-22.7823,64.37498,64.49573,63.894855,64.028885,0.4964961,0.48593748,6.092849254608154,9.269802749156952
13,130000,52.575502665463524,-60.616554,0.06552408,-1.5650942,5.1021094,11.595888,47.37842,163.43845,12.366985,88.387184,88.372246,87.82567,87.381836,6.018607,0.7,-87.92937,-33.506508,0.008792108,-595.87854,-11.290156,-11.7871685,-13.299471,-12.582061,1.2175152e-05,0.3,-28.236176,60.02627,60.01126,59.1935,59.392357,0.518656,0.4875,6.069498300552368,9.939099284013112
14,140000,52.60310147703172,-57.746185,0.065909505,-0.93749416,2.9819555,12.576387,42.674175,130.88876,13.784933,88.572235,88.47665,87.88974,88.17796,13.734227,0.7,-88.131294,-32.02643,0.003798918,-607.6388,-12.949346,-12.313076,-11.167837,-11.8207035,5.323174e-05,0.3,-24.39378,57.169724,57.22213,57.433136,57.614437,0.46149555,0.40937498,5.830909013748169,10.60759341319402
15,150000,53.407810240561695,-62.633476,0.06489268,0.7833549,2.7469473,10.667519,35.342655,63.491238,11.623026,89.51843,89.16632,86.956726,89.227585,19.426453,0.7,-89.94702,-30.623629,0.0015773776,-1249.4451,-9.8715315,-10.530227,-11.046187,-10.978108,6.714538e-06,0.3,-31.683884,61.934414,61.945026,61.715637,61.840504,0.53207886,0.48125,5.760502576828003,11.27079091866811
16,160000,53.75823311311989,-63.193813,0.064642705,0.053324267,2.6026301,9.465119,28.858894,45.57251,11.072655,89.855675,88.556465,88.89757,87.807076,11.649092,0.7,-88.05819,-32.746494,0.0022054773,-979.3088,-9.362691,-11.068376,-11.832256,-10.529707,2.4165029e-06,0.3,-25.925148,62.866188,62.727013,62.31141,62.43882,0.4100396,0.4640625,5.866339921951294,11.936955964565277
17,170000,56.095797153761936,-64.07944,0.06461573,1.5237117,2.553933,8.410242,38.919994,45.355297,12.272475,87.628914,87.4467,88.52984,87.64851,10.324033,0.7,-87.41165,-31.046278,0.0032219228,-659.9444,-10.847452,-9.871178,-8.8420315,-8.4983015,2.2215288e-06,0.3,-32.48267,63.60388,63.70059,63.894524,63.668907,0.39862353,0.465625,6.223712921142578,12.608750418821971
18,180000,54.13188972363025,-61.73223,0.063694924,0.0767127,3.0521712,6.5033827,35.16049,59.460644,12.70272,87.68901,87.770905,87.390045,87.41337,8.831818,0.7,-87.191635,-35.090046,0.0064412495,-613.9693,-8.51904,-8.197562,-8.351992,-8.387183,1.4632037e-06,0.3,-27.605724,61.248077,61.19227,61.042023,61.030735,0.35089526,0.4453125,5.988390922546387,13.277229634920756
19,190000,52.00153256201424,-60.493553,0.06281928,1.2556686,4.316609,8.033795,44.90199,153.2705,12.890791,88.05598,88.015205,86.87093,86.9916,7.9580517,0.7,-87.73355,-32.633854,0.0038951277,-843.7858,-9.709328,-8.318554,-7.937212,-8.885759,5.723378e-06,0.3,-33.64948,59.752125,59.820686,59.725174,59.70445,0.46999383,0.45937496,5.74003005027771,13.942676238218944
20,200000,56.246785814635246,-64.15476,0.062578216,-1.640932,1.8223362,7.9718485,38.059895,29.749195,12.37701,87.77313,86.975395,87.35862,86.75054,13.5455265,0.7,-85.68277,-36.534508,0.0013139853,-328.9924,-7.7155514,-8.160532,-8.627455,-8.3698225,1.5068055e-06,0.3,-20.72931,63.797367,63.766968,63.91105,63.798176,0.4720745,0.4609375,5.652606964111328,14.611683666706085
21,210000,57.11824582237141,-64.231606,0.062410522,0.7135578,4.1006145,7.7035847,30.28888,392.55804,12.453565,85.65886,85.68758,86.015526,86.47524,25.161451,0.7,-85.984955,-33.12016,0.0065828552,-1425.1787,-9.385032,-9.434747,-8.517363,-8.899968,1.7968705e-06,0.3,-34.322777,63.544075,63.538498,63.619286,63.933754,0.65383124,0.39687496,5.568127393722534,15.275519677003224
22,220000,52.0244568464464,-62.127563,0.061537113,-0.14761561,4.631708,7.095973,38.242184,369.169,14.586706,88.71916,86.882095,87.508865,87.692085,12.314872,0.7,-86.1255,-30.767338,0.0004219223,-1805.2242,-6.469447,-7.388396,-8.030371,-7.624532,1.3428895e-06,0.3,-39.32794,61.390373,61.36905,61.458466,61.48246,0.47404364,0.4765625,5.5654919147491455,15.940382500489553
23,230000,52.69069611462089,-60.580376,0.06199799,0.6271612,3.874843,5.4038825,34.558567,157.71939,11.777732,87.80377,87.793205,86.89892,87.14638,26.13653,0.7,-87.16452,-32.69525,0.00417981,-993.54346,-9.277374,-8.569462,-10.801126,-7.6540713,4.649442e-06,0.3,-39.351665,59.944942,59.885372,59.745857,59.84385,0.5228899,0.45,5.554779291152954,16.602950429916383
24,240000,57.49030366183121,-60.79785,0.06172436,-0.22877318,3.6309185,5.5951085,29.101036,107.89951,10.901918,88.76342,88.74262,87.9123,88.38098,37.874466,0.7,-87.77466,-31.058208,0.00018518057,-1897.391,-6.065918,-8.294819,-9.649689,-7.899428,5.6651544e-07,0.3,-44.611366,60.21809,60.216507,59.92474,60.137962,0.72236645,0.50468755,5.536738157272339,17.266277062892915
25,250000,56.254428682937444,-59.200752,0.06282111,-0.16404396,2.1200695,9.074758,30.24386,32.520393,13.536411,86.56163,86.553955,87.62683,86.96405,15.225571,0.7,-86.18527,-30.36244,0.0021050177,-511.28796,-7.7865434,-7.0537434,-7.8477826,-7.9268026,1.6770792e-07,0.3,-33.211853,58.808434,58.80098,58.982025,58.980453,0.53996944,0.43124998,5.619771718978882,17.931668583552042
26,260000,51.4775973698541,-58.84857,0.06196511,-0.06433737,2.6896539,4.8021097,40.430527,75.7134,12.74566,85.91848,85.64624,85.488365,85.49085,38.604694,0.7,-85.79454,-31.732054,0.0053292853,-623.3537,-5.9189515,-6.599483,-6.3853135,-5.995048,4.3226754e-07,0.3,-34.362907,58.139336,57.90717,57.87742,57.95551,0.70308864,0.51874995,5.614315032958984,18.59269117116928
27,270000,54.21794155936212,-60.965714,0.06322453,-0.5813652,3.6086926,2.7549016,36.612427,67.077,11.718394,87.03782,87.35858,88.22511,88.1805,8.218071,0.7,-87.62926,-31.834753,0.0011869743,-355.3383,-5.0476174,-4.4181924,-5.1118755,-6.338482,1.481538e-05,0.3,-32.144142,60.23993,60.32795,60.19024,60.52839,0.46183676,0.41406247,5.532984495162964,19.256466166178384
28,280000,55.11007349155287,-62.039436,0.06380926,0.45402205,4.642706,3.715591,40.054573,276.32318,10.312302,87.354935,86.83895,86.62626,86.668625,14.055743,0.7,-87.460045,-31.819592,0.000584079,-1396.936,-5.9837403,-6.1403284,-6.2944307,-6.734689,3.2178523e-05,0.3,-50.634777,61.518276,61.414543,61.80071,61.779984,0.48671106,0.46406248,5.492952823638916,19.91895782550176
29,290000,52.3435502876641,-63.208286,0.06269884,0.42515254,2.7326984,7.1692343,51.28603,31.716433,11.059069,86.971344,86.955536,86.70983,86.56674,7.210274,0.7,-86.3921,-29.402615,0.0077587687,-667.5272,-6.0871434,-6.9364963,-8.213956,-8.914894,1.517724e-06,0.3,-34.08099,62.69197,62.638798,62.254616,62.49092,0.3443374,0.4921875,5.578290700912476,20.58407048781713
30,300000,55.1841852978369,-60.56714,0.062736735,1.092939,3.5834498,4.483671,41.286015,87.40653,13.597717,88.02165,88.66659,88.04033,87.35165,30.998808,0.7,-87.17332,-31.293625,0.0018758224,-1157.4662,-5.361924,-5.809534,-4.9899406,-5.2664433,1.4096265e-06,0.3,-58.25458,59.915905,59.898727,59.810978,59.68981,0.7014048,0.49062496,5.558448553085327,21.24692769050598
31,310000,55.376705985903044,-60.492664,0.06351083,0.14854574,2.3612497,3.259436,41.110195,33.514847,11.403356,87.38936,87.07026,88.460205,87.63486,9.480823,0.7,-86.57064,-31.74917,0.004719374,-885.7116,-5.586826,-5.310403,-5.562446,-5.456744,9.782962e-06,0.3,-43.32782,59.691574,59.890854,60.02172,60.02365,0.43710607,0.4828125,5.631373167037964,21.918932636578877
32,320000,55.78450186135445,-61.148872,0.06356418,0.39939886,3.1972985,5.021232,53.70936,80.388,11.868406,85.08396,85.80519,87.35723,85.92608,13.86238,0.7,-84.56921,-31.923409,0.004056433,-600.3545,-6.875852,-7.768431,-5.0415616,-6.338291,3.1682197e-07,0.3,-36.410534,60.37522,60.36937,60.85994,60.721222,0.4236066,0.4578125,5.546276569366455,22.582145245869956
33,330000,53.70559718470203,-61.970745,0.06271197,0.93731236,2.8431716,4.0666146,47.59186,54.97536,13.270444,87.09807,86.777306,87.71336,87.053215,25.042364,0.7,-87.073135,-32.870407,0.000115793955,-852.591,-3.0261395,-3.8159251,-3.8926005,-3.8751938,9.2375564e-07,0.3,-36.727478,61.320164,61.339405,61.222923,61.255676,0.6447431,0.47187498,5.553150177001953,23.246658877531686
34,340000,56.33079958318605,-61.81141,0.062891,-1.6297005,2.7952542,5.7938037,29.904566,84.78082,12.223854,85.14588,85.43539,85.836655,85.4886,6.8045774,0.7,-84.75595,-35.050224,0.0071665146,-465.10757,-5.5964794,-5.990145,-4.026824,-4.1956496,5.3246954e-06,0.3,-32.963997,61.472733,61.364685,61.75768,61.65065,0.389462,0.40781248,5.54181170463562,23.9090970714887
35,350000,55.400103082439585,-63.396477,0.06372141,1.2969959,4.117975,4.1281466,46.345867,180.57875,13.242655,85.664154,86.16673,85.58942,85.93416,45.91285,0.7,-86.13239,-30.112154,0.000648279,-754.37524,-4.4398913,-5.1064734,-6.3985405,-6.367129,7.210764e-06,0.3,-35.470726,62.69387,62.73812,62.448883,62.63845,0.56207174,0.43906248,5.931650400161743,24.579699035485586
36,360000,53.9870609742663,-62.14009,0.06339511,-0.45986626,3.4628239,4.1683283,38.303326,174.95502,13.769373,87.56314,86.44966,86.241295,86.266716,31.77263,0.7,-86.912766,-29.6609,0.0017213516,-723.0102,-3.9917145,-6.0232344,-5.1787925,-4.558129,4.6649365e-07,0.3,-32.732574,61.644264,61.695675,61.321716,61.580624,0.5688014,0.4109375,5.549466133117676,25.24240593512853
37,370000,54.18060764189444,-60.84911,0.06404838,1.8515556,3.6182926,2.8226693,50.7331,103.93187,11.56016,85.70471,84.81991,84.28988,84.75428,13.131389,0.7,-84.202484,-36.617004,0.0019548764,-1496.6078,-2.2672234,-2.730235,-3.873553,-4.0810933,1.7839509e-06,0.3,-51.21501,60.04426,60.123352,60.051537,60.03161,0.5906079,0.47187498,5.57855486869812,25.907264427344003
38,380000,53.96425827254214,-60.26237,0.06331311,-0.6232325,2.3645241,2.6013718,38.374634,61.778755,10.426306,86.0257,85.37774,86.523254,85.8509,6.19444,0.7,-85.98505,-32.123264,0.003202063,-559.6628,-3.7286758,-5.0584,-3.8032355,-4.6144104,9.544846e-06,0.3,-32.949615,59.607094,59.658432,60.060974,59.97026,0.3386107,0.40937498,5.726377010345459,26.573376766840617
39,390000,54.71947855853945,-61.81522,0.06380253,0.3461492,2.812283,2.9412215,24.904968,44.35298,10.976114,86.17457,85.99815,85.65057,85.34865,37.125427,0.7,-85.23626,-31.619501,0.019154618,-638.60986,-3.2015052,-3.8770747,-5.050376,-4.560444,5.9696525e-08,0.3,-41.036957,61.33313,61.308308,61.09726,61.112,0.6443242,0.48593748,5.565512657165527,27.235800298055015
40,400000,51.381307655848,-63.05808,0.06471247,-0.18193518,2.5891535,3.5148392,41.741547,31.996769,12.698513,87.04807,86.38763,86.27968,86.10054,11.813326,0.7,-85.955246,-34.447876,0.0015502553,-1142.8657,-3.4962387,-3.6803172,-3.5613859,-3.9639394,1.3496493e-06,0.3,-40.595753,62.533512,62.44655,62.55877,62.394287,0.51343274,0.4484375,5.557467937469482,27.902477264404297
41,410000,52.83124569231791,-62.924614,0.06460322,-0.74980676,2.751316,2.5612426,33.660954,51.504887,13.533545,87.25608,87.876144,86.483055,86.747154,6.2131853,0.7,-87.0145,-32.200703,0.006227489,-2967.0232,-2.9660225,-2.8758433,-3.2613316,-2.3588188,6.864936e-06,0.3,-66.32172,62.205013,62.1109,61.65487,61.882393,0.42297688,0.51875,5.639242172241211,28.568132054805755
42,420000,54.78211969851362,-59.50199,0.064189754,-0.9252298,3.8840013,4.5832543,33.589474,386.5586,9.959978,86.45058,86.27591,85.313995,85.532,25.444021,0.7,-85.98544,-32.943344,0.006582156,-706.1244,-4.704945,-5.9433784,-3.3660567,-2.0220914,0.00010852904,0.3,-44.186657,58.551064,58.457634,58.624123,59.051678,0.70938826,0.3890625,5.599148511886597,29.235293094317118
43,430000,53.232496013695375,-61.14928,0.06389611,-0.7458364,2.7917948,0.9261003,32.66281,62.747116,9.486937,85.87086,86.62342,87.36523,86.49162,19.690884,0.7,-85.15095,-31.246775,0.0021951334,-1032.5979,-1.0713699,-1.6416552,-2.901514,-2.6369061,2.5558098e-05,0.3,-46.90722,60.57067,60.4819,60.857994,60.783394,0.5374844,0.4296875,5.513420343399048,29.89982842206955
44,440000,54.96319394762787,-61.387554,0.06385638,-0.32299876,2.31986,2.2579107,51.787025,18.144085,14.759218,84.5687,84.65491,84.43788,84.79125,43.341236,0.7,-84.27821,-32.30806,0.0016352425,-692.7242,-2.3367712,-2.5969992,-4.1759295,-5.7977934,3.5204168e-06,0.3,-44.951218,60.690163,60.609943,60.280964,60.27849,0.63968676,0.52187496,5.483995676040649,30.55942879120509
45,450000,55.506971630399704,-61.74901,0.06364411,-0.07983431,2.7976375,2.5059052,27.746243,165.6391,12.292291,85.59401,85.605644,86.79856,85.997574,11.133388,0.7,-85.63486,-33.22618,0.004446849,-581.2548,-3.9703689,-4.3023424,-6.4652853,-3.4057417,7.888302e-08,0.3,-46.572002,60.7527,60.873596,60.87414,60.883965,0.48349458,0.4359375,5.544955253601074,31.217898694674172
46,460000,52.905708560172236,-60.68773,0.06403933,-0.5525737,2.6623483,5.1070943,52.333656,24.807167,12.018728,88.034,87.0496,86.74774,86.96829,11.75093,0.7,-86.74442,-30.72067,0.0025708359,-1280.8131,-4.523248,-5.0577393,-2.1212933,-3.6689782,3.7433756e-06,0.3,-43.780823,60.26253,60.138264,60.465828,60.41956,0.43921012,0.45,5.605306625366211,31.882736043135324
47,470000,54.4614530974291,-62.84579,0.06377245,-0.039919615,2.9026773,2.8074546,54.7699,52.68665,9.724267,84.98391,84.81685,85.58656,85.004654,4.7512717,0.7,-84.5028,-31.781185,0.0014161145,-483.29843,-4.1094146,-4.789645,-2.2550502,-2.7799554,1.2355624e-06,0.3,-38.326447,62.097122,62.188927,62.65054,62.55754,0.32352957,0.4140625,5.611523628234863,32.545339365800224
48,480000,54.80967595520787,-57.37275,0.06494534,-0.3829465,2.8300505,0.10002521,53.449764,85.00538,11.281488,87.65061,88.1278,87.02768,86.904915,32.08434,0.7,-88.032005,-31.926317,0.005696674,-1023.2545,-1.1758453,-1.352489,-2.4433773,-2.1278524,6.712508e-08,0.3,-56.078876,56.568916,56.656372,56.546204,56.551464,0.8379107,0.48593748,5.534660816192627,33.207660392920175
49,490000,54.31677051359793,-63.846565,0.0648634,-0.8236965,2.4616365,3.4971955,39.38028,22.661785,10.500758,85.11481,85.34145,86.06493,85.221054,5.7694283,0.7,-84.68751,-33.55575,0.001632292,-769.8193,-2.2487528,-2.8841932,0.38884228,-2.4594135,1.710764e-06,0.3,-45.97746,63.145203,63.318558,63.577946,63.54802,0.39599884,0.37656248,5.614130973815918,33.871919159094496
50,500000,53.670184459558236,-63.58821,0.06498894,0.7409247,2.6023479,2.2848504,48.0074,63.32396,11.778367,86.03026,87.73012,85.49837,87.48246,10.907797,0.7,-87.22105,-31.778769,0.009574826,-1217.5402,-3.0339038,-2.282929,-3.5180063,-2.8942018,2.0664186e-06,0.3,-49.377228,62.568233,62.830017,62.318035,62.58323,0.57665825,0.4484375,5.498291492462158,34.53959511518478
51,510000,52.968223993770025,-58.958836,0.065312326,0.08500114,2.4307516,4.3946233,36.46069,58.83448,11.42053,86.52729,86.360344,86.93646,87.343506,23.921307,0.7,-87.44422,-31.564665,0.012134721,-1519.0277,-4.288272,-4.9007173,-4.4893765,-3.384712,0.00012245175,0.3,-51.683723,58.236526,58.132168,58.337616,58.2985,0.49211314,0.43593746,6.016047716140747,35.20896712938944
52,520000,53.62052141985745,-65.13391,0.06463249,1.4710754,2.2520983,0.9079767,55.055107,43.356182,12.067011,86.20724,86.79142,86.284515,86.20658,20.16692,0.7,-86.096306,-31.064964,0.0035159006,-1859.0286,-2.1457329,-1.7808381,-3.6866999,-3.7409,1.9016444e-06,0.3,-52.754807,64.32988,64.4897,64.62053,64.48753,0.57187235,0.47031248,6.093962669372559,35.87945137023926
53,530000,53.76178634295752,-62.604828,0.065240934,-0.12772241,2.1564765,3.7872148,33.919613,24.111546,11.2285185,86.212814,85.77621,86.79504,85.79536,8.047374,0.7,-85.64227,-30.057734,0.00054022775,-547.9556,-3.6898785,-3.9148924,-3.6373234,-5.054508,2.4728362e-07,0.3,-51.550182,62.050858,62.147552,62.10971,61.925304,0.6037817,0.4953125,5.697963237762451,36.543428270022076
54,540000,53.83307031030651,-62.970947,0.06532875,-0.8718504,2.3832586,4.2733283,42.395542,64.00079,9.691969,85.26598,85.84959,85.51502,85.49846,47.305107,0.7,-85.08783,-30.47254,0.0034870466,-532.12787,-7.0231175,-5.793688,-4.5737,-4.7585464,8.4372274e-05,0.3,-42.275036,62.207645,62.119534,62.38253,62.198524,0.7047946,0.459375,5.807928800582886,37.20950050751368
55,550000,52.63192029163931,-59.53723,0.065331966,0.67792094,4.238302,-1.388638,121.48314,184.89821,10.945681,84.84905,84.78458,85.11191,85.23739,20.394436,0.7,-85.62769,-33.41364,0.000503571,-7512.974,-0.5345341,-0.7872715,-1.8202024,-2.9257736,1.4096265e-06,0.3,-80.95096,58.43952,58.51716,58.32527,58.478176,0.6510285,0.49062496,6.082235336303711,37.8791651447614
56,560000,53.47922722277515,-62.27555,0.06545334,-0.4505461,2.6723385,1.3162411,44.46331,122.03117,11.563879,86.752785,87.590706,88.35249,87.48393,9.571211,0.7,-86.10272,-30.74063,0.0074478164,-537.18774,-1.916786,-2.7440906,-3.126389,-2.1233993,6.171875e-07,0.3,-41.831364,61.796654,61.536682,61.57847,61.64567,0.54363495,0.40937498,5.8268961906433105,38.54503900210063
57,570000,52.99573441199088,-60.204308,0.06663503,-1.00984,2.8759027,1.528781,42.753254,70.45375,12.301155,85.53093,85.47562,86.12116,85.644745,49.796844,0.7,-84.89862,-33.764595,0.0010552183,-504.3589,-1.9824883,-1.6485018,-3.273367,-3.6121888,8.840289e-07,0.3,-40.78414,59.38974,59.39189,59.153137,59.17799,0.6696081,0.515625,5.702775478363037,39.208703589439395
58,580000,52.682912429889285,-64.038155,0.06535808,1.7445881,2.4729865,-0.27690488,41.25782,22.816261,12.496931,86.135284,85.94068,86.75603,85.91822,11.60372,0.7,-85.28774,-30.849417,0.0071047093,-2424.9287,-2.1799755,-3.261827,-3.238058,-3.6050508,5.6598415e-06,0.3,-49.73179,63.565445,63.496605,63.663044,63.52033,0.5510951,0.4578125,5.7540764808654785,39.8767500559489
59,590000,52.87402288953312,-63.613228,0.06518096,0.40714854,2.060811,2.1159246,41.398212,39.14605,11.716064,86.531906,86.197525,85.49806,85.76921,3.2309911,0.7,-86.35275,-28.77628,0.0031216166,-498.56744,-2.0772724,-3.5755463,0.36193144,-1.2689674,1.8127163e-05,0.3,-34.321915,63.02694,62.927055,63.14205,63.17244,0.33648127,0.4390625,5.754533290863037,40.54561111132304
60,600000,53.18179998371403,-60.732506,0.06515193,0.15385014,3.4020805,0.83041036,29.147804,119.02748,11.56896,86.31162,85.52938,86.048874,85.39411,21.489986,0.7,-85.769066,-31.694014,0.00040860736,-2403.212,-2.3727884,-2.5076838,-2.7173908,-1.5821064,7.051229e-06,0.3,-62.864143,59.91696,59.91913,59.688427,59.911354,0.71821296,0.409375,6.078603982925415,41.21545693874359
61,610000,52.96486261100619,-63.238487,0.065126985,0.9544159,2.7440166,1.9440048,50.375187,30.410183,11.634434,86.74352,85.63011,85.60686,86.25184,9.252896,0.7,-85.478806,-31.440289,0.0054256637,-955.0845,-1.8134999,-2.4428606,-3.0762959,-2.4821553,4.43717e-08,0.3,-51.696068,62.573383,62.639034,62.056168,62.3302,0.49260327,0.4328125,5.882630348205566,41.879307329654694
62,620000,52.19632052660684,-63.32882,0.06628759,1.2360955,3.6687603,1.3508734,62.8189,120.84944,14.52005,83.61169,84.03781,83.9781,85.0329,33.581806,0.7,-84.95147,-29.311714,0.0038959899,-720.8176,-3.3414273,-2.2707834,-1.6581823,-2.2719438,8.332019e-07,0.3,-59.2689,62.387115,62.378113,62.685326,62.71865,0.9153069,0.4578125,5.517103910446167,42.54648156563441
63,630000,53.680919191641465,-59.123985,0.06599353,0.067200094,2.2474616,2.1894917,27.85138,72.459885,9.488337,83.8616,83.67767,84.20213,83.45676,11.184744,0.7,-83.25892,-30.795525,0.0014534196,-1820.4752,-2.91991,-2.218127,-1.6336894,-1.0995291,8.10428e-08,0.3,-53.76999,58.26086,58.228027,58.483864,58.404327,0.50928736,0.45625,5.612554311752319,43.21643319129944
64,640000,52.96162371231351,-64.450455,0.065993026,-0.9831871,2.4097383,2.2968435,24.970793,39.718517,12.286618,85.6295,86.463554,86.12534,86.399765,8.950222,0.7,-85.451225,-34.528103,0.0021798622,-1209.559,-2.1832943,-3.0424743,-0.17348127,-2.0686462,8.621719e-06,0.3,-42.516144,64.08978,63.95896,64.33512,64.14206,0.40511703,0.44374996,5.625342607498169,43.88116643031438
65,650000,52.667216875327895,-61.349766,0.064763375,1.2281406,3.690155,1.5106336,60.362232,34.835804,13.092073,85.64563,86.006454,86.57887,86.44719,63.84985,0.7,-86.21166,-32.18258,0.00655897,-1153.1136,-2.3263006,-2.0225477,-1.5075406,-0.5640055,2.1636488e-06,0.3,-46.288826,60.630127,60.574173,61.340527,61.311592,0.8801043,0.4125,5.559713840484619,44.54362091223399
66,660000,53.14405441547877,-60.523598,0.06534606,-0.9281957,2.296957,0.45236278,58.695694,57.736115,12.089304,85.14118,85.003685,85.63389,85.4574,15.937566,0.7,-85.70006,-32.421806,0.0037092394,-810.9476,-1.9209636,-1.7639966,-1.9872475,-2.7324772,2.4789477e-07,0.3,-47.748653,59.930893,59.86749,59.896877,59.95817,0.5193907,0.44062498,5.618313312530518,45.205274252096814
67,670000,52.27649996906118,-61.86561,0.06567927,0.3819394,2.684646,1.5362126,62.576584,72.10181,10.636871,86.90103,86.50262,86.98273,86.374756,66.373695,0.7,-85.72637,-31.375587,0.0026555005,-780.49634,-2.6222453,-3.2907934,-2.1677082,-2.3880298,1.1092925e-06,0.3,-49.08844,60.806496,60.979973,60.95389,60.936436,0.83277893,0.5015625,5.512841463088989,45.86523789564769
68,680000,51.95619282784577,-64.07132,0.065580785,0.010063514,2.6010723,0.217659,22.696768,53.24736,15.022397,86.30308,86.039345,86.426315,86.45034,23.537344,0.7,-87.050095,-30.53842,0.0078052785,-613.3872,-1.3053691,-0.97620785,-2.7472343,-2.0342789,2.7284843e-05,0.3,-40.93746,63.45713,63.537193,63.73259,63.62108,0.47012535,0.4421875,5.540542364120483,46.53020088275274
69,690000,52.90779696442345,-64.27237,0.06534304,0.2958544,2.7889614,1.2691021,81.02552,102.96069,13.45125,85.18185,84.996994,86.228905,85.89876,23.224827,0.7,-85.219124,-31.565805,7.195893e-05,-714.47034,-2.1165273,-1.3573256,-0.86319464,-0.990037,1.5390357e-06,0.3,-51.12258,63.516834,63.525402,63.709503,63.723328,0.46909553,0.44843748,5.544847011566162,47.19429239432017
70,700000,52.72751371444413,-63.340286,0.066497825,0.24266034,2.6908348,1.9149147,28.490948,88.88118,13.223701,85.59546,86.3202,86.07983,85.62015,6.1147294,0.7,-85.690994,-29.976578,0.0018591434,-620.2459,-1.1433254,-2.2490869,-1.3816042,-0.9473226,5.584273e-06,0.3,-51.750427,62.52893,62.616047,62.714615,62.68875,0.35382342,0.4140625,5.592435836791992,47.8633659640948
71,710000,52.468880489261394,-64.112335,0.065049134,0.26924402,3.753538,0.26367337,61.788685,197.55046,10.02035,86.38277,86.2752,85.808754,84.479645,11.069175,0.7,-85.52135,-28.927233,0.00076628145,-856.15,-0.6466936,-1.1979829,-2.2763157,-2.0222425,2.9284713e-05,0.3,-51.99111,63.472084,63.419872,63.349995,63.416622,0.52479625,0.46718746,5.566727161407471,48.53024698893229
72,720000,52.91264711061754,-63.187267,0.06560715,0.7706954,2.4183705,1.3575333,43.75675,31.536438,11.985811,85.2218,85.88123,85.57644,84.95897,27.888708,0.7,-85.40988,-30.69734,0.004704115,-622.3092,-0.3379892,-0.31299663,-0.2997997,0.7104947,1.9597064e-06,0.3,-47.800953,62.518677,62.50486,62.544415,62.4246,0.42345014,0.4875,5.610146999359131,49.203430676460265
73,730000,52.388205649569095,-60.8426,0.06512269,0.6592657,1.935485,0.15969568,52.2928,23.696077,12.875722,84.234314,83.84609,84.75843,84.359,37.250107,0.7,-83.78636,-31.154829,0.0012218346,-548.5452,-0.91334546,-1.2612734,-0.44664985,-1.4323165,2.3763612e-06,0.3,-43.929123,60.208546,60.250244,60.476677,60.36488,0.47677815,0.4765625,5.669303894042969,49.87314721345901
74,740000,52.86265609552828,-61.54715,0.06536475,-0.79198366,2.8504405,1.65852,47.218845,36.18476,10.9793005,85.220085,85.52184,86.4123,86.19474,13.083215,0.7,-85.229645,-31.781464,0.0005868208,-965.03516,-1.4008262,-2.2925138,-1.1285648,-1.0587244,8.123087e-06,0.3,-55.404064,60.94342,60.81266,61.075024,61.23887,0.44741774,0.3984375,5.607775926589966,50.53928772608439
75,750000,52.966821273277176,-64.19296,0.065951586,0.7953898,2.8234053,0.057358295,51.437775,35.92105,10.30725,85.02126,84.68536,84.37069,85.066025,8.295027,0.7,-84.632805,-33.221603,0.020962395,-632.5398,-0.07162678,0.39114714,-1.5788484,-2.3313715,9.643554e-07,0.3,-56.057335,63.60987,63.50936,63.52343,63.35029,0.4935159,0.4578125,5.5576417446136475,51.20043445825577
76,760000,52.87684118563954,-60.225426,0.06614534,0.077932015,2.9360814,2.6717877,37.811764,158.61389,9.957895,85.65188,85.46363,85.053635,85.402435,70.149765,0.7,-84.531944,-28.910442,0.0005027707,-1164.959,-2.5409758,-3.1680117,-1.0165474,-0.90100855,7.722265e-08,0.3,-57.70096,59.554012,59.48948,59.606064,59.673805,0.69805515,0.49062496,5.703622102737427,51.86800861756007
77,770000,52.47325077602545,-62.066376,0.06576124,0.20916861,2.80429,2.2977731,78.040565,46.846626,12.621931,86.31414,86.99525,86.948944,86.743805,58.510815,0.7,-85.85675,-30.551416,0.0017550061,-1015.9393,-0.67085886,-1.5158864,-1.2888912,-1.1976342,6.549754e-06,0.3,-57.398262,61.343685,61.35814,60.97316,61.33007,0.7034755,0.465625,5.5849549770355225,52.53574133316676
78,780000,53.25918500348082,-64.55755,0.06489183,0.8274051,2.2440019,-2.1312032,56.01685,21.725542,12.034562,85.90248,86.19128,85.76812,85.965744,12.54581,0.7,-85.4365,-29.369064,0.0023273632,-905.8087,-0.3599056,0.7574657,-0.9934957,0.12383175,7.2671105e-07,0.3,-47.98783,63.911438,63.87623,63.812798,63.89269,0.4782831,0.440625,5.635371446609497,53.20207221110662
79,790000,53.40787096967261,-61.556786,0.066055425,0.17726362,2.553141,-1.345828,34.63036,58.829437,10.6024,85.24721,85.4324,85.59132,84.56818,3.8207333,0.7,-85.06058,-30.863226,0.0012874054,-1238.1876,-0.39820695,-0.52847147,-0.93507314,-0.38633436,2.4556357e-06,0.3,-56.580208,60.898785,60.855164,60.752777,60.97382,0.40854675,0.4140625,5.692198753356934,53.869162241617836
80,800000,52.91459211132199,-59.947952,0.06688923,-0.75928867,2.6195645,0.5456946,29.259449,32.248917,12.1378565,84.35055,84.75678,84.48654,85.30901,5.1582465,0.7,-84.42023,-29.808195,2.5215792e-05,-715.5152,-2.0590043,-2.4325585,-0.97292954,-0.40514016,4.3655748e-10,0.3,-55.190548,59.079887,59.337082,59.57218,59.56833,0.41094005,0.4171875,5.582321405410767,54.527948307991025
81,810000,53.01138913322644,-62.84925,0.06579603,-0.71158457,2.39423,1.3599153,38.846573,56.261597,13.64128,85.82901,86.34578,85.57958,86.168335,7.830376,0.7,-87.341866,-31.706902,0.03755627,-1200.4287,-1.3435283,-1.0151075,-0.42017046,-0.43321806,2.0539737e-07,0.3,-59.599045,62.34436,62.452663,62.076637,62.15538,0.4320367,0.4609375,5.569963693618774,55.192932120958965
82,820000,52.99292610732714,-61.247482,0.066156484,0.59887546,2.6099968,0.8367502,50.90396,58.5597,10.866706,84.023964,84.99632,84.18481,84.111496,11.610789,0.7,-84.161285,-30.802155,0.015037451,-3642.7417,-0.775931,0.05055988,-1.8748724,-1.2669159,0.000121613055,0.3,-77.092735,60.26158,60.245525,60.482872,60.169533,0.5215904,0.471875,5.541738748550415,55.85878044764201
83,830000,53.12328351552546,-61.895027,0.065841965,0.23600227,3.3418758,-2.3818984,34.904034,121.58656,12.435485,85.75857,86.01024,84.856125,85.37815,8.788715,0.7,-86.96513,-28.830568,0.0051492285,-2440.6272,2.2415614,2.0488665,1.8872491,2.0133824,4.69666e-07,0.3,-77.19576,60.95757,60.98907,60.884426,61.010143,0.45072404,0.4765625,5.587771892547607,56.52566735744476
84,840000,53.14395910190265,-64.35031,0.066753834,0.07748544,2.6506047,2.7510493,35.32349,28.555851,10.469328,85.61098,85.27203,84.53376,84.90801,10.940087,0.7,-85.39393,-30.766233,0.011052952,-697.97003,0.34696543,-0.50817275,-0.031801358,0.8057813,2.6696537e-06,0.3,-57.11667,63.5951,63.524662,63.300568,63.486748,0.45088595,0.4265625,5.57719612121582,57.18748001654943
85,850000,53.03983422100019,-59.21754,0.06642281,-0.3204572,2.5461428,1.3759723,45.183342,89.045006,11.382774,85.71026,86.26955,85.22523,84.80658,24.770958,0.7,-85.01441,-29.86181,0.003426663,-2386.6045,-1.2323463,-0.7830275,-1.2246784,-0.5882369,2.0368026e-07,0.3,-67.74848,58.43349,58.428234,58.192253,58.539703,0.6220087,0.4578125,5.647821426391602,57.85161378383636
86,860000,52.70320259286392,-64.70456,0.06586478,0.8333707,2.289576,-2.4770055,40.672844,76.636116,10.801837,85.92465,85.55254,85.101845,85.704056,12.239115,0.7,-86.31358,-32.12432,0.005573212,-1283.0181,0.5628979,0.042991042,0.3487501,0.7804804,1.9620639e-07,0.3,-58.30342,63.967464,63.896435,63.8797,64.04394,0.45832258,0.446875,5.549681901931763,58.5145095984141
87,870000,53.32990975867931,-60.325207,0.06688636,-1.0390104,2.1627192,-0.20002787,34.361362,20.266949,13.066596,84.81438,84.83522,84.40854,85.108345,9.735362,0.7,-86.025154,-30.080257,0.000110638386,-1302.0363,-0.02415204,0.28009295,0.53500783,1.156815,3.1245117e-06,0.3,-58.144386,59.668915,59.665222,59.48124,59.55445,0.47609085,0.440625,5.571023941040039,59.17546447912852
88,880000,53.19030732532951,-62.48854,0.06722003,0.54944694,3.0757985,0.47940814,35.38385,50.017323,11.785517,84.95951,84.81186,83.94742,84.50832,43.177567,0.7,-84.26928,-29.760635,0.00272219,-1476.2946,-0.36906755,-0.2805413,-1.176032,0.2663048,9.808633e-06,0.3,-61.190422,61.77976,61.675087,61.349625,61.643883,0.70037526,0.4421875,5.58020544052124,59.83535642226537
89,890000,53.227631445045496,-61.714523,0.066019766,0.17045443,2.634266,0.8817024,36.563084,44.598373,8.730795,84.69222,85.91593,85.97832,86.83966,22.195808,0.7,-84.05919,-38.657913,0.00045416114,-990.8887,-1.5830102,-1.814054,-0.19935319,-0.70781684,4.040095e-06,0.3,-51.052967,60.893013,60.84926,61.16743,61.30208,0.6138834,0.4453125,5.567692279815674,60.500385292371114
90,900000,52.855842011380105,-64.30257,0.06675917,0.38083586,2.254283,-0.815889,45.49782,25.196457,8.882603,85.28828,85.045616,84.675934,84.601875,7.2889667,0.7,-84.74121,-30.88215,0.0012510105,-2456.619,-0.27957153,-0.14653838,-0.42185307,0.5175957,1.34714355e-05,0.3,-65.79119,63.624733,63.58111,63.726387,63.692593,0.4351001,0.434375,5.737897157669067,61.167971110343935
91,910000,52.802078546697295,-59.705452,0.067211635,-0.8355158,2.5058537,0.34674662,33.656353,34.644756,8.320452,84.74222,84.33636,85.699905,85.479126,36.255753,0.7,-85.31321,-29.797241,3.380263e-05,-1227.854,0.1984855,-0.8104285,-2.4504704,-1.5531251,1.6031962e-06,0.3,-65.173676,58.915215,58.66783,58.786575,58.965996,0.70368665,0.4578125,5.619833469390869,61.830749571323395
92,920000,53.08532309533616,-61.17577,0.06654068,0.75411594,2.61579,1.265079,42.01675,40.460487,11.311045,84.255135,84.31307,84.34695,84.611404,9.114041,0.7,-84.230316,-30.597513,0.0009520091,-1419.7511,-0.8658956,-0.81359255,-1.227083,-0.13536972,6.286428e-06,0.3,-72.1251,60.52771,60.395393,60.29346,60.35845,0.51255304,0.49531248,5.621670961380005,62.49326950311661
93,930000,53.5328477319311,-58.434,0.06564095,-1.2317399,2.6820202,-0.1949451,42.782093,160.25095,11.652029,85.63941,85.69366,86.46752,85.92181,68.02721,0.7,-85.075554,-31.72867,0.0062101334,-1174.0717,-0.17749763,0.019569755,1.7640136,2.0623982,3.666386e-05,0.3,-50.635162,57.79204,57.86779,58.10624,58.350136,0.66434985,0.39999998,5.617120981216431,63.16084374189377
94,940000,52.95050317706891,-63.825138,0.06670072,-0.4753968,5.070772,-1.076404,46.80352,782.4194,12.15299,86.481964,85.90916,85.865715,85.35625,28.086025,0.7,-85.231316,-31.122377,0.0014602151,-859.5912,0.82798016,0.92350066,-1.6698675,-0.088032246,7.21977e-06,0.3,-43.73091,63.3181,63.255814,63.005276,63.14193,0.5420325,0.46249998,5.730667352676392,63.827064633369446
95,950000,52.96048529049462,-64.41154,0.066214696,0.30603898,2.4544582,-2.6284392,29.73578,78.88231,12.082706,84.49956,85.05698,85.568,85.13514,172.95483,0.7,-84.33135,-29.914192,0.001562753,-1699.1619,1.5353799,2.8665142,2.5686035,2.464674,1.8533678e-05,0.3,-46.257874,63.479362,63.66101,63.767494,63.76908,1.4766444,0.45625,5.637956619262695,64.49366195996602
96,955000,53.05699464871966,-61.24996,0.06579979,0.22681344,2.3964105,-0.9154269,38.88315,34.741474,10.909368,86.27989,85.7301,85.50943,85.50419,14.788123,0.7,-85.842545,-29.275337,0.023888864,-462.21445,0.37872624,0.30681026,-1.315823,-0.63358736,2.3345593e-11,0.3,-51.780823,60.35588,60.309692,60.515274,60.49091,0.49327224,0.45468748,5.6305975914001465,64.87467639446258
97,960000,53.242302927266685,-60.333878,0.066082664,-0.00363788,2.5744076,-0.7818723,35.667118,44.622543,13.8020935,84.16505,84.307045,84.22611,84.93831,36.812412,0.7,-83.545586,-33.05156,0.0014635967,-1815.4017,-1.4182371,-0.7781894,-1.1767474,0.5807444,1.7217128e-06,0.3,-77.93272,59.379555,59.47558,59.686417,59.66685,0.72308284,0.4375,5.5982232093811035,65.25296588341395
98,965000,52.9621378202055,-57.958336,0.06668932,-0.12588193,3.2850068,8.548234,41.73726,89.55391,9.8700485,84.16831,84.15931,84.31587,84.69969,6.2085247,0.7,-82.98272,-30.367847,0.0028570304,-1563.56,-6.2744718,-3.6081762,-5.053746,-3.3225827,2.806948e-07,0.3,-59.664047,56.915745,57.111374,57.48938,57.25891,0.4141422,0.44375,5.57273268699646,65.63516447941463
99,970000,53.39762698618519,-60.841724,0.06953029,0.77537847,2.513214,0.39177537,55.655396,25.952827,9.869148,84.3414,83.919014,83.964355,84.49013,6.3255057,0.7,-83.889694,-30.27969,0.014428279,-897.56476,-1.5232964,-1.5680695,-1.1235977,-0.5408827,6.237708e-07,0.3,-65.98831,60.063248,59.943584,59.85271,60.07258,0.41697246,0.45,5.7340545654296875,66.01651833057403
100,975000,53.254206801709614,-61.87297,0.06376289,-0.32185033,2.3993778,-1.9627281,37.27314,25.874355,11.561809,85.355,85.70717,85.73556,85.01489,10.897066,0.7,-85.06423,-30.591007,0.0010460101,-950.35406,1.3390198,1.0257932,1.2230912,1.8108863,4.4709773e-06,0.3,-55.25606,60.920494,61.03975,61.05859,60.69787,0.5320695,0.5,5.6351118087768555,66.39513906637828
101,980000,53.21105428397682,-61.42954,0.066434056,-0.20671046,2.6248207,1.9258021,55.854897,88.685646,10.245695,84.42317,84.429535,84.58022,83.496796,14.050683,0.7,-84.01356,-31.633972,0.006570854,-812.889,-0.8553835,-1.9747436,0.39556974,-1.1111504,3.7007732e-05,0.3,-67.908295,60.624,60.59188,60.748985,60.972977,0.58543074,0.4453125,5.505949020385742,66.77636459668477
102,985000,53.299348192525244,-61.55005,0.06382016,-0.8652409,2.958653,-0.41531453,42.221027,50.490067,10.740711,86.09402,85.79691,85.403336,86.76014,13.161063,0.7,-85.55558,-33.462086,0.0022423598,-2857.4893,0.20880032,1.500601,1.4351858,0.36408228,4.813046e-06,0.3,-66.53851,60.74769,60.8567,61.19915,61.157906,0.52023697,0.440625,5.535043478012085,67.15680028994878
103,990000,52.825146869940006,-64.236694,0.07127828,-1.3500715,2.3543315,1.3283865,33.450626,46.265255,10.663687,85.62084,86.02432,85.27989,85.23863,5.955489,0.7,-84.55028,-29.987984,0.0013954387,-791.99335,-2.6688437,-3.1483374,-1.6461468,-1.8662574,7.5203848e-06,0.3,-46.529343,63.670807,63.57433,63.34655,63.503777,0.41365057,0.453125,5.5762939453125,67.53450319369634
104,995000,53.12139440293375,-59.901436,0.071522415,0.629541,2.8720975,-0.28442824,35.872982,68.408165,10.361172,85.09216,85.02227,85.66583,84.6261,42.703533,0.7,-84.342766,-29.067572,0.005057262,-1554.8336,-1.3116201,-1.5769368,-2.4740512,-3.7984018,1.2915116e-07,0.3,-58.95884,59.227257,59.069527,58.76826,59.073505,0.7252887,0.475,5.606539964675903,67.91442503531773
105,1000000,52.918974420618426,-63.05078,0.07111962,1.1092397,2.6024656,0.503428,58.521065,102.67175,10.998207,86.752426,86.89042,88.239555,86.55664,3.8756306,0.7,-86.63336,-29.420563,0.00016449776,-1017.0609,-0.61360896,-0.1621685,-2.0686028,-1.9981186,1.9597064e-06,0.3,-61.736073,62.437767,62.323425,62.243397,62.24043,0.36053336,0.4453125,5.5395612716674805,68.29408066670099
