Xixo99/comfo/baselines/comfo6_perterbation_actor/20230225_noise0.01/halfcheetah-medium-replay-v2/COMFO6_s0_20230224_125742_halfcheetah-medium-replay-v2_52.75.csv
,step,reward,actor_loss,alpha,alpha_loss,critic_loss,max_actor_loss,max_alpha_loss,max_critic_loss,max_mle_prob,max_q1,max_q2,max_target_q,max_v,max_value_loss,max_weight,min_actor_loss,min_alpha_loss,min_critic_loss,min_mle_prob,min_q1,min_q2,min_target_q,min_v,min_value_loss,min_weight,mle_prob,q1,q2,target_q,v,value_loss,weight,eval_time,time
0,0,2.2551979067811403,,,,,,,,,,,,,,,,,,,,,,,,,,,,,,,,,
1,10000,0.6645328112223017,-22.133299,0.07269975,-4.1734962,1.1475061,4.011786,19.944407,18.20702,14.629428,37.889145,38.120636,38.780544,37.307026,2.0428743,0.7,-38.534622,-32.020737,0.0016264366,-292.12802,-4.324726,-3.9533255,-4.307479,-4.197369,5.5645405e-06,0.3,-8.381399,21.93766,21.903667,21.893272,21.49263,0.10550015,0.503125,5.453486442565918,1.9672391136487326
2,20000,1.6906972193529386,-38.435997,0.074719965,0.45828927,4.482616,4.6551533,24.099617,159.02454,12.071585,63.03057,62.608025,61.55728,62.45608,4.4498644,0.7,-62.559326,-31.23259,0.002596137,-215.43153,-4.619064,-4.6405663,-5.696074,-5.156636,4.9751105e-07,0.3,-8.286126,38.206825,38.192978,37.799667,37.859543,0.22539026,0.4609375,5.7342143058776855,2.6441179951032003
3,30000,9.940411381637256,-47.567657,0.07809963,-0.09331924,4.321782,6.4284463,24.169638,59.85244,17.024181,72.61628,72.38902,72.38695,72.55423,14.100013,0.7,-72.20782,-29.882353,0.005662049,-136.62354,-6.4654994,-6.3143044,-7.014327,-7.3803573,1.7721797e-05,0.3,-5.125146,47.430687,47.449028,46.97203,46.994995,0.34231234,0.4578125,5.666691541671753,3.326806128025055
4,40000,38.4946898898576,-51.69519,0.079195455,-0.6183641,5.8569727,11.686628,28.933266,256.04144,14.356516,78.56982,78.89028,79.5271,77.57502,5.3538685,0.7,-78.463615,-31.588284,0.0026006359,-158.28386,-12.294989,-11.823145,-12.586663,-12.793046,6.008148e-06,0.3,-8.784078,51.521076,51.53429,50.93028,50.885986,0.35818398,0.47187498,5.556737899780273,4.019882225990296
5,50000,39.50738657656069,-54.745224,0.07607972,-1.7357883,3.847863,16.375235,44.531456,165.32816,14.792385,83.32298,83.28121,82.39765,83.36051,8.661511,0.7,-83.28447,-29.607235,0.007243407,-241.67296,-16.182539,-16.351154,-17.31186,-17.224134,6.660587e-06,0.3,-9.655092,54.49756,54.569977,54.562622,54.582848,0.4411112,0.434375,5.64448356628418,4.715058680375417
6,60000,47.137000103194396,-61.370216,0.074674726,0.624371,6.530307,19.95919,24.569511,400.47284,18.185993,85.54313,85.69457,85.36727,84.47826,5.0942507,0.7,-85.354065,-28.384756,0.004210273,-206.2703,-20.052767,-20.11859,-18.219206,-19.910196,4.3226754e-07,0.3,-12.500565,61.011364,61.151466,61.008865,61.13021,0.29134658,0.41875,5.678043365478516,5.410124282042186
7,70000,47.97225012872971,-57.74031,0.07242327,-0.8350819,4.4623675,15.171495,26.923645,291.2066,12.141592,87.80801,88.28107,87.31805,88.32265,14.269216,0.7,-88.39129,-36.70183,0.0037688073,-199.71974,-14.640395,-15.278656,-17.031204,-16.03737,8.102011e-05,0.3,-15.235651,57.358345,57.311775,57.494255,57.65794,0.5131395,0.42968747,5.5194737911224365,6.098507098356882
8,80000,49.63852366507348,-57.822174,0.07056441,-0.59004277,3.333824,15.476862,30.692953,255.31717,12.184685,88.18622,88.264885,88.75839,88.07054,8.940304,0.7,-87.40118,-29.221893,0.0039071874,-245.887,-15.299758,-15.731395,-16.657808,-16.018814,1.3471436e-07,0.3,-14.50006,57.57602,57.472153,57.622597,57.733223,0.3697964,0.46875,5.58160400390625,6.793991279602051
9,90000,50.786960032784044,-62.71035,0.06731343,0.3079155,4.211974,14.831289,28.761982,148.39366,11.626151,87.40939,87.52431,87.639984,87.62521,7.317119,0.7,-87.40274,-31.787857,0.0008322124,-387.32645,-14.64774,-14.9717045,-15.102555,-15.179927,2.8311986e-06,0.3,-17.377619,62.48987,62.668808,62.488495,62.590546,0.3741863,0.43281248,5.56499171257019,7.483559660116831
10,100000,47.838774769103395,-64.83812,0.06597533,0.8013871,3.125068,14.087035,31.679838,62.423424,11.467228,86.974174,86.80401,86.517044,88.29086,29.770826,0.7,-86.16862,-33.325584,0.008280504,-252.88788,-14.630089,-13.808812,-12.445435,-12.906587,7.276019e-07,0.3,-17.818768,64.433044,64.41644,64.82043,64.88097,0.60711145,0.42343748,5.541842937469482,8.178509398301442
11,110000,51.30052167331157,-64.6371,0.064398706,0.0563951,3.0069108,6.9166923,46.102108,106.293976,12.295013,86.99273,87.16772,86.564186,86.72636,13.921894,0.7,-86.81822,-31.255566,0.0003672284,-490.7934,-8.72852,-9.016445,-7.9107585,-7.94587,8.580992e-06,0.3,-18.67782,64.38785,64.34809,64.140594,64.25273,0.4230514,0.45937502,5.494699239730835,8.872649121284486
12,120000,51.29581624299864,-61.168587,0.064623155,0.4624654,6.078812,6.5113354,31.570143,579.42786,14.682186,87.191986,86.81767,88.30621,87.10841,16.439882,0.7,-87.48398,-33.747982,0.0039941007,-247.37671,-8.165164,-8.377997,-11.222855,-8.230175,9.627147e-05,0.3,-20.650139,60.614075,60.77148,60.721924,60.862244,0.5067458,0.465625,5.501745939254761,9.5648867726326
13,130000,51.59694469513369,-65.118546,0.06446005,-0.22589168,3.0275025,8.412464,24.607044,129.81049,12.618095,89.05786,88.66537,88.83504,88.352325,10.245841,0.7,-87.93478,-30.714718,0.00016880885,-291.0799,-8.227787,-8.807735,-6.8153596,-5.6643295,1.4963164e-05,0.3,-19.635601,64.675385,64.641464,64.4859,64.69839,0.48764396,0.45468748,5.676980972290039,10.258006723721822
14,140000,50.382063953157996,-64.49617,0.063533634,0.30044794,2.7831113,5.3957157,29.420404,57.574623,13.607817,87.4359,88.02247,87.08258,86.854065,21.759888,0.7,-86.90849,-33.826096,0.0022003246,-529.4221,-7.50298,-7.0267773,-7.4224463,-7.537839,9.052456e-08,0.3,-21.64116,64.16551,64.02084,63.93873,63.843914,0.494097,0.49374998,5.555052280426025,10.952125144004821
15,150000,51.464840306841,-59.09089,0.06531192,-0.6660398,4.9260664,6.534767,48.672123,401.01526,12.947503,87.817055,86.95119,88.376526,87.50413,14.581201,0.7,-87.13659,-31.92416,0.0011390739,-265.55466,-8.626259,-8.882533,-8.298427,-8.406953,8.998148e-07,0.3,-24.138256,58.600155,58.505966,58.329346,58.407166,0.5087362,0.4640625,5.44974422454834,11.643638018767039
16,160000,52.438157371574626,-62.029945,0.0639792,0.051579416,3.4893436,8.591043,42.443733,60.6509,12.293066,87.81913,87.85679,87.99403,87.56398,7.123468,0.7,-87.048294,-31.673548,0.0006410491,-881.78516,-9.316872,-9.173772,-7.878959,-7.556923,1.2146462e-05,0.3,-24.401482,61.580154,61.59385,61.848385,61.794067,0.49883273,0.41875002,5.634556770324707,12.333361959457397
17,170000,53.1672391992556,-62.734146,0.06358636,1.0874169,4.1139827,7.551654,31.787712,124.83178,13.627179,86.95257,87.764915,86.482086,87.92256,33.774307,0.7,-86.99177,-34.87496,0.0005338036,-773.52124,-7.765898,-8.900068,-7.3596206,-6.960831,2.6911905e-06,0.3,-28.088875,62.149754,62.133213,62.21792,62.065773,0.63800436,0.47968748,5.61583948135376,13.028541978200277
18,180000,52.18825633282107,-58.20969,0.063292004,-0.60756826,2.593344,6.618974,27.683596,86.22632,12.490716,85.612595,85.88822,85.936676,85.56396,11.525371,0.7,-85.580475,-30.383139,0.0028490676,-3305.8137,-6.011976,-6.0402436,-7.087919,-6.2712026,0.00022751269,0.3,-43.956715,57.634468,57.736,57.665623,57.571342,0.5124598,0.525,5.571796178817749,13.722067296504974
19,190000,53.42038697544296,-63.895634,0.06411319,0.77245164,3.8037086,5.544646,24.936316,52.777344,13.882826,86.62474,86.89249,86.873985,87.23002,34.98958,0.7,-87.03129,-30.32519,0.004783857,-870.90814,-5.7618666,-5.837723,-5.0562553,-5.527884,8.3559826e-11,0.3,-26.576736,63.465755,63.476017,64.07483,63.75458,0.5831248,0.45468748,5.552372694015503,14.415346105893454
20,200000,52.51724878897305,-60.721367,0.06268165,-1.3397971,5.089024,5.1939316,44.88854,239.28423,12.5549965,85.71965,85.15362,87.11955,87.21443,50.527782,0.7,-85.79596,-33.618046,0.0007729186,-394.1863,-5.4660144,-5.1249876,-3.8503213,-3.7167702,6.669271e-06,0.3,-20.799988,60.165867,60.161865,60.819717,60.763798,0.8110428,0.44687498,5.481285572052002,15.107899026076
21,210000,51.24103490692,-60.979507,0.06373298,-0.68005043,3.3296852,6.5597625,31.60862,96.58864,15.009148,87.21321,87.392715,87.628784,88.014946,19.66987,0.7,-87.29684,-32.599476,0.0020994714,-300.61566,-5.927978,-5.7207894,-4.2983356,-4.1783257,4.8700605e-07,0.3,-21.292496,60.72777,60.619503,61.080566,61.237442,0.45673493,0.42812496,5.839422225952148,15.802358289559683
22,220000,51.016552881328735,-59.312435,0.06338562,-0.5345379,3.4711447,4.595445,38.25673,125.30818,13.07835,87.48443,87.11257,86.8781,86.99521,31.028637,0.7,-86.3141,-34.17052,0.0007808121,-363.62872,-5.897532,-5.3219247,-5.673772,-4.1180415,2.1883054e-06,0.3,-31.355785,58.680954,58.73987,58.531483,58.80007,0.61057264,0.45625,5.9801414012908936,16.49916899204254
23,230000,51.9768969351085,-58.23269,0.063703164,-1.1190515,2.247913,3.6702142,39.057186,53.521057,12.061326,85.78196,86.44,86.32588,86.21961,9.084271,0.7,-87.03213,-40.3191,0.003719303,-2121.895,-6.345577,-6.449013,-5.0095453,-6.7098083,1.7080241e-05,0.3,-39.768417,57.8039,57.769638,57.997,58.035957,0.43380478,0.39374998,5.8648295402526855,17.192632186412812
24,240000,50.47636742738392,-64.670235,0.063126765,0.18854932,3.247759,2.4800549,41.21689,84.29733,10.960375,87.847466,88.06731,87.91081,87.68001,17.93772,0.7,-87.80482,-31.355598,0.0016777199,-443.25446,-3.2958603,-3.174563,-4.8564415,-4.9033904,7.745508e-06,0.3,-30.288216,64.17356,64.11949,63.784996,63.799255,0.53000283,0.51250005,5.595426082611084,17.878454343477884
25,250000,53.178639611646425,-63.878506,0.06342394,0.97009724,1.7134551,5.8399296,32.835796,27.640095,12.670923,85.76586,85.754616,86.61054,86.053085,21.436907,0.7,-86.85457,-31.442427,9.780569e-05,-1490.7847,-4.6208887,-4.5487366,-4.0749083,-4.905563,1.2175152e-05,0.3,-21.921467,63.64627,63.572845,63.704185,63.54138,0.4561635,0.4765625,5.907676935195923,18.570867669582366
26,260000,53.99248251326436,-60.553993,0.063351825,-0.5259789,2.7134547,3.6476564,44.210922,36.8528,11.818775,86.42922,87.203156,89.08809,87.33227,12.198975,0.7,-87.808365,-33.087513,0.023118267,-1269.8798,-4.6653605,-4.4810786,-5.802443,-4.9095693,9.305659e-08,0.3,-40.29606,59.919952,59.98619,59.778496,60.121086,0.48117977,0.4265625,5.760507106781006,19.26594650745392
27,270000,51.592647689006064,-59.19465,0.063190274,-1.2965902,3.0645738,2.8673217,34.910896,174.03,13.189711,87.47146,88.259575,88.05586,87.95024,26.38453,0.7,-87.29053,-31.105822,0.0063185357,-775.4553,-3.4883142,-4.621436,-3.9746704,-5.014463,2.0279293e-08,0.3,-37.449184,58.48989,58.627514,58.206314,58.49444,0.6751077,0.45624998,5.709192514419556,19.955137050151826
28,280000,54.87218094249603,-59.34527,0.063498475,-1.3302481,3.275645,2.4216025,35.560726,119.99171,13.821917,87.96566,87.86428,87.62273,86.99123,21.736834,0.7,-86.71987,-34.76832,0.00716554,-766.7954,-4.1389103,-4.422553,-1.3607767,-2.5443413,1.19695205e-05,0.3,-36.921207,58.72176,58.51261,58.75096,58.51395,0.5560802,0.4953125,5.591238975524902,20.643585443496704
29,290000,52.78204816700245,-62.09992,0.06459954,0.16563731,3.246074,2.733333,26.681822,120.80292,13.464639,86.3502,86.260506,86.28142,85.68186,172.51245,0.7,-86.440994,-32.488194,0.0066421065,-1862.0283,-3.2365878,-2.8176744,-1.7953765,-0.63024485,4.8409566e-07,0.3,-37.97438,61.246246,61.261555,60.92373,61.099205,1.408077,0.50625,5.7848217487335205,21.334056357542675
30,300000,52.421478330185714,-63.145382,0.06309211,-0.46614778,2.7598715,0.19867533,28.835512,80.40643,12.330442,86.65125,86.65242,87.036964,86.92379,13.354327,0.7,-86.19017,-38.766365,0.006051969,-1193.6836,-1.9900346,-2.280793,-1.5979773,-1.0658195,5.5810333e-06,0.3,-34.66215,62.385323,62.438183,62.615723,62.74276,0.60010993,0.40937498,5.592041730880737,22.01932021776835
31,310000,51.30859383070976,-62.38466,0.06398027,0.96783406,3.480166,-0.2331694,39.97919,46.294464,11.309895,86.12783,86.108604,86.40676,86.47641,122.47079,0.7,-85.85137,-29.107761,0.0012060327,-1090.529,-0.84151953,-0.83098584,-2.5009406,-1.9900644,8.483342e-06,0.3,-37.529617,61.550922,61.558067,61.07361,61.440815,0.87556833,0.4375,5.497730731964111,22.705794835090636
32,320000,51.42573659313804,-63.644627,0.064329945,-0.7024795,2.341187,1.7991196,29.940369,83.20597,13.474277,85.62454,86.20688,88.92256,86.35999,28.09051,0.7,-85.79902,-31.431103,0.0024823076,-674.72363,-2.9540164,-2.3196611,-4.0070558,-4.2359424,9.643554e-07,0.3,-37.840004,62.98724,62.96176,63.1571,63.21426,0.56633675,0.44374996,5.520324230194092,23.401116275787352
33,330000,52.09978383578303,-60.367256,0.063478276,-1.237767,2.0981781,3.1479955,33.111107,61.354393,12.032493,86.04008,86.125114,85.724335,85.025375,9.111203,0.7,-85.48418,-31.659582,0.0023256955,-449.09247,-5.486464,-4.29917,-3.6163974,-2.9223657,2.7530989e-05,0.3,-35.7843,59.814648,59.80442,59.768414,59.81637,0.40108097,0.48125,5.473942995071411,24.089951272805532
34,340000,51.6601454918465,-59.696823,0.064112365,-0.8671789,3.0935574,3.4086607,39.89365,74.80513,12.37278,86.41751,86.20311,86.04574,86.49302,21.93632,0.7,-85.63892,-40.137978,0.0010637019,-1680.3402,-5.103363,-3.712903,-2.5700428,-2.2117152,1.2235995e-05,0.3,-37.631844,59.03134,59.03737,59.142563,59.206253,0.530057,0.44375,5.471405744552612,24.776071055730185
35,350000,54.07522811685038,-60.55565,0.06472154,-0.42190924,3.6576812,1.8890553,36.957527,136.86029,10.598846,85.00057,85.0533,85.32869,85.922676,35.880287,0.7,-85.06043,-31.256443,0.0010167141,-382.70825,-3.0929885,-3.1498888,-3.3384442,-3.2867913,4.6852118e-05,0.3,-34.748535,59.802536,60.018982,60.25695,60.560715,0.66217613,0.38593748,5.676788330078125,25.47016024986903
36,360000,51.01322007663446,-59.916054,0.063950166,-0.6170992,5.401931,1.5887146,36.064545,929.7557,11.483408,86.00128,85.90607,85.74175,84.88571,15.036161,0.7,-85.58849,-33.915936,0.003542256,-383.39606,-2.6138108,-1.8631983,-3.3557882,-2.877286,5.305132e-05,0.3,-33.247528,59.236355,59.119453,59.013805,59.090218,0.50118494,0.53437495,5.438433885574341,26.15045815706253
37,370000,51.47113657600507,-63.16557,0.064404264,0.5263339,2.8926697,1.5024551,40.3632,50.60491,12.133338,87.135,87.380035,87.13709,86.06056,7.4492216,0.7,-86.804924,-31.006647,0.0011895671,-432.3875,-2.3799274,-2.7986946,-3.0716782,-4.5236945,5.309976e-06,0.3,-35.24693,62.595287,62.50589,62.45262,62.374588,0.6210031,0.5015625,5.485201835632324,26.840692035357158
38,380000,53.25121927681419,-63.768333,0.063788876,-0.09537923,2.2952175,2.3926115,34.785152,32.974316,14.313675,87.323105,87.167755,88.52435,87.009575,4.7169127,0.7,-86.75876,-38.51772,0.0013549916,-450.8105,-2.4621472,-1.9421767,-3.57901,-1.5935166,2.128333e-05,0.3,-29.052462,63.415604,63.29485,63.509823,63.408424,0.3367254,0.4359375,5.558800458908081,27.536103494962056
39,390000,51.91303016107488,-59.135452,0.0645988,0.4142472,2.6077437,3.7241533,46.92988,50.73229,11.523405,85.47542,85.68276,85.69789,86.56866,24.568136,0.7,-85.09012,-32.222477,0.0023299311,-963.9932,-3.0046873,-2.5193965,-2.7176285,-3.573285,6.016967e-06,0.3,-49.529476,58.362396,58.286606,58.610764,58.61426,0.6502483,0.41875,5.547859191894531,28.224663738409678
40,400000,53.18950025561977,-62.478836,0.06442989,0.09286249,2.7167506,0.7064661,50.005356,69.55054,11.529606,85.44907,85.72316,85.09933,85.567474,12.296856,0.7,-84.787254,-33.296913,0.0036001767,-797.317,-1.6181145,-1.7328904,-1.8371134,-2.2859502,1.2204331e-05,0.3,-42.78128,61.81322,61.806458,61.461906,61.7013,0.42963898,0.41562498,5.415830373764038,28.911931320031485
41,410000,53.530678270637125,-62.668003,0.06457193,-0.72432685,2.3077965,-0.17909512,36.624268,67.207504,10.920694,86.90256,87.05141,86.524734,86.38838,28.363087,0.7,-86.09102,-34.912365,0.0015425836,-505.67896,-1.5731885,-1.3479545,-0.9956811,-0.707989,8.074267e-08,0.3,-33.307163,62.034645,62.056206,61.887856,62.15593,0.5861531,0.44375,5.46059250831604,29.60086934566498
42,420000,52.385167524858765,-60.502678,0.065164685,-0.4761393,2.5985441,3.8678508,51.594196,37.41234,10.093287,85.92945,85.7798,86.358765,86.1253,11.780767,0.7,-85.06437,-31.475492,0.001975309,-505.8956,-3.213111,-4.02076,-1.682424,-2.2158375,1.8018618e-05,0.3,-38.14574,59.954178,60.01883,60.34974,60.18988,0.46362555,0.4453125,5.5027689933776855,30.28771675825119
43,430000,54.72741108025505,-62.187805,0.06514358,0.0039026737,3.1363306,2.4676902,37.457466,74.599075,12.565258,85.20459,84.92704,85.322914,85.40099,14.393984,0.7,-85.11528,-32.207333,0.00013001624,-894.3227,-3.501985,-3.674803,-5.381356,-3.3601077,1.046838e-06,0.3,-45.25193,61.482994,61.49114,61.03955,61.09865,0.5218845,0.4765625,5.5003907680511475,30.976068023840586
44,440000,52.73161979954345,-59.019203,0.06508887,-2.637298,1.9244251,2.9428656,57.719368,22.52956,10.626004,87.38425,87.31199,87.56279,86.438934,12.300923,0.7,-86.9128,-29.640167,0.001932489,-407.18335,-3.444776,-2.1845684,-2.462667,-3.3938756,1.7625296e-05,0.3,-34.107414,58.34044,58.38832,58.457672,58.344902,0.48426616,0.52656245,5.445204257965088,31.663191866874694
45,450000,53.25408966084756,-58.289467,0.065276586,0.15612474,2.9603693,3.1433527,38.908676,29.295284,10.360369,86.34982,85.727745,86.35545,86.612946,20.809515,0.7,-85.044914,-31.512398,0.00023630756,-719.7201,-3.348168,-4.461736,-1.0812805,-1.7218485,7.359631e-06,0.3,-35.57276,57.613815,57.45021,57.83018,57.96982,0.59816986,0.434375,5.483686208724976,32.34810570081075
46,460000,53.247471212703914,-63.347282,0.06551771,0.26553652,2.0552425,2.31665,38.339645,51.553524,12.214045,85.7147,85.89402,86.07411,87.29659,61.698265,0.7,-85.23322,-33.107277,0.00013823442,-706.16614,-2.4803085,-1.8616682,-2.137931,-3.3608265,1.1337652e-05,0.3,-37.518936,62.610588,62.70288,62.62687,62.492126,0.6246521,0.48125,5.504958868026733,33.035934281349185
47,470000,53.27616912297951,-59.69658,0.06594544,-0.56547284,2.7697732,0.11070675,25.140131,29.366001,10.130459,86.81699,86.79977,85.73036,85.689095,19.829931,0.7,-86.351204,-33.49799,0.00403544,-1108.9518,-1.7626357,-0.62858427,-3.1369991,-2.5261812,1.9583636e-05,0.3,-43.550423,59.053932,59.001823,58.46579,58.699966,0.4968049,0.4921875,5.66593599319458,33.73046102921168
48,480000,52.72734271005813,-62.527924,0.0668946,1.0989403,3.7149644,-0.20810097,39.07339,64.4636,14.624452,86.22905,85.281044,84.712555,85.50019,7.1064086,0.7,-86.88825,-28.813814,0.0028453334,-1240.3848,-0.92194337,-1.5230684,-2.705185,-2.219458,5.3712556e-06,0.3,-44.737423,61.830368,61.822823,61.35749,61.557953,0.40314418,0.44843748,5.547823429107666,34.41839503844579
49,490000,53.04942121573275,-62.135094,0.06715749,-0.20494437,3.285404,-0.22805637,40.9749,110.41429,13.183625,85.06337,85.06459,84.408905,84.227356,12.798424,0.7,-85.82934,-30.61568,0.001506275,-443.26892,0.70774376,1.1727633,-1.2949647,-1.6319914,2.9703369e-08,0.3,-35.84453,61.521667,61.55877,61.073242,61.357433,0.5382384,0.44687498,5.576719045639038,35.109549295902255
50,500000,51.752383685578216,-60.27684,0.06475881,-1.0840521,2.3434784,3.4508362,41.35098,24.966099,10.990324,86.314255,86.25757,85.72581,85.27103,80.50689,0.7,-86.159,-35.827583,0.002932245,-1359.7821,-2.1696732,-2.5616484,-3.2559972,-4.7705684,4.0745363e-09,0.3,-45.620514,59.689285,59.70749,59.70006,59.761513,0.66516,0.446875,5.448928117752075,35.800945683320364
51,510000,54.08550164825938,-63.115067,0.0663914,-0.03373021,3.2430649,-1.1855177,66.253685,147.82803,15.835281,86.44468,85.77439,85.535484,85.0271,39.300808,0.7,-85.32219,-31.950745,0.0022680238,-591.3566,-0.68145424,-0.68962467,-2.7815666,-2.3040087,2.542918e-07,0.3,-40.63649,62.218185,62.49254,61.967903,62.141838,0.75946486,0.490625,5.455718517303467,36.48834860722224
52,520000,52.49932737753821,-63.158775,0.0664608,0.76618105,3.3176556,1.4075148,48.028294,148.3588,13.195076,85.33543,85.98863,85.52457,84.9191,52.006023,0.7,-85.96159,-39.297176,0.0015969726,-1364.8723,0.33373296,-0.94880044,-1.4854577,-1.6878581,1.5662517e-05,0.3,-47.58787,62.35787,62.306625,61.82197,61.93782,0.90205276,0.5296875,5.465821743011475,37.17651228109995
53,530000,53.098632214507724,-63.24318,0.06652524,-0.115595564,2.4971676,2.3784225,46.939785,104.41443,11.607314,84.73306,84.46342,84.9429,84.94891,13.984206,0.7,-84.756966,-31.468311,0.005477676,-744.1069,-1.9119979,-2.330572,-1.774042,-1.6914036,8.919044e-07,0.3,-45.817177,62.546917,62.520634,62.669334,62.971947,0.50748444,0.39218748,5.561216115951538,37.86935367981593
54,540000,52.56223008702284,-62.23314,0.06736297,-0.15260363,2.9082832,-0.72368413,40.835403,134.14767,10.416336,85.66523,85.729515,85.9468,85.292336,8.411114,0.7,-85.54869,-29.3164,0.0018033679,-452.42764,0.12192261,0.1196326,-2.7156317,-4.243366,1.2483278e-05,0.3,-32.23919,61.704258,61.578285,61.428097,61.12948,0.5702669,0.4953125,5.616532564163208,38.56049937407176
55,550000,52.19597057637314,-59.55513,0.067775436,-1.3286444,2.4690282,1.4755636,39.684242,25.876595,13.259488,85.277985,85.616936,85.51199,84.88676,7.621745,0.7,-84.65466,-30.787403,0.0027150363,-604.4855,-5.172449,-5.2927566,-4.014167,-5.3957925,5.9146373e-06,0.3,-42.906918,58.87696,59.022945,58.80151,58.724236,0.3164395,0.4375,5.607189893722534,39.25280619859696
56,560000,52.80983774911721,-57.89132,0.06675721,-1.1275483,2.7002802,2.4751248,35.101727,73.613464,11.080269,84.84624,84.04548,84.94458,85.205956,13.498075,0.7,-85.16913,-29.626938,0.0008193703,-710.9657,-2.633258,-3.2016115,-3.2519019,-3.382761,1.69985e-06,0.3,-47.97086,57.187645,57.063248,57.387844,57.2959,0.46670172,0.5015625,5.567643404006958,39.94482491413752
57,570000,52.65495683344595,-60.486923,0.06721192,0.1939665,2.4871836,3.5259335,37.204296,24.910484,10.147415,87.21325,87.092896,87.48857,86.5934,15.731536,0.7,-87.04623,-30.927475,0.005241011,-615.69055,-2.0998955,-2.5985537,-3.263521,-2.8548236,4.5264025e-07,0.3,-53.743122,59.829887,59.693836,59.848976,60.03343,0.55371034,0.40156248,5.760732412338257,40.634644003709155
58,580000,53.012351750253664,-58.579834,0.06717954,-0.38052836,2.326281,0.7003634,68.15438,38.708622,12.55024,85.92782,85.55071,85.64365,85.52642,17.157942,0.7,-85.05669,-32.05451,0.003070576,-20049.174,-6.3939824,-3.1411004,-2.2993674,-1.5081518,8.556526e-08,0.3,-122.63345,57.74778,57.8658,57.82012,58.03201,0.4844515,0.43124998,5.550776481628418,41.319600919882454
59,590000,51.69268391402353,-59.44809,0.066831775,-0.7442945,2.1457555,0.36967635,71.91162,21.111584,10.512893,85.25167,85.56091,85.63737,85.664474,29.470234,0.7,-84.73708,-35.44571,0.0031774505,-1193.2903,-0.7370329,-1.3310128,-2.1628573,-1.9499929,3.426685e-06,0.3,-58.120552,58.498444,58.546116,58.75589,58.739056,0.53945863,0.459375,5.966464042663574,42.017213730017346
60,600000,53.00403328237112,-64.01375,0.067564614,0.8308443,2.6971607,0.84499174,37.959946,65.95224,10.867442,86.23041,85.543655,86.18558,85.66258,43.382458,0.7,-85.684105,-29.93537,0.0043819537,-904.0103,-1.3045241,-1.0627975,-1.9541754,-2.1141143,7.21977e-06,0.3,-46.20354,63.262787,63.170273,63.215652,63.255463,0.6187912,0.46718752,5.650278568267822,42.70862009127935
61,610000,52.35000447160091,-60.5496,0.067831464,-0.82702035,2.3665528,0.2804584,42.72262,33.323635,9.922227,85.71775,86.12792,85.55741,86.48481,6.6030455,0.7,-86.52382,-30.724165,0.011356672,-1714.3613,-1.36771,-1.0314392,-1.2942235,-0.7575478,7.0900865e-07,0.3,-45.617393,59.860844,60.004288,59.92971,59.82498,0.46264184,0.47656247,5.4399049282073975,43.39078358411789
62,620000,51.91382869261988,-59.68692,0.06840097,-0.76225543,2.955102,0.015650153,27.362543,94.96869,10.88858,87.372505,87.54173,85.59785,85.99571,20.11945,0.7,-86.62636,-30.630196,0.0009580427,-1385.8416,-1.1388341,-1.889238,-1.766912,-1.0342495,0.00011453035,0.3,-55.654922,58.87961,58.8221,58.58647,58.95839,0.66206205,0.4515625,5.816816806793213,44.08716686169306
63,630000,53.05099662935958,-59.040016,0.06765997,0.9598948,3.0159264,-1.2910234,44.362877,85.34504,11.166927,86.044426,85.57225,85.79786,85.21216,57.138283,0.7,-84.5048,-29.945341,0.0014129241,-897.08765,-0.13615096,0.16980839,-1.8719136,-0.20185632,2.2693537e-06,0.3,-56.187553,57.892166,57.991158,58.103138,58.14727,0.9267548,0.45468748,5.847070217132568,44.782923038800554
64,640000,52.90559880461095,-61.079758,0.06760156,0.6367932,3.078643,-1.1144284,41.836575,56.09227,12.49929,85.31369,86.793076,86.43213,86.310326,10.845071,0.7,-86.59696,-29.85882,0.0015626275,-1103.9854,0.6245146,-0.21504772,-1.1730024,-0.36631244,2.6850032e-05,0.3,-65.40207,60.14877,60.149776,60.323868,60.363796,0.47092852,0.44375,5.719172477722168,45.47498797178268
65,650000,52.767315908635396,-59.571484,0.06865932,0.47610745,2.5931215,2.0471566,38.463463,24.906582,10.60651,84.268326,84.77494,84.854004,85.31407,32.00488,0.7,-85.35937,-29.292961,0.0013142276,-2255.9612,-1.0131816,-1.9327809,-2.6428523,-2.239982,7.8482554e-07,0.3,-64.21452,58.50158,58.556343,58.36087,58.40692,0.61175364,0.4828125,5.744843244552612,46.16964414517085
66,660000,52.94476580575029,-59.342422,0.06766531,-0.36123377,2.4094062,-0.31104457,58.632072,83.336205,9.739394,86.154,85.741196,86.43117,85.81479,5.2669225,0.7,-87.12095,-31.310257,0.0001746312,-1542.6001,-0.60908055,-0.42975342,-0.4624821,0.9157396,6.0992493e-06,0.3,-42.891926,58.542477,58.37941,58.331985,58.564613,0.4251734,0.4765625,5.574466705322266,46.85988032023112
67,670000,52.31405720881407,-61.209885,0.06840578,0.048333943,2.4045203,-1.0623677,32.483788,34.382675,9.366206,85.16803,85.90352,87.524185,85.40878,6.8477902,0.7,-85.31074,-31.002779,0.00695969,-611.8367,-0.37409544,-0.76188695,0.859731,1.0587718,1.4709076e-06,0.3,-54.73745,60.3406,60.23208,60.140984,60.18167,0.50384825,0.471875,5.5805418491363525,47.551179349422455
68,680000,52.82049201195821,-62.142315,0.068826936,0.03338483,3.1834342,-2.8421638,35.09303,82.5097,10.072281,86.0957,85.71806,86.47117,85.79707,30.069277,0.7,-85.6223,-28.316616,0.0022924822,-2337.115,0.8380711,-0.49811184,-2.117754,-1.2563071,1.5988942e-06,0.3,-62.602303,61.177704,61.247307,60.689743,60.92988,0.4792661,0.45937496,5.38277006149292,48.24202762842178
69,690000,53.280898962313394,-64.75209,0.067266606,1.4448546,2.825796,-0.94103193,40.47613,94.894905,12.268479,85.56272,85.529106,85.86148,85.58041,47.658478,0.7,-85.44297,-28.926722,0.0023669316,-1217.3733,-1.142872,-1.0817969,0.48841292,1.5107143,7.0779744e-05,0.3,-48.332207,63.938454,64.05766,64.02091,64.50597,0.7885667,0.40624997,5.374600410461426,48.92965350151062
70,700000,53.86221201157735,-58.214417,0.06901566,-0.89918834,2.448253,0.50388014,54.405743,86.883194,11.446438,85.03996,85.58938,85.82186,85.21929,9.626051,0.7,-85.50355,-36.90177,0.00063058484,-1845.3456,-1.7818973,-1.223558,-0.58123153,0.0119662285,4.783297e-06,0.3,-65.30566,57.37444,57.426723,57.39097,57.356056,0.408176,0.44687498,5.555789947509766,49.620369017124176
71,710000,52.11781683098376,-61.44982,0.06991944,1.0081149,2.6254354,0.35638452,37.305214,53.94928,15.390082,89.21816,88.70585,87.07767,88.78418,13.371605,0.7,-88.40533,-29.775795,0.0001285214,-2034.4031,0.11861408,-0.5918952,-1.3949,-1.1020042,1.9435976e-07,0.3,-71.110794,60.50168,60.536842,60.359962,60.219242,0.54774094,0.4828125,5.481803894042969,50.313005701700845
72,720000,52.95641504435742,-61.522354,0.06803429,-0.19779998,3.4051805,0.5261029,52.02003,70.97826,10.72703,84.644295,84.581,86.07147,85.06991,16.950617,0.7,-84.91358,-31.002714,0.0058213514,-796.00433,-0.97505784,-1.1028701,0.9742739,0.4610039,8.215895e-07,0.3,-45.638573,60.71585,60.743095,61.32321,61.208496,0.47790188,0.39062497,5.479049444198608,51.005937051773074
73,730000,53.75575584126345,-60.703754,0.068813,-0.9952719,2.2708228,0.44163975,41.05057,39.009315,11.007193,85.24175,85.11718,84.709595,84.816666,10.597675,0.7,-84.589195,-31.455791,0.000291795,-829.89984,0.45737994,0.18274617,-1.2167412,-0.13670015,5.0822902e-05,0.3,-58.746788,60.034184,59.98162,60.072586,60.00877,0.43303794,0.43593746,5.5849621295928955,51.69590315421422
74,740000,52.58894756988263,-59.95875,0.069445126,-0.46757096,2.888286,-1.4976602,33.43865,77.03297,10.325418,87.33493,86.32834,85.72442,86.47157,39.11764,0.7,-86.61308,-30.370592,0.0023624683,-636.14484,-0.025416732,-0.28339803,-0.89189744,-1.5300872,8.233756e-06,0.3,-53.71316,59.341007,59.111263,58.81231,59.1019,0.64752465,0.4609375,5.429847955703735,52.387959345181784
75,750000,52.5722149204099,-61.961067,0.06813183,-0.68170327,2.2176218,-2.2544072,52.71308,25.632011,11.125434,85.70403,85.327614,84.87434,84.91252,5.514813,0.7,-85.0729,-30.530485,0.0024526375,-492.14734,1.2874638,-0.08674097,-1.1044555,-0.48984075,4.9756098e-05,0.3,-37.566833,61.370815,61.335377,61.14149,61.293396,0.44935864,0.44062498,5.495960235595703,53.078566229343416
76,760000,52.362563047203835,-60.978523,0.06802412,0.39906412,2.6373944,-0.3650459,50.750847,32.47422,12.367547,87.11643,87.39291,88.53707,86.91607,9.770252,0.7,-87.24102,-28.989832,0.022043742,-2411.2014,-0.4181714,0.6811775,-0.23575944,0.15842354,1.18813475e-07,0.3,-61.296623,60.000137,60.143036,60.334255,60.47259,0.4493362,0.425,5.5978617668151855,53.770333755016324
77,770000,53.40980776917288,-62.694885,0.06853558,1.1437459,2.8419738,-2.9987993,65.67334,45.1634,10.790548,86.99288,85.39166,85.0303,84.767136,29.571112,0.7,-85.4244,-28.88088,0.001580101,-802.98126,2.7255788,2.7044108,2.3744888,2.77519,1.5716068e-08,0.3,-46.075405,62.07054,61.957985,61.936127,62.092148,0.59908444,0.428125,5.50242805480957,54.450242495536806
78,780000,52.227393385455656,-59.789154,0.068604745,-0.83507705,2.4664755,-1.8399075,37.703747,75.97035,11.729149,86.90635,87.58309,86.65731,85.6628,4.768305,0.7,-86.83332,-30.174788,0.00050870964,-1744.1915,-0.6372683,-0.886835,-0.7748445,0.758238,1.27653775e-05,0.3,-66.25015,58.899986,58.93316,58.663834,58.815956,0.35121349,0.45312497,5.405404806137085,55.136523401737215
79,790000,52.93657101515321,-65.0869,0.06782176,0.87561524,2.8154914,0.015472293,43.51533,55.85276,11.04733,87.03507,86.1213,85.67465,85.02395,20.00255,0.7,-85.786095,-30.29852,0.006770958,-981.1291,-0.14763403,-0.38323963,-0.16901013,-1.1486635,3.0074445e-06,0.3,-54.056232,64.50423,64.39775,63.96473,63.702835,0.6932049,0.5375,5.511448621749878,55.82923339207967
80,800000,51.95804893308882,-64.03946,0.06861447,1.0025787,2.379974,0.82116383,49.538525,37.36293,10.188313,87.46018,87.60299,88.29707,86.49058,32.577988,0.7,-86.32147,-28.912615,0.0009770507,-457.51807,1.1487781,-0.20908761,-0.38600475,1.7694893,2.6077032e-07,0.3,-45.248886,63.296326,63.410534,63.55533,63.63873,0.53178525,0.4296875,5.568255186080933,56.518046196301775
81,810000,52.88448744844225,-59.59408,0.07003387,0.0527322,3.7440584,-2.62039,29.842945,95.01953,11.123868,84.43495,84.25059,85.2309,84.84286,10.577192,0.7,-83.40891,-30.213882,0.00047640456,-1071.8577,1.076755,0.2737012,2.0598521,1.881531,8.361315e-06,0.3,-57.88714,58.640324,58.60958,59.00853,58.901733,0.6668354,0.48749998,5.428832530975342,57.208317228158315
82,820000,53.07077396796303,-64.020035,0.06832384,0.995235,2.240254,-0.99618834,34.51105,26.43916,12.477506,84.667564,85.092545,85.0809,85.5101,9.284012,0.7,-84.16617,-29.211397,0.0027668034,-1495.1815,1.1802286,0.18677533,-0.2510066,-1.8034863,3.2172945e-06,0.3,-55.353607,63.509068,63.37216,63.52877,63.790535,0.44499126,0.4265625,5.593752145767212,57.9007106979688
83,830000,52.94866950541663,-58.830643,0.06842215,-0.28442192,2.6419554,4.2236037,29.751907,63.741463,10.589359,84.00513,84.06622,84.896515,84.09076,8.4015,0.7,-85.057014,-37.877068,0.005159554,-1745.1005,-2.1026974,-1.5376599,-1.4452084,-2.2235646,2.1713204e-07,0.3,-54.135323,58.160564,58.302265,58.015663,57.967453,0.484557,0.49375,5.538901329040527,58.59117957353592
84,840000,52.69275398233457,-60.258797,0.06685598,-0.07562488,2.046164,-2.2540684,35.880856,33.03083,11.261351,85.11648,85.20044,84.79493,85.56987,18.320696,0.7,-84.72662,-29.516273,0.0005181838,-1770.7106,0.070207596,-0.7164273,-0.47556084,0.022059083,1.7694936e-05,0.3,-63.84074,59.432564,59.37035,59.372364,59.558388,0.48599,0.4265625,5.563557147979736,59.28381530046463
85,850000,53.23872605304372,-63.8924,0.068381675,0.8860286,2.15943,-0.1391701,38.20456,24.27161,10.240624,85.96398,86.424934,86.02817,85.927795,14.018747,0.7,-85.12724,-28.499128,0.008173434,-1508.9205,-0.4947728,0.16762638,0.7018643,-0.1734041,7.7882135e-07,0.3,-60.252518,62.976257,62.910748,63.04535,62.957855,0.430393,0.4578125,5.542320489883423,59.97978142499924
86,860000,52.12596247316551,-61.86316,0.068331696,0.77617157,2.45363,-0.370585,37.389088,29.680763,13.817603,85.16077,85.07525,84.59732,84.97644,4.6599903,0.7,-84.9695,-30.270271,0.00048661896,-776.41095,-0.012755632,-0.6229633,0.40101886,0.28957313,9.407919e-06,0.3,-53.089775,61.1866,61.271873,61.079285,61.22277,0.39171693,0.46249998,5.563807964324951,60.669417762756346
87,870000,52.9948921205665,-61.208244,0.06853931,-0.3941103,2.5927963,-0.9829607,29.737318,84.42037,12.18153,85.646225,85.97015,86.05013,84.85081,8.253425,0.7,-86.427765,-31.594463,0.0066949893,-2547.9304,-0.814134,-0.53025055,-0.13521288,-0.023582399,2.390414e-07,0.3,-78.249825,60.16561,60.255947,60.006687,60.169632,0.43750668,0.45,5.515925645828247,61.35809232791265
88,880000,52.58652678182197,-61.657825,0.06910342,0.83345723,2.2109947,-0.5947037,35.688015,23.892408,9.402388,86.52908,86.20382,87.22862,85.89423,27.631077,0.7,-86.11219,-30.42624,0.00023321924,-1328.8175,0.4885993,0.79384923,0.4957357,0.9374157,2.1391316e-10,0.3,-60.29823,61.01174,60.912186,60.702477,60.816704,0.4941524,0.4671875,5.533864736557007,62.05157500902812
89,890000,52.735438082497346,-62.88571,0.0685603,-0.018721506,2.4087892,-3.0408309,38.0129,37.65387,11.105478,84.22502,84.83201,84.44198,84.865654,16.988083,0.7,-84.47688,-29.477379,0.00029671154,-920.20953,1.4594,-0.6247599,0.6802018,-0.19953579,5.042875e-09,0.3,-44.153934,62.238693,62.160706,62.194077,62.09014,0.5432694,0.4578125,5.503905534744263,62.736926488081615
90,900000,52.891999800109566,-61.156094,0.06867785,1.4604152,3.6529028,0.5331826,37.4655,120.790665,13.635869,84.30883,84.38749,84.331604,84.645325,6.506203,0.7,-84.025894,-31.668968,0.006580067,-826.6955,-0.5784719,-0.7248467,-0.4895277,-1.08777,8.027139e-06,0.3,-72.35566,60.265236,60.444206,59.915577,60.18405,0.4738118,0.4671875,5.467499732971191,63.42331752379735
91,910000,52.98001079296739,-61.19211,0.06768292,-0.53107285,2.4193995,-2.9773026,40.291084,35.712303,13.058402,87.12062,86.33205,86.60749,86.66877,6.393698,0.7,-86.21964,-34.53393,0.0077692294,-1884.0123,2.1083207,2.2136989,0.44041523,0.94995266,1.870605e-05,0.3,-59.24568,60.505795,60.53731,60.56372,60.37356,0.41395006,0.46249998,5.5029942989349365,64.10759902397791
92,920000,52.704666685494075,-61.46801,0.06666989,-0.31359488,1.81151,-2.6379282,35.07709,19.551914,11.296938,85.59392,85.82789,85.2601,84.93132,8.3206835,0.7,-84.798294,-29.502855,0.0019886196,-934.68744,-0.4908389,1.2828116,-0.38418177,0.2702648,9.038992e-06,0.3,-50.005997,60.916786,60.99009,61.03584,61.104027,0.36559582,0.44375,5.537922620773315,64.79284933010737
93,930000,53.03267703325193,-58.569935,0.068479456,-1.46734,2.258669,-3.0156379,30.905266,21.706587,12.247642,85.57614,84.94481,85.10205,84.15533,5.185569,0.7,-84.67937,-39.06875,0.00094959844,-2581.077,2.6801553,1.5261811,0.6187209,1.1446974,8.6012744e-07,0.3,-60.21043,57.771072,57.85724,57.630966,57.679306,0.4028657,0.4578125,5.59207820892334,65.4828059633573
94,940000,52.31647111967759,-56.931335,0.06793048,-1.9047835,2.5414608,-2.1508517,49.429943,77.97232,12.012765,83.85174,84.74744,84.313095,83.473274,12.139644,0.7,-83.96843,-34.90612,0.0012388302,-1308.5786,1.1731428,-1.446137,1.0575975,-0.5264849,5.4566367e-06,0.3,-53.490913,56.26526,56.151962,56.058823,55.780373,0.43772578,0.50625,5.964718341827393,66.17696532408397
95,950000,52.87316969062709,-60.806118,0.0675836,0.23356621,2.886308,-2.8572655,35.003517,73.63559,11.370672,83.188126,84.06354,83.52699,83.64014,18.899828,0.7,-83.17156,-30.533514,0.0010158985,-2350.483,-0.36544132,-0.26120687,0.95695436,1.7010683,7.359631e-06,0.3,-65.97505,59.99386,59.80736,60.210552,60.36856,0.66742384,0.45,5.52391505241394,66.8606111605962
96,955000,52.93591704478969,-62.815002,0.06733205,0.09483674,3.49261,-2.465233,41.025124,395.64322,13.045964,85.575714,85.86335,85.99124,84.73039,33.321213,0.7,-84.97418,-29.386227,0.001007103,-3126.8438,0.24385023,0.1852212,0.28135565,-0.6656023,9.387731e-08,0.3,-56.49994,62.142227,62.149902,61.975002,62.03927,0.4672907,0.421875,5.61050009727478,67.25273612737655
97,960000,52.86028609768506,-63.85009,0.06922959,0.83244073,2.3627534,-0.695652,35.19268,33.11692,9.537632,85.16166,84.4385,85.19164,84.35447,13.3373375,0.7,-83.734955,-29.609053,0.015320157,-1832.4717,0.5807322,0.007876277,-0.0051704794,-0.94378245,1.5379608e-07,0.3,-67.036674,62.9772,62.863106,63.201057,63.04653,0.5118363,0.465625,6.015550851821899,67.64500748713812
98,965000,52.48744579990551,-63.794926,0.07021179,1.8107135,3.4460618,-2.4070368,47.964233,62.99665,11.362361,85.009926,85.19585,85.42562,85.58946,84.35,0.7,-84.55943,-30.670439,0.0001449573,-1168.1589,2.1280942,2.039659,0.2491165,2.0347815,3.3828474e-05,0.3,-65.5842,62.78412,62.971916,62.78779,62.981647,0.81761986,0.47812498,6.030998706817627,68.04406105677286
99,970000,52.65352155397333,-60.969078,0.06662726,-0.5595843,2.2272763,-0.29205507,47.224586,27.048851,13.240698,85.187904,84.67015,85.16435,86.12907,8.496022,0.7,-84.667435,-31.720665,0.0022246218,-1377.53,-1.7967173,-2.5301676,-0.10252096,1.286405,5.409122e-07,0.3,-57.941444,60.28641,60.229244,60.437008,60.689873,0.49670014,0.4328125,5.936970949172974,68.44024926424026
100,975000,52.742179346198235,-62.56904,0.06815786,0.29772115,1.8050587,0.7511099,48.413544,19.890926,11.745329,86.528885,86.37852,86.606384,86.75817,13.079717,0.7,-86.20391,-30.167288,0.0013383081,-2112.011,0.47627902,0.5806602,0.95223063,1.4088302,5.409122e-07,0.3,-72.06522,61.861965,61.87782,61.84265,61.851933,0.40097463,0.4609375,5.97424840927124,68.83794199228286
101,980000,52.005139227513084,-65.38818,0.06766619,0.49818933,2.0675356,4.980495,60.340195,30.020046,10.611703,85.939606,86.16613,86.41816,85.766335,17.041164,0.7,-85.650856,-29.846186,0.00660133,-880.22784,2.2639277,1.492135,1.2337357,-0.11909258,0.00014172154,0.3,-44.06019,64.73413,64.92502,64.94296,64.89611,0.5612406,0.44375,5.554250001907349,69.22925428549449
102,985000,53.21510286182243,-63.430267,0.06747396,0.56437707,2.311527,-1.5070941,32.412518,72.70285,10.114931,83.85404,84.183556,84.96276,86.23223,6.9908133,0.7,-86.92932,-30.076876,4.40905e-05,-1351.4048,1.3079295,0.18551815,2.0049877,2.264453,4.271446e-05,0.3,-60.117615,62.676643,62.57287,62.757454,62.957607,0.4427815,0.409375,5.733696460723877,69.62096829811732
103,990000,52.534034617699156,-61.200188,0.06597376,-0.11591163,2.187975,-3.0405161,42.00085,31.711386,12.347435,84.39047,84.9353,85.25917,84.957214,6.812842,0.7,-83.87557,-31.168112,0.0018875401,-1549.8228,1.7261279,1.3392792,-0.90911746,-0.37249798,1.3014477e-06,0.3,-51.02719,60.611687,60.67633,61.03862,60.90883,0.41892198,0.45156246,5.727589130401611,70.01687804460525
104,995000,52.86201927387325,-60.268513,0.066578634,-0.13501003,2.3971438,-2.4552019,35.574207,38.546318,11.537415,85.74258,84.871895,86.47441,84.84173,3.4929974,0.7,-87.01619,-32.25228,0.00036562327,-2467.6655,2.499433,2.9289975,0.99999344,1.8026427,1.9957006e-06,0.3,-65.52014,59.814606,59.738106,60.067024,60.031033,0.30117297,0.41875,5.739663124084473,70.41231092214585
105,1000000,53.22270454688559,-58.523655,0.067125954,-0.8877832,2.2065508,-0.8258688,37.225853,46.917534,11.042489,85.17855,85.305916,85.53804,84.99393,13.064555,0.7,-84.44002,-31.674507,0.0021995849,-4066.3904,0.9013252,1.4235566,-0.4550838,-0.25275868,6.2237204e-06,0.3,-78.522804,57.63674,57.787933,57.593933,57.63515,0.48488724,0.440625,5.800699234008789,70.80754816532135
