Xixo99/comfo/baselines/comfo6_perterbation_actor/20230225_noise0.01/halfcheetah-medium-replay-v2/COMFO6_s1_20230225_003948_halfcheetah-medium-replay-v2_52.92.csv
,step,reward,actor_loss,alpha,alpha_loss,critic_loss,max_actor_loss,max_alpha_loss,max_critic_loss,max_mle_prob,max_q1,max_q2,max_target_q,max_v,max_value_loss,max_weight,min_actor_loss,min_alpha_loss,min_critic_loss,min_mle_prob,min_q1,min_q2,min_target_q,min_v,min_value_loss,min_weight,mle_prob,q1,q2,target_q,v,value_loss,weight,eval_time,time
0,0,2.2534819133457717,,,,,,,,,,,,,,,,,,,,,,,,,,,,,,,,,
1,10000,-1.2681009403455379,-24.088482,0.07327102,-3.7924685,2.1856494,5.8181567,20.799292,46.50229,10.4291725,40.55322,41.18591,39.450592,40.266056,1.3551471,0.7,-40.91335,-29.945812,0.0014621132,-169.3351,-6.1258006,-5.8172417,-6.425278,-6.9846087,6.228934e-06,0.3,-9.677383,23.788189,23.84319,23.58252,23.216827,0.10929011,0.496875,6.245851993560791,1.974336314201355
2,20000,1.8560332165878737,-38.190987,0.078298084,0.26969442,2.9941924,6.7639747,32.49526,119.09362,10.0535,62.348324,62.630943,63.477036,62.098896,3.228456,0.7,-62.383617,-29.085728,0.0050368607,-204.70952,-4.342181,-6.7403007,-5.951405,-5.6546025,3.1489647e-06,0.3,-10.016562,37.989822,37.92384,38.38034,37.877583,0.18678904,0.453125,6.244781017303467,2.6551517685254415
3,30000,9.628432902227543,-48.046227,0.07617222,0.4088272,3.7747798,14.114871,25.654453,123.6849,12.515103,73.84502,73.81322,74.29349,74.10061,3.6328046,0.7,-73.78898,-29.616726,0.007071221,-91.58438,-14.123967,-14.233329,-13.883222,-13.627397,3.6789745e-06,0.3,-6.6387515,47.892982,47.940773,48.0344,47.978653,0.2663015,0.40937498,5.823954343795776,3.3359050353368125
4,40000,21.819205016584775,-50.557,0.07695314,0.4785977,3.3470287,15.232717,33.196537,104.798485,12.227917,81.18107,80.61498,79.50997,79.65815,15.681186,0.7,-80.867325,-31.92143,0.0011205645,-208.52666,-15.428991,-15.305656,-16.376316,-15.748955,1.2292079e-05,0.3,-12.564695,50.462654,50.37773,50.09223,50.194214,0.34377718,0.446875,5.760461330413818,4.014010985692342
5,50000,43.54043337572958,-56.32996,0.074829444,-0.26345086,5.2889347,16.771048,30.099802,147.78528,14.162664,84.19273,84.647995,84.618675,83.87063,11.343055,0.7,-84.57964,-29.67435,0.0056012743,-239.1735,-17.182966,-16.585571,-16.577063,-17.74522,1.3302081e-06,0.3,-13.749639,55.91269,55.97765,56.160515,55.85749,0.4924845,0.5203125,6.210511207580566,4.697446982065837
6,60000,48.28324474739287,-61.590836,0.07201569,2.031636,2.5544972,14.870789,39.424442,40.549217,13.189406,83.96982,84.12332,83.90765,84.10192,15.977893,0.7,-84.28333,-29.568768,0.0032220166,-192.96896,-14.680712,-14.587082,-17.04962,-16.567617,7.781101e-06,0.3,-13.792463,61.4204,61.42347,61.347755,61.313324,0.40194833,0.49999997,5.758877754211426,5.377222176392873
7,70000,46.60698027914739,-56.13699,0.07043418,-0.56487775,2.8459551,16.839056,32.35432,71.52312,12.930312,85.175354,85.24809,85.40918,85.67571,18.159174,0.7,-84.82308,-31.453186,0.0019688767,-411.00125,-16.98407,-17.177341,-16.447966,-16.463242,6.325147e-06,0.3,-17.288208,56.033215,55.94648,56.351135,56.27788,0.48304635,0.43281248,5.689741849899292,6.051771569252014
8,80000,49.85174133856617,-61.09423,0.06868705,0.519076,2.9802055,15.1903305,38.62795,53.295662,16.567553,87.01339,86.72381,87.66957,86.56172,26.526817,0.7,-87.21422,-31.632086,0.0055116615,-286.02142,-15.140686,-14.842544,-14.117543,-15.707142,9.891345e-07,0.3,-16.59065,60.609093,60.786198,60.63039,60.64155,0.5171015,0.47812498,5.701038599014282,6.728058902422587
9,90000,49.78892069743955,-63.465374,0.06579166,0.7755089,4.0501375,10.0493,29.204655,135.21442,13.193324,86.94003,87.49973,87.45143,88.180336,11.781477,0.7,-86.37929,-28.715353,0.0034479145,-251.54749,-11.714544,-12.347826,-10.915261,-11.617679,4.071735e-05,0.3,-21.163403,62.963097,62.93618,62.974857,63.27389,0.42465222,0.42968747,5.741713762283325,7.408247868220012
10,100000,52.05239454891033,-64.5986,0.06494777,0.58563954,2.9159527,10.948956,42.703682,53.696148,13.633717,87.39187,86.68716,86.27781,86.504196,7.7801332,0.7,-86.44411,-31.864132,0.0031277786,-225.88951,-11.198418,-10.157694,-10.276473,-10.701178,6.6854683e-10,0.3,-19.362064,64.19922,64.12259,63.988144,64.00966,0.40095395,0.4609375,5.847266674041748,8.089963694413504
11,110000,49.87464990309655,-60.21556,0.06423203,-0.9758737,5.424823,5.8335342,29.729366,735.05914,11.937401,87.430534,87.53343,87.96753,86.77435,10.083637,0.7,-87.0613,-34.71309,0.009336779,-266.23785,-7.654711,-8.466709,-10.227492,-9.745242,1.086376e-07,0.3,-16.913532,59.976837,59.885777,59.650322,59.582497,0.45746028,0.5171875,5.859046936035156,8.768592158953348
12,120000,51.327839709534686,-59.993523,0.06371282,-0.9839786,3.7293837,12.647719,53.09038,215.69939,11.430141,87.427414,87.20078,87.13934,86.72095,17.624548,0.7,-86.57668,-30.716486,0.0009312949,-456.30573,-12.8178005,-12.910437,-11.0872755,-11.0706835,1.3398648e-06,0.3,-26.355576,59.68794,59.74325,59.936554,60.014515,0.37251687,0.41562498,6.103034973144531,9.455001127719878
13,130000,53.973408163118364,-58.57438,0.064486794,-0.11988303,4.196521,7.410728,34.808216,63.68338,13.156512,87.249275,87.35571,87.271996,86.82287,10.192688,0.7,-87.17219,-28.767075,0.008545386,-718.45013,-11.48426,-11.144379,-8.176288,-8.841982,9.9031195e-06,0.3,-25.67004,58.11687,58.095882,58.83718,58.885117,0.52560973,0.42812496,5.857846260070801,10.137258795897166
14,140000,51.99043107234513,-60.368088,0.063305214,-0.42990467,3.5657754,6.080146,24.060019,69.71924,12.181642,89.236855,87.84677,87.15717,87.715866,12.399072,0.7,-87.4251,-33.22077,0.002161887,-1161.5505,-9.696343,-9.262358,-9.605704,-8.661741,1.4587935e-05,0.3,-33.209007,59.725666,59.672684,59.37568,59.70684,0.4857779,0.44062498,5.733832359313965,10.809138623873393
15,150000,54.791769219716535,-61.15018,0.06265101,0.08071867,3.7777884,9.4489155,34.559837,72.16115,11.432556,86.562096,87.40539,87.27847,85.73372,61.542057,0.7,-86.3049,-32.03764,0.002025552,-407.58945,-9.739252,-8.906428,-9.659385,-8.846486,1.233241e-06,0.3,-28.974277,60.32107,60.49662,60.19276,60.468395,0.72968996,0.48593748,5.7692484855651855,11.484848046302796
16,160000,54.615196278158166,-62.339413,0.063051,-1.1425427,3.3921943,6.2268596,36.389652,84.104706,12.531795,85.79881,85.94111,85.69268,85.861244,45.76169,0.7,-87.12822,-30.574358,0.0029194357,-819.2259,-7.016004,-7.354728,-7.373895,-8.029941,2.8784154e-06,0.3,-27.06257,61.890137,61.93373,61.43245,61.886116,0.5968764,0.396875,5.8117218017578125,12.168927884101867
17,170000,55.1983227302041,-61.902256,0.062377483,-0.85787565,2.7918563,5.355048,39.829662,45.036976,15.610233,87.7436,88.56321,87.54075,87.606064,14.032774,0.7,-88.11081,-31.382301,0.0013747812,-231.34062,-7.279871,-6.266135,-9.374791,-8.005082,2.8666136e-07,0.3,-19.404116,61.461082,61.43622,61.06198,61.190975,0.44635344,0.4578125,5.776604890823364,12.849603521823884
18,180000,55.75752490395837,-60.817352,0.063009135,-0.35765892,3.3813205,5.4814086,30.767403,82.344536,11.204077,87.243355,87.964966,86.66654,87.40483,18.839298,0.7,-87.4788,-38.016644,0.0008559336,-678.6475,-7.8825,-7.3347206,-7.162254,-7.085863,1.5980746e-06,0.3,-26.367672,60.226685,60.176006,59.765205,60.036503,0.5805586,0.43124998,5.725874423980713,13.522488085428874
19,190000,53.78483324359679,-61.308712,0.06441098,-1.0923394,2.597599,1.3153028,41.608944,73.59769,11.517266,87.95075,87.91562,88.51883,87.36171,9.319266,0.7,-87.58521,-30.58882,0.0017665657,-289.37347,-1.6188419,-1.6239967,-1.9472321,-1.8174642,1.2008276e-06,0.3,-23.642014,60.662426,60.69628,60.75114,60.51027,0.5005918,0.4921875,6.16681170463562,14.209456451733907
20,200000,55.123884953532276,-64.76785,0.06304292,0.023305118,3.758255,3.8105202,48.595875,75.7504,11.1241,86.803734,86.73341,86.7051,85.62301,7.146647,0.7,-86.25376,-30.801657,0.0029752085,-397.2172,-5.3250675,-5.7138834,-7.675756,-7.753761,1.0925829e-05,0.3,-26.82894,64.147224,64.12305,63.704323,64.003494,0.46124873,0.4828125,5.836992263793945,14.891355582078297
21,210000,54.380645424343435,-63.635334,0.062773995,0.37892514,4.2739177,4.5453444,49.90821,136.17441,10.8350525,87.42714,87.09894,87.093216,88.04252,70.865585,0.7,-86.67912,-29.889465,0.0025380324,-553.2386,-5.1273923,-5.164027,-6.5840244,-7.4250703,1.8127163e-05,0.3,-33.115623,63.055588,63.244156,62.645653,62.756702,0.7946648,0.471875,6.146715879440308,15.573454320430756
22,220000,54.12541761240187,-60.26745,0.06272869,-0.82422817,3.4026115,6.010347,55.474854,266.0667,9.197905,88.12723,88.17649,89.31913,87.7219,14.112176,0.7,-89.22555,-34.526756,0.0001508575,-776.53235,-7.0360136,-6.6698675,-8.7051,-6.616653,2.7939677e-06,0.3,-36.20516,59.615913,59.683983,59.55523,59.74691,0.48838,0.434375,5.7124714851379395,16.256990333398182
23,230000,53.58340354696672,-61.148495,0.06405003,-0.023797825,3.9684925,5.741515,53.771423,255.5928,12.388632,88.96377,88.86203,87.76134,87.45872,26.106312,0.7,-88.01926,-30.51405,0.0036621655,-405.3566,-6.238309,-5.506545,-6.3248477,-5.5792665,1.2657922e-06,0.3,-31.763805,60.530666,60.570297,60.37222,60.49404,0.66810405,0.40625,5.8285746574401855,16.941279709339142
24,240000,54.45131140922149,-59.96125,0.06414377,-0.46016824,3.1568885,6.3955336,27.720882,158.72879,9.434219,86.2691,86.738144,86.49683,86.621376,7.090566,0.7,-85.82438,-29.5266,0.0008418832,-817.6331,-6.858335,-7.0676823,-5.8752193,-6.8862114,6.154346e-05,0.3,-33.99525,59.26696,59.31456,59.478733,59.665833,0.43254825,0.453125,5.839138984680176,17.623850075403848
25,250000,54.118389844723666,-60.42768,0.06496563,0.64428383,2.6080608,4.2421594,42.88259,53.17616,12.401442,86.77415,86.742035,87.07344,87.14141,3.824875,0.7,-86.59297,-29.459532,0.001080386,-1077.3198,-3.996531,-5.345537,-4.7644734,-4.670337,5.2823456e-08,0.3,-33.961124,59.90908,59.778996,60.196896,60.106117,0.33506316,0.45,5.753454685211182,18.307179272174835
26,260000,55.644496673591405,-59.872276,0.06249313,0.018102795,4.723093,4.737697,29.945164,218.06708,12.398156,86.66826,86.68034,85.84123,86.460556,35.082306,0.7,-87.34921,-31.314417,0.009093518,-641.14026,-5.6199226,-5.4518795,-5.3317227,-6.6662827,2.739718e-07,0.3,-38.303093,59.400524,59.35467,58.865765,59.0704,0.50610864,0.46093747,5.63303542137146,18.988690463701882
27,270000,54.10758770212078,-61.008553,0.06270414,0.8104556,3.3430343,5.7082453,34.908447,278.02667,11.851166,88.33849,88.21209,88.25841,88.30003,18.26364,0.7,-87.476204,-30.2817,0.0011654228,-811.41766,-13.520002,-15.7096,-12.94518,-9.473433,3.6032532e-07,0.3,-36.436543,60.30781,60.202984,60.192635,60.406593,0.7359112,0.4375,5.746105670928955,19.668266252676645
28,280000,56.022458656881625,-64.07356,0.062376592,0.65180206,5.302859,5.5544868,49.845776,264.03763,10.57043,87.84136,87.753,87.22644,87.252174,39.027393,0.7,-87.25621,-32.292637,0.0025282097,-677.84534,-6.4662967,-5.4419403,-5.916977,-5.531895,1.6942358e-05,0.3,-32.913593,63.258278,63.315,62.603508,63.04766,0.7946805,0.47031248,5.778855562210083,20.34855699936549
29,290000,54.03640477628555,-62.66118,0.063432515,-0.20000246,2.2418647,6.210398,53.06469,41.63285,14.940751,87.3658,87.18025,87.38151,87.20253,6.717814,0.7,-87.154785,-31.346247,0.0031407108,-1027.5016,-7.0429096,-7.1505237,-7.656289,-7.1758747,1.0913936e-08,0.3,-39.079475,62.104088,62.02475,61.700626,61.656166,0.40479928,0.484375,5.74976921081543,21.02792447010676
30,300000,53.73796060411718,-63.48576,0.06313258,0.031195074,2.46911,4.3722715,32.23316,35.07435,12.985677,86.22415,86.313354,87.34514,87.31984,10.447748,0.7,-85.95855,-36.78371,0.0013509104,-766.885,-5.7429223,-5.5368342,-5.866799,-5.8289447,4.120334e-06,0.3,-32.815125,63.10398,63.064846,63.53029,63.35985,0.5032723,0.39999998,5.683257341384888,21.71028815905253
31,310000,54.60399863504932,-63.131207,0.06262264,1.1388667,3.5450997,2.780223,49.166553,166.61542,11.503564,87.63133,87.251724,86.95285,86.7714,21.189163,0.7,-86.45992,-30.914125,0.0008362875,-584.8344,-6.2094874,-5.5246277,-5.8293314,-7.22423,2.6153111e-06,0.3,-37.483154,62.53878,62.383846,62.48009,62.299664,0.6417453,0.46249998,5.641639709472656,22.382851533095042
32,320000,53.64889652681741,-65.6738,0.063349046,0.22344846,3.7356305,5.9843297,37.252758,188.50145,10.77228,87.06196,86.27828,86.94123,85.96324,48.371746,0.7,-86.928566,-37.748104,0.0029116077,-1034.654,-7.0167775,-8.01557,-6.429404,-6.7403355,7.0549436e-07,0.3,-38.62041,64.68054,64.73378,64.9664,65.01124,0.63990974,0.465625,6.088881015777588,23.07114879290263
33,330000,55.035544946480506,-60.35233,0.06371895,-1.0312552,4.240331,3.436302,35.168327,222.81796,12.373838,87.42335,87.43782,87.14816,87.78182,14.076368,0.7,-86.95836,-33.009743,0.003309468,-379.71152,-4.468709,-5.13777,-7.7246833,-8.001988,1.5652738e-06,0.3,-36.901524,59.600098,59.61338,60.06279,60.048603,0.48316455,0.45,5.696286678314209,23.748113004366555
34,340000,54.734927104983925,-59.86855,0.06310075,-0.36950392,2.9733605,5.78974,27.764519,126.8731,13.83661,84.76935,85.23651,85.29617,85.1654,18.758356,0.7,-84.73504,-36.574078,0.0036877845,-743.4613,-6.6694055,-6.1795106,-6.3244696,-7.0613384,5.593126e-06,0.3,-49.7641,58.87634,59.031853,59.14445,59.294563,0.5857152,0.47343752,5.722353935241699,24.426441236337027
35,350000,54.18553173677238,-61.27765,0.063508585,-0.29614356,2.560657,4.487521,33.175716,43.500134,13.245347,86.24144,85.54962,87.85823,86.50491,33.509197,0.7,-85.648865,-31.708838,0.0027142398,-1096.2189,-5.589474,-5.893915,-6.290462,-6.84458,1.9620639e-07,0.3,-34.555973,60.73202,60.807587,61.021576,60.840202,0.5828397,0.471875,5.66333532333374,25.107311364014944
36,360000,53.84146846377488,-62.710106,0.062335007,0.78513014,3.248083,5.946455,40.49848,177.05533,11.260103,87.71132,87.85994,88.369774,87.533745,13.672304,0.7,-88.37784,-35.038857,0.0040044147,-958.5513,-6.0753527,-6.1227856,-6.8040953,-6.644606,4.8778716e-06,0.3,-42.863518,62.041622,62.01807,61.960487,61.736702,0.5431201,0.4875,5.675328016281128,25.785578274726866
37,370000,54.661966163390275,-61.343,0.06355178,-1.2665496,2.7946653,2.6264043,30.075428,47.76938,16.349224,86.184845,86.34894,85.72439,85.83905,18.739954,0.7,-86.12287,-31.068247,0.0018516844,-510.44128,-5.103866,-4.5653605,-5.3257546,-4.4225097,4.449153e-06,0.3,-31.800627,60.73893,60.736942,60.60228,60.749897,0.60495687,0.4109375,5.69008994102478,26.465018490950268
38,380000,55.12714035874401,-59.716484,0.06356937,-0.68772995,2.2139537,4.286373,49.895588,29.370922,12.8362055,85.05683,85.35585,85.52161,85.76868,9.45228,0.7,-84.89936,-32.81743,0.0015669927,-518.5389,-4.8132725,-5.208002,-6.080876,-4.877468,2.7121744e-06,0.3,-46.06086,59.158203,59.066105,59.034264,59.09221,0.46700937,0.434375,6.239563703536987,27.15376233259837
39,390000,53.99691968566249,-59.95251,0.063632324,-1.6252275,2.8599074,4.83832,29.553036,67.42467,10.959637,85.323814,84.89938,85.589714,84.78898,7.5946593,0.7,-85.04469,-30.805576,0.004278599,-1043.219,-5.3779554,-5.29071,-4.2121806,-4.975046,8.556526e-08,0.3,-32.121124,59.525604,59.574562,59.44066,59.544968,0.33108187,0.45,6.104215621948242,27.835202554861706
40,400000,55.0249695191268,-60.51718,0.06382003,-0.4926239,2.6242998,5.1591325,62.34175,48.177567,9.631749,85.87548,87.218796,84.99984,85.14841,26.673803,0.7,-86.272606,-30.949144,0.00015524079,-846.9153,-7.310736,-6.7905207,-4.6948533,-5.4355216,3.0510828e-06,0.3,-49.088776,59.530834,59.671135,59.40425,59.722534,0.7843301,0.48125,6.145080089569092,28.519593997796377
41,410000,54.66434667575116,-61.425415,0.06412261,-0.97453976,2.5979495,3.7402687,41.673897,55.763363,10.9045515,86.32361,85.99092,86.23992,86.405846,6.3117013,0.7,-86.20868,-34.985264,0.0041760863,-822.77216,-3.9893935,-4.138162,-2.604021,-2.2264693,7.9429214e-05,0.3,-42.959064,60.82619,60.684235,60.914402,61.016617,0.4612403,0.44687498,6.363458871841431,29.207659896214803
42,420000,54.49781314373724,-63.177948,0.062574014,-0.7314843,2.497889,3.7473772,41.68086,47.990692,11.666074,86.297806,86.2374,86.51155,86.722206,24.837265,0.7,-86.27292,-31.59792,0.0048551513,-2112.0515,-4.55712,-4.8012285,-4.9877872,-3.974735,3.4595316e-05,0.3,-48.37828,62.418293,62.57721,62.54135,62.557472,0.62542003,0.440625,5.790116786956787,29.884615969657897
43,430000,54.56647002648055,-63.647427,0.0635386,-0.15274954,2.9170904,4.507094,30.525764,43.601803,11.332719,86.40336,86.17008,85.33557,85.75241,38.37445,0.7,-86.22304,-30.879187,0.0044786767,-730.8785,-5.4161906,-5.4950404,-5.8346586,-4.8719215,7.5476266e-05,0.3,-39.81114,63.05709,63.052505,62.642906,62.591125,0.6217178,0.51875,5.8780035972595215,30.56097926298777
44,440000,55.8619944259458,-63.247005,0.06416512,0.50220674,2.1105719,6.007516,45.18366,50.361496,12.973142,86.38977,86.20128,87.04469,86.6592,36.152763,0.7,-86.40926,-31.523943,0.00047766,-1624.7903,-6.1434608,-7.133038,-5.8263383,-5.6134877,9.561656e-07,0.3,-61.26901,62.39945,62.481575,62.427116,62.44499,0.58564913,0.4953125,5.907362461090088,31.239816761016847
45,450000,56.069060158569364,-66.53726,0.06357702,1.9478755,2.256194,3.3783798,44.767105,44.12787,11.891662,86.75074,86.98582,86.65893,87.67062,7.0105205,0.7,-86.643166,-30.90136,0.00088084873,-1831.3641,-3.7669375,-4.13591,-3.2927163,-3.3084583,6.67572e-07,0.3,-39.13335,65.94631,66.01543,66.36144,66.46887,0.3422207,0.4171875,5.82520055770874,31.918368192513785
46,460000,56.320486981389664,-62.269928,0.063425526,-0.92593193,2.823514,2.5384793,38.72306,128.65297,9.953258,85.405266,85.253944,85.20624,85.122345,8.457533,0.7,-84.726654,-30.531551,0.0012039749,-1123.3059,-3.491582,-3.7186139,-4.7911663,-4.2332892,6.583217e-06,0.3,-44.368843,61.56569,61.637787,61.38107,61.508266,0.47881573,0.42812496,5.869593620300293,32.59767716725667
47,470000,53.641705389158936,-61.135643,0.06462194,0.7803096,2.783885,5.3105574,39.975834,90.73914,13.014414,86.74088,86.588066,86.90583,86.41001,22.337526,0.7,-86.911385,-32.871334,0.008375651,-610.04364,-4.8641143,-4.4030313,-5.4939356,-5.33034,1.889611e-05,0.3,-44.048706,60.38868,60.31369,60.3177,60.543476,0.61911273,0.41562498,6.110644340515137,33.27754066785177
48,480000,55.43325678872514,-62.52568,0.064634144,0.23558447,3.1375637,4.0534577,45.48128,156.88559,13.229994,85.05528,85.9777,85.54533,84.8355,8.116642,0.7,-84.55558,-30.945797,0.003890818,-641.5005,-2.9696276,-4.5423675,-4.505659,-4.587153,1.6458042e-06,0.3,-41.10582,62.000565,61.909584,61.752975,61.57769,0.5344018,0.53593755,5.789947271347046,33.950836924711865
49,490000,56.8294499006898,-59.769234,0.06402544,-1.0989404,3.3569698,3.3093958,50.204613,84.67232,12.326076,87.02553,87.54503,86.43766,87.61308,6.6414037,0.7,-86.37169,-29.219038,0.00043006934,-2625.442,-3.913063,-4.52969,-4.0838733,-4.9584594,1.7321016e-05,0.3,-52.071163,58.898895,58.832207,59.056988,59.009727,0.49253532,0.4578125,5.6251232624053955,34.62282577753067
50,500000,55.299969311408894,-58.26268,0.06456272,-1.428337,1.9086504,3.5678735,37.34896,27.74133,9.544864,86.20282,86.63921,85.92043,86.46546,6.8202915,0.7,-86.550186,-32.069874,0.00045785226,-705.66644,-4.6020975,-3.7615712,-5.6757784,-5.8614054,2.410403e-07,0.3,-46.70232,57.46113,57.543938,57.303547,57.110203,0.51907605,0.51093745,5.668158769607544,35.29977818727493
51,510000,56.88494511637311,-57.660965,0.06439585,-0.56554705,3.4864454,2.913162,39.66595,113.73233,11.8646965,84.397194,85.0465,85.25399,84.2534,17.48633,0.7,-84.29939,-31.472168,0.000750931,-1097.8906,-6.304268,-5.296247,-5.300171,-4.571435,2.1554296e-08,0.3,-52.646744,56.87899,56.81665,57.074677,57.093037,0.58690137,0.43281248,5.7292444705963135,35.97419389088949
52,520000,54.3654465247267,-63.12445,0.06444542,-0.5003073,3.9825711,-0.31102183,49.721436,56.55442,11.178949,86.90348,87.39851,86.37944,86.0483,23.750912,0.7,-86.5886,-31.332277,0.0092959795,-1226.3383,-0.6623455,-1.7780911,-4.244355,-3.7366402,6.9919064e-05,0.3,-50.59487,61.981064,61.81956,61.315315,61.832676,0.6761876,0.44843748,5.689537286758423,36.65071736574173
53,530000,53.917051639521304,-61.007072,0.06424002,-2.1906543,2.2309198,2.1292999,56.088127,40.380795,13.718629,85.94359,86.02361,84.94249,84.985634,10.369883,0.7,-85.59805,-32.506786,8.179386e-05,-1126.2803,-5.5063305,-4.476044,-3.9101179,-4.6190886,7.6040624e-06,0.3,-36.654327,60.361412,60.431995,60.34079,60.33929,0.4445398,0.4453125,5.675830841064453,37.33014532327652
54,540000,55.02179651103957,-60.290684,0.06443588,-0.08948952,2.77538,5.1266065,38.739895,115.573364,10.840632,85.17176,85.52121,86.18443,85.94399,24.876507,0.7,-85.435745,-30.00472,0.006890291,-1539.1786,-4.0116386,-6.200524,-4.2058544,-4.189339,8.9022105e-06,0.3,-60.89673,59.55154,59.478493,59.595436,59.528652,0.57249606,0.496875,5.682957887649536,38.00728075106939
55,550000,54.628775115948315,-60.17099,0.065344036,-0.79595137,3.7603595,0.16170025,42.611015,184.35559,12.700693,84.83515,86.26897,85.949356,85.40295,44.788628,0.7,-84.33095,-29.047707,0.013358528,-1016.3179,-1.8498806,-1.3775933,-3.7719631,-3.0981731,1.8025563e-05,0.3,-41.30733,59.44435,59.209846,59.351814,59.499508,0.63698655,0.4375,5.747456789016724,38.67972060044607
56,560000,54.44099731922084,-60.803017,0.064915664,0.29472196,3.2015908,5.027347,46.929626,115.44197,8.315533,86.048195,86.278786,85.96212,85.31713,17.019272,0.7,-86.16111,-31.191563,0.00033117947,-1684.6207,-4.525552,-5.7532673,-3.4733818,-4.6826596,7.5835446e-06,0.3,-62.380432,59.87563,59.86659,59.966263,59.85781,0.48927912,0.4421875,5.599665641784668,39.3379940311114
57,570000,55.07601940104125,-59.58086,0.064748585,-1.6778693,2.3357525,1.9027475,36.329372,31.390152,10.220013,85.98602,87.717865,86.74733,86.91091,13.82073,0.7,-86.734695,-30.237162,0.0072866636,-613.02136,-4.1541104,-3.2237387,-2.808816,-2.004253,1.5707546e-05,0.3,-45.00406,58.8012,58.932663,59.17644,59.20442,0.44924954,0.45312497,5.88149619102478,39.99816110928853
58,580000,55.458273490413845,-61.584373,0.0645311,-0.43524075,2.6486254,2.6281464,43.239357,121.95997,11.756948,85.89509,85.35533,85.418,85.78763,16.394947,0.7,-85.49745,-34.059597,0.010570344,-1034.0087,-3.456031,-3.8641663,-4.728545,-3.6966975,1.2915116e-07,0.3,-47.951042,60.92334,60.89067,60.527225,60.72457,0.41010618,0.47031248,5.640580177307129,40.66704049905141
59,590000,53.23858578790254,-61.517166,0.06512777,-0.8245598,2.3176908,2.8456833,36.848763,55.71368,10.692332,86.10907,85.38826,85.64724,86.393745,23.343596,0.7,-86.38918,-29.270126,0.0018477533,-845.65076,-3.4151645,-4.423205,-4.800478,-4.435264,1.2159002e-06,0.3,-58.928288,60.611988,60.463203,60.635384,60.821823,0.55100554,0.440625,5.7178122997283936,41.34492587248484
60,600000,54.23151285852753,-64.40869,0.06525945,0.51827955,2.4366593,0.82807577,28.531555,56.065002,15.42203,85.8828,85.85827,86.15425,85.93706,8.659919,0.7,-85.14902,-29.832521,0.00072120747,-5116.471,-3.5414035,-3.9196296,-3.9777894,-3.8778057,4.1413588e-07,0.3,-70.98455,63.779778,63.749763,63.83664,63.95765,0.46520683,0.434375,6.047783136367798,42.029623528321586
61,610000,53.76876383369772,-64.31268,0.06583145,-0.24569923,2.6087656,-0.12530673,24.545547,23.103615,10.554472,86.3443,86.12448,85.91658,86.62812,11.434847,0.7,-85.57862,-33.271324,0.00036315806,-1139.3043,-2.9779654,-3.531073,-1.075554,-2.875269,2.4157924e-07,0.3,-42.807327,63.750366,63.73985,63.958206,63.6904,0.53968585,0.4734375,6.090226888656616,42.707972689469656
62,620000,55.44172032224214,-57.83396,0.065302,-0.67887723,2.7264934,1.3524789,36.974392,38.08727,12.208087,86.25153,86.20784,86.07839,85.47483,9.61988,0.7,-85.01305,-39.91407,5.8688714e-05,-1680.2756,-3.4621265,-3.2718372,-4.7864,-4.020922,2.1129382e-07,0.3,-50.52271,57.070374,57.136032,57.013157,57.099148,0.5515492,0.4140625,5.711970806121826,43.38320279121399
63,630000,54.29963277490694,-60.31514,0.06539097,0.4445209,2.3923466,6.6895556,58.525436,22.31328,11.814953,85.8271,85.33049,85.745674,85.56522,6.3486066,0.7,-84.9461,-32.154335,0.022727855,-3148.6577,-2.9158077,-2.5943847,-1.4537427,-3.2497456,9.584328e-06,0.3,-75.64015,59.66809,59.69333,59.896404,60.184814,0.540284,0.371875,5.668774604797363,44.056715035438536
64,640000,54.153460785502894,-60.539787,0.06596037,-0.14416271,2.5558352,1.0367656,30.969769,63.068035,14.576541,85.86526,85.24832,86.14102,85.08629,10.765476,0.7,-85.78771,-30.107727,0.0024047266,-1134.9998,-2.9385028,-2.2275841,-3.72318,-2.4649425,9.789073e-07,0.3,-54.918907,59.9061,60.00183,59.89199,59.815914,0.4656322,0.47031248,5.739530324935913,44.73384267091751
65,650000,53.22178749958666,-63.032444,0.0656064,0.101062715,2.7934194,3.4294372,68.703094,50.317772,12.669771,85.81266,85.96757,84.857285,85.283424,16.197107,0.7,-86.04768,-30.537466,0.0060113436,-812.60254,-2.8190596,-3.2815032,-2.096066,-3.5992146,6.5846134e-06,0.3,-46.778896,62.324226,62.391468,62.509563,62.296436,0.5692054,0.45937502,5.7054853439331055,45.413816797733304
66,660000,54.012556418486454,-61.417084,0.06604176,-0.27657402,3.3733068,4.6161227,32.187225,30.688004,11.917913,84.34661,84.75693,84.980446,85.71895,32.306465,0.7,-85.19662,-31.030582,0.00697452,-1243.3098,-6.8132896,-5.3740377,-3.8191864,-4.4892235,3.0150335e-05,0.3,-65.82918,60.568756,60.68412,60.983162,60.732872,0.7136189,0.46875,5.764719009399414,46.08720322847366
67,670000,53.63076581392831,-62.1348,0.06656173,0.2653051,2.6868553,1.861007,37.335567,48.94458,13.106052,85.52753,85.39989,85.512856,85.604706,46.01722,0.7,-85.23256,-28.868944,0.0073028747,-1116.7518,-4.2701316,-3.4955475,-3.0819025,-4.2480907,5.4707635e-07,0.3,-57.419994,61.2698,61.19771,61.422752,61.339222,0.92540836,0.4453125,5.60327672958374,46.75936099688212
68,680000,53.9633282288818,-64.32034,0.06540042,1.2292945,2.6482215,1.0541339,48.245834,42.50141,11.57269,84.36538,83.59587,84.06185,84.264244,7.126322,0.7,-84.04665,-33.085125,0.004967237,-738.184,-2.1193464,-2.7475984,-2.5192947,-3.4951663,4.4357034e-06,0.3,-57.450314,63.49328,63.396393,63.65854,63.529404,0.43890974,0.49218747,5.692886590957642,47.437809125582376
69,690000,54.43457255750776,-60.35065,0.06597277,1.257303,2.7419987,2.971858,43.058014,31.963573,10.03653,86.07454,85.252914,86.8565,86.548294,19.462475,0.7,-86.66576,-30.592382,0.0016211537,-4664.313,-2.524568,-3.3386388,-3.694274,-2.9273138,1.0142278e-06,0.3,-92.217224,59.43392,59.501236,59.346474,59.47524,0.6301688,0.446875,5.707195997238159,48.116580438613894
70,700000,54.20079853152182,-60.105217,0.06590831,-0.77838236,2.710246,2.5432377,39.099087,50.915215,11.685736,84.55459,85.104355,85.58881,85.123474,26.845852,0.7,-85.48533,-32.26005,0.00068540615,-1306.6516,-2.5435114,-2.3313656,-3.0167685,-2.4088807,1.6387959e-09,0.3,-51.911713,59.308533,59.374832,59.64177,59.659866,0.47535664,0.46249998,5.723619699478149,48.796717623869576
71,710000,53.77587840954875,-60.50965,0.06770878,-0.41017324,2.2662601,2.535109,30.676794,46.784992,10.996105,86.02078,86.26036,86.59755,85.49752,4.3068037,0.7,-85.49738,-34.220234,0.0006174979,-1128.9135,-4.0519657,-4.7201223,-3.1911945,-2.8690064,6.631789e-08,0.3,-53.62566,60.1147,59.931934,60.106964,59.865456,0.43947113,0.52812505,5.774354696273804,49.477304474512735
72,720000,54.33764311884601,-60.477165,0.06642975,1.0865053,2.2160113,3.609447,41.659336,23.667366,13.603844,85.48337,85.669205,86.526764,85.138214,14.262656,0.7,-84.57348,-31.303276,0.0016532913,-1667.9678,-2.962389,-3.9562562,-3.7923036,-3.169457,1.7880574e-06,0.3,-66.79756,59.803844,59.71319,59.75958,59.801773,0.6034241,0.471875,5.701254606246948,50.15177262624105
73,730000,53.50409742978888,-59.532616,0.065727614,-1.2464786,2.3134172,0.59965575,35.820625,32.384876,12.20961,84.78196,84.352715,85.06751,84.29523,6.2925677,0.7,-84.382706,-33.85378,0.0022418646,-1132.7932,-2.8932123,-0.66728187,-3.0856104,-3.8049424,1.9541883e-06,0.3,-51.916325,58.76802,58.69312,58.46563,58.493046,0.47837362,0.4734375,5.668243646621704,50.82417644262314
74,740000,53.02979320633536,-61.431313,0.064830676,1.0773206,3.5229816,3.0257251,67.621826,141.75227,10.242461,86.32873,85.36632,85.32364,85.88291,11.23035,0.7,-85.69418,-31.270876,0.0025025713,-1890.0409,-4.9790416,-2.2071967,-3.8348477,-5.561541,9.280182e-06,0.3,-63.296734,60.641743,60.72573,60.799866,60.6873,0.48651865,0.44687498,5.646393299102783,51.50481710831324
75,750000,54.26881709013198,-62.60448,0.0663923,-0.18771398,2.469035,5.118121,36.08787,35.53752,11.579263,83.395874,83.690315,83.53898,83.434586,16.825281,0.7,-83.25752,-31.856434,0.0015003914,-1489.384,-4.007942,-4.414654,-4.3077993,-3.6196594,5.8527044e-06,0.3,-56.034256,61.808125,61.896805,61.949142,61.75106,0.4542634,0.46718746,5.776127815246582,52.181216653188066
76,760000,53.38018062652037,-59.157745,0.065701544,-1.3490194,2.397777,2.6705742,38.023907,42.098137,11.755496,86.63122,85.11603,86.67354,84.27215,109.81703,0.7,-85.02383,-31.85575,0.0047477805,-1175.9442,-3.3494358,-3.876925,-2.0252903,-2.7676704,8.122134e-06,0.3,-57.896694,58.27504,58.19809,58.405197,58.310272,0.9816342,0.4765625,5.780819416046143,52.859935732682544
77,770000,54.20684715235201,-64.94148,0.066791296,0.4270302,2.679779,1.267926,46.877846,69.530365,14.5802,85.856705,86.24263,86.01983,86.09847,87.851524,0.7,-85.21423,-30.171694,0.0006696454,-661.4024,-2.7377,-1.4213194,-3.0715427,-2.1870031,1.3690443e-08,0.3,-50.260857,64.15277,64.21615,64.19589,64.28566,0.8003072,0.44687498,5.772485017776489,53.539792001247406
78,780000,54.06897069466504,-61.447464,0.066738054,-0.4629407,2.1132324,2.006062,70.21843,46.13956,12.194984,88.02667,87.417656,87.50697,87.397064,12.173354,0.7,-86.616325,-32.825794,0.009991977,-863.7992,-3.1148596,-3.2159147,-2.4319239,-2.753486,5.1660464e-07,0.3,-57.120323,60.600983,60.635696,60.61222,60.765205,0.5398989,0.4109375,5.768517017364502,54.22046425739924
79,790000,53.430137073181946,-61.490356,0.06641089,-0.3485259,3.6694636,3.6580822,53.133446,419.3363,13.161098,85.568886,86.370316,86.02575,86.556435,8.794825,0.7,-84.37486,-30.33044,0.0011835296,-856.80225,-4.145748,-4.7907705,-4.2005525,-4.195585,1.8250562e-06,0.3,-56.06434,60.551205,60.630005,60.71759,60.775307,0.41796055,0.4171875,5.651130437850952,54.89896663029989
80,800000,53.76599861485432,-60.070717,0.06605196,-1.2946521,1.8511338,1.1323595,38.903564,17.477484,12.534527,86.52891,86.057144,87.32067,86.74279,48.952602,0.7,-86.214264,-30.500788,0.0010048011,-1202.7595,-3.7437563,-2.4618084,-4.646319,-4.607679,5.482696e-07,0.3,-57.926926,59.33598,59.28735,59.297447,59.18845,0.5328988,0.459375,5.674572706222534,55.581182265281676
81,810000,53.48245372854885,-60.0261,0.066295765,0.5257548,3.3616629,3.033507,56.475193,78.94974,12.8986225,85.83041,85.99569,85.2636,86.58152,31.900734,0.7,-86.204506,-29.95055,0.0029362128,-1355.0659,-3.8153386,-4.4976215,-2.3797462,-3.055598,1.226527e-06,0.3,-68.32034,59.02378,58.899227,59.51037,59.365284,0.64591825,0.48125,5.728436231613159,56.261603744824725
82,820000,53.82637824608408,-59.319416,0.06520186,-0.9311943,3.242676,2.3752227,38.705566,202.15213,10.254196,84.826805,85.337135,85.30202,85.56542,47.154854,0.7,-85.28196,-31.723204,0.0064497245,-497.8503,-4.71917,-4.5382833,-4.6224017,-3.5550075,2.7939678e-10,0.3,-44.123543,58.78469,58.741325,59.17329,59.185486,0.7113594,0.40937495,5.663397550582886,56.93671905597051
83,830000,53.72686202400702,-61.38092,0.06670552,0.6231652,2.7564874,2.9932227,38.857433,37.98716,12.74394,84.92813,84.8191,85.8755,84.63424,45.082,0.7,-84.665985,-30.356676,0.002437318,-2416.8318,-4.105602,-4.3589272,-3.0211205,-2.8924947,4.577637e-06,0.3,-64.73999,60.499367,60.54053,60.543327,60.7931,0.69440556,0.40781248,5.718682289123535,57.61923062801361
84,840000,53.85556509003253,-60.035355,0.06736911,0.28568727,2.5406141,-0.5959662,44.675392,46.733223,8.968157,83.804886,83.390656,84.33746,83.88143,13.725308,0.7,-83.756195,-30.914999,0.014355551,-1672.3606,-1.9932772,-3.226782,-1.3188224,-2.463953,3.229827e-07,0.3,-55.563087,59.303448,59.278214,59.0881,59.332832,0.5482503,0.45,5.7751429080963135,58.29384791056315
85,850000,52.84596969082935,-60.310036,0.06725069,-0.78477204,2.3160422,0.17024618,36.291794,29.105116,13.227067,84.82838,86.86449,86.51443,85.72652,11.886632,0.7,-85.49644,-31.788843,0.0020214368,-1508.2446,-3.0940027,-3.7192953,-3.1119144,-3.0414824,2.728484e-07,0.3,-73.6729,59.37489,59.499252,59.515274,59.718323,0.54372823,0.41718748,5.797668218612671,58.97266730070114
86,860000,53.560353334154264,-60.842007,0.06626562,-0.1950571,3.5176463,2.0526595,44.728043,156.81435,9.407442,85.440926,86.532875,85.569244,85.07517,58.945026,0.7,-85.6397,-32.426273,0.010733575,-3627.493,-3.0240395,-3.0988936,-2.0118184,-1.4166036,4.226994e-06,0.3,-74.62631,59.927826,60.044395,59.661335,59.680206,0.6783236,0.50625,5.729148864746094,59.65742824872335
87,870000,53.51134753171418,-60.830574,0.067009434,-0.31122598,3.3320332,4.475088,29.294275,49.25341,9.500939,84.513954,84.918106,84.37975,85.329544,11.034791,0.7,-83.8508,-29.97776,0.008104682,-1356.6655,-4.7140427,-5.5756364,-3.25688,-4.5556865,2.229761e-07,0.3,-69.27806,59.89234,60.150986,60.483536,60.645836,0.44169176,0.403125,5.67309832572937,60.333641608556114
88,880000,53.600559460143934,-63.60092,0.066332385,0.6873029,2.2128327,0.32432798,35.394516,23.237614,14.791197,85.10541,84.98016,84.86652,84.83788,13.64591,0.7,-84.824295,-29.919674,0.00018723612,-1645.3367,-1.7674875,-1.2686955,-2.6173627,-3.5443764,1.0524572e-06,0.3,-61.84604,62.752247,62.617386,62.38684,62.60606,0.5228311,0.47031248,5.775434255599976,61.014030838012694
89,890000,53.108430741605076,-61.597725,0.06532371,-0.8030445,4.291128,0.66277695,50.095375,433.27515,10.750731,86.782585,86.53601,86.74165,86.783226,78.18561,0.7,-86.66032,-30.526497,0.0014463062,-1110.4691,-2.2328072,-2.482961,-4.348764,-3.5942435,3.5240663e-07,0.3,-53.430855,60.68444,60.651604,60.66928,60.81696,1.0019842,0.4609375,5.777794361114502,61.688743102550504
90,900000,53.18653864563431,-62.45534,0.065550104,1.0931271,2.281994,-1.2568223,48.010715,55.003593,13.321098,86.763435,85.708115,85.53564,85.67449,24.859324,0.7,-85.4682,-28.683176,0.017333128,-2582.3037,-0.6497915,0.12242305,-1.8590679,-0.6658171,5.8743176e-06,0.3,-63.941315,61.807796,61.701294,61.50351,61.470062,0.59821856,0.45937502,6.154328107833862,62.37173509597778
91,910000,53.055268347076655,-60.729637,0.066174395,0.148229,2.4296591,1.9795741,74.750046,96.214745,11.861369,85.52782,85.488335,86.98619,85.93805,27.54541,0.7,-85.227554,-32.430534,0.0056450786,-2672.7563,-2.6341658,-2.478761,-2.045765,-3.9584887,7.591778e-05,0.3,-65.276886,60.05882,59.849644,60.009243,59.812225,0.58901334,0.496875,5.750088214874268,63.05533774693807
92,920000,52.556153715761475,-63.240974,0.06537417,-0.08196003,2.2506614,-0.08777663,34.9194,18.353462,11.617636,85.864204,85.266396,86.75488,85.673775,7.703534,0.7,-85.773285,-31.666492,0.0022395167,-1575.9683,-2.162928,-1.8526995,-2.1628191,-3.5108547,2.263114e-08,0.3,-75.821304,62.64646,62.627968,62.69221,62.62355,0.4063251,0.45,6.142059803009033,63.7407066265742
93,930000,53.17863004944462,-62.985077,0.06674666,1.2644063,2.0153637,0.9206229,46.65768,21.130878,9.009647,86.2064,86.08238,86.172264,85.65823,6.152473,0.7,-85.09019,-29.86595,0.0028325361,-520.24194,-3.334136,-2.3111482,-2.7432172,-2.3604994,5.1297948e-06,0.3,-55.04846,62.36573,62.3786,62.627155,62.346947,0.44021326,0.478125,6.078264951705933,64.42079561154047
94,940000,53.061842471304765,-60.917534,0.065914296,-0.71337295,1.7772318,3.5058122,59.05458,29.673674,11.767801,84.2986,84.389656,84.425186,84.57468,8.840575,0.7,-83.49422,-31.455997,0.002050703,-696.02454,-6.1687284,-5.547133,-4.2909403,-3.217228,7.885695e-06,0.3,-58.313324,60.058876,60.21167,60.20241,60.3016,0.44679642,0.4765625,6.16515588760376,65.10775464375814
95,950000,52.79684967401073,-59.016304,0.06463682,-1.5524125,2.9506629,2.4217103,35.170395,150.43268,8.788269,84.49424,84.4011,84.95873,85.09179,83.37154,0.7,-85.57117,-32.43735,0.0017520512,-798.1633,-3.727206,-4.0355654,-3.652655,-3.1744018,3.7433756e-06,0.3,-54.754337,58.243675,58.24327,58.0491,58.319588,0.7173982,0.45,5.774730920791626,65.78523568709691
96,955000,52.88526498648041,-59.55658,0.0658249,-0.6313084,2.410284,3.8571343,30.412678,21.69812,10.802929,83.50732,83.67645,86.17775,83.58533,6.5725207,0.7,-83.27926,-29.25208,0.005517793,-2176.1565,-4.7491055,-4.44561,-2.429821,-1.7400761,5.1942425e-07,0.3,-82.501854,58.945366,58.978966,59.29619,59.182755,0.38820332,0.434375,6.267756938934326,66.17922874291737
97,960000,52.91134543331546,-62.270584,0.06588008,0.45062682,2.6500719,2.3493028,39.801636,205.26187,11.76262,86.30201,86.58416,87.30745,85.98965,15.045886,0.7,-86.87853,-28.979408,0.00044906052,-1873.2231,-3.0940313,-2.1493587,-4.009928,-2.6896343,8.654595e-06,0.3,-61.241505,61.52099,61.368637,61.486565,61.537796,0.5573132,0.47656247,5.757422685623169,66.56577067772547
98,965000,53.3322854414635,-60.968647,0.06646947,-0.73668456,2.2707314,2.0451477,35.587852,53.44882,11.480197,85.08107,84.07472,84.83698,84.59835,88.65264,0.7,-83.83437,-31.279123,0.0005987373,-1031.4163,-3.704317,-4.5826387,-3.254933,-4.4595757,4.726347e-06,0.3,-51.456886,60.13242,60.085403,60.102318,60.381447,0.88982075,0.4484375,5.752805709838867,66.95214724143347
99,970000,53.06681012660861,-64.75124,0.06759009,0.7553634,2.7975469,0.032384932,33.547096,54.79444,11.540422,84.98059,83.98614,84.42103,84.12922,52.232468,0.7,-84.08561,-29.0006,0.0036145456,-1091.1718,-1.1323049,-1.3989872,-3.0727198,-2.5721862,5.409122e-07,0.3,-49.93741,63.916954,63.852097,63.858322,63.800972,0.9253327,0.5109375,6.043917179107666,67.34042296409606
100,975000,53.14165509847955,-59.306355,0.06660699,-1.1854696,2.638003,1.9626098,53.751118,72.37993,10.468137,83.454735,83.586395,84.65955,83.8149,7.969585,0.7,-84.33089,-34.69403,0.0040938184,-757.221,-3.8497815,-3.7510548,-2.6553915,-2.0848267,6.708317e-07,0.3,-42.631924,58.914314,58.98269,59.0315,59.21966,0.42147303,0.4140625,5.871475696563721,67.72962759335836
101,980000,52.572687430193554,-62.347,0.066599764,-1.0443445,2.4974136,2.099399,43.645714,35.59958,9.734013,84.95939,84.4956,84.97267,85.40856,14.30202,0.7,-84.3877,-32.360863,0.012386473,-718.07574,-4.6714,-4.643608,-3.0800953,-3.5982397,7.722265e-06,0.3,-48.575333,61.622387,61.591194,61.862286,61.574272,0.49302965,0.4734375,5.868447542190552,68.11771415869394
102,985000,53.2144766738465,-61.703674,0.065539695,0.23795408,2.594027,3.1330388,34.02426,51.89837,12.855056,85.67983,85.534004,85.56393,85.67405,12.046451,0.7,-84.82612,-29.902601,0.0043416633,-973.3223,-2.911908,-2.1296182,-2.1702874,-1.9768724,7.764417e-06,0.3,-48.96167,61.341164,61.331223,61.69525,61.599445,0.4667154,0.41562498,5.720248460769653,68.50118770202
103,990000,52.52794506283463,-58.76264,0.06636023,-0.88085353,3.0787446,2.4005017,45.065975,161.48984,12.24404,84.592,84.73472,83.872604,83.98692,6.6265616,0.7,-84.959335,-30.082705,0.0016670753,-1966.6525,-2.6779914,-2.735989,-2.0050569,-2.997635,1.6532065e-05,0.3,-64.787224,57.963753,58.027184,57.67238,57.64096,0.424105,0.509375,5.7316954135894775,68.88606136242548
104,995000,52.58936982386917,-63.78495,0.0663642,1.7745793,2.3372645,2.265041,44.559177,50.67943,11.758204,85.21329,85.04266,85.46838,85.51322,11.113267,0.7,-84.55425,-28.986334,0.00011034163,-2799.0493,-3.9260306,-3.9414277,-2.8550792,-2.7956622,6.780436e-07,0.3,-60.84022,63.118538,62.991337,63.053604,63.11655,0.40787792,0.44687498,5.999979257583618,69.27498548825582
105,1000000,52.92743139057027,-61.251186,0.064106084,1.3490119,2.6799583,-0.66083896,57.828728,96.87965,12.138609,83.85707,84.10972,84.332565,84.296234,33.322372,0.7,-83.34744,-30.261274,0.00071064057,-1017.1213,-4.877643,-4.1929855,-3.443768,-3.4092808,4.0737623e-06,0.3,-53.729935,60.283577,60.27416,60.355568,60.46768,0.6241374,0.4515625,5.900681257247925,69.66284272273381
