Xixo99/comfo/baselines/comfo6_perterbation_actor/20230225_noise0.01/halfcheetah-medium-replay-v2/COMFO6_s2_20230225_014938_halfcheetah-medium-replay-v2_52.93.csv
,step,reward,actor_loss,alpha,alpha_loss,critic_loss,max_actor_loss,max_alpha_loss,max_critic_loss,max_mle_prob,max_q1,max_q2,max_target_q,max_v,max_value_loss,max_weight,min_actor_loss,min_alpha_loss,min_critic_loss,min_mle_prob,min_q1,min_q2,min_target_q,min_v,min_value_loss,min_weight,mle_prob,q1,q2,target_q,v,value_loss,weight,eval_time,time
0,0,2.254809047129587,,,,,,,,,,,,,,,,,,,,,,,,,,,,,,,,,
1,10000,-2.1253142774887657,-23.541653,0.07359861,-4.138139,1.8598291,4.193081,21.963331,89.27583,10.040093,39.350727,39.147316,39.820107,39.458633,2.226907,0.7,-39.629093,-29.465317,0.000653287,-68.59271,-4.477326,-4.0459037,-4.304956,-4.0532475,2.8571858e-06,0.3,-9.063663,23.218102,23.196356,23.314959,22.96118,0.11026131,0.45,5.719758033752441,1.9983973940213522
2,20000,0.7580032484251408,-37.24472,0.072942615,-1.0055723,4.7716413,10.770942,23.035887,342.33304,12.741236,62.00739,61.816868,62.92323,62.038746,5.0950623,0.7,-61.521687,-32.294598,0.0020492836,-88.26416,-10.423518,-10.794532,-11.384955,-10.973683,2.1759597e-06,0.3,-8.461429,37.096516,36.992928,36.76688,36.801144,0.25578693,0.4640625,5.806208372116089,2.6850922187169393
3,30000,15.441866772039736,-50.498466,0.07659236,1.013803,3.1667743,14.655803,27.28289,62.459267,13.241169,73.933365,73.99524,73.573654,73.18679,8.899402,0.7,-73.48473,-28.482721,0.0008991108,-65.549515,-14.075996,-14.617037,-15.082566,-14.403193,4.4708102e-07,0.3,-5.8693047,50.42492,50.37269,50.238247,49.98635,0.3164841,0.4796875,5.76817774772644,3.379489453633626
4,40000,24.757959409672797,-54.77539,0.07660008,0.46224314,5.3074474,15.853881,21.876797,296.84302,13.528487,78.92156,79.5196,79.60531,79.4282,10.70969,0.7,-77.98004,-27.840471,0.014023989,-114.21831,-15.881978,-16.3148,-17.747387,-17.091928,1.2478267e-06,0.3,-9.932978,54.436157,54.4404,54.53054,54.518646,0.37794232,0.4734375,5.7134130001068115,4.0639934062957765
5,50000,37.1996700556052,-55.95063,0.07654949,0.22566703,4.245274,10.8186455,38.027306,236.39954,18.85237,84.160164,83.807884,85.02761,83.701355,26.0731,0.7,-83.99344,-29.884174,0.008650773,-328.6558,-11.683259,-11.717856,-12.296593,-11.241164,1.8290594e-07,0.3,-11.933649,55.855865,55.811737,56.078484,56.082123,0.38784963,0.4125,5.729314804077148,4.748326937357585
6,60000,46.65393084904688,-59.504795,0.07377077,1.0384078,4.5846653,19.486818,28.761541,112.99698,11.936375,87.50608,86.78409,88.41773,87.42549,7.4829125,0.7,-87.198845,-33.74415,0.018003952,-224.51288,-18.834183,-19.896713,-18.219175,-19.037472,8.169842e-06,0.3,-11.691847,59.327564,59.35585,59.871643,59.786827,0.30805764,0.41875,5.795530557632446,5.441270705064138
7,70000,48.58025938936758,-58.85662,0.07190689,0.8439735,5.1467795,18.142984,37.673115,483.3158,14.016121,87.04402,86.683174,86.485886,86.08624,21.051563,0.7,-85.72319,-30.719204,0.016839271,-317.11942,-18.443789,-17.903433,-17.775135,-17.928741,3.8574218e-08,0.3,-14.380278,58.52041,58.588352,58.7044,58.334633,0.6672374,0.49062496,5.72608757019043,6.129039132595063
8,80000,47.64690230409868,-59.29797,0.070231296,-0.023714364,4.9182124,9.336545,36.607605,429.26428,15.415022,87.88741,87.63376,88.00987,86.73839,11.853892,0.7,-86.79493,-31.419626,0.0023939596,-465.09756,-10.480379,-10.956478,-9.867343,-10.790809,3.0486699e-05,0.3,-18.020493,59.032173,59.016273,58.85233,58.859276,0.48857003,0.5265625,5.711548566818237,6.814110581080119
9,90000,50.86924040119622,-61.336266,0.06819136,0.92524445,5.462191,9.845701,34.658836,312.3047,13.310557,87.44321,86.979996,88.06656,86.90258,9.75508,0.7,-86.250824,-40.086445,0.0034495865,-546.9994,-10.014246,-10.113828,-9.028695,-10.169068,1.12300695e-05,0.3,-19.614048,60.941406,60.97259,61.28989,61.240837,0.43603945,0.4734375,5.699526309967041,7.5009363452593485
10,100000,51.832332768757695,-64.11398,0.06639675,0.4413594,3.2911265,7.7600713,51.00605,65.08061,14.292398,88.82257,88.31667,87.81429,88.192825,4.060805,0.7,-88.5931,-30.481169,0.023698855,-291.76517,-9.761887,-8.80756,-7.574272,-7.8905745,5.955622e-06,0.3,-16.916672,63.816128,63.775955,63.60907,63.459343,0.39832008,0.5171875,5.681924819946289,8.186757131417592
11,110000,52.88488016276439,-59.30919,0.064067625,-1.1278048,2.6836681,7.4758935,25.20065,60.809624,12.361073,87.592445,87.41494,86.85141,86.56709,13.524929,0.7,-86.7118,-33.733433,0.00014359131,-896.38544,-9.292722,-8.534206,-11.44679,-10.840656,7.6065776e-06,0.3,-28.899313,58.72096,58.820824,58.412315,58.3295,0.433559,0.48593748,5.675518274307251,8.872725383440654
12,120000,52.96666568498804,-61.228947,0.06432538,-1.0504415,2.715136,12.35383,40.88893,117.8871,11.181539,88.50265,88.71014,87.92027,87.075096,15.981032,0.7,-87.49399,-31.595684,0.0018086482,-279.9097,-12.589951,-13.026073,-12.619934,-12.654125,9.9836325e-06,0.3,-17.225647,60.80088,60.856514,60.88784,60.97328,0.40001002,0.44843748,5.649500846862793,9.56097601254781
13,130000,53.99886692718173,-60.979095,0.06260059,0.30440485,3.76378,7.5039444,32.21419,101.62362,9.871573,89.042244,88.80727,88.700325,89.621284,8.26919,0.7,-88.77112,-33.382423,0.000107367756,-253.92297,-7.8702,-7.411934,-7.7295065,-8.3027525,8.362066e-06,0.3,-24.770752,60.349792,60.36484,60.450035,60.491383,0.36615843,0.45625,6.108629465103149,10.254043479760488
14,140000,52.72816927705467,-61.512863,0.06285236,-0.73157233,2.4880228,8.793754,35.466404,69.60745,12.979723,88.91591,88.97858,87.855446,88.075134,46.739132,0.7,-88.24932,-32.953346,0.0029425344,-493.50018,-10.178478,-9.967847,-8.1806135,-9.268899,9.154505e-06,0.3,-21.518608,61.10813,61.045643,61.141697,61.037483,0.624318,0.49687502,5.729538917541504,10.935799888769786
15,150000,52.669567051230004,-60.222298,0.06269171,-1.2985703,2.9150033,10.594832,35.961483,44.96442,13.448006,86.78148,88.1864,86.76153,87.39276,8.428253,0.7,-87.31635,-32.16879,0.005527671,-421.52063,-9.970637,-10.886646,-9.138763,-9.940991,1.2915116e-07,0.3,-23.086384,59.749268,59.81979,60.3964,60.202957,0.4033916,0.45624998,5.720319509506226,11.623603669802348
16,160000,52.456410508032455,-61.094444,0.062725246,-0.76716924,2.197943,7.2812004,34.11991,55.33557,11.588216,86.96393,87.534706,88.39867,86.969604,26.294313,0.7,-86.52487,-31.394573,0.00273769,-647.0383,-8.142001,-7.962254,-8.1924515,-8.646321,1.8525753e-07,0.3,-28.234413,60.605392,60.576195,60.733646,60.640972,0.47626773,0.4515625,5.746655225753784,12.304894971847535
17,170000,53.16513680402009,-62.368164,0.06233082,-0.5300102,3.6966069,6.12957,28.035019,192.27434,13.913925,88.792435,88.41842,88.58956,89.250786,29.45778,0.7,-88.130875,-31.628824,0.0037380008,-505.28278,-8.829144,-8.537493,-10.066283,-8.509811,7.126737e-06,0.3,-27.100155,61.796165,61.650757,61.89867,62.092903,0.5425805,0.43906248,5.824787139892578,12.985974311828613
18,180000,52.34856505182434,-62.54701,0.06369816,-0.7249496,4.757578,6.147077,33.417416,376.76956,14.655626,85.82647,86.55602,86.118515,85.9607,17.368113,0.7,-86.07413,-30.338173,0.0011955677,-584.79645,-6.2476773,-6.3921375,-8.162218,-8.685035,1.6093254e-05,0.3,-28.658932,61.98165,62.017036,62.088326,61.91565,0.51604104,0.471875,5.8148133754730225,13.6734366496404
19,190000,49.094082076966615,-62.97335,0.062426552,-0.1496793,4.344941,6.8685594,44.638603,111.71089,13.613637,87.34366,86.84836,88.5783,87.456604,19.350311,0.7,-86.48721,-33.56093,0.002160116,-828.143,-7.172349,-7.572561,-8.515521,-8.798668,4.1585417e-06,0.3,-30.123234,62.39534,62.579395,62.977516,62.853912,0.5895651,0.478125,5.912524938583374,14.365417687098185
20,200000,53.889096012566895,-63.512604,0.06211766,-0.67311794,4.2161884,5.325742,25.08393,125.91437,13.523663,87.50223,87.53133,87.21422,86.34762,10.460916,0.7,-86.98013,-30.820093,0.0049032415,-273.3771,-6.641079,-5.925266,-9.37451,-8.064072,3.5708654e-05,0.3,-27.305958,62.850433,62.897827,62.104168,62.254097,0.4780675,0.48749998,5.818979501724243,15.051148144404094
21,210000,53.77017948014399,-60.457653,0.062484268,-1.0727974,1.6781397,6.459807,32.695694,16.04205,13.79511,87.92988,87.90578,88.30303,88.52115,9.524958,0.7,-87.24422,-33.124516,0.0044036293,-563.5125,-7.9329767,-7.7174616,-7.7436237,-7.499199,1.7462299e-09,0.3,-26.829018,59.993412,60.024162,60.193855,59.828415,0.40553993,0.465625,5.745072603225708,15.735018642743428
22,220000,54.0533724502844,-61.51274,0.06281919,-0.487128,2.854876,6.445523,48.818783,33.687515,10.72044,86.81774,87.71172,87.03341,87.47069,11.409651,0.7,-86.291176,-30.927248,0.0040037353,-457.5508,-7.142741,-8.343689,-7.2037754,-7.0926375,1.889611e-05,0.3,-26.937336,60.962044,61.011112,60.750237,60.56752,0.4635219,0.5171875,5.723942041397095,16.42308303912481
23,230000,53.10984827085458,-63.50079,0.061803598,0.13478911,2.8318458,7.637412,31.127497,76.97346,12.013885,86.484764,86.30269,87.95093,87.821266,6.865527,0.7,-86.34619,-31.85423,0.0014112149,-284.81262,-8.652499,-7.636536,-6.7514043,-7.3409076,2.212025e-06,0.3,-25.977299,63.056606,63.070946,63.365013,63.436447,0.34590146,0.41875,5.726483106613159,17.105460894107818
24,240000,54.16541409919161,-65.21322,0.06254912,1.1318132,4.174762,1.8656393,37.45875,280.48898,11.8382,87.973076,87.8848,87.26156,87.534546,23.514793,0.7,-87.681435,-35.053833,0.0012712451,-774.3386,-1.0283856,-1.1315198,-1.8595777,-1.5192428,7.21977e-06,0.3,-31.128563,64.353775,64.42214,64.095825,64.35635,0.60743064,0.4515625,5.706575393676758,17.79315874973933
25,250000,53.787903611610645,-61.716248,0.061834477,-0.7648695,3.2476292,4.9601626,34.35534,41.651585,11.181425,88.46085,87.52254,87.586044,87.483925,17.497517,0.7,-87.13593,-31.709055,0.001394961,-387.12933,-6.8186126,-6.0365953,-7.0123787,-7.983375,1.2170524e-06,0.3,-30.688042,61.113747,61.203636,60.641026,61.026855,0.4848786,0.4546875,5.988711357116699,18.483404354254404
26,260000,54.26244624133572,-61.387146,0.06293848,0.3480358,2.2862415,4.673593,24.253023,66.86742,12.811348,86.88504,86.413826,86.43,86.32464,14.728926,0.7,-87.3636,-35.05814,0.00969963,-412.5246,-5.3296537,-6.93193,-7.8957806,-6.7246976,1.4685794e-06,0.3,-26.14955,60.71042,60.705418,60.267654,60.60349,0.45453095,0.4453125,5.940003156661987,19.16887296438217
27,270000,54.470816004319886,-59.11108,0.061564587,-0.77313787,2.3682914,7.647475,27.355312,39.320045,11.609733,86.65202,86.144905,85.74077,85.84644,12.766377,0.7,-86.653465,-33.32302,0.004076774,-635.49963,-8.789175,-6.7479925,-7.339268,-7.061739,8.2165926e-08,0.3,-39.927628,58.35982,58.292973,58.278214,58.192207,0.56295455,0.50468755,5.9530720710754395,19.86318648258845
28,280000,53.90558554887694,-59.321426,0.062488064,-0.28646785,3.422068,7.44383,34.762165,129.65857,14.377974,86.385735,86.10818,85.92151,86.268295,21.097672,0.7,-85.987686,-32.17294,0.0016471655,-545.90717,-7.453453,-7.8039823,-7.1035213,-8.276829,1.0064471e-05,0.3,-41.33966,58.499775,58.496273,58.53961,58.53381,0.58470607,0.47031248,5.608302593231201,20.546662175655364
29,290000,52.83192371112624,-63.04757,0.06387853,0.050044477,3.6873581,3.6454444,32.5404,231.11288,11.233671,86.250175,86.171455,86.53129,85.52538,79.525375,0.7,-85.868576,-31.936058,0.0073139593,-633.94916,-5.06158,-5.5032935,-7.336793,-5.6190643,7.5605467e-06,0.3,-33.610897,62.14527,62.287567,61.6566,62.002125,0.82127374,0.5124999,6.188487529754639,21.23412016630173
30,300000,55.07910919792474,-63.684418,0.06311751,1.1910938,3.3283277,5.028674,35.427277,176.61263,10.273594,86.747055,86.42001,86.11494,87.43625,15.950529,0.7,-86.19382,-32.226044,0.000948835,-481.90286,-4.7047787,-5.193848,-4.7847157,-6.406565,1.6093254e-07,0.3,-36.085453,63.075066,62.91841,63.215485,62.996838,0.48752838,0.46406248,5.935338020324707,21.923313760757445
31,310000,53.7647244718521,-66.52996,0.06379875,1.8052092,3.1553164,3.3467097,34.923027,139.90297,11.990846,88.31314,87.29434,86.78363,86.71804,10.230372,0.7,-87.98464,-32.837425,0.0005424884,-487.0768,-3.9247296,-3.7867608,-3.9671757,-3.9894922,5.167723e-06,0.3,-33.30357,66.004105,65.94591,66.09235,65.79261,0.44695234,0.421875,5.971875905990601,22.611825482050577
32,320000,55.32383652084757,-63.30572,0.0629415,0.6630561,2.9403093,4.987167,48.162224,43.86557,12.482396,86.654236,87.49317,86.15273,86.62716,18.24127,0.7,-86.957016,-33.84558,0.0047982093,-1415.1686,-6.074628,-9.511257,-6.9936924,-7.688227,6.9391564e-05,0.3,-43.051395,62.47249,62.555477,62.143356,62.317238,0.6344491,0.509375,6.108728647232056,23.303858188788094
33,330000,53.34029926374602,-64.275085,0.06269632,0.07237822,4.133799,3.2768614,27.920507,309.91013,9.3387575,86.6992,86.56261,86.67792,86.67275,22.576267,0.7,-85.869736,-32.08444,0.0049360865,-799.89764,-4.5885477,-4.77707,-5.753931,-5.6306224,8.802745e-06,0.3,-33.432755,63.637764,63.563892,63.512413,63.640923,0.50536346,0.4953125,5.907587766647339,23.996437807877857
34,340000,54.40755208136885,-61.12172,0.06325502,-0.7782502,2.8092613,5.1769023,31.202501,39.34292,12.121645,87.649055,88.55772,87.82119,87.41941,15.136172,0.7,-86.66711,-33.892166,0.00065457786,-573.90076,-6.5019164,-5.9818387,-6.631706,-6.2830853,1.4584687e-06,0.3,-40.863453,60.37362,60.36039,60.06694,60.1206,0.621784,0.48125,6.077646732330322,24.690603733062744
35,350000,53.734261020383066,-61.13319,0.06336022,-0.3199489,2.4286358,7.6152706,36.564106,40.439888,10.339669,88.931404,88.82175,87.911896,87.690094,15.157806,0.7,-89.12569,-32.119884,8.801703e-05,-688.2172,-7.195641,-6.696122,-5.6641116,-6.3473,1.9099503e-05,0.3,-42.090973,60.42465,60.495613,60.919487,60.767143,0.46333697,0.47343752,5.767436981201172,25.379421257972716
36,360000,53.1156297185576,-61.561447,0.06257458,1.1231935,3.0383582,6.6695805,77.689186,103.85654,13.963797,85.994446,87.30365,87.27677,87.986176,112.56217,0.7,-85.484924,-29.84973,0.001567665,-900.38043,-6.4719143,-4.5883656,-6.11688,-6.2563896,2.2505585e-06,0.3,-41.912895,60.593403,60.775894,61.06952,61.263374,0.92957854,0.40625,5.687574863433838,26.067489103476206
37,370000,53.27328997825741,-61.257782,0.06350553,-0.4312045,3.348293,6.6235647,26.415394,64.80344,13.055307,87.94086,88.11087,87.94917,87.654854,7.698649,0.7,-86.827675,-31.423786,0.0015811755,-585.26733,-6.5324893,-7.1793036,-3.3852465,-4.124358,1.3989556e-05,0.3,-34.86789,60.707275,60.662315,61.169228,60.823357,0.4225676,0.4875,5.636850357055664,26.760407996177673
38,380000,54.246154827047775,-64.26375,0.06381368,0.59025425,3.6919432,6.5215626,44.99428,126.72259,10.371466,87.27396,87.18885,86.8197,86.83532,8.120884,0.7,-87.12995,-37.574604,0.005786066,-1262.0303,-7.714209,-8.502759,-6.001342,-8.616862,1.261651e-07,0.3,-40.72367,63.808807,63.768234,63.478718,63.429436,0.43895027,0.48593748,5.669408321380615,27.44540139834086
39,390000,52.93489184228199,-64.12851,0.06363358,-0.17049825,2.944467,6.297713,23.791744,164.47687,13.06913,86.98739,87.02054,87.45094,86.86557,23.0955,0.7,-87.1427,-31.517387,0.0010088028,-1520.7186,-4.725334,-5.3312216,-5.456757,-5.5098114,1.849766e-07,0.3,-32.00737,63.82128,63.695873,63.525265,63.681286,0.44049615,0.48749998,5.771023511886597,28.135694845517477
40,400000,54.133103797066425,-61.44693,0.063593924,-0.59518003,2.7768807,4.6606646,32.943092,126.565506,12.24113,86.03428,86.65259,86.41978,86.61513,12.866363,0.7,-85.629875,-38.50285,0.0017263799,-901.8446,-7.4375753,-7.2548656,-6.6580925,-6.6124544,1.7993327e-06,0.3,-42.29677,60.7051,60.784492,60.654232,60.62139,0.4595887,0.44687498,5.739565134048462,28.827462347348533
41,410000,56.089472701001476,-60.76553,0.063860774,0.19675595,3.2176952,4.5695386,24.234612,98.34207,14.963034,87.60265,88.40487,87.18934,87.189705,9.472371,0.7,-86.54248,-31.045353,0.0011986679,-584.6246,-4.816189,-6.1164155,-6.9923997,-5.528051,1.3308524e-05,0.3,-40.0537,60.224976,60.20052,59.92656,59.9244,0.4075846,0.4609375,6.235041618347168,29.52081433137258
42,420000,52.06183306741562,-62.710938,0.06341571,-0.72148,2.5036511,5.627953,26.09495,40.224716,12.580983,86.07541,86.080215,84.74028,84.60777,11.557035,0.7,-86.77805,-32.115467,0.00084567996,-302.98703,-10.077853,-8.526781,-5.7847953,-8.598806,8.8034926e-07,0.3,-33.58908,62.17974,62.25537,61.983086,61.924465,0.46715015,0.4984375,5.629420280456543,30.20353094736735
43,430000,55.89384408143818,-60.636047,0.0635115,0.56896496,3.1191626,6.970983,35.030197,105.79091,12.020774,87.80635,87.51875,87.941216,87.19033,21.584276,0.7,-86.511086,-31.084642,0.0017350679,-1824.6843,-7.1894736,-7.2899933,-6.0205455,-7.3479095,5.1769086e-07,0.3,-58.428043,59.881973,59.835213,59.94027,59.917763,0.6198498,0.490625,5.627967357635498,30.888674879074095
44,440000,54.021006184223054,-62.163857,0.063656844,-0.4944357,2.3422823,7.073689,28.325575,37.57347,11.5061455,87.92445,87.07006,86.93227,86.38386,14.57743,0.7,-86.66638,-30.859646,0.0028023068,-616.1853,-4.9878974,-5.223593,-6.3671055,-5.2594852,1.7326967e-06,0.3,-36.514805,61.56913,61.45608,61.591717,61.585907,0.42056268,0.4484375,5.577264308929443,31.56668532292048
45,450000,53.13294860729467,-65.6277,0.06435822,1.0201576,3.7299528,4.60765,33.94764,111.634384,11.541641,85.2822,85.68999,86.13898,85.470856,82.101326,0.7,-85.67791,-32.638485,0.0041342396,-683.94904,-7.4003305,-6.1397476,-7.037986,-7.2704477,2.0022311e-05,0.3,-35.886208,64.58505,64.5884,64.42534,64.90937,1.2351054,0.42968747,5.672038316726685,32.25608991384506
46,460000,52.60525110455667,-60.535107,0.063896716,0.40890992,3.942019,6.4959583,37.217636,370.37225,13.409308,86.09584,85.91481,86.37788,86.9123,105.68196,0.7,-87.38382,-29.937418,0.00435148,-513.40295,-6.2543817,-5.8171473,-5.4923263,-5.186453,2.7121744e-06,0.3,-45.348663,59.844727,59.725433,59.608307,60.01861,0.9941686,0.4296875,5.741713762283325,32.94792585770289
47,470000,54.11006060138354,-62.378426,0.06370712,-0.57994336,1.7590245,4.790257,43.52925,22.26865,11.679326,86.018425,85.60857,86.15734,86.35606,15.996297,0.7,-85.75839,-30.92056,0.0005075714,-335.4515,-6.3829856,-5.779043,-5.583301,-5.194396,7.4824203e-07,0.3,-29.111666,61.68718,61.581985,61.655075,61.670532,0.45491105,0.434375,5.75384259223938,33.63337984085083
48,480000,53.46186769104742,-63.48506,0.06273108,-0.32341915,2.7630265,7.954778,35.687813,69.491394,10.971486,85.693726,85.60069,85.355354,85.63069,14.272553,0.7,-85.70368,-31.031971,0.00038420974,-342.56345,-6.5355597,-7.643596,-4.380781,-5.1985464,6.403818e-05,0.3,-31.983095,62.87072,62.922905,62.845097,62.94686,0.46256483,0.4640625,5.705371379852295,34.32036837339401
49,490000,54.50872425915138,-61.348858,0.063400224,-1.5847517,2.6799207,6.1251793,39.196674,86.89201,9.865325,87.053246,86.563095,86.96846,86.234634,13.176227,0.7,-86.40247,-32.501877,0.0016586764,-911.0009,-5.023194,-6.24271,-4.476991,-3.5482316,6.519258e-08,0.3,-44.598553,60.72503,60.539963,60.550194,60.597195,0.46345395,0.4640625,5.7481958866119385,35.0057657122612
50,500000,54.15277565224077,-61.59266,0.06298776,-0.97494847,3.2417,3.8012135,26.933033,100.56562,12.03627,88.36864,88.46496,87.68945,88.38665,31.510635,0.7,-88.60161,-31.053677,0.0005364812,-1926.6562,-4.6481123,-4.567466,-5.6289067,-4.6176496,1.0006753e-05,0.3,-41.858,60.747185,60.980087,60.867603,61.42172,0.62707627,0.38124996,5.719407320022583,35.693254709243774
51,510000,52.75943188636833,-65.3604,0.063952126,1.8375168,2.419063,3.1302896,38.516373,27.763308,10.204842,85.5021,88.06001,87.575615,85.700905,14.032989,0.7,-85.18909,-34.48039,0.000813833,-781.9674,-4.51757,-4.2635984,-6.3856716,-5.645128,3.6627677e-07,0.3,-44.12728,64.59642,64.70276,64.482544,64.351,0.5111517,0.45624998,5.604391574859619,36.37870013713837
52,520000,55.57579017592995,-62.972633,0.064102784,0.8608625,5.672166,4.39886,36.739132,263.25006,11.946411,87.21003,86.81674,85.88509,88.04898,39.21833,0.7,-85.96787,-32.2098,0.0007888327,-736.14954,-4.8079405,-4.3643208,-5.9549427,-6.009267,1.4183752e-06,0.3,-50.09536,62.242332,62.27183,61.83358,62.165417,0.7004259,0.45624998,5.608734846115112,37.06301934321721
53,530000,53.061592561256745,-57.235786,0.064237714,-0.36258882,2.1594613,5.82735,40.077053,39.05668,11.682574,86.53144,87.45398,87.942825,85.89858,9.494565,0.7,-86.18255,-32.091732,0.003118804,-1017.78265,-6.551297,-5.9090414,-4.67241,-4.909954,1.0542496e-05,0.3,-48.673355,56.37108,56.339844,56.65757,56.5539,0.43312782,0.4875,5.635597467422485,37.74380578597387
54,540000,55.04149059903784,-63.942604,0.06442616,0.02139914,2.56861,5.4661865,48.4763,54.349472,10.435509,85.71146,85.28384,85.98683,85.778076,6.136816,0.7,-85.57229,-31.475199,0.0054688547,-536.05023,-7.1601086,-5.8732395,-5.765401,-5.428946,4.209895e-06,0.3,-44.700813,63.321075,63.30634,63.69104,63.58898,0.47387475,0.4578125,5.651119232177734,38.43021589914958
55,550000,55.020217615029864,-57.929813,0.06475757,-1.1760184,3.1213086,3.8488355,40.27262,55.32753,14.284525,88.03755,89.18985,90.183365,87.207184,15.128845,0.7,-87.26552,-31.231789,0.006656144,-1170.3105,-5.457274,-4.7709074,-4.8378873,-5.066026,1.174165e-07,0.3,-52.5896,57.23208,57.376804,57.401726,57.313286,0.4829717,0.465625,5.578628301620483,39.11110085646312
56,560000,53.120528264347136,-62.56797,0.06472164,0.43891943,3.8910646,3.282618,51.559914,198.49805,14.587954,86.09057,85.08681,85.654106,84.79633,66.69861,0.7,-84.223885,-29.46409,0.010201303,-1114.9283,-5.934567,-3.7420182,-4.6904063,-6.3554215,6.708317e-07,0.3,-57.442863,61.991478,61.873066,61.709,61.749832,0.7089823,0.496875,5.720704793930054,39.78765567541122
57,570000,53.86659105101982,-59.234825,0.06450161,-1.3653537,2.5857592,1.6581843,45.50167,74.41193,8.798003,84.90484,84.24146,84.83262,85.20375,83.706924,0.7,-85.2554,-32.58734,0.0011343138,-1191.2756,-4.628315,-5.4665847,-5.6857867,-4.1706614,7.3480564e-06,0.3,-53.45981,58.354156,58.42243,58.44657,58.584637,0.7960028,0.4796875,5.64992094039917,40.47783628702164
58,580000,51.27300687662192,-59.523357,0.065552585,-0.82362765,2.8497162,4.130864,45.102486,55.706112,11.207579,85.40207,85.80695,85.91316,85.69721,44.113182,0.7,-84.996414,-30.396927,0.0092748925,-2805.4739,-5.125661,-5.0285187,-4.7106943,-5.4385977,4.0737623e-06,0.3,-64.38065,58.711693,58.620495,59.003723,59.084366,0.65613407,0.41249996,5.705204725265503,41.168437870343524
59,590000,52.50498201103851,-62.865414,0.06547258,2.3833451,2.777327,3.7536962,37.357933,42.72946,14.945259,86.139854,86.365616,86.764305,86.145386,6.6964235,0.7,-85.78273,-29.20771,0.00489493,-956.5522,-5.1954017,-5.247317,-3.0509984,-3.5596921,2.6720269e-05,0.3,-48.239887,62.24229,62.224163,62.673927,62.711708,0.50367343,0.4375,5.693156480789185,41.8542454123497
60,600000,52.12976394265153,-59.33477,0.064648226,-0.69071895,2.4948354,6.954907,49.101704,28.082642,14.307086,84.28541,84.42294,84.23292,84.94331,7.6778536,0.7,-84.49361,-32.155594,0.008719327,-1026.4564,-6.644804,-6.9702573,-5.049384,-4.370603,4.9981463e-06,0.3,-50.208954,58.726547,58.76666,58.86884,58.95681,0.40952724,0.4453125,5.741468191146851,42.542469175656635
61,610000,52.20044722471964,-63.05057,0.0654004,-1.0532751,3.3867853,5.5750165,33.942955,93.89882,11.781193,86.43416,86.08471,85.29377,85.11047,29.135088,0.7,-85.19241,-29.78315,0.00048528254,-1216.9066,-6.4986243,-6.483053,-4.3509326,-4.3760486,6.9548723e-06,0.3,-43.56353,62.367844,62.375523,61.979004,61.91118,0.5836724,0.4921875,5.656628131866455,43.230339868863425
62,620000,52.716109177412626,-62.300564,0.065335505,-0.70152336,2.0222912,3.2071874,35.53898,32.180405,11.63509,85.60133,86.468315,85.87122,85.75334,19.154121,0.7,-87.710884,-31.981709,0.0037606214,-2337.436,-4.8860736,-5.114396,-4.6644125,-4.4127493,3.177791e-05,0.3,-55.11056,61.654064,61.716263,61.68966,61.387802,0.4825002,0.51250005,5.573896169662476,43.91307775179545
63,630000,52.74232834820518,-63.201565,0.06481809,-1.0170962,2.6253984,-1.1405865,29.852695,106.15811,10.061614,85.62331,86.46264,87.235535,86.959564,69.92465,0.7,-85.64232,-31.171337,0.0048009097,-572.1514,1.2368791,1.0436066,1.5167445,1.5795984,2.1824567e-06,0.3,-38.710175,62.387115,62.483273,62.825474,62.81009,0.6638357,0.46406248,5.682299852371216,44.59875131050746
64,640000,53.51944125913391,-60.325638,0.06585638,0.28847414,3.0606122,4.439391,38.68869,27.464428,12.938101,86.09703,85.65235,86.25299,85.11344,9.435003,0.7,-85.35564,-31.476906,0.008506462,-1529.6471,-3.6293182,-3.9239237,-6.271051,-4.864096,2.838715e-05,0.3,-68.519264,59.16602,59.108215,58.58479,58.82637,0.41037577,0.4921875,6.049093961715698,45.290222092469534
65,650000,52.21825497848592,-63.49414,0.065712415,0.151016,2.5720437,3.3966649,34.26893,40.194103,9.785088,86.75857,87.056526,86.24823,87.587685,17.953604,0.7,-87.02855,-30.38902,0.0019208753,-1132.4476,-5.9931893,-5.337718,-5.518778,-4.9999166,4.2640936e-06,0.3,-44.65591,62.63053,62.61533,62.69543,62.899708,0.60133183,0.40781248,5.877342939376831,45.97434376080831
66,660000,51.9688142782737,-62.663586,0.06631831,-0.117355645,2.6990814,6.0934453,41.877087,55.94034,11.167985,87.34151,86.99784,88.01922,87.80012,8.702293,0.7,-86.340485,-32.55889,0.0067018466,-1036.82,-6.5645237,-5.709647,-3.8000338,-4.16642,6.2291915e-06,0.3,-52.6362,61.9696,61.934532,62.179573,62.127316,0.4705038,0.440625,6.080072402954102,46.66704310178757
67,670000,53.21074282431961,-58.64554,0.06533365,-0.66042864,3.80764,4.73658,42.43815,101.33656,12.937638,84.608795,84.91129,85.70711,85.32592,7.2934794,0.7,-84.5639,-31.945166,0.0023999573,-774.24615,-7.106352,-5.69951,-5.3560386,-4.9038634,9.387732e-06,0.3,-57.006786,57.797512,57.7475,58.05105,58.02729,0.37809855,0.43749997,5.583211660385132,47.34832985003789
68,680000,51.31448773373596,-58.676216,0.06652223,-1.1618654,2.6272078,2.1322305,42.286465,136.73694,10.877999,85.07384,86.028404,86.246635,85.65979,9.916483,0.7,-85.16355,-30.724081,0.0033042643,-1712.8884,-3.3160481,-4.0994043,-3.6734254,-3.4395742,7.3385314e-07,0.3,-52.199154,57.83238,58.02417,57.732582,57.687782,0.44267815,0.4859375,5.933123588562012,48.035725037256874
69,690000,52.75770863714722,-62.82313,0.066036254,0.9689595,3.9765706,2.8035936,31.703417,93.507774,12.667667,85.58349,85.535164,86.4956,85.77545,59.64699,0.7,-85.15762,-34.556778,0.00072233035,-1404.1521,-3.4926624,-4.1489344,-3.7672358,-3.2618306,1.466833e-07,0.3,-59.176792,61.961353,61.987034,62.604385,62.57029,0.8592127,0.40625,5.81941556930542,48.72416583299637
70,700000,51.60905777526923,-58.2762,0.066066906,-0.5604962,2.8186193,2.128423,34.650967,40.303944,13.102204,84.85388,84.073044,84.67393,85.29899,21.598246,0.7,-84.22111,-30.136194,0.004395899,-1680.8541,-4.0414896,-3.9394112,-4.792866,-5.1724186,2.1367275e-06,0.3,-60.192974,57.309418,57.293907,57.519886,57.33951,0.68974286,0.45625,6.273947715759277,49.422011800607045
71,710000,53.3350525889996,-57.9118,0.06628263,-1.3244382,3.030947,5.2595453,45.269043,71.2922,7.89308,85.04928,84.78772,85.04729,84.47474,8.81062,0.7,-85.55926,-30.170431,0.0019013179,-631.3579,-6.1025715,-5.3039684,-4.0886784,-5.0892367,1.1572226e-05,0.3,-51.849197,57.47457,57.365406,57.54326,57.29814,0.36923373,0.4609375,5.963161468505859,50.110008629163104
72,720000,52.548912004983315,-62.433914,0.06628347,0.44344407,3.4158354,5.143511,31.606743,72.820465,12.17921,84.723785,85.53419,85.56417,86.474144,47.169746,0.7,-84.09781,-29.737885,0.0058450317,-903.2838,-5.4156733,-5.1265335,-3.2031884,-4.119866,5.657785e-09,0.3,-54.116547,61.79139,61.688854,61.997402,61.908257,0.70954657,0.4765625,6.087744474411011,50.802415549755096
73,730000,53.29416724183616,-61.098022,0.06649378,-0.51267564,2.3572283,5.71803,32.628002,38.910255,12.918819,87.30986,86.97659,86.36467,86.55729,18.721281,0.7,-85.98804,-32.56843,0.0018590852,-634.1214,-5.1821074,-5.887849,-3.7938452,-4.03916,4.5545603e-05,0.3,-43.96273,60.56829,60.527298,60.782726,60.82254,0.53149146,0.43124998,5.72833514213562,51.4935444076856
74,740000,52.51329356315536,-60.69261,0.06617828,-0.42928892,2.2981505,3.1526039,40.028454,25.699545,9.72756,87.227425,87.3339,86.78575,86.98683,17.7817,0.7,-86.57891,-29.605257,0.0007429117,-448.23416,-4.4300313,-5.0204916,-4.3995957,-4.3820195,7.0779744e-05,0.3,-52.371017,60.04003,59.91646,60.26432,60.185184,0.41519266,0.41562498,5.767906665802002,52.180237634976706
75,750000,52.88128162592557,-60.22478,0.065904476,-0.2999661,1.8947557,4.203315,55.061306,18.353771,12.79622,84.18283,83.32257,84.34028,84.29799,9.922725,0.7,-83.86274,-30.574675,0.00055589573,-3444.3154,-3.5293436,-3.3786776,-3.598447,-3.4176257,2.9211108e-06,0.3,-58.138706,59.68454,59.465984,59.688065,59.74813,0.41845906,0.45,5.669862270355225,52.86434613863627
76,760000,52.805657222285305,-61.84548,0.06699899,0.8485229,2.400475,5.5286784,57.468178,49.547394,10.649599,86.82347,86.328415,86.311485,86.76519,11.539965,0.7,-85.52197,-29.189999,0.00040393102,-928.1404,-4.9740562,-5.8399277,-5.604633,-4.804603,2.1709566e-05,0.3,-58.646194,61.2155,61.088173,60.943306,61.236515,0.4390067,0.4265625,5.659351587295532,53.55169965028763
77,770000,52.130492193865265,-61.36065,0.06654122,0.7679982,2.0903914,2.095234,30.328415,27.166166,10.3113165,84.77238,84.947876,84.88762,85.484985,7.9395313,0.7,-83.922455,-35.488342,0.00919423,-875.994,-3.518438,-4.4006915,-5.343775,-4.5681777,1.1089259e-06,0.3,-53.594948,60.402092,60.421062,60.269577,60.556812,0.47826254,0.4265625,5.643342733383179,54.231118659178414
78,780000,53.51094995124161,-62.668373,0.06598444,0.68983394,2.9723616,2.5932367,67.499504,117.03122,13.349398,85.02739,85.64127,85.09175,84.64847,7.2468214,0.7,-84.87654,-30.356894,0.006245139,-1527.349,-2.5606012,-1.8628676,-3.9701085,-3.5350628,1.52111e-05,0.3,-60.311672,62.026463,61.986946,61.60845,61.652626,0.40331197,0.4671875,5.26619815826416,54.91129779020945
79,790000,52.34402563435834,-65.02668,0.06501131,1.0591328,2.7607698,1.963942,36.185425,97.55412,12.108039,85.5229,85.37432,85.81835,85.73937,8.318187,0.7,-85.12059,-29.780409,0.0033145165,-634.6677,-3.221105,-3.8625624,-2.6160593,-2.3965774,1.3146548e-06,0.3,-46.305206,64.25577,64.23505,64.24829,64.39368,0.4622077,0.46874997,5.686654090881348,55.59776011308034
80,800000,53.29451281377744,-64.08958,0.06631035,1.3610952,2.775305,2.9338057,45.67165,61.40062,10.808864,86.29841,86.30113,86.377396,86.05759,6.7400517,0.7,-86.01829,-32.266964,9.4816205e-05,-425.38513,-5.740341,-5.421177,-4.6107607,-6.0330763,2.2297609e-05,0.3,-46.245567,63.202682,63.25055,63.49698,63.61031,0.41555086,0.4375,5.65468692779541,56.277461429437004
81,810000,52.89378957537615,-59.932606,0.0657657,-0.97176313,2.5600753,3.376349,54.193836,34.290825,9.32339,86.56041,86.53522,85.80352,86.43079,4.2572985,0.7,-85.997215,-33.50302,0.0070644105,-735.92773,-5.063813,-4.276509,-3.007197,-3.609435,1.6104797e-06,0.3,-55.736374,59.141342,59.230545,59.266953,59.23996,0.34769228,0.43124998,5.629568815231323,56.96414025624593
82,820000,52.371569342295075,-60.959393,0.06497921,-0.30369446,2.354383,-2.1976256,35.104347,23.698442,11.004259,85.33892,85.216774,85.84043,84.419495,15.40729,0.7,-84.62443,-30.405743,0.0007908934,-627.5204,0.98768103,1.5326599,-0.38108385,-0.47960418,3.426685e-08,0.3,-38.93538,60.249607,60.33368,60.313858,60.12884,0.48262796,0.5171875,5.715212345123291,57.652731629212695
83,830000,52.039341094970716,-62.04574,0.06685278,2.322809,3.0724714,4.9129734,46.466084,263.90158,13.658255,84.436775,84.3591,83.70078,83.838646,60.87072,0.7,-83.70027,-30.803417,0.00020170264,-2350.1567,-3.4314666,-4.339087,-4.248391,-4.2144275,2.4858339e-06,0.3,-54.651405,61.16719,61.319572,60.830524,60.799675,0.8420708,0.521875,5.788515567779541,58.34407258431117
84,840000,52.47020102531496,-61.818737,0.065675266,0.48476753,3.4503064,4.928277,44.035236,120.82648,9.990815,87.44796,87.050964,87.73192,86.682014,30.96361,0.7,-86.99461,-33.17378,0.006214332,-1109.6854,-5.4202533,-5.959441,-5.2114534,-4.6308,1.6135571e-06,0.3,-58.403877,60.98699,60.99101,61.34392,61.27152,0.7399839,0.45468748,5.669365882873535,59.03242929379145
85,850000,53.73299451796563,-61.4712,0.06632423,0.06994891,2.003007,-2.3192408,27.374187,16.169817,11.505733,84.159836,84.92269,85.92977,84.972435,4.617222,0.7,-84.677864,-31.378935,0.0035368653,-1909.7213,2.1343398,2.242107,1.7390217,2.0612998,1.9215531e-05,0.3,-51.43052,60.721664,60.76584,60.74939,60.800034,0.38314113,0.47812498,5.685559511184692,59.72498004833857
86,860000,52.566933745522846,-62.111954,0.067200415,0.39300057,2.890881,4.5689836,39.099117,51.495056,11.827975,83.63426,85.429184,84.33288,84.145744,7.0588884,0.7,-83.876274,-29.574844,0.003781184,-1438.9414,-5.3913937,-6.13966,-2.127589,-2.394362,1.7462299e-09,0.3,-72.21801,61.165543,61.12919,61.55501,61.498688,0.49962664,0.4734375,5.617926836013794,60.41184160709381
87,870000,53.06915864476629,-62.789623,0.06577417,0.14632738,2.4324422,1.3697901,42.50857,33.2827,11.072499,87.398926,86.50867,86.05187,87.31477,10.39796,0.7,-86.27675,-29.927856,0.0012267644,-783.0032,-3.511786,-3.580762,-3.2134566,-2.799009,3.4979487e-06,0.3,-57.1968,61.977356,62.018642,61.73893,62.013744,0.47989205,0.44375,5.8951075077056885,61.100768474737805
88,880000,52.84672921394815,-60.907368,0.0662906,-0.112114415,2.2700448,3.5484648,44.587475,23.803251,11.960604,84.295395,85.12284,85.342384,83.84695,8.671224,0.7,-85.58703,-29.177536,0.0005219737,-879.42633,-2.7845507,-2.3385053,-4.426187,-5.9399843,6.996951e-06,0.3,-58.064667,59.99116,60.059578,60.055466,60.071682,0.56144524,0.4390625,5.595497369766235,61.78832085529963
89,890000,52.22462231471972,-63.083984,0.06788857,0.93679917,2.4271443,4.0798163,47.19986,46.91768,11.189085,83.9239,84.14159,85.03061,83.97669,8.444646,0.7,-83.654144,-39.200504,0.0006069619,-1474.4452,-2.987517,-3.7255845,-1.9668343,-1.5818315,2.6153111e-06,0.3,-63.93109,62.31466,62.259186,62.297607,62.5654,0.4806736,0.4484375,6.132781267166138,62.4862180908521
90,900000,52.55017843129226,-64.32953,0.06510167,1.1453896,2.2755332,2.9506223,45.435444,37.36517,11.946217,85.124405,84.9908,84.73738,85.15702,13.169447,0.7,-86.178246,-33.65813,0.0004517791,-1655.4716,-3.4591575,-2.213697,-3.711207,-4.6583776,1.3238169e-07,0.3,-58.689373,63.525635,63.5963,63.503647,63.204144,0.5350957,0.5203125,5.687947988510132,63.16807147661845
91,910000,52.60798561635514,-64.11512,0.066676214,0.55437016,3.55587,1.6113743,38.019043,67.95934,11.190196,84.63841,85.2429,84.35975,83.99471,57.2889,0.7,-83.488434,-30.084967,0.005938081,-929.39514,-1.7534741,-1.8652186,-1.4760538,-3.2961233,8.1120794e-05,0.3,-57.89685,63.41131,63.415413,63.56579,63.581696,0.734344,0.434375,5.674478769302368,63.84917252063751
92,920000,53.36215133876513,-61.057743,0.06667983,-0.27419895,2.5716991,0.20680559,40.684982,25.791328,11.915445,85.65552,84.98155,85.04304,85.10557,7.0674953,0.7,-84.64702,-29.957518,0.0003848283,-1111.0022,-0.66984093,-0.63642824,-2.6117961,-1.1575122,7.4824203e-07,0.3,-53.19738,60.511272,60.513138,60.572407,60.57601,0.36125645,0.45625,5.732491493225098,64.53216904401779
93,930000,53.205463721072746,-61.62737,0.06665586,0.53388226,2.4432032,1.9992151,38.72023,119.99985,11.361478,84.97529,84.981094,84.89719,85.47419,17.788502,0.7,-84.73811,-31.4387,0.0015367465,-819.7207,-3.021593,-2.2663364,-3.253063,-2.9440494,1.150004e-06,0.3,-47.276474,60.769478,60.720413,60.526318,60.575893,0.5767747,0.50625,5.711857318878174,65.22107206583023
94,940000,52.63895294418742,-61.349854,0.066842355,-1.1198188,2.428335,-1.0143955,54.02102,43.45517,11.34996,85.169914,85.70882,85.59989,85.24846,30.195118,0.7,-84.442276,-28.859924,0.000116365554,-1000.2565,-1.1805617,-1.42578,-0.90961814,-1.6648257,1.3245715e-07,0.3,-52.452877,60.656597,60.630478,60.523064,60.62124,0.5647676,0.46875,5.706801891326904,65.90790093342463
95,950000,53.29817552843898,-62.46341,0.06716388,1.1278673,2.6693425,2.875243,42.95481,31.925644,12.406243,84.83365,84.473145,85.024254,85.55704,11.344574,0.7,-86.91557,-30.35518,0.003554251,-632.99506,-4.3959227,-3.7194426,-3.6793096,-3.2006092,5.3010752e-11,0.3,-43.455505,61.86052,61.822506,61.993835,62.126976,0.53862023,0.44375,5.834929466247559,66.59535679419835
96,955000,53.33805499014795,-59.459297,0.06557115,-0.70491046,2.3090725,3.8056011,47.42492,30.65024,11.071068,85.530594,85.50591,86.616585,85.46904,11.749741,0.7,-84.9102,-30.728065,0.01334791,-1868.7667,-3.2635179,-2.4271998,-2.7549982,-2.4011996,2.7415967e-05,0.3,-62.392826,58.69652,58.77256,59.09851,58.970177,0.5295855,0.4359375,5.665271520614624,66.98701363801956
97,960000,53.194090854869266,-61.4572,0.06667871,0.5437554,2.4579663,2.7949252,38.83652,24.035158,12.914318,85.14483,85.66729,85.25096,85.64946,33.866005,0.7,-87.12703,-28.530546,0.0068004867,-1489.1097,-3.2919583,-2.6101184,-1.857531,-2.930458,4.649442e-06,0.3,-54.90014,60.67517,60.66749,60.88929,60.647194,0.7036519,0.4328125,5.684025764465332,67.3751767595609
98,965000,52.600044250174236,-62.56232,0.06584064,0.019744575,2.8884845,3.1797667,38.21675,75.79245,11.7813,85.634,85.32079,85.67242,84.83962,61.87331,0.7,-84.80624,-29.418724,0.007017606,-711.4477,-3.7278528,-4.4992857,-4.853698,-4.336968,7.256097e-06,0.3,-51.336296,61.892006,61.82958,61.490204,61.468624,0.8651675,0.503125,5.681494951248169,67.76662129958471
99,970000,52.74544371709807,-63.205944,0.06421221,0.10069683,1.9994619,1.5348817,42.522358,26.310028,12.258466,86.78843,85.278435,85.71096,86.8243,5.011606,0.7,-87.01492,-32.292973,0.0038809867,-723.78986,-3.0540848,-3.8908677,-3.1442788,-2.6920233,9.154505e-06,0.3,-43.87788,62.705307,62.72465,62.47586,62.441315,0.35361755,0.4546875,6.1231770515441895,68.16594228744506
100,975000,53.11526923965317,-61.551453,0.06911417,-0.39952457,2.2088995,1.7739563,45.440796,33.015755,12.847314,84.6443,85.185104,85.04538,84.28119,37.553913,0.7,-83.7151,-33.5865,0.0016397149,-828.0294,-0.8452151,-0.18573427,-3.9138312,-2.8496943,2.8855095e-06,0.3,-54.678284,60.967823,60.932583,60.790634,60.912144,0.607317,0.475,6.089977979660034,68.5615878780683
101,980000,52.93192776143459,-59.17255,0.06614497,0.112564504,2.0448189,3.6551952,39.585793,30.012058,12.559238,85.51862,85.67129,86.12616,86.32228,6.9406767,0.7,-85.54489,-31.139784,0.00097261305,-760.8139,-4.5397124,-3.4113908,-4.3740854,-4.10915,7.95626e-08,0.3,-59.565426,58.273262,58.357704,58.3449,58.572685,0.4674047,0.446875,5.728655099868774,68.95008670091629
102,985000,52.71022033004922,-59.425404,0.06655121,-1.2244518,2.8187454,4.525743,28.329718,34.227303,9.435139,85.975296,85.920944,86.46363,86.56288,6.332171,0.7,-85.84516,-30.4538,0.00033204933,-1948.5209,-3.8260698,-3.7906644,-1.8053313,-2.943968,6.782636e-06,0.3,-55.519474,58.908752,58.842728,59.00099,59.099255,0.32543802,0.43281248,5.664459228515625,69.34419883489609
103,990000,53.06556661527003,-61.723145,0.0656016,0.9498282,1.7618207,3.8475168,44.695568,12.028672,9.870063,84.29281,84.83922,85.40148,85.15673,11.098461,0.7,-85.02066,-30.823553,0.0016560862,-861.8209,-1.9138217,-3.025362,-2.126223,-2.6757746,1.18813475e-07,0.3,-57.11435,60.92118,60.861862,61.07705,61.049683,0.5010809,0.490625,5.6162238121032715,69.73560772736867
104,995000,52.846302617960916,-62.825096,0.06338641,-0.05619338,2.1400406,2.3070238,46.378746,29.766329,11.092891,84.52606,84.71787,85.05618,85.21094,6.4764647,0.7,-83.80788,-32.854874,9.482086e-05,-863.14465,-3.2071443,-3.2828524,-2.2703378,-2.1119106,9.829103e-07,0.3,-47.383377,62.32515,62.350105,62.586193,62.48352,0.3841411,0.4578125,5.7249298095703125,70.12183471520741
105,1000000,52.796657243513856,-62.850502,0.06522593,-0.48973542,2.2639525,1.6196421,38.550106,25.80326,13.91909,84.85408,85.264015,85.59078,85.87374,6.1527004,0.7,-84.614914,-31.344099,0.0026254246,-1433.873,-2.347797,-1.7198707,-2.558506,-2.0045776,2.728484e-07,0.3,-50.92375,62.023514,62.239105,62.014095,61.955395,0.43126473,0.47812498,5.710432767868042,70.51604067881902
