Xixo99/comfo/baselines/comfo6_perterbation_actor/20230222_actor_perterbation/halfcheetah-medium-replay-v2/COMFO6_s0_20230222_072222_halfcheetah-medium-replay-v2_49.24.csv
,step,reward,actor_loss,alpha,alpha_loss,critic_loss,max_actor_loss,max_alpha_loss,max_critic_loss,max_mle_prob,max_q1,max_q2,max_target_q,max_v,max_value_loss,max_weight,min_actor_loss,min_alpha_loss,min_critic_loss,min_mle_prob,min_q1,min_q2,min_target_q,min_v,min_value_loss,min_weight,mle_prob,q1,q2,target_q,v,value_loss,weight,eval_time,time
0,0,2.254502245505539,,,,,,,,,,,,,,,,,,,,,,,,,,,,,,,,,
1,10000,2.9573733021243167,-22.110912,0.071730725,-6.510768,1.6031029,3.519711,49.12989,105.928604,44.143036,38.468136,38.97829,38.254242,37.652046,1.8004287,0.7,-39.39165,-32.54561,0.00059387914,-10.447292,-2.5591857,-2.4974597,-3.27232,-2.760174,1.5196566e-08,0.3,4.247957,21.14877,21.19281,21.22066,20.90661,0.08670004,0.44375,5.548112392425537,1.960062567392985
2,20000,6.392864857458013,-39.261497,0.016540293,2.1820836,5.5686536,5.1546774,232.02597,457.79584,61.071617,64.124725,63.505646,62.1245,60.782127,4.5695224,0.7,-66.25205,-57.682457,0.008143616,-27.051407,-12.541162,-12.396373,-11.527517,-11.053869,8.98151e-06,0.3,4.776552,37.892864,37.869434,37.47036,37.34312,0.23627809,0.46249998,5.478359937667847,2.628639256954193
3,30000,28.434126073078854,-51.99455,0.024772972,0.29976112,3.91848,14.621087,64.2257,188.43198,17.3991,74.97681,75.442566,74.53555,74.8139,5.7521553,0.7,-76.70439,-41.56219,0.007072293,-9.494724,-14.727843,-14.65991,-14.309123,-14.219161,2.4441115e-05,0.3,3.7007134,50.912624,51.006622,50.739357,50.835987,0.28964722,0.4421875,5.628671646118164,3.2978058139483135
4,40000,38.36710800926476,-54.26911,0.02893236,-0.08851099,2.8320267,13.127291,53.99729,40.599148,36.04648,79.37953,80.052795,80.443855,79.48436,6.7603273,0.7,-82.028366,-45.778038,0.001962525,-11.703032,-15.488614,-15.4628,-16.172697,-16.610388,7.9597085e-05,0.3,4.113774,53.082443,53.216682,53.045506,52.99415,0.37113678,0.5125,5.5098888874053955,3.971138906478882
5,50000,42.26344746895548,-54.529896,0.030286495,-0.70524544,3.382389,6.94551,202.94913,48.32459,63.621807,84.49316,84.59345,84.27615,84.91813,10.3211,0.7,-84.77437,-42.040073,0.00013783816,-10.916826,-9.634504,-9.158632,-8.627236,-9.892278,1.0651322e-05,0.3,4.0441628,53.435577,53.41526,53.638084,53.74009,0.41936618,0.40625,5.575177431106567,4.657391917705536
6,60000,45.17977441776539,-59.85648,0.028167116,-0.6125114,3.100294,12.108938,205.82158,41.945274,62.92185,85.01471,85.68736,84.761086,85.41525,13.103503,0.7,-86.76375,-41.96662,1.7936633e-05,-18.695919,-19.085306,-19.0229,-16.461634,-17.264555,2.673303e-07,0.3,3.993843,58.801563,58.711037,58.924114,58.978497,0.41590822,0.4453125,5.647125959396362,5.344762202103933
7,70000,45.967665307155116,-55.85459,0.027217286,-4.103845,4.910042,8.084315,207.08672,417.74725,63.650955,84.924995,85.54324,85.36074,85.85603,7.8403707,0.7,-87.543755,-41.715515,0.0026625695,-14.384686,-9.057001,-9.378544,-9.938268,-9.569079,7.2217485e-06,0.3,3.64184,54.73767,54.90986,54.87039,54.94738,0.52079064,0.45468748,5.5420920848846436,6.026146340370178
8,80000,46.08705597437875,-62.74081,0.024202216,1.7149965,3.3517716,9.825599,211.02907,93.52119,64.38163,86.678764,86.836426,86.82238,86.54387,7.170345,0.7,-88.00548,-49.769096,0.00286154,-10.69074,-16.146788,-15.44512,-15.426686,-16.20864,6.4542282e-06,0.3,5.0568266,61.311546,61.24994,61.32553,61.33747,0.38433957,0.4640625,5.6016271114349365,6.708247061570486
9,90000,46.091412763112785,-60.9401,0.02349754,-2.0487013,2.7462542,10.3233185,92.69514,72.24069,40.04196,87.55935,87.23726,87.38397,87.393616,11.45284,0.7,-89.58267,-45.693195,0.00030408485,-10.507825,-16.053139,-15.8424015,-14.9747095,-16.080576,7.1874815e-08,0.3,3.9618144,59.68934,59.661415,59.46515,59.565994,0.34838724,0.4484375,5.522565841674805,7.392745300134023
10,100000,45.31285470888173,-63.094425,0.022045754,-1.6393859,6.3180666,9.748947,59.31484,192.40979,35.15738,88.33233,87.99949,88.01397,87.750275,10.885733,0.7,-90.098785,-45.58335,0.00029936072,-9.72139,-14.077938,-13.514826,-14.380785,-15.421843,3.1944364e-06,0.3,4.5867157,61.812073,61.876183,61.537727,61.533226,0.43035913,0.48749998,5.679841995239258,8.079996462663015
11,110000,46.68275849062326,-63.146477,0.021314947,-0.6557499,3.6086335,6.9218016,71.767876,113.68126,27.854671,88.925095,88.70866,88.886696,87.36251,23.18003,0.7,-89.86865,-45.832706,0.008811676,-14.395417,-7.4143248,-6.7909417,-7.4216537,-6.5111566,1.745898e-06,0.3,3.6412516,61.89631,61.86439,62.188293,61.93213,0.51841366,0.5171875,5.529171943664551,8.761978042125701
12,120000,46.75024399162746,-61.150776,0.020516826,-1.623754,3.528335,9.027851,169.86122,93.99922,28.845905,88.846886,88.35296,88.007935,87.612206,6.4839716,0.7,-90.58471,-47.842117,0.0055628456,-16.632174,-11.966965,-12.40964,-11.316144,-11.3488865,1.8001687e-05,0.3,3.7970855,59.836983,59.950512,60.23456,60.077393,0.414263,0.48593748,5.494144439697266,9.441904159386953
13,130000,47.319774483152244,-61.79704,0.021055138,-1.6114725,3.6841412,5.922469,226.80022,226.70584,65.75169,86.18541,88.14036,87.07845,86.95407,12.855281,0.7,-88.10969,-47.07776,0.002123243,-13.685162,-9.616073,-9.036241,-9.17555,-9.500707,6.8212107e-06,0.3,3.6964536,60.641132,60.633106,60.707428,60.856903,0.5210454,0.44375,5.558552980422974,10.122984631856282
14,140000,46.558434225742566,-62.981274,0.021080675,1.6723228,3.2142363,7.51363,225.8108,48.61834,62.56806,87.08547,87.20505,86.18603,87.85988,17.978117,0.7,-88.60981,-42.662025,0.0079837125,-16.752975,-9.175999,-8.354086,-6.4407854,-7.008738,6.30389e-09,0.3,5.0306425,61.57727,61.553066,61.43127,61.668793,0.48663673,0.4140625,5.594391584396362,10.807245548566183
15,150000,46.57366879809618,-63.863747,0.020445587,-0.5815111,3.6737916,4.085662,225.51482,82.584984,62.874374,87.22789,87.29963,87.63294,86.539604,5.607562,0.7,-89.16808,-49.46159,0.013393495,-16.663862,-7.3643794,-7.558025,-7.9532266,-8.536887,6.30389e-09,0.3,4.6502705,62.55879,62.493923,62.057438,62.04811,0.32685068,0.4984375,5.525794744491577,11.491970026493073
16,160000,47.77657129386504,-64.35344,0.021582384,-0.8390815,2.8785286,5.238261,211.37883,84.08133,64.449356,87.878716,88.07404,87.784256,87.2485,11.818081,0.7,-90.24563,-45.747013,0.0046341084,-14.842546,-7.3733096,-7.2197113,-6.3581243,-5.2814493,2.390414e-07,0.3,4.6397924,63.0369,63.002846,63.150272,63.15957,0.5012437,0.4515625,5.4858198165893555,12.172462046146393
17,170000,46.73087370948481,-61.392105,0.021222102,0.071133554,3.7024355,7.7829165,219.26326,212.26685,59.787857,87.78844,87.815895,87.424904,87.52408,36.927414,0.7,-88.88671,-46.556114,0.0039169732,-15.839922,-5.3382654,-5.8914685,-5.9817753,-6.9741716,1.135486e-06,0.3,3.646102,60.17022,60.008255,59.683372,59.87028,0.6601331,0.4390625,5.519843578338623,12.85487422545751
18,180000,46.44232105489862,-62.868053,0.02126353,2.0930598,3.346546,3.4347224,222.2566,116.94015,65.31139,87.5462,87.80166,89.192696,88.06476,13.998086,0.7,-90.32679,-48.926155,0.0028206357,-18.464684,-5.441085,-6.2548623,-6.0703087,-5.5130935,5.196125e-07,0.3,4.953312,61.469765,61.462723,61.722046,61.64518,0.44338515,0.4796875,5.508360147476196,13.536061163743337
19,190000,48.28317388154234,-62.51924,0.021455735,1.2447884,3.076149,5.845175,96.313255,48.16691,38.55944,88.086815,88.11414,88.25903,87.30326,18.196749,0.7,-90.151085,-44.78828,0.0009793607,-17.528427,-5.528701,-6.332513,-7.5970855,-6.077103,2.102618e-06,0.3,4.1834497,61.039597,61.063065,60.599556,60.79464,0.43856862,0.4296875,5.587737560272217,14.21616100470225
20,200000,47.88825490031523,-62.556587,0.022168145,1.4773537,3.4486046,2.6693497,212.36691,291.07892,64.84271,88.50105,88.03575,87.90554,87.67738,7.8627934,0.7,-90.11556,-49.87747,0.004934333,-10.723974,-6.2486043,-6.967215,-7.394124,-6.8275905,2.3534521e-07,0.3,5.393609,61.096153,61.037518,61.20591,61.209335,0.35058334,0.47031248,5.542590141296387,14.900840886433919
21,210000,47.547137723609254,-61.19231,0.02234947,0.8903637,2.343308,2.7360106,216.82016,38.021336,61.424072,87.38011,87.1754,87.0373,87.33691,8.588448,0.7,-89.67857,-42.838573,0.00090088724,-12.321633,-4.1106153,-4.5909877,-5.1580505,-6.3950605,2.728484e-07,0.3,5.1702785,59.750233,59.78684,59.79316,59.789276,0.37185797,0.4109375,5.535242080688477,15.584032956759135
22,220000,48.70110579372396,-63.73954,0.022841183,-1.9792373,3.7688859,3.412494,67.19736,67.60903,26.439045,88.65641,88.324036,88.863594,88.71379,19.985113,0.7,-91.452286,-47.655884,0.003422137,-18.373796,-6.8244615,-6.8440175,-6.9556127,-4.6717954,8.1472103e-07,0.3,3.7821517,62.382072,62.306705,62.080166,62.55639,0.5252582,0.41562498,5.4791505336761475,16.26800422668457
23,230000,47.862714795577574,-61.769066,0.022977067,-1.8407625,2.8834982,4.370986,74.811935,40.203438,40.3445,88.22412,88.21429,87.07818,87.833626,6.3224664,0.7,-90.16289,-45.465885,0.006744656,-14.871202,-9.092625,-5.810613,-6.382883,-7.220501,3.319513e-06,0.3,4.278895,60.49775,60.421486,60.2023,60.282715,0.43991715,0.4203125,5.852523565292358,16.951079785823822
24,240000,47.91069489157576,-62.95492,0.023090793,0.19526649,4.02676,2.0968828,217.20049,281.89908,65.95547,88.404564,88.69162,87.97686,88.139595,11.712744,0.7,-91.887856,-43.10118,0.005259419,-12.002129,-5.337345,-6.573036,-5.1303344,-5.7708707,2.6850032e-07,0.3,4.488059,61.670815,61.578175,61.37751,61.41998,0.50107795,0.5109375,5.90068507194519,17.634720714886985
25,250000,47.95038619333036,-62.976414,0.022749918,-0.16866809,2.7602713,5.8927126,70.17794,40.293743,44.946457,87.64506,87.17585,88.58683,86.525154,6.3675675,0.7,-87.77582,-47.957504,0.009052792,-12.739017,-6.814574,-6.868086,-5.3311634,-5.7704678,3.7991413e-05,0.3,4.4884024,61.827606,61.75158,61.55183,61.30959,0.4363853,0.51406246,5.9105517864227295,18.320488731066387
26,260000,47.51190823765223,-64.55188,0.02346425,-2.080822,3.4554064,5.0764046,55.893436,139.08403,34.58367,87.89373,87.767654,88.33692,87.709076,107.58434,0.7,-91.06233,-46.598984,0.00060610607,-14.84882,-4.7958746,-5.919171,-6.9556966,-6.103053,1.8331223e-06,0.3,4.0702696,63.11407,63.160694,62.904182,63.48254,1.075886,0.39843747,6.091939687728882,19.008926721413932
27,270000,47.79998376377999,-64.76755,0.023469923,-1.2476337,3.4981942,3.5951653,203.88629,171.02005,65.123085,88.27088,88.277054,88.53279,88.22452,110.491936,0.7,-91.32446,-48.834396,0.0006881275,-13.324235,-4.499198,-1.7575874,-1.768415,-2.221511,2.7756148e-06,0.3,4.1750607,63.595505,63.661568,63.513676,63.656727,0.76413935,0.43593752,5.8487725257873535,19.69486114581426
28,280000,48.225417363751966,-63.016586,0.023759887,0.13665676,4.774072,3.1391711,124.577644,281.06818,50.549065,86.924095,87.5173,88.358635,86.05532,7.2707458,0.7,-90.75957,-44.383724,0.00012851963,-30.385242,-5.785713,-6.0999737,-4.5350313,-3.976587,3.8404643e-05,0.3,4.3296294,61.568268,61.598602,61.440853,61.53332,0.41988415,0.496875,5.772429466247559,20.377829118569693
29,290000,47.85646193860222,-60.87416,0.023492562,-2.5766678,4.1440935,2.6991048,66.28419,175.58572,30.11168,86.85457,86.465,86.789505,85.750336,19.307995,0.7,-90.31149,-46.23179,0.0037021763,-10.755655,-4.7630653,-5.2843285,-4.9897575,-4.725281,6.041257e-07,0.3,3.9028244,59.634438,59.766388,59.22249,59.3051,0.5114591,0.496875,5.811845064163208,21.064644912878673
30,300000,48.99087443030858,-64.94755,0.02342789,1.5858905,2.3979588,2.3810017,118.59722,51.648415,34.464607,86.78188,85.9816,86.17793,85.65323,4.091916,0.7,-88.053154,-44.159065,0.0014932491,-10.1890545,-4.6793776,-5.9730377,-6.8214855,-4.6627016,1.0043324e-06,0.3,4.940917,63.525467,63.463116,63.620415,63.62764,0.32525152,0.45625,5.772052526473999,21.749332618713378
31,310000,47.7332263690631,-64.06698,0.023694422,-1.1400383,3.121696,3.0248942,63.101383,85.7745,29.132568,88.28344,88.22271,87.832924,87.04286,8.564351,0.7,-90.86837,-47.496708,0.0003325887,-13.295763,-3.5719614,-4.8533564,-4.2794228,-4.5579624,1.5331358e-05,0.3,4.853447,62.745247,62.621105,62.560028,62.536827,0.500628,0.525,5.790725946426392,22.432298946380616
32,320000,47.61409220598986,-62.442184,0.024247821,1.697608,2.265307,6.5437136,210.20781,24.502934,65.14488,87.380974,87.610634,87.75312,87.22088,18.164856,0.7,-88.96331,-45.241062,0.0015078804,-16.119898,-5.922947,-5.0359597,-4.830094,-4.881122,6.67572e-07,0.3,4.838469,61.047836,61.09903,60.820393,60.985928,0.49403593,0.44531247,5.769449949264526,23.11586675643921
33,330000,48.20933742332914,-61.15764,0.023843434,-0.45964384,2.9585972,3.2693212,225.36972,144.50214,66.5625,87.1023,87.04857,87.23199,86.86646,9.59773,0.7,-89.02112,-51.214645,0.0012053277,-30.04013,-4.7092443,-3.67199,-4.910263,-5.6514273,2.6748504e-07,0.3,4.963707,59.703217,59.874695,59.89259,59.92362,0.4656009,0.44375,5.55290412902832,23.794901565710703
34,340000,48.43475568018073,-62.048615,0.02484417,-2.2020783,2.651753,2.6031835,214.23036,48.248062,66.11145,85.72711,85.34617,86.16067,86.942444,11.974733,0.7,-87.97107,-51.178314,0.0004139022,-10.4764385,-4.5354915,-5.0989943,-6.1879883,-4.1376133,7.2671105e-07,0.3,4.0652723,60.68708,60.71001,60.872177,60.829674,0.40063572,0.4796875,5.589140892028809,24.48032946983973
35,350000,48.77181040738947,-64.99594,0.024282152,-1.4154989,2.8300924,0.5843418,48.404625,50.130615,23.21035,87.01963,87.70996,87.4906,87.15508,10.838074,0.7,-90.08569,-43.61634,0.00018398408,-10.778454,-1.4778538,-2.0871348,-3.8396144,-3.1116176,1.1457014e-07,0.3,4.549952,63.50612,63.412865,63.28754,63.323685,0.38738093,0.47031248,5.547377824783325,25.163197859128317
36,360000,49.11063710641118,-63.187126,0.024160234,-0.57390815,2.7532277,1.2940321,79.9217,84.24966,22.320042,87.41949,87.136154,87.17365,86.47243,40.755592,0.7,-88.669334,-42.851707,0.0069269976,-12.731541,-3.4398882,-3.3076124,-5.188679,-3.944496,8.343676e-05,0.3,4.5153184,61.80005,61.820633,61.491646,61.607662,0.6131757,0.496875,5.551578760147095,25.847480352719625
37,370000,48.6681072335332,-60.98153,0.024021335,2.9975944,3.1178489,5.977477,228.59013,171.03848,67.281784,85.19978,84.77855,85.3871,84.729034,6.4783163,0.7,-87.359184,-51.007046,0.00027342362,-12.004679,-4.1074634,-6.543613,-6.497706,-5.4687366,7.245752e-05,0.3,5.0057106,59.57789,59.411915,59.316093,59.531387,0.40361452,0.44062498,5.450319528579712,26.52994196812312
38,380000,48.97351691423608,-63.596313,0.02431039,0.41840598,2.2552454,1.6186984,75.58099,43.627213,41.54081,87.73429,88.30119,88.848976,87.86488,9.128025,0.7,-89.42847,-44.704285,0.00020175037,-12.960039,-3.6386065,-3.7038639,-4.0731883,-3.5882347,1.2293978e-07,0.3,4.5332646,62.17666,62.18302,62.557365,62.372383,0.43682197,0.42812496,5.448119163513184,27.21436434586843
39,390000,48.63328573532502,-63.041065,0.025133584,2.1118994,2.2063284,1.1439304,106.0511,24.684792,45.20166,87.74881,87.80717,88.01326,88.17058,8.988598,0.7,-89.86806,-46.060333,0.0010312318,-11.961808,-2.1578763,-3.2777717,-2.3386788,-2.713914,4.2786996e-06,0.3,4.5391707,61.545555,61.44699,61.786674,61.879925,0.6100775,0.36874998,5.627821922302246,27.90163884162903
40,400000,49.09088693339051,-64.72864,0.025751814,1.2421075,2.75236,2.2306483,68.77967,64.628456,37.279373,85.577415,85.4878,86.50584,85.86397,17.609062,0.7,-87.65591,-39.85803,0.0064599477,-15.283859,-5.711412,-5.2793756,-4.6378455,-3.9318566,1.2146007e-05,0.3,4.311085,63.361847,63.33824,63.50136,63.52838,0.55381805,0.47812498,5.52995491027832,28.586142643292746
41,410000,49.48497841134504,-60.84984,0.025335856,-0.05332911,3.3922243,3.2012093,225.80672,51.620537,58.855,85.55241,85.32158,86.88798,85.899506,44.599888,0.7,-87.83428,-47.37823,0.0012042932,-15.0057335,-4.9613495,-5.3443294,-2.4114757,-3.0753107,3.004773e-07,0.3,4.8647814,59.428253,59.351208,59.884678,59.903713,0.6687442,0.40937498,5.431427240371704,29.270035894711814
42,420000,49.65369190372802,-64.52118,0.026188457,3.1407385,3.2310236,4.535694,107.079666,71.85554,47.54136,86.27352,85.95415,85.6775,87.19819,27.30757,0.7,-87.973526,-45.911213,0.015860323,-15.956806,-7.499683,-6.140621,-5.8148484,-2.9823544,8.802745e-08,0.3,4.711073,63.033165,63.090233,63.09201,63.09717,0.50513816,0.47031248,5.493902921676636,29.954151145617168
43,430000,49.41964693325307,-63.017242,0.02536893,-1.1103086,2.650447,0.46994257,88.887024,231.02557,46.224094,84.53588,84.75583,85.31491,84.948135,17.58254,0.7,-87.33151,-43.41262,0.0059361113,-14.161476,-3.3727221,-2.939647,-3.146937,-3.8101149,5.912036e-07,0.3,4.3148775,61.61501,61.62925,61.878864,61.590298,0.5726651,0.521875,5.579299688339233,30.636160822709403
44,440000,48.95493492878196,-63.723953,0.025834618,-0.53431326,2.0790234,3.1707525,126.066376,26.546217,28.818882,85.39519,85.93242,86.2737,86.26107,16.010214,0.7,-87.28471,-48.508938,0.008719775,-15.728361,-5.79814,-4.1962833,-4.919968,-5.0608015,3.661802e-05,0.3,4.4421525,62.465836,62.511963,62.43138,62.474808,0.6527158,0.47031248,5.527594089508057,31.317275830109914
45,450000,48.197481083075395,-60.87995,0.026350057,0.5077054,3.0435667,5.820759,95.60964,133.49911,34.785606,87.63139,87.947235,85.97866,86.84772,95.409256,0.7,-89.898895,-42.633484,0.0038295118,-14.3852005,-2.6194274,-2.5513465,-2.8620522,-1.9417883,1.5201757e-05,0.3,3.947462,59.594368,59.45202,59.572845,59.758095,1.2808172,0.47031248,5.527011394500732,31.9973507920901
46,460000,48.461357126065664,-64.5099,0.025698846,0.24363059,2.519464,-0.9503716,49.267044,35.324497,28.928696,87.571754,87.38571,87.72204,87.050156,16.531439,0.7,-89.45143,-41.91321,0.00041973667,-13.820933,-0.7632946,-0.20680207,-2.919743,-2.8394291,9.97464e-07,0.3,4.724869,63.042732,63.119267,62.99958,63.04264,0.47137523,0.4125,5.5651538372039795,32.683486040433245
47,470000,47.856775693721346,-60.291847,0.025932176,0.8690066,2.9210205,-0.25865865,118.847946,47.841713,56.00804,86.35547,86.659256,86.03919,86.631325,5.548327,0.7,-89.35379,-65.515,0.0024585924,-16.755802,-2.8460457,-3.0132003,-3.6731143,-2.786351,3.854345e-06,0.3,4.6650324,58.8276,58.784485,58.78238,58.69333,0.42838886,0.496875,5.544647932052612,33.367034471035005
48,480000,48.35420002674746,-61.416306,0.026712283,0.44703484,2.5835645,1.2311759,68.031425,52.87074,19.94421,86.31944,87.49012,86.27985,86.23011,33.246117,0.7,-87.98942,-42.94839,0.0035949983,-11.026379,-3.6502962,-3.4838445,-2.686966,-3.640128,3.0518582e-05,0.3,3.8900557,60.192688,60.214283,60.387203,60.317383,0.48895738,0.41718748,5.492675542831421,34.04832513332367
49,490000,48.59269640621362,-64.1002,0.02637113,0.32528085,2.584744,4.5266275,218.49866,79.87221,67.72891,83.95402,83.700516,83.73659,84.606476,12.355766,0.7,-85.85767,-42.89256,0.00046161475,-14.7030525,-2.5594702,-2.176033,-1.9106246,-2.5943103,9.305659e-06,0.3,5.008216,62.63239,62.614265,62.762558,62.59814,0.47888047,0.48281246,5.538608074188232,34.730543669064836
50,500000,48.07471967741982,-61.126167,0.027544107,-0.66322625,2.2988176,-0.13885903,72.254875,23.400772,18.787186,85.642105,86.082825,85.7211,85.97301,12.327251,0.7,-88.15444,-54.956318,0.001940506,-16.005621,-2.2428086,-1.5032091,-1.2405484,-1.1738634,6.686144e-06,0.3,3.9053535,59.682495,59.714638,59.865208,60.11719,0.41938573,0.4171875,5.4729273319244385,35.41161293586095
51,510000,48.992673745339815,-62.622974,0.026942872,0.9792764,3.0726295,0.102814436,215.58228,50.853287,67.0951,87.238594,87.1555,87.630005,88.05275,24.529894,0.7,-88.52645,-43.973866,0.003719406,-9.212028,-2.9800289,-2.7844024,-4.0834675,-3.3578866,4.2808097e-05,0.3,5.397356,61.24808,61.292923,61.556313,61.39904,0.53183097,0.48125,5.451273679733276,36.093672728538515
52,520000,49.07642223489375,-64.132256,0.026527967,0.5496477,3.007403,1.8682473,222.30124,128.05284,69.18566,86.313225,86.353004,86.42542,85.039825,114.086784,0.7,-88.42673,-48.632797,9.31686e-05,-12.760233,-2.1928236,-3.4622355,-2.0817144,-3.4756975,6.9849198e-09,0.3,5.148773,62.45176,62.547676,62.372704,62.391556,0.94267654,0.465625,5.4018731117248535,36.772754851977034
53,530000,48.78369753052733,-61.095535,0.027501652,-2.8142018,2.5856643,-0.5001067,61.154892,66.035515,39.356354,84.96432,85.23034,86.803154,85.75364,51.182198,0.7,-87.393936,-49.903633,0.0018632249,-12.860547,-3.0232291,-2.5601707,-3.2189696,-2.715872,8.050836e-06,0.3,4.0737743,59.905098,59.988323,60.41542,60.24041,0.56075025,0.42499998,5.402865409851074,37.44992830753326
54,540000,48.90324629018491,-61.702023,0.027768832,-1.2935469,3.9105396,-1.7810272,70.338234,120.57572,38.991684,86.43,86.05518,86.43364,87.73888,23.178782,0.7,-87.74952,-45.19257,0.008302551,-17.83609,2.5955827,2.6981153,1.1434873,1.0336065,2.0366528e-05,0.3,3.931117,60.275322,60.28679,59.86184,59.89491,0.625701,0.4828125,5.483308553695679,38.13456194003423
55,550000,48.41560407089388,-61.426895,0.027266685,0.7054515,2.0768886,4.7852297,80.18912,48.375694,27.155933,86.325485,86.15966,86.0122,86.066986,8.496989,0.7,-86.98091,-42.18165,0.0011261762,-15.2984915,-2.9010744,-2.06787,-3.1158564,-5.434496,4.313345e-06,0.3,4.9425373,59.933792,59.944782,59.778004,59.853745,0.51564723,0.45156246,5.44516921043396,38.818034629027046
56,560000,48.41857318657388,-62.183464,0.028027115,0.5945766,2.9336436,-0.46948457,221.83963,43.04262,68.95215,84.882904,84.57807,85.12352,84.937874,8.536955,0.7,-87.384766,-47.999332,0.00960406,-13.320784,-1.9006271,-1.6614019,-1.4847474,-2.3002162,1.4844421e-05,0.3,4.370623,60.86163,60.89248,61.21013,61.103973,0.5364179,0.4578125,5.493613004684448,39.502493127187094
57,570000,49.73758762861498,-64.10762,0.028039433,0.41508207,2.4239419,0.8970294,218.73271,32.88785,64.71642,86.94964,85.766556,87.0862,85.9832,14.790502,0.7,-87.64534,-46.93935,0.00087088876,-14.3485565,-3.5968673,-2.8457482,-1.8207616,-2.2873082,2.5799523e-06,0.3,5.0491276,62.72666,62.731647,62.99578,62.86395,0.5166469,0.42812496,5.382281541824341,40.18721348444621
58,580000,48.80204050332483,-60.75677,0.02861657,1.4778194,2.5522246,-0.36103642,205.78616,57.0316,67.68106,87.46712,87.38457,85.70807,86.83923,5.1898723,0.7,-88.306015,-49.156963,0.00039116337,-18.448286,-1.4203624,-2.3075347,-3.4833016,-2.9235878,1.7214916e-07,0.3,4.556142,59.54722,59.34005,58.847046,59.07707,0.31945294,0.471875,5.5792787075042725,40.874216024080916
59,590000,48.920768766468,-60.693115,0.028402358,-1.264786,3.2693849,0.8623836,216.96759,115.0217,68.806335,86.63021,86.177284,85.92948,85.1902,54.582314,0.7,-88.16545,-53.886646,0.00027089287,-26.582125,-2.3138266,-2.3769612,-1.9824071,-2.908902,1.1457014e-07,0.3,3.619521,59.625195,59.389694,59.222492,59.330894,0.619794,0.46406248,5.399739027023315,41.55492681264877
60,600000,48.85165262558842,-65.16487,0.028172629,-1.8632283,2.2092876,4.0190763,50.741173,50.89425,25.330147,84.9853,85.22615,85.277916,85.30997,6.721862,0.7,-86.637505,-46.076153,0.0003720614,-17.69746,-1.1806875,-0.9991354,-2.6469553,-2.0928955,3.6603535e-07,0.3,4.6690264,63.85563,63.821285,64.21442,64.12158,0.46468753,0.503125,5.595423936843872,42.24248302380244
61,610000,49.09453707075587,-60.481438,0.028426515,-0.67295086,3.1653512,1.904155,109.18087,103.80815,41.007706,84.93144,85.583626,85.926956,84.99801,63.96022,0.7,-86.896,-44.79549,0.021571452,-16.697243,-2.6297262,-3.7151601,-4.385249,-3.0978255,4.7218055e-08,0.3,3.8006494,59.16459,59.115326,58.86484,59.040348,0.7307177,0.53437495,5.445715665817261,42.92675436337789
62,620000,49.65990893772141,-61.83869,0.028540278,1.2852497,2.655352,1.1978407,223.68056,76.76589,68.91359,84.77125,84.647095,85.2851,84.48973,7.9694905,0.7,-87.70734,-46.34623,0.0037193121,-32.126965,-2.1958816,-1.735698,-2.5337336,-2.2872381,0.00019973244,0.3,4.8822713,60.386276,60.344307,60.562366,60.45465,0.51290274,0.43124998,5.515792369842529,43.61200373967488
63,630000,48.491364666924156,-62.107338,0.028327312,-0.7332455,2.5276923,-0.89715886,165.41873,63.261723,58.167168,85.65823,84.76554,85.169815,84.69741,23.429482,0.7,-87.40239,-42.04054,0.0034245255,-28.471054,-1.9751073,-2.3703022,-3.1540523,-2.588122,9.561656e-07,0.3,3.9202719,60.808006,60.738205,60.88803,61.07715,0.5024866,0.40937498,5.495489835739136,44.29212657213211
64,640000,48.52654248632592,-62.504425,0.028570494,-0.24606717,2.7996778,0.5069673,60.174397,99.99639,25.864864,85.773384,86.015236,86.131424,86.33487,21.764702,0.7,-87.6712,-42.156654,0.003019922,-11.825188,-3.7942657,-3.1801293,-0.9102926,-0.7973359,2.4472684e-09,0.3,4.4938025,60.984432,60.958954,61.14061,61.36319,0.50334716,0.434375,5.5391809940338135,44.97668695449829
65,650000,49.24949014088422,-61.77047,0.028744796,2.1079893,3.1995144,-0.41777706,221.6767,85.608376,68.468704,86.60869,86.595116,86.65982,85.64394,15.534404,0.7,-89.26515,-41.3015,0.0008092374,-10.601639,-2.483798,-2.3017437,-0.9830409,0.020224392,3.0589988e-06,0.3,5.097809,60.266075,60.387615,60.684452,60.665665,0.49606562,0.44374996,5.441291093826294,45.662268324693045
66,660000,48.83571077994041,-62.741966,0.029559435,0.51753706,2.7478354,0.38458455,160.83763,36.50505,51.718903,84.95211,84.934204,84.53588,84.21157,9.549166,0.7,-86.49474,-41.15296,0.0009127679,-14.685034,-1.4406441,-2.0038624,-3.3671925,-2.3137202,1.69985e-06,0.3,4.8092823,61.546207,61.37269,60.806507,60.902203,0.52046025,0.52812505,5.583303928375244,46.347858417034146
67,670000,49.235182370509975,-61.042698,0.028844224,0.6901848,2.5746458,-0.27465296,97.7908,57.404335,29.578636,85.67169,85.44029,85.80815,85.84038,10.805742,0.7,-87.43178,-45.35105,0.0032069762,-16.469786,-1.5938723,-1.3753196,-2.3417423,-1.9258175,2.118107e-06,0.3,4.457984,59.552383,59.35545,59.360935,59.38314,0.42344052,0.484375,5.5885748863220215,47.03200450738271
68,680000,48.49649190291629,-61.767975,0.029568385,0.25435168,2.8928037,-0.60356545,224.10492,41.368053,70.67347,85.64806,85.528206,86.19937,86.02615,9.814325,0.7,-88.11149,-41.226254,0.002221722,-16.10729,-0.78689885,-1.2255088,0.27192473,-0.07019538,2.1892034e-05,0.3,4.8711042,60.20742,60.10031,60.040497,60.231636,0.34635097,0.4265625,5.58486795425415,47.72079102993011
69,690000,49.429495751189805,-65.667656,0.0293322,2.3527818,2.1975067,-0.6874199,226.22086,39.97581,71.46276,86.80648,86.922165,87.13853,86.49078,19.831356,0.7,-89.77833,-42.85538,0.0047800806,-10.8918705,-0.0878768,-0.23662114,-0.13223249,-0.7236881,5.2824325e-06,0.3,5.196755,64.25975,64.18182,64.25004,64.241684,0.5085366,0.4671875,5.456552505493164,48.40575226545334
70,700000,48.5050630867017,-60.222248,0.029201025,-1.9119229,2.3243709,-0.8220111,54.36336,35.48208,28.98677,84.85647,85.53421,85.65948,86.13723,11.02924,0.7,-87.305565,-45.47249,0.0032838006,-11.839916,-1.5096183,-1.3339255,0.72828454,0.66086185,1.9965228e-07,0.3,3.903744,58.807655,58.867527,58.901855,58.83496,0.50081,0.496875,5.514991998672485,49.09539189338684
71,710000,48.66901315869575,-58.81431,0.02978427,-0.99076396,2.1982574,2.8145792,41.747906,51.518967,27.19725,83.90083,85.01865,84.103645,84.04308,12.31688,0.7,-86.32766,-48.456318,0.005530526,-13.829701,-2.2158318,-2.4276657,-2.3752255,-2.4576616,8.071948e-07,0.3,4.297586,57.47477,57.518867,57.44992,57.54864,0.48375303,0.509375,5.566458463668823,49.782423718770346
72,720000,49.05759183383947,-61.9703,0.029633457,-1.8135076,2.2512069,-1.049837,230.56374,38.52737,71.85694,85.82208,85.6234,85.50569,85.39891,81.76052,0.7,-87.84412,-51.49145,0.0023443452,-14.059467,-1.4407808,-0.56147766,0.0073106214,-0.33456385,2.3659599e-05,0.3,4.112954,60.38234,60.44746,60.79397,60.671547,0.8756931,0.48125,5.440026044845581,50.46975574096044
73,730000,49.551161181909414,-67.17893,0.030002924,-0.55639386,2.387372,-0.5741383,93.530106,45.8784,20.541868,84.91675,85.080605,85.67986,85.062035,11.270178,0.7,-87.45057,-52.395535,0.004249313,-13.654135,-0.5801995,-0.061733484,0.6396844,0.22839266,1.0726242e-06,0.3,4.5074005,65.882904,66.00517,66.156586,66.05565,0.5072404,0.47031248,5.649379014968872,51.15251458883286
74,740000,49.045092956980106,-57.816452,0.029989094,-1.0906188,3.1086936,-0.9078647,228.06458,106.38431,61.4847,85.50874,85.901924,85.91292,86.30083,46.568687,0.7,-88.89579,-45.49801,0.0041852337,-14.125329,-3.0559924,-3.5259361,-3.6322734,-0.7380774,0.00011872583,0.3,4.032527,56.34487,56.39975,56.324383,56.607456,0.64317393,0.39218748,5.7059102058410645,51.84010645945867
75,750000,49.45220921492373,-59.06129,0.029866615,-0.21911454,2.7500648,3.738268,226.76823,55.885384,62.9472,83.90574,84.456085,85.189125,83.750305,10.403126,0.7,-86.638275,-45.46836,0.0017512918,-15.179163,-1.4173882,-2.3760262,-2.804146,-1.6400249,1.6191087e-06,0.3,4.5310907,57.38144,57.54289,57.230923,57.32393,0.46623725,0.46406248,5.790679693222046,52.52125511964162
76,760000,49.279711211320674,-59.503952,0.029845623,-1.1196145,2.5022817,-0.20646012,82.50754,85.18543,36.64091,85.6208,85.96501,86.57884,85.5755,28.655912,0.7,-89.00763,-54.674328,0.0065924493,-17.05278,-1.0744703,-0.7059473,-2.6864886,-1.6983864,1.4383521e-06,0.3,4.1490383,58.109406,58.112713,58.37958,58.473156,0.51453835,0.43124998,5.833167552947998,53.20781475305557
77,770000,48.884830457535074,-64.88242,0.030836254,-0.6277504,2.3602688,-1.4967184,52.372643,31.0972,23.548542,85.60445,86.10712,85.90697,85.134796,5.2483916,0.7,-87.42881,-41.27083,0.0010268487,-14.551893,0.88635015,0.59483266,-0.5049871,0.037743807,2.231216e-05,0.3,4.2596574,63.525597,63.554115,63.380688,63.28073,0.38167694,0.471875,5.681743621826172,53.88686990737915
78,780000,49.58482987007939,-60.667957,0.030457228,-0.3095337,4.547036,-0.8591547,224.13416,577.28186,61.00022,86.42999,85.815094,85.11892,85.8934,27.155666,0.7,-86.70599,-43.557316,0.0006225101,-10.493526,-2.383089,-1.8189638,-2.7672179,-1.0605252,1.0825635e-06,0.3,4.814759,59.26968,59.263794,59.046432,59.199455,0.54686964,0.459375,5.7331178188323975,54.57162926594416
79,790000,49.05056355545217,-65.37034,0.030680915,0.30910048,2.6685472,-1.286907,64.21948,66.26603,21.088055,85.01298,84.94699,85.80082,84.36285,7.0350175,0.7,-86.89566,-57.717033,0.0070267445,-11.166593,1.095611,1.6674538,-1.3421161,0.95600003,5.4566367e-06,0.3,4.74813,64.17276,64.07218,64.24148,64.13413,0.4846474,0.453125,5.774032115936279,55.25512110392253
80,800000,49.57015961222284,-61.87317,0.030856874,-2.232001,3.00906,-1.4158008,84.406265,62.3863,53.467598,84.273285,84.54321,85.12097,84.85058,62.22156,0.7,-86.095184,-42.9795,0.007964884,-13.133672,-0.8323574,-0.79663336,1.0746394,0.95334077,7.9504787e-07,0.3,4.3142986,60.57602,60.48225,60.623146,60.658134,0.59154505,0.49374998,5.623554229736328,55.94033439954122
81,810000,48.46365084867432,-62.583557,0.031533897,2.2109094,2.067287,-0.52156687,226.53096,23.832144,70.16597,84.51255,84.88207,84.950356,84.980385,9.836561,0.7,-85.89409,-40.086365,0.006514054,-14.972688,-0.66674113,-0.54910207,1.5536013,0.5492031,1.2355624e-06,0.3,5.072817,61.10827,61.18119,61.081055,61.099808,0.47606227,0.471875,5.829227447509766,56.62435204188029
82,820000,49.12795881761781,-64.330894,0.031392638,0.61918986,2.4979875,-0.7029917,71.29749,43.371376,17.911655,84.69681,84.9959,84.35236,85.31488,28.464727,0.7,-86.10975,-40.100574,0.008073287,-15.419102,-0.9976015,-1.77221,-2.2892613,-1.4098794,6.843056e-06,0.3,4.6773334,63.037464,63.012417,62.73696,62.910717,0.63203186,0.48125,6.0011515617370605,57.3130943497022
83,830000,48.88561293469357,-61.871437,0.030974144,-0.12205845,2.7431421,-1.3066715,235.57016,25.13885,67.560486,84.911575,84.949036,86.11339,84.43721,32.715435,0.7,-87.15183,-50.99409,0.00012871606,-17.457983,-0.6894803,-1.2589312,-2.2878506,-0.8706139,1.3341269e-06,0.3,4.9060135,60.213913,60.36584,60.452435,60.38595,0.6179968,0.48593748,5.634241580963135,57.99368840058644
84,840000,49.41141572637694,-60.46927,0.030749066,0.6625378,2.866654,-1.0609295,228.64188,60.15401,74.94347,84.06121,84.10866,84.00137,84.23279,134.45181,0.7,-86.5735,-39.880516,0.00085354043,-18.948137,-1.1800046,-1.4012239,-1.7247119,0.51948386,2.3335499e-05,0.3,5.045191,58.701065,58.871674,58.90599,58.982563,0.8962269,0.43124998,5.55012059211731,58.68019410769145
85,850000,49.24852961317555,-61.523293,0.030779645,0.24190098,2.1974702,1.529314,239.05072,26.600391,74.13336,85.495224,85.76446,85.57192,85.28411,16.481268,0.7,-86.01239,-47.619137,0.0019096232,-18.434685,-0.7857516,-0.14821899,-1.1905015,-0.38687795,2.3519797e-06,0.3,4.804984,60.024113,60.095192,59.983994,59.91626,0.5402551,0.46718746,5.709579944610596,59.36481039524078
86,860000,49.55510644615261,-63.595238,0.030857023,0.85217136,2.677682,-1.3051682,94.21352,44.27382,17.898325,83.63233,83.49298,84.33367,84.69074,14.603373,0.7,-85.37816,-38.650547,0.009815803,-14.396193,-0.3341539,-0.54455316,0.42466673,0.7875363,1.2478267e-06,0.3,4.7698693,62.10696,62.27089,62.765854,62.64356,0.45924795,0.4328125,5.482055187225342,60.049394285678865
87,870000,48.95710234566837,-61.478226,0.030990256,-1.4714441,2.6994927,-1.4283764,71.72245,59.601547,32.80031,85.0954,84.2801,84.780945,83.81603,5.845958,0.7,-86.91255,-40.71795,0.00067680085,-15.815269,1.1174304,1.1973668,-0.4178101,-0.3288148,7.242244e-06,0.3,4.2712636,60.135567,60.13474,59.87629,60.061634,0.54390985,0.459375,5.6148762702941895,60.736114195982616
88,880000,49.510645985022855,-61.858364,0.03130266,-1.1238151,2.336273,-1.5001507,72.80325,43.972702,42.60392,86.02427,85.80769,85.6709,86.3077,96.864365,0.7,-87.57443,-44.573997,0.005382322,-13.969901,0.037961006,-0.07693744,1.8672838,-0.23767304,3.168988e-06,0.3,4.6702776,60.41707,60.28258,60.7799,60.80614,0.76308787,0.42343748,5.569391965866089,61.424296605587
89,890000,49.31219672165112,-64.08052,0.03108493,4.1393514,3.0707788,3.8654728,239.694,40.64839,75.23533,85.09827,84.451706,86.05255,84.96187,3.5744402,0.7,-87.53466,-39.767273,0.014622748,-21.710972,-3.1572895,-1.6843789,-0.22883666,-0.4597004,0.0001787022,0.3,5.6626644,62.427643,62.38317,62.983246,63.072685,0.36543843,0.4015625,5.680356740951538,62.11086018482844
90,900000,48.90499143502446,-62.361633,0.032106068,0.8791434,3.300794,-1.358846,234.96658,50.953133,71.89372,86.990944,86.347595,85.52566,86.04179,46.3834,0.7,-87.78502,-46.04634,0.002944418,-15.3238,-1.0161834,-0.44928837,0.7272599,-0.12037116,1.0058284e-08,0.3,4.4015617,60.585655,60.849335,60.15734,60.68835,0.80859977,0.428125,5.557765007019043,62.794593644142154
91,910000,49.64052782311102,-60.43598,0.03101535,0.5193738,2.647218,3.13065,235.03108,52.82083,75.31213,85.83153,85.925316,86.22803,85.87265,41.757816,0.7,-87.71766,-39.57698,0.0012728702,-14.090055,-2.6668305,-3.6078303,-0.8819255,-1.532997,5.586112e-05,0.3,4.1733894,59.02717,59.121002,59.200317,59.307384,0.68853986,0.453125,5.548651933670044,63.47905685901642
92,920000,49.00881494250322,-65.37047,0.031935487,-0.20281368,2.7637177,-1.7634413,45.025772,53.375435,25.392366,83.81317,84.149185,84.90639,84.63635,16.30237,0.7,-85.17171,-43.19458,0.004974111,-15.8677025,-0.90115714,-0.40620005,2.9001422,1.1508267,2.2858188e-05,0.3,4.912228,63.888275,63.998505,64.20546,64.14366,0.61138284,0.44687498,5.546899318695068,64.16360856294632
93,930000,49.19467328551102,-63.808353,0.031066187,0.839266,3.6263149,6.1154194,85.784,197.56944,37.49034,85.44608,84.99968,85.11734,85.35267,104.1265,0.7,-86.02926,-39.077003,0.0031053885,-15.490547,-0.67384136,0.31904948,1.1500359,0.3975612,2.3905887e-08,0.3,4.913093,62.190723,62.30573,62.494503,62.719463,0.87761855,0.421875,5.468393087387085,64.8451421380043
94,940000,48.88865344053498,-61.14666,0.030933069,-0.5396539,2.2570286,-1.0959079,235.32527,78.68155,74.68574,86.56072,86.94791,86.3895,86.596825,7.8285565,0.7,-90.15975,-42.643383,0.004159107,-11.279165,0.3262484,-0.7509949,-1.5675513,-0.41449434,7.516307e-06,0.3,4.849644,60.077293,59.991444,59.70439,59.897614,0.39465588,0.4609375,5.479114055633545,65.52526474396387
95,950000,49.151239948771156,-62.89311,0.03319293,0.48635578,3.5508215,-0.81887496,234.2517,232.25462,70.59927,85.5992,85.46756,85.17081,87.077774,72.54971,0.7,-89.47763,-49.566803,0.0033167715,-15.5602665,0.62289274,0.5202286,-0.53418285,-0.8881259,1.7288113e-07,0.3,4.7576222,61.236034,61.06066,60.9049,61.364365,1.0078428,0.44062498,5.593193531036377,66.20828799406688
96,955000,49.2312289494361,-58.88991,0.032035694,-0.56352913,2.533927,-1.2676089,38.58251,110.61511,24.155964,85.28821,85.8692,85.23129,85.994675,75.21014,0.7,-86.85242,-40.164875,0.001001183,-20.159185,-1.3056573,-3.2551804,-1.2725254,-1.5226824,2.1554296e-08,0.3,4.2351685,57.38176,57.344635,57.221004,57.277718,0.94073814,0.49531245,5.56889533996582,66.59498154719671
97,960000,49.36421994758181,-62.307686,0.032085124,0.90987027,2.1841562,-1.7199851,234.23763,20.817995,75.39016,86.17311,87.04623,85.59668,86.24869,15.6127405,0.7,-87.21594,-41.550957,0.0020228392,-11.94344,-1.2299992,-0.8060875,-1.7449261,-0.3218273,1.6673177e-06,0.3,5.006345,60.93421,60.778877,60.62906,60.678986,0.4351177,0.496875,5.6019110679626465,66.98494021495183
98,965000,49.19835882018934,-63.06118,0.031889487,-0.097877815,2.7962723,-1.4773946,230.95363,52.1733,75.99164,85.60406,86.65741,84.9933,85.56808,8.150408,0.7,-87.54146,-39.613056,0.011545054,-16.867912,1.7164005,1.511026,-1.7609535,-1.0016726,5.003403e-06,0.3,4.635229,61.711258,61.692417,61.07977,61.51552,0.4193242,0.421875,5.582502365112305,67.37640659411748
99,970000,49.35145354947114,-66.716415,0.03152541,2.1430783,2.2481613,-1.4789643,67.12561,36.977238,27.715252,86.902885,86.93176,86.29692,86.426796,22.24799,0.7,-88.84323,-39.36362,0.0027803578,-14.003025,0.083844066,1.1281615,0.7597587,-0.66438895,8.840289e-07,0.3,5.0626535,65.12128,65.26242,65.05553,65.04903,0.5740092,0.4453125,5.556435585021973,67.76517849763235
100,975000,49.05469481283314,-60.20234,0.031471122,1.0593901,3.461928,0.52100194,73.739395,262.00375,30.982985,85.713524,84.61015,85.33009,85.38462,82.86913,0.7,-86.46016,-41.63359,0.002628927,-20.191795,-0.6107936,-2.9025443,-2.4257026,-4.1659937,2.0080945e-06,0.3,3.4360204,58.74691,58.815376,58.41902,58.699142,0.87121665,0.5046875,5.628718852996826,68.15664787689845
101,980000,49.21174799106329,-64.41609,0.0328903,-0.28786576,2.5932417,-1.6928203,234.26244,47.8875,75.26163,86.3798,86.35611,86.99425,85.61247,4.0044947,0.7,-87.85554,-42.836567,0.01687772,-21.78718,0.20547247,0.20074856,-0.29947335,0.029495955,1.6673177e-06,0.3,4.9992704,63.100372,63.07072,63.26715,62.991592,0.36001968,0.47968748,5.673506259918213,68.54627312421799
102,985000,49.294718329224374,-62.836823,0.032129094,-1.2469169,2.982587,1.2315483,47.97063,52.817703,42.228058,85.46004,85.19418,84.78754,84.62165,9.652393,0.7,-87.16789,-53.827618,0.0062987143,-11.516764,0.66592026,0.48429358,-0.8532963,-0.6537116,2.7939678e-10,0.3,4.336817,61.469162,61.46427,61.12983,61.165863,0.45303547,0.5234375,5.512361526489258,68.93585087855656
103,990000,49.498615314908875,-60.039177,0.031781834,-0.8648786,2.5146377,-1.5126483,233.50842,31.693138,74.956985,83.799805,83.86655,83.91562,83.51683,7.631934,0.7,-86.60143,-46.764446,0.00479858,-11.799497,-1.379044,-0.4964757,-0.77958435,-0.9896264,1.1485321e-05,0.3,4.5820026,58.455124,58.449715,58.161358,58.170876,0.44511813,0.490625,5.543637990951538,69.32267303466797
104,995000,49.09530228888137,-60.721573,0.032805767,-0.23434675,2.4052181,-1.5493987,86.54012,26.502941,46.17437,84.735954,85.39944,86.75584,84.7805,9.416745,0.7,-87.18276,-38.717903,0.005385434,-15.488909,-0.16246998,-0.7127446,0.9168843,0.8976607,1.8672262e-06,0.3,4.405096,59.150093,59.108406,59.374863,59.234818,0.500297,0.471875,5.503067970275879,69.70860866705577
105,1000000,49.058805524227154,-63.67533,0.032759566,-1.6909795,3.2107146,-0.24753928,100.78762,81.99977,54.115444,84.02396,84.65199,84.50125,84.45219,6.9057426,0.7,-85.41523,-39.870037,0.0002944265,-14.611034,-0.49241567,-0.3373735,-1.9422605,-0.42137408,4.141516e-06,0.3,4.6585445,62.364014,62.376724,62.454918,62.622192,0.42526752,0.40624997,5.467132091522217,70.09592111508051
