Xixo99/comfo/baselines/comfo6_perterbation_actor/20230222_actor_perterbation/halfcheetah-medium-replay-v2/COMFO6_s2_20230222_094158_halfcheetah-medium-replay-v2_48.09.csv
,step,reward,actor_loss,alpha,alpha_loss,critic_loss,max_actor_loss,max_alpha_loss,max_critic_loss,max_mle_prob,max_q1,max_q2,max_target_q,max_v,max_value_loss,max_weight,min_actor_loss,min_alpha_loss,min_critic_loss,min_mle_prob,min_q1,min_q2,min_target_q,min_v,min_value_loss,min_weight,mle_prob,q1,q2,target_q,v,value_loss,weight,eval_time,time
0,0,2.2538031581777638,,,,,,,,,,,,,,,,,,,,,,,,,,,,,,,,,
1,10000,2.726881685865422,-24.744192,0.072046585,-5.4728346,1.490046,3.0130296,22.345173,87.34471,41.599907,39.341866,39.2625,39.119682,38.54778,1.5029274,0.7,-40.691246,-32.18349,0.0019716476,-12.334557,-2.9991958,-3.7300446,-2.6778286,-3.0401862,1.2478267e-06,0.3,4.297164,23.798008,23.790743,23.921574,23.480541,0.12900072,0.46249998,5.7774059772491455,1.9289511481920878
2,20000,3.4959003815539984,-39.56196,0.014532523,0.54434824,3.6410265,4.551445,230.82178,134.43805,42.986885,63.774902,63.715416,63.795452,65.41381,6.021991,0.7,-65.599304,-47.012337,0.0009857289,-14.191694,-4.7565475,-4.0417085,-4.3646274,-3.3003726,6.604678e-08,0.3,4.0162067,38.423363,38.392113,38.576626,38.32474,0.22120987,0.4296875,5.710692644119263,2.5912407835324607
3,30000,15.975400210256344,-50.03576,0.023850746,0.84060866,3.6801126,7.1447134,55.037075,192.33327,29.807098,73.916306,73.46736,74.07337,73.03132,6.72711,0.7,-75.9403,-42.3431,0.0051147975,-19.107765,-8.003061,-7.594643,-8.1505785,-7.569095,1.8747043e-06,0.3,3.5977356,48.933342,48.89444,48.614086,48.790394,0.24917987,0.42343748,5.670378923416138,3.252738074461619
4,40000,36.74571480281693,-55.712364,0.029057661,-0.2564414,2.9888945,5.4680433,49.03714,83.08037,17.603825,83.60664,82.76078,83.37795,80.807846,5.963502,0.7,-84.70909,-42.059673,0.0018542366,-13.846205,-7.488969,-7.774731,-10.255855,-7.9918633,8.7374116e-07,0.3,4.05782,54.70784,54.644516,54.743507,54.684845,0.33834273,0.43281248,5.64333701133728,3.9282550891240438
5,50000,43.135648981518884,-57.525017,0.029422764,0.2024496,4.0109115,10.296199,47.973953,120.55827,24.38641,83.22296,83.51899,84.64756,83.74902,20.7935,0.7,-84.14624,-43.58581,0.0046158824,-26.089006,-10.160965,-10.921884,-11.336202,-10.181978,2.5025145e-06,0.3,4.0795236,56.35546,56.34668,56.794983,56.713684,0.42797887,0.48125,5.659003496170044,4.611720701058705
6,60000,45.1140143963772,-58.315136,0.02803176,-1.7115045,2.766158,13.321293,72.45018,56.326584,41.013447,84.08616,83.926544,83.94707,83.44469,7.8408823,0.7,-86.21405,-44.037113,0.00617286,-10.918146,-18.040855,-17.416142,-16.24374,-16.925928,5.8540786e-06,0.3,4.784622,57.043327,57.058235,56.875973,56.847008,0.3544886,0.4640625,5.657533645629883,5.287810842196147
7,70000,45.491437034084,-58.649986,0.025278408,1.6563476,3.9632573,10.621088,212.79413,109.39331,64.41288,87.453384,87.512184,87.22703,86.97373,10.385908,0.7,-87.6667,-44.339565,0.0036789118,-21.674356,-10.21747,-9.15086,-8.943099,-9.964544,3.3003744e-07,0.3,4.7037673,57.28412,57.253494,57.220814,57.47948,0.36198312,0.44375,5.736603260040283,5.964553574721019
8,80000,46.192849336154126,-62.854935,0.023984771,1.4884499,3.836918,11.885023,203.1012,71.44293,62.58541,86.57379,86.474464,86.07011,86.53176,10.211373,0.7,-88.77739,-53.99311,0.00271839,-26.635166,-15.288259,-16.375238,-14.267756,-15.294026,1.936377e-06,0.3,4.78607,61.574837,61.49874,61.578022,61.523796,0.45240533,0.44843748,5.543088674545288,6.641352883974711
9,90000,46.29579988688212,-59.72953,0.022660105,-0.5203659,3.379223,7.3986835,193.96931,141.66104,53.666508,87.40074,87.45753,87.64934,87.03143,14.2854395,0.7,-88.1683,-50.672215,0.004239424,-20.780941,-13.198562,-13.756859,-14.669473,-14.933835,9.334362e-06,0.3,4.160709,58.55314,58.546505,58.64755,58.500816,0.4625431,0.4921875,5.62658166885376,7.314821418126424
10,100000,46.68141238100231,-62.95299,0.021271456,0.71844256,3.8497083,9.073137,131.01749,165.68451,46.186367,89.652145,89.65126,89.52759,91.28807,15.764453,0.7,-91.27176,-47.955677,1.1178288e-05,-13.814682,-11.877455,-11.636074,-13.042845,-12.540704,3.956538e-06,0.3,4.566828,61.584785,61.61719,61.335434,61.518463,0.38434052,0.4359375,5.638268947601318,7.9888734221458435
11,110000,46.18222871157523,-66.172455,0.019886283,1.3977654,2.9838524,8.247969,125.51719,40.241188,22.808796,88.567474,89.25353,88.65363,89.635056,8.753607,0.7,-91.76597,-47.11444,0.006919191,-16.89883,-7.894047,-8.16591,-8.745926,-7.529848,3.4226106e-09,0.3,4.156967,64.925064,64.88786,64.85217,64.94226,0.40197325,0.421875,5.759860992431641,8.66816141208013
12,120000,46.882044783194964,-65.03473,0.01899472,-0.6506508,2.244518,13.918671,220.81825,42.11089,62.808964,88.53104,88.35696,89.74794,88.20317,4.9596696,0.7,-90.866425,-49.67149,0.00092910917,-13.257538,-9.227057,-10.36022,-9.200183,-9.397675,2.0424604e-06,0.3,4.7445526,63.713497,63.641357,63.86747,63.8124,0.33057666,0.44374996,5.678111553192139,9.338390906651815
13,130000,46.16627364539777,-61.383324,0.01911736,0.781043,3.152677,6.802859,224.64374,56.330784,64.443115,87.53725,87.51826,86.94447,87.52439,33.342346,0.7,-89.42463,-44.953487,0.0016605884,-10.642659,-10.637863,-10.572262,-9.964757,-10.177849,1.466833e-09,0.3,4.418413,59.986187,59.956055,60.343147,60.391064,0.47347653,0.459375,5.710606336593628,10.011731108029684
14,140000,46.85559227333015,-63.222294,0.019536592,-0.34647247,2.3263235,6.883262,149.48111,51.099792,36.859463,88.41676,87.97331,87.90768,87.60705,5.2744107,0.7,-89.91757,-57.885372,0.0010929168,-18.743938,-9.022009,-9.622016,-8.390791,-8.147383,4.660148e-06,0.3,4.3229837,61.731903,61.889637,61.7606,61.749638,0.3637132,0.48125,5.612703561782837,10.688866941134135
15,150000,46.89343109346238,-61.689392,0.019087672,-3.3529868,2.857227,5.548806,53.288654,47.384995,24.380156,88.439186,88.75253,88.72687,89.33352,28.98678,0.7,-89.83879,-50.399483,0.002354762,-12.297897,-8.988936,-7.934919,-7.5111685,-6.870998,5.6389414e-05,0.3,3.7793212,60.36419,60.35031,60.20692,60.523636,0.46011174,0.4265625,5.632943391799927,11.364862724145253
16,160000,46.833108440882384,-61.86794,0.019631732,-0.7457151,1.953123,5.0714912,215.24138,32.57642,61.80707,86.62998,86.15961,86.36773,86.782295,20.723782,0.7,-88.93762,-48.997723,0.0004881859,-15.713257,-8.016911,-8.006471,-8.1435585,-6.6716146,3.428162e-06,0.3,4.162201,60.5017,60.52823,60.53644,60.738647,0.47679943,0.41718748,5.70743465423584,12.04431521097819
17,170000,47.37317624113504,-62.428,0.01988512,0.260432,2.9258444,2.7222767,215.88345,117.013565,63.809624,85.13128,85.18448,85.6141,86.27679,86.65573,0.7,-88.05292,-48.383335,0.0018880763,-15.572318,-6.821205,-7.191516,-6.691149,-6.357071,1.5442253e-09,0.3,4.68182,61.148388,60.94709,61.340744,61.647594,0.8937664,0.43593752,5.616112232208252,12.720023465156554
18,180000,47.548798924225224,-60.71867,0.019259945,-2.0801902,4.1840754,6.5840406,74.032845,364.7601,33.46788,86.12689,85.70765,86.15666,86.90287,38.92617,0.7,-87.61101,-58.32036,0.0025590542,-10.662987,-7.758547,-8.052464,-7.6137505,-7.0876513,1.4383521e-06,0.3,4.412181,59.385895,59.4321,59.89959,59.90142,0.5299599,0.42343748,5.7909018993377686,13.397318494319915
19,190000,48.009931830986396,-61.507755,0.019767808,-2.6936536,2.6181407,5.9799566,224.94983,124.66005,66.62758,87.77133,87.32718,88.49867,87.54573,6.6622906,0.7,-88.855736,-45.2988,0.0020609119,-21.50609,-6.5724115,-6.1771107,-6.9996657,-7.0545516,4.4921762e-07,0.3,4.623823,60.105865,60.12668,59.89264,59.942654,0.48255286,0.43906248,5.799597501754761,14.08051271835963
20,200000,47.905550715802924,-64.36331,0.019908413,-0.23548567,2.510552,2.7740555,125.65212,42.340584,36.81,87.6132,88.66204,88.45045,86.72045,20.226019,0.7,-89.193085,-49.92059,0.0011061435,-11.730692,-6.9364753,-6.9962206,-8.120727,-7.4117656,3.989856e-06,0.3,4.4287605,62.92753,63.105125,63.091278,63.088715,0.57556856,0.4359375,5.7456159591674805,14.756485641002655
21,210000,47.78369757964011,-62.75248,0.01989509,0.9772234,4.0022483,5.7281013,220.09775,76.24442,51.092686,87.262276,86.78189,85.71447,85.78588,19.07333,0.7,-89.84959,-46.483036,0.00082972884,-10.799474,-7.3587327,-7.9601054,-7.7643456,-7.3582973,5.291353e-08,0.3,4.509404,61.280598,61.189034,61.44099,61.296234,0.50660765,0.4921875,5.604416608810425,15.428929336865743
22,220000,47.582346854766,-63.663673,0.020236375,0.49878845,5.636022,6.831048,113.51593,868.906,33.262722,84.97848,84.801414,85.64364,85.14166,21.71728,0.7,-87.33063,-50.11636,0.00060687703,-10.850815,-6.820333,-6.230504,-5.5115085,-7.2067394,2.7332396e-06,0.3,4.9095654,62.158695,62.299347,62.330418,62.26577,0.45956486,0.490625,5.623789310455322,16.10934303601583
23,230000,47.1654685045519,-63.117237,0.020427184,0.1901846,2.9327292,5.73681,67.437195,34.64943,28.082775,86.05392,85.470276,87.94857,85.71395,7.729089,0.7,-86.94826,-51.033375,0.0035478983,-8.034679,-7.065057,-7.037147,-6.416457,-6.948765,1.619898e-06,0.3,4.9281654,61.821213,61.77243,62.238747,61.9593,0.40450972,0.46875,5.6348230838775635,16.783751237392426
24,240000,48.14977739494012,-64.8925,0.020986011,2.1742284,3.2087903,5.5550466,222.08337,110.485275,55.24626,88.18278,89.04434,86.64321,86.7923,42.58033,0.7,-90.99401,-49.911716,0.006632618,-13.645763,-5.303585,-5.649887,-5.0941033,-5.6103106,1.6791922e-05,0.3,4.8958373,63.49852,63.410606,63.278275,63.211372,0.6560695,0.4765625,5.57644248008728,17.458312956492104
25,250000,47.57299138103709,-60.75036,0.02101919,1.6640698,3.5137763,4.517549,225.70418,57.32892,65.3657,86.93763,87.06967,88.27195,88.08262,9.887658,0.7,-90.77017,-43.5534,0.00040625344,-13.999451,-6.704589,-5.9602404,-5.876824,-6.174985,1.37540455e-05,0.3,4.8575726,59.237076,59.156998,59.667255,59.81478,0.4717571,0.3953125,5.6885411739349365,18.136001849174498
26,260000,47.00947373611161,-64.627625,0.02117286,2.497211,2.8132925,1.6384771,233.99033,133.10674,66.34802,86.85979,86.61899,87.29202,86.83587,11.805385,0.7,-88.7232,-46.80591,0.0017484257,-19.062525,-5.579671,-5.566037,-7.1007123,-7.0613203,3.277499e-07,0.3,5.4066076,63.06179,63.054565,63.159245,63.257027,0.4371281,0.43281248,5.639760494232178,18.81483673652013
27,270000,47.63889236018342,-63.117798,0.021650119,-1.3388996,2.7366307,3.153196,99.29747,135.13211,49.233376,85.67147,87.12521,85.51603,85.49056,25.017504,0.7,-87.00205,-46.665604,0.00076671125,-14.127138,-6.6792784,-6.182634,-6.076884,-6.018783,6.992312e-07,0.3,4.339969,61.75752,61.783516,61.75091,61.863914,0.5213764,0.434375,5.6687304973602295,19.48929396470388
28,280000,47.72496286457363,-62.682693,0.021528505,-1.0443943,4.17737,3.2014256,228.71689,178.60382,63.863617,86.97189,87.51585,86.67169,87.01214,112.99254,0.7,-88.91788,-50.11357,0.005774202,-18.085287,-6.149957,-6.0037713,-6.622107,-5.429783,2.6583413e-07,0.3,4.677248,60.948914,61.002823,60.33,61.009617,1.0955577,0.45625,5.565464735031128,20.164377415180205
29,290000,47.40655006315102,-62.549255,0.02205692,-0.8602423,2.83992,6.660408,225.72684,152.23236,67.1622,86.04018,85.57002,86.6213,86.12814,61.146805,0.7,-87.634224,-50.832558,0.0011030531,-11.468378,-6.84347,-7.761589,-5.344608,-5.8776865,2.926495e-06,0.3,4.6114616,61.19901,61.034508,61.450615,61.170227,0.62372667,0.46406248,5.636308908462524,20.839033257961272
30,300000,48.03918636439409,-63.353325,0.022519842,1.2640057,4.3477035,4.7329283,219.8178,94.87168,67.015076,86.16869,85.93839,87.1328,86.40677,164.19186,0.7,-87.82107,-45.648838,7.9534075e-05,-14.442471,-6.649997,-8.002343,-5.618349,-5.0197244,8.451753e-07,0.3,4.4393096,61.899635,61.87358,62.26039,62.31021,1.1295418,0.41718748,5.640254974365234,21.51477712392807
31,310000,47.314240502222496,-61.542313,0.022542017,-1.0187995,9.95396,2.281225,118.43601,891.17004,51.807987,86.81971,87.06077,89.672424,87.67005,9.650386,0.7,-89.79459,-62.892387,0.007986938,-17.805326,-6.3425927,-6.5746164,-6.650731,-7.095364,3.6469837e-06,0.3,4.484565,60.097683,60.129524,60.70652,60.470516,0.53993225,0.44843748,5.596416234970093,22.194604110717773
32,320000,47.82096086689758,-62.51865,0.022489483,-0.56125176,3.1413376,0.77572095,227.58752,80.31256,65.65311,85.37419,85.26137,85.515816,84.75055,5.4170485,0.7,-86.69342,-42.79607,0.0029335476,-15.683002,-2.1354964,-3.5858836,-4.1642714,-3.8512053,4.3579385e-06,0.3,4.7082734,61.133217,61.290558,61.289856,61.41872,0.40626457,0.4265625,5.588767766952515,22.86988971233368
33,330000,48.13067375241266,-59.26871,0.022960627,-1.245894,3.068656,3.480388,208.67825,60.6341,65.951996,85.47007,85.92377,85.11701,85.02438,59.737648,0.7,-87.7778,-46.337254,0.0018802346,-18.327362,-5.315499,-6.038478,-6.0017643,-6.5047946,5.7298166e-06,0.3,4.1866994,57.759113,57.808758,57.30504,57.380386,0.9885758,0.49687502,5.81741189956665,23.547036623954774
34,340000,47.648946667615974,-62.735542,0.023638444,0.771362,3.794063,2.1787114,220.11609,58.171844,65.903534,86.094154,87.69763,88.50493,88.95166,13.363126,0.7,-87.56599,-50.056774,0.0013531975,-21.392551,-6.482078,-6.660358,-5.0882072,-4.6926336,3.7629197e-05,0.3,4.521055,61.41621,61.35515,61.87152,62.271553,0.6286231,0.40156248,5.602394342422485,24.225314048926034
35,350000,47.23828674621419,-64.35169,0.023244394,1.079428,2.8039904,4.753751,212.28528,142.71759,64.712585,86.48017,86.468346,86.78135,86.82464,20.773098,0.7,-88.6158,-43.849545,0.0021194962,-11.341425,-4.837183,-5.8268123,-3.799614,-5.352029,2.1021472e-07,0.3,4.8353496,62.943462,62.859447,63.112595,62.965782,0.41868976,0.4734375,5.79522967338562,24.905109584331512
36,360000,47.60865776367057,-61.531666,0.023688974,-0.9705515,4.197595,4.332185,92.832184,68.81899,26.627665,85.58907,86.00739,86.140976,86.06917,38.98086,0.7,-88.23965,-45.661182,0.003947103,-17.0308,-5.4864936,-5.4465218,-6.3083963,-5.9672093,2.2757042e-06,0.3,3.811521,59.915115,59.994545,59.89761,60.213577,0.60632896,0.49374998,5.5838470458984375,25.58467290401459
37,370000,47.24253186188249,-65.32719,0.0240911,0.35915613,2.728041,3.6159754,220.50592,43.229176,64.53983,86.65771,86.28531,86.09239,85.564476,22.655754,0.7,-88.58351,-43.1644,0.0006975283,-10.224422,-5.387307,-5.0614057,-5.110125,-4.2662597,6.2864274e-08,0.3,5.011078,64.06976,63.98798,63.64261,63.443,0.473672,0.5203125,5.957763910293579,26.27194461027781
38,380000,47.774417641388574,-59.9899,0.024338227,1.4137614,2.3335917,2.1597748,220.44258,24.495209,66.1153,86.17558,85.65256,85.6805,86.33074,8.996669,0.7,-88.16051,-42.901802,0.0030130737,-17.927551,-5.1258907,-3.8197665,-5.5879717,-5.315461,3.168988e-06,0.3,4.8778152,58.64728,58.607727,58.975258,58.932358,0.39646953,0.42499998,5.5909743309021,26.94426881869634
39,390000,47.692982902670934,-61.310005,0.024249775,-0.041028798,4.2745786,2.7815669,92.24544,160.28018,46.108353,85.97778,85.782486,86.49319,85.43988,30.873524,0.7,-87.33514,-43.709644,0.0005883093,-18.869362,-3.500097,-5.0125074,-7.3075266,-7.1685843,4.0173295e-06,0.3,4.90483,59.559547,59.6496,59.379086,59.438225,0.8883327,0.49531248,5.630606651306152,27.625449721018473
40,400000,48.33191848761493,-62.6029,0.024777755,-0.42005283,2.7142134,3.225026,93.512505,97.90282,22.162327,86.63567,86.07676,86.03879,86.776505,36.90671,0.7,-87.93321,-45.59447,0.0009922609,-16.04143,-3.7913764,-3.2962546,-4.379388,-3.9479566,8.397815e-05,0.3,4.291527,61.02713,61.163727,61.188255,61.288692,0.5771537,0.44374996,5.587888956069946,28.305782969792684
41,410000,48.02316989681075,-66.54928,0.025151884,0.68159735,2.1834507,4.943387,214.70612,50.409058,62.289497,85.87442,85.904564,86.54276,85.90997,16.427042,0.7,-87.77868,-43.25548,0.0080012,-15.248373,-4.447052,-3.8128972,-2.8795483,-3.643424,1.4159431e-05,0.3,4.4005833,65.343124,65.19711,65.20068,65.09907,0.43999052,0.47812498,5.578456401824951,28.982001169522604
42,420000,48.306922861473225,-63.464176,0.025036577,-1.1572677,3.2755017,3.4942307,215.69469,110.81311,66.608376,85.508194,86.048645,86.11171,85.27255,10.026855,0.7,-88.15391,-52.874916,0.00079554005,-13.264266,-3.9469447,-4.2399073,-2.088658,-3.6938522,9.197437e-05,0.3,4.411164,62.023743,62.070137,62.47306,62.398308,0.5104511,0.41562498,5.527768135070801,29.654642343521118
43,430000,47.84751052271163,-64.494644,0.025722506,1.4953805,2.6934845,2.777169,213.99161,93.625084,66.459785,86.27384,85.98138,85.44906,86.74226,4.118621,0.7,-88.611336,-43.770206,0.0020075757,-14.691721,-2.822033,-5.085039,-3.8339777,-3.8224287,9.167707e-09,0.3,5.712267,63.040848,62.99722,62.660152,62.66674,0.3417581,0.4765625,5.570377826690674,30.332799474398296
44,440000,47.651122268798716,-63.88923,0.025411637,-1.3056613,1.8357834,-0.43188894,51.884758,21.831785,32.7576,85.69161,85.655945,86.765114,86.17075,17.030682,0.7,-88.730064,-42.101307,0.0057871584,-15.229898,-3.047347,-3.0739205,-2.8409185,-2.6380715,1.7290702e-06,0.3,4.259465,62.520206,62.572243,62.597248,62.747437,0.42782253,0.428125,5.719908952713013,31.013647337754566
45,450000,48.73675154344079,-62.017033,0.024942415,-0.2342394,2.0480652,-0.04060173,81.41425,28.644758,45.3647,85.71281,86.146454,84.81438,85.63021,8.183782,0.7,-87.97285,-46.36231,0.000181059,-15.393556,-3.9367335,-3.5502295,-4.0798073,-4.2362843,1.0186341e-07,0.3,4.5675993,60.66272,60.56084,60.22712,60.310562,0.47373492,0.4796875,5.648076772689819,31.69325692653656
46,460000,48.246232103437535,-63.907116,0.026024112,-0.23252451,2.3574395,1.910874,119.73665,30.984512,44.096325,84.87566,85.508286,85.49119,85.0887,8.95868,0.7,-87.5789,-48.598835,0.0047251433,-16.99914,-4.006072,-4.1289787,-2.667336,-2.8668654,1.8482187e-05,0.3,4.3352556,62.50741,62.592705,62.554054,62.53131,0.43564454,0.47031248,5.8778722286224365,32.37201242049535
47,470000,46.97248945618688,-63.363556,0.026395304,-2.7970734,2.858378,0.8834872,55.220303,84.97979,45.70233,85.93018,84.570724,85.90106,85.50906,80.04503,0.7,-86.82178,-43.445908,0.0009730197,-10.152842,-3.1659477,-3.5400605,-3.8143265,-3.5671463,2.1892034e-05,0.3,4.018796,61.884163,62.02089,62.03589,62.100613,0.82932866,0.45468748,5.794711351394653,33.046792058149975
48,480000,47.813032048540464,-61.687637,0.026592843,0.5096807,2.5241733,-0.095546246,214.43742,33.420734,68.21678,86.29865,86.02297,86.85294,86.53808,10.963376,0.7,-88.98949,-46.693237,0.00045940044,-15.580031,-3.1355174,-3.8117902,-3.7510397,-2.6551628,0.00011399433,0.3,4.1625404,60.343864,60.40352,60.620422,60.650806,0.55192286,0.40937498,6.165878057479858,33.72919095754624
49,490000,48.91116771476413,-62.218613,0.026827686,-1.9080299,2.3748531,-0.47354186,58.394535,42.74192,18.671473,84.86219,85.260704,85.04237,84.89611,43.660423,0.7,-87.71908,-45.605526,0.017941013,-16.75433,-1.7148247,-2.5456626,-2.1120949,-2.2043202,6.864936e-06,0.3,4.116132,60.839874,60.77539,60.327873,60.37436,0.6701324,0.490625,5.655796766281128,34.40313328107198
50,500000,48.59590237065496,-62.57785,0.026769204,-0.8639287,2.5133543,0.9863844,73.9822,33.93093,18.87969,86.59654,86.08096,87.07112,86.56917,6.024103,0.7,-87.97458,-44.135113,0.0014340413,-14.8171215,-0.758173,-2.947216,-0.8211452,-1.5524368,1.9051024e-05,0.3,3.9776704,61.44755,61.259525,61.527653,61.458977,0.37336946,0.4671875,5.795171499252319,35.07904670635859
51,510000,48.40199249302783,-64.96253,0.027622709,1.1670237,4.347287,-0.5601454,50.55842,330.7851,40.121895,85.96703,85.99936,86.45061,86.26042,7.8129325,0.7,-87.73608,-48.98615,0.012777714,-10.499958,-1.851701,-1.8597302,-4.094394,-4.0194106,7.470332e-08,0.3,4.9751973,63.462997,63.28807,62.99338,63.308254,0.48915157,0.421875,5.828886985778809,35.757785534858705
52,520000,47.75112485494563,-63.15441,0.02747355,0.0007606745,2.9846647,-0.11332321,219.83603,110.18744,67.84341,85.59689,85.22221,86.38248,86.52573,28.378244,0.7,-87.7384,-44.068855,0.0038836459,-14.011791,-2.6370559,-3.6237946,-4.023903,-4.6329336,9.782961e-08,0.3,4.4251537,61.9278,61.831287,62.162712,61.86935,0.6601441,0.465625,6.201828956604004,36.44397194782893
53,530000,48.48370546674211,-61.064114,0.027371729,-0.36124265,2.4830065,0.6790025,218.9647,83.53845,66.59,85.68579,85.19714,84.753105,84.99079,63.518974,0.7,-88.04527,-42.145542,0.0060416213,-18.579632,-2.8064156,-2.6136665,-2.4341621,-1.9420772,1.7968704e-08,0.3,4.70557,59.679474,59.52656,59.429016,59.61016,0.6837195,0.4296875,5.9672770500183105,37.12699031829834
54,540000,47.806091803566545,-61.74204,0.028527237,-1.1411078,2.6765065,-1.0600846,199.22873,117.73218,68.00067,85.89188,86.278656,85.17603,85.244,13.952306,0.7,-87.274956,-40.68928,0.012293402,-14.797749,-3.21068,-3.0995188,-4.637958,-4.8708606,5.0625815e-08,0.3,4.5239296,60.292797,60.4025,59.99359,60.101795,0.46122724,0.484375,5.8594138622283936,37.805084840456644
55,550000,48.148775174247646,-59.73628,0.02838674,-0.13611281,2.9028103,4.887925,217.89986,63.606667,66.901184,85.99853,87.20406,86.22597,86.40004,5.9477577,0.7,-87.58324,-41.922768,0.004377898,-19.289392,-5.0549145,-5.249371,-2.2120016,-1.6889141,1.0705943e-05,0.3,4.82551,58.3562,58.47036,58.469177,58.578545,0.41544157,0.47499996,6.004164218902588,38.48446209828059
56,560000,47.48062845275619,-63.516113,0.028277095,-1.5933818,2.4444938,-0.9680097,46.416595,46.20568,31.405613,85.86818,85.512054,84.904045,85.096954,20.06481,0.7,-87.709236,-43.352142,0.0030492365,-14.510699,-0.7830596,0.832971,0.26025468,-3.0999403,4.991307e-08,0.3,3.9729097,62.04082,61.920723,61.64804,61.71767,0.43068916,0.45937496,5.572710037231445,39.16348311106364
57,570000,47.031435077751176,-61.085625,0.028475514,-2.8944073,1.9371333,-0.5278312,44.124023,38.52906,27.046848,84.2037,84.25274,84.474815,84.522,11.79543,0.7,-85.902214,-48.486427,0.0014010943,-13.168657,-2.6268215,-2.0732975,-1.7835525,-2.5165763,2.3506013e-06,0.3,3.6766427,59.958824,59.973675,60.188545,60.05607,0.3660931,0.43906248,5.665016174316406,39.84410629669825
58,580000,48.19734370475031,-63.322052,0.029056782,2.6645534,1.7954085,2.6391158,211.82076,28.397816,68.36039,84.565155,84.72486,84.72936,85.86207,17.582314,0.7,-86.93386,-39.39446,0.0016522482,-17.703117,-3.38771,-2.3873777,-4.5001087,-4.68191,3.1355304e-07,0.3,4.9494276,61.832253,61.945946,61.849663,61.78896,0.43978173,0.48125,5.986668825149536,40.52905994256337
59,590000,48.30658648532551,-62.903168,0.028413817,2.297805,2.7009473,-0.8008934,220.64539,90.29342,65.69916,86.538414,86.06449,87.29588,87.24581,209.94574,0.7,-87.995125,-46.87026,0.0036722366,-19.706257,-3.2782269,-3.013218,-3.055518,-2.6671402,2.6418712e-07,0.3,5.364616,61.04545,61.071514,61.185555,61.305595,1.2615772,0.453125,5.615269184112549,41.20855073531469
60,600000,47.17277560233643,-60.98137,0.02840846,-0.1039294,3.0613904,2.152652,53.860554,69.00881,33.049454,85.35866,85.5198,86.78484,86.63855,39.61209,0.7,-87.73539,-49.082283,0.002257991,-17.589052,-2.261775,-2.5094616,-3.0164528,-1.407532,1.754769e-06,0.3,4.2145824,59.49318,59.484253,59.554794,59.768593,0.71926934,0.4140625,5.690197706222534,41.889873536427814
61,610000,48.36688056844826,-62.084118,0.028373174,-0.44474527,2.2982407,4.161085,62.31462,34.885372,33.689163,84.34375,84.33682,84.571335,84.41554,6.4829555,0.7,-85.81639,-45.469646,0.0027448088,-19.961243,-3.1087832,-3.2094426,-4.3937597,-4.714448,3.4007957e-05,0.3,3.7968643,60.743633,60.613728,60.646004,60.48734,0.48981217,0.4984375,5.64267110824585,42.56979769865672
62,620000,48.0394799800598,-63.222122,0.029351925,-1.1276652,1.9817429,3.7110806,52.41252,28.111305,32.902103,85.56558,85.404175,86.00296,85.74152,11.191775,0.7,-86.87853,-46.584698,0.0024442577,-15.951069,-3.7104206,-5.0417013,-3.5857542,-2.998279,3.6930146e-06,0.3,4.262947,61.850506,61.907635,61.820103,61.98235,0.4401195,0.4265625,5.666553020477295,43.25044457912445
63,630000,47.636987160453366,-65.112564,0.029477676,-0.29988217,2.3616605,1.2635031,213.45938,78.32599,68.9106,84.92231,85.16898,85.462906,84.43395,15.627059,0.7,-86.464355,-43.56141,0.003916623,-14.053417,-2.4519758,-2.6802626,-2.9602783,-3.639742,0.00021106815,0.3,4.8583803,63.60121,63.68657,63.759872,63.87295,0.5745324,0.478125,5.692896366119385,43.92648698886236
64,640000,48.19976704416796,-61.77176,0.029185025,0.5123125,3.2696722,2.347437,103.63037,52.559494,49.909847,86.42629,86.534325,87.30518,87.49768,5.6215277,0.7,-88.86957,-40.438965,0.0015046027,-13.246725,-4.7780695,-5.20112,-4.040266,-3.5345788,1.2194679e-06,0.3,4.5565786,60.25612,60.201305,60.674015,60.611145,0.4799545,0.4578125,5.71119236946106,44.6057354648908
65,650000,47.69521414560139,-61.531254,0.0291631,-0.82492816,2.9971697,5.872197,217.43752,55.48534,68.956955,84.60081,84.45896,85.347664,85.154564,222.86464,0.7,-86.49232,-56.657475,0.009901827,-16.551857,-0.48386335,-2.0112634,-3.1783662,-3.3994362,4.3868909e-10,0.3,4.789651,60.008347,59.943153,60.36934,60.34615,1.7871652,0.496875,5.667746067047119,45.28327070871989
66,660000,48.25187253679696,-62.00038,0.030075246,-1.1356843,2.3395977,5.3543353,135.87326,25.833443,47.988205,85.262505,85.05551,86.142365,85.4932,24.201555,0.7,-86.713196,-43.597645,0.0017693338,-12.021882,-3.5352397,-4.292707,-3.335687,-3.9906223,5.7312263e-05,0.3,4.335241,60.393696,60.53393,60.76574,60.789085,0.5189427,0.43906248,5.657975196838379,45.96053368250529
67,670000,47.82633126863408,-61.794846,0.02924075,-0.8702644,2.957502,-0.8975142,223.51373,104.817184,69.39159,84.82441,84.360275,84.45933,84.56347,98.7048,0.7,-87.068565,-43.684128,0.00026591477,-17.742317,-1.7466556,-0.84674346,-3.2282884,-2.704804,3.873356e-07,0.3,4.3333764,60.295837,60.148117,60.04151,60.475086,0.88626003,0.421875,5.621771335601807,46.64037899971008
68,680000,48.23997611028019,-62.05889,0.030444197,-0.9186708,3.8769164,1.2740958,119.32321,145.09457,48.243706,85.47916,85.65413,85.52686,84.459465,44.3881,0.7,-88.402245,-46.4594,0.004950287,-21.174576,-2.7328396,-3.9921865,-4.209456,-3.2446935,4.6134696e-06,0.3,3.7162209,60.863823,60.674866,60.490646,60.60774,0.7818272,0.4734375,5.6314544677734375,47.32031301259995
69,690000,47.9626462904241,-62.21517,0.02974197,-1.6138573,2.2238417,-1.3142449,64.555885,80.13082,48.05686,85.27317,85.23601,85.1939,85.55385,45.052658,0.7,-87.404495,-42.77876,0.0064557,-22.333353,-2.3100798,-2.0642588,-3.036674,-3.525445,2.0158757e-05,0.3,4.1866097,60.917328,60.96188,61.146893,61.09589,0.60799474,0.4421875,5.631436347961426,48.002310713132225
70,700000,47.95868191354353,-59.905556,0.030520206,0.2968202,2.4362013,-0.020856619,228.50085,54.24259,59.730175,86.60876,86.86591,86.08118,86.68777,7.4712424,0.7,-87.8004,-45.73308,0.00046113762,-15.965663,-2.1778157,-1.6122675,0.31130183,0.06571537,2.0580745e-07,0.3,4.897111,58.59375,58.591045,58.489975,58.292908,0.41364223,0.4890625,5.6139490604400635,48.682285757859546
71,710000,48.282292842590614,-62.269875,0.02948667,-1.1977501,2.970692,-0.85513043,49.429073,73.17496,35.449306,84.84204,84.65733,84.41935,84.13767,18.95748,0.7,-87.62088,-39.852627,0.002336792,-12.08156,-2.1054256,-1.1653806,-2.524647,-2.2161083,5.2631544e-06,0.3,4.486122,60.874264,60.742622,61.05738,61.037254,0.5695027,0.4578125,5.8569252490997314,49.362591814994815
72,720000,47.96098110877507,-63.431267,0.030957755,0.11944854,2.2524412,12.044577,217.58167,35.21358,64.59116,84.09056,84.40868,84.43466,83.53294,34.995605,0.7,-85.70771,-40.641144,0.0013216774,-15.396609,-5.3753886,-5.922856,-3.4963877,-4.2260814,1.7290702e-06,0.3,4.720679,62.005745,62.0073,61.95748,61.97651,0.7904186,0.4921875,5.90820574760437,50.04224328597387
73,730000,48.40241032277059,-63.503494,0.030381598,-0.7392563,2.4853635,0.05120063,224.22543,68.406425,70.229904,86.14639,85.65611,86.26687,86.8338,15.302253,0.7,-87.794525,-48.882385,0.012801493,-13.035735,-2.237813,-2.7521548,-1.4357326,-1.0558811,1.370674e-05,0.3,4.6832128,61.95292,61.954277,62.21162,62.129204,0.7891313,0.46093747,6.08035683631897,50.722920600573225
74,740000,48.096085752289866,-62.819256,0.03116361,-1.4448383,2.209509,-1.9819576,64.55983,20.543682,33.695534,86.70622,87.83345,86.55098,88.15058,44.13555,0.7,-88.6463,-39.491844,0.0016385415,-15.047074,-2.4402256,-1.5472026,-1.4154938,-1.2770019,5.286886e-07,0.3,4.3930326,61.390957,61.25157,61.347576,61.51632,0.73492825,0.41562498,5.77478814125061,51.39999307394028
75,750000,48.01388886607968,-65.359924,0.031180749,1.9807973,2.141769,-1.7156678,218.10861,20.969065,72.296524,86.05039,86.678535,86.30012,87.21322,31.383982,0.7,-88.685524,-40.833218,0.0016893381,-12.259636,0.047932386,-0.16422427,-0.9244795,-1.3976967,1.629505e-05,0.3,5.1021614,63.756546,63.679127,63.698936,63.79692,0.6679073,0.41875,5.901897668838501,52.08096605141957
76,760000,48.050514621662934,-64.48347,0.031204605,1.5750623,2.8055875,-1.4456477,103.15799,94.19103,36.743954,84.92872,84.42756,84.437706,84.22525,15.437108,0.7,-86.61044,-41.670994,0.0031807234,-15.819023,-1.3502393,-1.5690463,-1.2957748,-2.2478118,2.6833268e-06,0.3,4.241275,62.93847,62.813366,62.572395,62.836243,0.56724834,0.440625,5.505944728851318,52.75297495126724
77,770000,48.06418258090497,-64.67424,0.030917548,2.3765564,2.934229,2.0193868,100.31817,92.23263,51.473297,85.758606,85.110275,85.024254,84.592094,22.512545,0.7,-88.83942,-41.877754,0.002306084,-9.684847,-3.3702083,-3.8520885,-2.2851512,-1.2890298,1.2682912e-06,0.3,5.61935,63.070793,63.239574,63.182266,62.987656,0.5364195,0.44687498,5.712178707122803,53.42828540007273
78,780000,48.02490163688763,-62.592697,0.03198395,-0.058740586,2.768839,2.2232838,90.18314,270.7629,31.953918,84.27229,84.28434,84.60006,84.320305,174.10626,0.7,-86.31295,-37.86671,0.0027401997,-15.378159,-2.9494348,-2.7324002,-1.5827062,-4.4292307,1.4483929e-06,0.3,4.756549,61.10077,61.14787,61.343388,61.562065,1.3408687,0.43593746,5.861837863922119,54.10467086235682
79,790000,48.080737895393476,-65.8201,0.031917706,1.1191914,1.9338686,1.1687093,59.2544,23.240229,22.499397,84.166595,84.19878,84.190315,84.15749,15.481158,0.7,-86.549484,-46.810535,0.010902591,-14.987192,-1.8603578,-2.4289758,-2.905449,-1.0675199,2.0539737e-07,0.3,4.8058114,64.310074,64.24957,64.35144,64.45704,0.6144421,0.4625,5.731540679931641,54.77865572373072
80,800000,48.250078382587866,-62.409653,0.031147849,2.386548,2.5687597,-0.23305082,228.0533,69.30709,73.11279,85.83554,85.00944,85.03887,85.442345,16.973015,0.7,-87.45401,-45.85504,0.0021494997,-12.9901085,-2.8384671,-2.4633222,-1.594111,-1.4664915,1.1428743e-05,0.3,4.935111,60.795773,60.813282,60.977448,61.172207,0.56183654,0.42187497,6.167653560638428,55.45897718667984
81,810000,48.25867446656375,-60.3355,0.031874944,-0.25174034,2.604633,3.5374444,225.92863,35.537563,73.43593,83.45431,84.07459,84.55389,84.53451,8.288833,0.7,-84.79444,-40.73044,0.001656519,-16.57682,-3.6822078,-3.8861237,-5.6243253,-4.251034,1.525598e-06,0.3,4.797818,58.894638,58.862072,59.365715,59.287563,0.466691,0.44062498,5.636486053466797,56.136122790972394
82,820000,48.007093306301705,-64.43066,0.03144036,-1.2117589,3.0311244,-1.1478479,224.61739,117.99394,73.417915,87.81233,87.48887,86.59957,85.94973,21.647324,0.7,-89.71084,-41.24787,0.004222589,-14.517826,0.4229772,0.9212742,-1.636596,-2.4846828,1.2402118e-06,0.3,4.1282196,62.96618,63.03418,62.5039,62.86484,0.5240892,0.44687498,5.67484188079834,56.81434551874796
83,830000,47.9049725911335,-62.68431,0.03126844,-1.5653752,1.9833548,0.18304944,53.062943,21.134947,25.444668,84.238075,83.96031,84.406906,84.594154,4.5824037,0.7,-86.61701,-41.58447,0.0018536346,-11.311528,-1.5499207,-1.9422959,-3.4906056,-3.306922,1.1881348e-05,0.3,4.34009,61.606007,61.454002,61.74714,61.877422,0.3745876,0.40468752,6.011124849319458,57.49662317832311
84,840000,48.21342767141405,-61.768436,0.032136817,-0.3144462,2.5280745,3.523435,81.547005,27.14021,39.04286,84.938995,84.951775,85.16532,84.05097,19.918495,0.7,-86.96861,-46.582626,0.0066137793,-14.526951,-0.9807272,-2.230752,-2.6659212,-2.2785463,1.4081667e-05,0.3,4.5663424,60.3695,60.403748,60.19838,60.01185,0.6172681,0.5,6.036203384399414,58.17968501647314
85,850000,48.25210656005359,-61.813713,0.03219501,-0.42444888,2.405539,0.5560591,46.25752,38.64274,22.860594,85.57963,85.59957,85.29809,85.340965,40.564117,0.7,-88.59613,-51.674427,0.00033871978,-14.516941,-2.100169,-2.4185324,-2.524034,-1.3809807,4.0344894e-05,0.3,3.9505796,60.318233,60.33433,60.214016,60.30001,0.6742703,0.4734375,5.680313348770142,58.85625066757202
86,860000,48.43275584860131,-60.01579,0.032134727,-0.53504163,2.3809035,2.9553628,96.717606,58.6418,19.195732,86.577896,85.54914,85.4875,86.03964,86.513565,0.7,-87.053,-41.646606,0.0016470631,-21.421486,-1.8494288,-2.3193674,-2.9757946,-2.3640404,1.48766385e-05,0.3,4.1825337,58.523952,58.53244,58.533318,58.786156,0.7725409,0.42499998,5.635526895523071,59.53044976790746
87,870000,48.41354205137278,-63.351578,0.03126748,1.3810682,3.6377945,-1.5842897,82.12896,102.75186,37.42414,85.123344,85.444405,83.88274,84.47966,6.394216,0.7,-86.92102,-45.896458,0.002611457,-15.325683,-1.3845491,-1.3084133,-4.936774,-2.8694527,3.6915706e-06,0.3,4.5338397,61.894066,61.855675,61.308025,61.436737,0.36428493,0.496875,6.02625584602356,60.211951518058775
88,880000,48.14406346413034,-60.420277,0.0329125,-2.1999578,2.3701973,0.028733492,224.47012,60.55625,74.012726,86.06004,86.30316,86.5118,86.27666,22.455034,0.7,-88.223785,-43.743748,0.00072481146,-13.2031765,-2.4966602,-2.8548353,-4.1856036,-4.785633,8.66923e-07,0.3,4.4474916,59.070816,59.103935,59.285347,59.39744,0.64235485,0.4515625,5.709142446517944,60.88941592772802
89,890000,47.88452003336413,-59.863213,0.032242566,0.46468598,3.1342707,-1.0437388,67.19362,132.66788,35.104027,83.92391,83.87062,84.09696,83.94052,174.73425,0.7,-86.124245,-39.878716,0.0007692585,-15.626555,-2.3826807,-2.4032307,-1.3489847,-2.600531,3.4269588e-06,0.3,3.8947737,58.340324,58.202843,58.35257,58.49203,1.3611374,0.46875,5.682286977767944,61.56771110296249
90,900000,48.02056178849226,-61.771194,0.03177262,-0.48605582,2.3989058,-1.4494767,237.97664,36.932312,75.765945,84.643745,84.85485,84.84451,84.30353,38.160496,0.7,-87.03607,-43.222107,0.010279534,-17.750862,-3.0096226,-3.2506897,-2.2542474,-1.676505,3.1553208e-07,0.3,5.2830176,60.16916,60.136208,60.11215,60.22189,0.6700512,0.47968748,5.606553077697754,62.24287413358688
91,910000,48.104414490442636,-61.9589,0.031859595,-0.48624814,1.971828,-0.74533904,230.65901,31.973871,73.57213,84.61642,84.637764,84.10978,84.93719,17.427284,0.7,-86.55171,-42.23367,0.0034926403,-17.296097,-0.25242817,-0.097002745,-2.5097585,-0.6847378,2.2002605e-07,0.3,4.5329046,60.783413,60.741814,60.819412,60.659424,0.4338773,0.45,5.567127227783203,62.915756245454155
92,920000,48.4437766198369,-61.63649,0.03200324,1.461674,2.073978,-0.8875909,236.04482,21.716394,75.34005,85.21569,84.85055,85.55604,85.50722,7.6751328,0.7,-87.82681,-39.602764,0.0007307908,-16.582813,-0.99222434,-2.1178298,0.68868905,0.5026272,1.4864315e-06,0.3,4.674714,60.19917,60.175533,60.245987,60.49349,0.51196307,0.42343748,5.602963924407959,63.59179944992066
93,930000,47.628442975823525,-61.5028,0.032804772,0.011195779,2.109085,-1.9910188,77.42876,44.684883,41.89553,85.43562,84.9783,85.049805,85.15239,24.429104,0.7,-88.800804,-41.190365,0.006208163,-19.286114,0.13605285,-1.06823,-1.7867849,-1.594744,5.912036e-07,0.3,4.0524817,60.14204,60.00186,59.816666,59.939056,0.5407826,0.45,5.651336431503296,64.27008151610693
94,940000,47.34163753793468,-62.154625,0.03155257,-1.0444791,1.9397455,-1.8493018,220.88734,18.943485,73.65791,85.60374,85.85899,85.0848,85.21848,6.412214,0.7,-88.301506,-38.56963,0.002515643,-13.665741,-0.8370954,-0.7661164,-1.2556,-1.6069658,4.710164e-08,0.3,4.0935717,60.885944,60.82939,60.82205,60.738846,0.39029506,0.43281248,5.651988744735718,64.93878361781438
95,950000,47.963608609901456,-64.96939,0.032302286,1.4685225,2.3407817,5.2753963,88.011246,96.51668,35.70304,85.33322,84.93582,85.36621,84.81666,7.5262504,0.7,-88.97823,-57.798424,0.0003879522,-20.916002,-1.6683316,-2.3160253,-0.44048345,-0.89586896,1.8317902e-05,0.3,4.971052,63.540268,63.483208,63.799984,63.847046,0.44163722,0.40625,5.587417125701904,65.61280484596888
96,955000,48.0700690230502,-57.589508,0.03133349,1.2849783,2.003595,0.9877517,236.00998,40.380466,74.93553,85.43725,85.40868,84.28872,84.807014,12.819631,0.7,-86.58348,-44.789246,0.00038741916,-14.829962,-1.990446,-1.8901597,-2.5523224,-1.7330213,2.8699707e-05,0.3,5.47124,55.901207,55.959194,55.80874,55.991158,0.48705366,0.43125,5.592767000198364,65.9997148791949
97,960000,48.25611044153435,-62.151093,0.03352038,-0.8763032,2.1310444,1.1732597,56.71795,68.00567,36.510445,84.16438,83.439,84.54489,83.97068,7.5338874,0.7,-85.14176,-53.764126,0.0013105161,-19.70539,-1.2943195,-2.9276342,-3.4654245,-4.165154,4.69666e-07,0.3,3.985681,60.892056,60.89065,60.710857,60.78591,0.38468432,0.47968748,5.554542064666748,66.38038491805395
98,965000,48.39757510826374,-62.01542,0.032460786,-1.535513,2.0573533,0.03685713,57.257442,38.81059,21.575344,83.25052,82.85027,84.55301,82.82567,60.7363,0.7,-85.593414,-43.35329,0.0027525416,-13.299636,-1.8647099,-2.3796012,-0.8096268,-0.70474863,8.8796224e-07,0.3,4.47486,60.95858,60.882736,60.817043,60.70494,0.75650316,0.43906248,5.682002544403076,66.7672376592954
99,970000,48.07027183065632,-59.73786,0.032048907,-0.11924875,2.2813182,-1.4580507,228.575,34.68596,75.8778,85.670074,86.11874,86.17068,86.16498,27.771185,0.7,-88.58129,-42.466232,0.0059086853,-14.385403,-1.8424675,-3.9721684,-1.2741519,-1.3250811,9.077619e-06,0.3,4.509103,58.130913,58.078526,58.22573,58.092045,0.5182166,0.503125,5.633362293243408,67.15280915498734
100,975000,47.90402354647675,-64.69818,0.033270262,0.048088968,3.3760076,-1.9000752,45.61539,77.53304,16.237207,84.180824,83.943695,83.507515,83.75113,43.84888,0.7,-86.33202,-41.0266,0.010839019,-17.900871,0.68289196,-0.09368348,0.40315753,-0.07656711,7.176996e-07,0.3,4.514774,63.388016,63.201096,62.692535,62.993385,0.6153517,0.45937496,5.672960519790649,67.53458511432012
101,980000,47.97553019357066,-61.030502,0.03249613,1.3366277,2.0875313,-0.60295695,228.56398,30.461998,75.36949,84.489365,84.6734,84.5956,84.23938,8.025649,0.7,-88.15649,-42.59756,0.0012941388,-16.384665,0.20222747,-0.65753317,-0.88704014,-1.0266309,1.2835459e-05,0.3,4.8007154,59.283882,59.395203,59.095356,59.25598,0.30847025,0.4671875,5.610496520996094,67.92091760635375
102,985000,47.89047361327521,-60.190582,0.032309167,-0.36119342,3.034394,-1.6066426,233.91362,45.302147,75.47896,85.35185,84.33185,84.908195,84.09761,9.136788,0.7,-86.182236,-50.658867,0.0018047006,-15.270203,1.1589868,1.420259,-2.092942,-1.4075873,2.9002723e-07,0.3,4.8078165,58.761604,58.674187,58.518787,58.24239,0.52062964,0.4921875,5.6205525398254395,68.30694132645925
103,990000,48.04233651523147,-61.402676,0.032787666,-2.2494776,1.9801085,-1.801778,90.83405,34.177315,51.006584,83.60315,83.441505,84.39252,84.04702,26.54208,0.7,-86.11394,-41.45501,0.0014467668,-15.824364,-3.3172412,0.45476186,-0.95468336,-1.3997674,1.3201498e-08,0.3,4.50043,59.871384,59.8692,59.934097,59.99031,0.54941785,0.4296875,5.691708087921143,68.69231073856353
104,995000,47.973751562904404,-62.07347,0.03340022,-0.29663062,2.765432,-1.8895605,91.80492,27.840818,54.925224,84.98742,84.79314,84.788925,84.39564,6.6956506,0.7,-86.62932,-48.083458,0.0027822277,-17.607721,-1.0327991,0.3080554,-2.0308058,-1.6560988,4.3358003e-07,0.3,4.576287,60.67586,60.68773,60.294724,60.449516,0.44553375,0.4875,5.667911052703857,69.07645223538081
105,1000000,48.33061595048008,-63.190838,0.034157265,1.7091714,2.4400969,2.4539363,231.51384,69.66949,73.89054,86.681755,86.05875,86.01637,86.83923,10.099859,0.7,-87.84109,-40.13993,3.9564038e-05,-16.51976,-2.2266262,-1.4798483,-2.8507848,-1.3576268,1.6572159e-06,0.3,4.532303,61.564293,61.65538,61.349205,61.768112,0.538538,0.45468748,5.684211492538452,69.46145442326863
