Xixo99/comfo/baselines/comfo6_perterbation_actor/20230222_actor_perterbation/halfcheetah-medium-v2/COMFO6_s1_20230222_083530_halfcheetah-medium-v2_56.33.csv
,step,reward,actor_loss,alpha,alpha_loss,critic_loss,max_actor_loss,max_alpha_loss,max_critic_loss,max_mle_prob,max_q1,max_q2,max_target_q,max_v,max_value_loss,max_weight,min_actor_loss,min_alpha_loss,min_critic_loss,min_mle_prob,min_q1,min_q2,min_target_q,min_v,min_value_loss,min_weight,mle_prob,q1,q2,target_q,v,value_loss,weight,eval_time,time
0,0,2.2506490422725824,,,,,,,,,,,,,,,,,,,,,,,,,,,,,,,,,
1,10000,-2.071196277233385,-36.60241,0.09283404,-1.811859,1.1063098,-0.4653098,22.724918,14.597329,12.796529,45.848198,45.71895,45.419567,44.621586,2.8777318,0.7,-45.87422,-26.018328,0.0001929207,-15.189999,-0.323206,1.0183082,-0.0051692277,0.45610166,1.9973906e-05,0.3,3.6125906,36.008442,35.978703,35.78283,35.31884,0.10175715,0.45937496,5.470898151397705,2.086398732662201
2,20000,-0.8346791076295133,-59.190445,0.1089315,0.26384568,1.9810678,-20.542162,21.923952,65.73637,13.636285,68.13564,68.36678,68.13762,68.18764,3.480138,0.7,-68.653305,-24.535091,0.0019724963,-21.561735,19.386736,19.696438,19.164413,21.19426,1.4084392e-06,0.3,3.3962116,58.363815,58.505463,58.200047,57.90834,0.20314343,0.52656245,5.457499980926514,2.7512768665949503
3,30000,-1.496278041003744,-72.68131,0.10249102,1.1840432,2.05573,0.35522765,25.947123,37.940174,15.838908,81.19809,80.96004,81.88402,81.81669,8.99544,0.7,-83.11288,-20.017866,0.00035229535,-18.518991,-1.9783928,-2.2806928,-1.4888133,-0.6367967,1.0430813e-06,0.3,3.4079318,72.1098,72.079254,72.42723,72.09082,0.19029248,0.47031248,5.4325644969940186,3.4166006048520408
4,40000,-1.3278311368921307,-79.85174,0.0887224,0.39803058,1.8427252,2.0701783,24.004375,61.87166,13.390173,89.34029,89.19478,87.91022,88.17468,2.7849088,0.7,-89.41704,-26.409492,0.0020514347,-14.569515,-2.4521644,-2.6961677,-0.7730111,-2.8328564,2.346933e-06,0.3,3.7636409,79.23451,79.16306,79.16354,78.938324,0.15449277,0.4953125,5.399098873138428,4.080153751373291
5,50000,0.009622964386712902,-84.135345,0.0744181,0.23063171,2.021858,4.9894466,31.501469,63.04641,14.610075,92.44638,93.19412,95.10056,93.50085,1.5208397,0.7,-93.274376,-20.585995,0.0047475286,-7.814395,-5.251438,-5.0539827,-2.8036206,-3.5470397,5.106151e-07,0.3,4.7343783,83.54354,83.57826,83.901505,83.83558,0.10157734,0.44375,5.380699634552002,4.744222768147787
6,60000,0.9953843706301362,-86.347305,0.06436131,0.11467934,1.1543345,2.0710082,25.828978,38.2584,13.958687,95.280785,95.242424,96.38135,95.30023,2.388922,0.7,-95.704185,-33.750584,0.0014420898,-8.791513,-2.0472634,-2.1241138,-3.5304472,-2.164938,3.9934528e-07,0.3,4.8104362,85.9552,85.970985,86.00008,85.89993,0.12302889,0.40781248,5.4838621616363525,5.4096958120663965
7,70000,1.3208275471520985,-87.86365,0.05605533,-0.32146037,2.123189,3.453817,40.039032,27.014366,17.976961,94.72516,95.05287,94.739204,95.08477,2.4333043,0.7,-95.53019,-39.16504,0.0035166668,-9.16971,-3.725483,-2.4138358,-3.1680465,-3.2243638,3.865268e-06,0.3,4.9207973,87.34186,87.38692,86.79457,87.08065,0.109912574,0.42343748,5.457293748855591,6.073852463563283
8,80000,3.7754645426466062,-87.901474,0.052841794,0.47060344,2.0264819,6.6230493,29.750868,179.90369,15.878267,96.46876,96.91396,97.01217,96.92157,2.479385,0.7,-96.84531,-33.14738,0.0011758658,-14.0779705,-6.124998,-5.4788575,-4.3300667,-4.615505,2.861023e-07,0.3,5.5195904,87.44968,87.4366,87.65499,87.87647,0.12318655,0.39999998,5.960671424865723,6.743194274107615
9,90000,4.694327444355065,-89.05687,0.04976783,0.09637127,1.1176692,4.614351,28.488077,19.440886,15.780897,95.83467,95.19416,95.905426,95.30172,0.9545645,0.7,-95.68527,-32.73626,0.0005349946,-7.0646315,-3.9037776,-4.943874,-3.912848,-4.8456254,8.5565266e-10,0.3,5.528597,88.61328,88.54211,88.62034,88.603836,0.074430645,0.39374998,5.545985221862793,7.405443501472473
10,100000,26.758249227023644,-88.40813,0.04701038,-1.1419356,0.9914228,4.7069535,31.567604,13.676426,13.546837,95.79295,95.91902,95.5644,95.344925,4.3415103,0.7,-96.384575,-36.38779,8.016318e-05,-14.474036,-3.900114,-3.389104,-3.6140566,-2.9904325,1.2730016e-08,0.3,5.1973057,87.9141,87.98326,87.76864,87.80975,0.11151248,0.4578125,5.823699235916138,8.073436133066814
11,110000,42.23216618395325,-88.67868,0.046317272,-1.6029723,1.0544376,3.824155,28.990406,27.536507,15.43792,96.382385,96.489914,96.75069,96.190865,1.8388244,0.7,-96.96598,-38.59161,0.00082472083,-4.83875,-3.3813055,-3.805116,-0.29490086,0.03149551,4.541944e-08,0.3,5.250063,88.209984,88.18506,88.204544,88.30347,0.077325344,0.4015625,5.44985294342041,8.734780808289846
12,120000,47.012907081544306,-89.2042,0.045005377,0.053509235,1.1437023,2.0316515,31.441645,58.73694,17.348461,96.18241,96.312744,96.75209,95.82239,1.1054771,0.7,-96.44707,-45.404324,0.00053270167,-10.929874,-1.5480465,-0.60387605,-4.4308515,-1.252914,0.0,0.3,5.3257375,88.64433,88.72888,88.840485,88.68407,0.072011456,0.4765625,5.62674880027771,9.399089360237122
13,130000,51.4181041136326,-88.52454,0.04514676,-0.61315477,1.5913416,1.4579418,28.200676,64.9113,15.179477,96.70367,96.87998,96.7961,96.40074,1.4025933,0.7,-97.290886,-40.49166,0.0012460803,-9.381584,-1.0784407,-1.7818228,-0.76231456,-1.4044192,9.2375565e-09,0.3,5.4898114,88.062645,88.05222,87.71673,87.82979,0.08297895,0.4953125,5.6736977100372314,10.065406803290049
14,140000,48.165893327099916,-89.43824,0.04406845,0.29881537,1.169937,-0.56951064,40.032322,31.685026,17.120064,95.80887,95.55548,95.843765,95.49379,2.0268712,0.7,-96.12288,-33.057434,0.0006482148,-8.916001,0.6286316,1.4814677,0.15028128,-0.5436197,2.1636488e-06,0.3,5.611944,88.95679,88.90699,88.863174,88.89719,0.09357093,0.4453125,5.596937894821167,10.731192255020142
15,150000,51.50164869978919,-88.6634,0.04285003,0.15672821,1.3859873,2.616284,46.865402,37.38026,15.563859,97.10788,97.47659,98.50866,98.02222,1.9047667,0.7,-97.89539,-33.49568,0.002234454,-4.819352,-2.4296365,-1.7840155,-1.6859334,-1.1982352,2.0861318e-05,0.3,5.6494427,88.16546,88.09941,88.338554,88.32695,0.09192042,0.4421875,5.678165435791016,11.396270835399628
16,160000,53.0975130190939,-89.642365,0.042521015,-1.7351291,1.142271,2.6419377,27.452738,13.889965,15.128865,96.170586,96.202415,95.97589,96.003296,1.823449,0.7,-97.01685,-34.645878,0.000649446,-4.4555984,-1.7968227,-0.24560195,-1.1838176,-0.7320268,9.331172e-06,0.3,5.6011524,89.048904,89.114395,88.85333,88.95366,0.081577666,0.4640625,5.568234443664551,12.06183556318283
17,170000,50.810978489489415,-89.96423,0.043515958,-0.28662187,1.2303743,-0.08942735,34.14601,44.166664,14.6318655,97.80851,98.0426,97.75393,97.86687,1.0804924,0.7,-98.489105,-39.821964,0.0005015364,-13.395331,-0.8007102,0.18749934,-1.2062844,-0.28356582,1.4864315e-06,0.3,5.75841,89.43358,89.48726,89.73697,89.67446,0.0708235,0.40781248,5.645380258560181,12.725784802436829
18,180000,54.299981902078585,-89.46341,0.042300433,0.01817137,1.0835149,2.2111764,25.47079,28.81668,18.20565,96.16834,96.29243,96.279884,95.826164,8.16805,0.7,-96.8855,-34.400135,0.0011943218,-5.5317116,-1.0316796,-1.269172,-0.014755521,-0.31824243,4.6674804e-06,0.3,5.9608827,88.8804,88.83354,89.08438,89.04108,0.09987876,0.396875,5.503365993499756,13.390866140524546
19,190000,52.76950309078177,-89.56143,0.041933235,0.33286977,1.2351754,1.3655612,26.591167,70.995636,14.462786,96.26746,96.36086,96.76872,96.3999,2.6041994,0.7,-97.77226,-34.540497,0.0012724829,-5.535237,0.21592844,-1.0618904,1.2677393,0.5254712,1.2919307e-06,0.3,5.878216,89.072464,89.06213,89.303246,89.199844,0.08338009,0.475,5.4102396965026855,14.053560757637024
20,200000,54.23858133534998,-90.43741,0.041825935,-1.1752973,0.6727636,-68.6928,54.113514,14.275749,13.474628,97.284134,96.96892,97.45888,97.26957,1.7389951,0.7,-97.51581,-29.173323,0.0028037853,-7.8769045,67.7351,67.6668,68.02471,68.44994,1.8312595e-06,0.3,5.19666,89.921036,89.986084,89.96091,89.99371,0.09649576,0.43124998,5.40886116027832,14.720007518927256
21,210000,53.807798889065836,-90.58508,0.041502293,-1.0639049,1.1535345,-1.0510603,24.924366,80.93938,15.294974,97.136375,97.15205,97.143524,97.105675,1.315338,0.7,-98.1557,-34.19692,0.00012372958,-8.649505,0.91727173,1.7313485,1.1412281,1.3950111,2.8829788e-06,0.3,5.6350446,89.92207,90.00589,89.79808,89.89885,0.07663876,0.4296875,5.434378147125244,15.385722172260284
22,220000,53.609208836777256,-90.72265,0.040883504,-0.2369121,0.9049181,-71.65362,57.384026,13.144077,22.012522,97.62331,97.22416,96.787415,96.752174,1.4739903,0.7,-97.74695,-31.561274,0.0026991898,-5.657494,71.20134,71.16715,70.78187,70.52728,5.1840834e-05,0.3,5.936099,90.28706,90.21576,89.92795,89.90381,0.07823831,0.51875,5.427329778671265,16.05056300560633
23,230000,54.60847171784495,-90.34184,0.040349603,-1.4074852,0.8446631,-1.4056212,38.34956,27.110023,15.122848,97.607254,97.85798,97.02174,97.380325,9.314104,0.7,-98.2086,-33.006264,0.000603989,-5.639696,2.3119848,2.0043705,2.3543618,2.7683659,3.8152325e-06,0.3,5.9361496,89.70764,89.74637,89.64605,89.682816,0.11566305,0.46718752,5.4754273891448975,16.71715941429138
24,240000,53.460472676445434,-90.631035,0.038175564,0.6275043,0.83349085,-10.583527,39.368595,9.475697,18.39982,97.19047,97.29985,96.65054,96.49936,3.6279836,0.7,-98.1353,-32.968555,0.00085710554,-7.0106916,9.9098625,9.955099,8.18146,9.1799555,5.092006e-06,0.3,5.3784027,90.0025,90.10526,89.89034,89.908165,0.08929087,0.440625,5.359260559082031,17.378828847408293
25,250000,55.74458058863936,-89.82408,0.039727826,-0.11762026,1.2589496,-0.30391878,36.33643,41.42095,14.344574,96.15055,96.40952,96.66849,96.727394,6.9065614,0.7,-97.14438,-35.960365,0.0007961143,-8.12538,0.23821473,-0.74123645,0.8734989,-0.17641449,3.6426761e-06,0.3,5.628112,89.16724,89.18783,89.42896,89.35364,0.11295268,0.39843747,5.414517164230347,18.03960442940394
26,260000,56.00545418526244,-90.23495,0.03925605,-0.02049148,1.4459298,-0.34173328,28.397295,22.742117,13.805561,98.25969,98.11548,97.72976,97.59409,2.1956184,0.7,-98.334045,-36.4613,4.924566e-05,-10.028405,0.16868532,0.27896577,1.1384465,0.9356476,4.304282e-07,0.3,5.5806804,89.72928,89.70206,89.35717,89.484955,0.10585922,0.490625,5.36641526222229,18.70241408745448
27,270000,54.66566606063723,-89.8931,0.038675934,0.38825622,0.7749862,0.15788788,28.71857,18.85009,15.164058,96.70515,97.09258,96.584465,97.68792,2.2447321,0.7,-97.63229,-39.106537,0.00016567769,-8.249778,0.44108295,0.68812466,0.7000712,1.0577034,2.7939679e-08,0.3,5.436855,89.268,89.35403,89.43441,89.62245,0.0786445,0.403125,5.535075426101685,19.367392706871033
28,280000,55.60087722558169,-89.81922,0.039806176,0.38506418,1.2401695,1.3654577,34.22315,85.00606,15.507152,98.7443,98.52738,97.776024,98.11753,2.9342098,0.7,-99.46135,-35.741226,0.000163886,-6.214327,0.07463807,-0.9257932,1.1002876,2.2378879,1.1914351e-06,0.3,5.6766977,89.25029,89.30099,89.12004,89.176414,0.0795068,0.44531247,5.3025312423706055,20.031334936618805
29,290000,55.35415151986718,-90.18164,0.03836514,0.36371422,1.3451712,-67.63616,39.64186,66.87766,17.113804,96.6505,96.453384,96.56868,96.86463,1.0698391,0.7,-96.82741,-37.598198,0.0035873963,-8.44104,66.79,66.76972,66.95414,68.45733,6.8459195e-07,0.3,5.8787513,89.55987,89.59772,89.99332,89.991425,0.062480792,0.45,5.456016540527344,20.69768445491791
30,300000,55.55960323780689,-89.5868,0.03899186,-1.1886312,1.1987345,-0.430838,27.751844,46.445824,14.652235,96.21132,96.06808,96.19975,96.09766,1.4542025,0.7,-96.90554,-36.895123,0.00047881278,-11.005488,1.4105723,1.4630584,1.275905,2.312115,1.688971e-06,0.3,5.65619,88.98503,89.041916,89.06198,89.1993,0.06299268,0.421875,5.3977744579315186,21.364687931537627
31,310000,55.194587699317,-89.809425,0.03861755,-0.3780076,1.1313167,-3.5689952,39.091846,72.19922,15.049731,96.63165,96.79727,96.741104,97.024666,1.781139,0.7,-97.21401,-35.156246,0.00024684455,-7.328951,3.627533,4.0223317,3.0824559,2.8982558,4.7218055e-08,0.3,5.733769,89.27999,89.22482,89.408875,89.48958,0.071313314,0.41718748,5.316884756088257,22.027759754657744
32,320000,54.52821453480177,-90.58372,0.039237104,0.6184612,0.992808,-64.121574,47.5124,47.285995,13.792995,96.729935,96.61027,96.80547,96.65139,1.2785523,0.7,-97.48478,-30.314852,0.00041627756,-7.375927,64.76188,63.586372,61.612335,64.18643,9.426888e-06,0.3,5.894188,90.0367,90.02379,90.05533,90.10239,0.09288107,0.43124998,5.41182541847229,22.69658445119858
33,330000,54.807234109273885,-90.19342,0.039551124,-0.32105,1.1848567,-1.735991,30.180489,105.11714,15.789755,96.8172,97.13473,96.98648,96.89022,1.0622197,0.7,-97.29992,-32.52791,0.0011940236,-12.872901,1.7840322,2.4377482,3.7792034,3.6824646,1.3886719e-06,0.3,5.6935596,89.6322,89.62059,89.77742,89.83446,0.05703383,0.4421875,5.381206035614014,23.361449762185416
34,340000,55.13569277590005,-89.948944,0.038874973,0.4090211,1.2109121,-3.839984,31.872894,62.213806,14.506828,96.07375,95.94306,96.46691,96.22578,2.253179,0.7,-96.45921,-35.504456,0.0011752594,-6.84137,3.8670418,3.732644,3.1333659,3.5647094,1.440104e-06,0.3,6.0225887,89.489174,89.38205,89.63602,89.57611,0.08710813,0.465625,5.3803486824035645,24.028366617361705
35,350000,55.50770790302999,-90.34232,0.03934723,1.3891532,1.0965896,-68.82903,34.045845,22.666111,17.668005,98.02792,98.2895,98.37438,97.77022,2.3644674,0.7,-97.871826,-32.5469,0.0020973668,-7.7910066,70.22221,69.660835,70.338104,69.91624,4.056911e-06,0.3,6.3132906,89.740616,89.75728,90.09044,90.01846,0.076057404,0.4484375,5.330170631408691,24.69521680275599
36,360000,55.55125189079888,-90.834564,0.03860869,0.23242635,0.56080747,-69.9616,30.708412,6.447153,17.253584,98.1786,98.05404,98.07994,98.13097,2.487063,0.7,-98.709984,-30.36897,7.3284435e-05,-6.2731,69.591385,70.32985,70.282814,69.9075,1.8290594e-07,0.3,5.8292036,90.27278,90.296135,90.298256,90.314545,0.11000328,0.403125,5.389023542404175,25.360395737489064
37,370000,55.64480634025956,-90.49927,0.03777778,-0.14378452,1.0482321,-3.726884,29.43068,58.888367,15.419823,97.969376,98.18105,98.05094,97.62793,1.4738973,0.7,-98.84247,-35.08401,0.00058306154,-10.61693,6.249399,6.0374875,3.9211485,4.6431203,2.1206286e-05,0.3,5.8172503,89.93867,89.906494,89.79676,89.74687,0.07996256,0.4703125,5.413781642913818,26.02970609664917
38,380000,54.93272573205251,-89.82236,0.037082136,-0.61872476,0.8242616,-4.312908,38.78297,9.820526,17.840607,95.589775,95.81164,95.76904,95.9092,2.5303893,0.7,-96.07283,-41.83535,0.00021220057,-15.522196,4.6046443,5.118226,4.2699046,4.226918,4.8700605e-07,0.3,5.8513207,89.24373,89.19115,89.46791,89.44718,0.08620625,0.4484375,5.366122484207153,26.693851280212403
39,390000,55.26990553685953,-90.25192,0.03734106,0.5709557,0.93143773,-51.798737,32.18216,19.868135,14.840988,96.646416,96.26704,96.87848,96.44806,1.557282,0.7,-97.06076,-38.683704,0.0010019774,-7.165657,51.245537,48.636288,47.071762,50.123672,3.9815788e-07,0.3,5.8439445,89.615555,89.63417,89.52756,89.545105,0.09809889,0.440625,5.458263635635376,27.36161611477534
40,400000,55.522999454134094,-90.02577,0.038482886,-0.103841126,1.1246644,-2.6890318,30.41372,119.11619,17.241076,98.50575,97.76536,97.74412,98.321655,9.993196,0.7,-98.91856,-41.454937,0.00086514885,-8.187772,3.3173697,3.2190785,3.6825135,3.6671433,4.754111e-07,0.3,5.81674,89.3939,89.39914,89.3447,89.36635,0.13119891,0.4859375,5.814135789871216,28.02791877190272
41,410000,55.972109963048375,-90.486465,0.03781205,0.3214707,0.6820679,-3.1525702,39.008415,9.876467,14.544396,97.1285,96.7714,96.58635,97.25682,1.2411149,0.7,-97.29037,-33.419033,0.00040200225,-7.2684646,3.732696,2.6723998,5.360597,5.4377923,2.231216e-07,0.3,5.74359,89.82709,89.800644,89.6625,89.78293,0.08333108,0.41875,5.483465194702148,28.691501474380495
42,420000,54.62040951286957,-89.56635,0.03757798,-0.6375309,0.99948883,-4.1090817,26.534122,21.551577,14.243491,97.799675,97.78478,97.21337,97.53081,17.033955,0.7,-97.840965,-38.049168,4.5049062e-05,-8.463866,4.1180544,4.3588796,2.41616,2.4443216,9.510736e-06,0.3,5.6091037,89.01055,88.97795,88.93199,89.11019,0.14134538,0.40625,5.896282196044922,29.359489830334983
43,430000,55.903688965012776,-90.43587,0.0372436,-0.092650175,0.94431263,-48.202854,30.718481,16.35227,16.35807,96.72202,96.55018,96.44281,96.5158,1.9687256,0.7,-97.32809,-32.715496,0.0012262389,-5.3255363,46.162197,47.561966,47.36467,47.401627,7.5362624e-07,0.3,5.6421456,89.925064,89.88014,89.96126,89.99441,0.093288764,0.48437497,5.515312194824219,30.022504738966624
44,440000,54.86171306781142,-89.435074,0.037246462,-0.37579596,0.84772253,-5.2123575,30.820965,45.12577,17.145086,96.75772,96.88559,97.23468,96.651146,1.0493385,0.7,-97.94017,-34.075314,0.0033093872,-5.7433476,5.253182,5.796064,4.342872,5.29703,2.4314505e-07,0.3,5.664549,88.84158,88.84478,88.96121,88.996086,0.067821145,0.41718748,5.463671684265137,30.68372685511907
45,450000,55.179985608027316,-89.939354,0.0365704,-0.6760827,0.60450625,-3.365317,25.803112,8.867794,15.401223,96.983635,96.92888,97.00781,96.64206,2.0117686,0.7,-97.363655,-36.534336,0.0029328158,-4.943193,3.7897353,3.954011,4.824494,4.408177,7.099472e-07,0.3,5.62587,89.31849,89.38956,89.34013,89.353226,0.08104279,0.465625,5.65134859085083,31.346506492296854
46,460000,55.98551896225781,-89.918724,0.03722702,0.46485066,0.90508896,-3.2162344,50.674427,20.634304,19.947256,95.86857,95.96857,96.56724,95.71767,25.26021,0.7,-96.333626,-40.73773,0.00050198176,-5.142157,3.479024,3.476087,2.867172,3.1284456,2.4314505e-07,0.3,6.2371564,89.28583,89.32382,89.354065,89.41766,0.19809218,0.4578125,5.680088758468628,32.01303925514221
47,470000,54.729156666265496,-90.07697,0.037060745,-0.45079288,1.0025537,-3.7424567,30.1184,31.54464,14.643756,96.79563,96.86087,96.354645,96.59334,2.6947086,0.7,-96.96557,-31.366774,0.0019070399,-4.377221,4.4239593,4.603068,4.8844647,4.2987533,5.867332e-07,0.3,6.103835,89.45302,89.4615,89.190895,89.244576,0.091565415,0.46874997,5.68015718460083,32.679172237714134
48,480000,56.076124036945785,-90.25106,0.03667191,-0.36039013,0.9353693,-6.843762,35.44144,15.701901,17.160402,96.50704,96.55328,97.07042,97.000084,1.2524625,0.7,-96.803055,-35.88444,0.0008578608,-4.652013,7.4543095,7.4561234,7.352927,7.0252914,7.554889e-07,0.3,6.4520826,89.70448,89.631004,90.009895,89.92937,0.0659118,0.4390625,5.651438236236572,33.34493916829427
49,490000,55.2254948363285,-89.27666,0.036513798,1.3017434,1.2165647,-5.498627,51.75992,26.380083,18.40833,96.65825,96.4766,97.04204,97.07483,2.4374232,0.7,-96.76282,-37.16653,0.00017211452,-14.304453,6.1498847,6.2469606,5.6255064,4.4950185,7.862243e-06,0.3,5.8156023,88.5959,88.65849,88.9504,88.57718,0.13928726,0.5671874,5.48419451713562,34.00403111378352
50,500000,56.242881522861886,-89.395065,0.03625928,-0.47497016,0.57320094,-3.3680277,31.015379,8.42227,14.473866,97.23602,96.84231,96.923676,97.0649,45.416813,0.7,-97.44019,-39.34392,0.00027431344,-5.6178713,4.5981727,3.9878871,2.9784386,4.0079813,3.1838836e-06,0.3,5.6804986,88.776634,88.752335,88.696945,88.75905,0.26836196,0.48437497,5.445077896118164,34.66660221417745
51,510000,56.73426108614825,-90.92436,0.03616167,1.440667,0.75346154,-72.83361,27.833403,24.37181,15.528992,96.43354,96.06277,97.51369,96.42891,1.6413791,0.7,-96.90529,-32.58526,0.0074690063,-4.9994907,72.525955,72.770744,73.58615,73.298935,2.062734e-06,0.3,6.152254,90.27939,90.3244,90.40342,90.322136,0.06293468,0.48906252,5.511751174926758,35.33266738653183
52,520000,56.36098509493224,-90.19447,0.036484174,0.827124,1.2989106,-3.5659459,30.271433,145.66312,14.09824,97.300255,97.40647,97.06195,97.44375,5.8626556,0.7,-97.93057,-35.76262,0.0002899054,-6.166655,4.8081703,3.5077677,4.3692007,4.3953066,5.0920065e-08,0.3,5.7024117,89.491356,89.43834,89.433304,89.54376,0.12710425,0.4484375,5.437877893447876,35.99486683209737
53,530000,55.89831680065407,-90.50931,0.036177874,-0.8003543,1.0673976,-66.8024,49.60149,45.30265,14.609892,97.02202,97.129486,96.830124,96.48847,5.0765486,0.7,-97.37683,-36.38128,0.0010333315,-7.332949,66.75018,66.46102,66.261475,67.21932,1.6430278e-07,0.3,5.9870386,89.80966,89.78557,89.66844,89.65157,0.11155906,0.5,5.403386116027832,36.66077388127645
54,540000,56.14747966479868,-89.61151,0.036616147,-0.9462949,0.9425956,-4.5742307,26.895061,26.203033,14.642108,96.64449,96.709885,97.07538,96.715836,8.342044,0.7,-97.46317,-33.19054,0.00038511923,-8.861958,4.3180137,4.8872433,7.279942,6.607681,2.1206286e-05,0.3,5.5323753,88.989365,89.01906,89.06984,89.072914,0.1366548,0.496875,5.349809408187866,37.32688823541005
55,550000,55.000699963208,-89.94559,0.037083227,-0.5047861,1.8524227,-5.240284,30.601507,159.49333,15.0817585,97.36925,97.36477,97.10892,97.30743,1.3067186,0.7,-98.29176,-34.034554,0.0013163784,-8.597591,5.6103945,5.488675,4.568906,4.961603,1.0561605e-06,0.3,5.7558746,89.2481,89.23747,89.12492,89.251785,0.08505046,0.4640625,5.3470799922943115,37.99089390039444
56,560000,56.97002045948334,-90.40531,0.03705824,0.11080694,0.8092892,-69.82992,29.034588,15.36455,15.678107,96.354385,96.45973,95.57424,96.88321,1.3574127,0.7,-96.717026,-35.624756,0.00014875794,-16.5099,70.982635,70.03868,72.042564,71.01103,1.6350998e-06,0.3,6.1166925,89.80977,89.729904,89.58093,89.64665,0.09706069,0.45625,5.415802955627441,38.653538942337036
57,570000,55.24348890887637,-89.81084,0.036599178,-0.18545857,0.7821941,-3.9362485,32.092064,18.035707,15.818214,96.044106,96.08811,95.70162,95.53216,2.1835601,0.7,-96.48327,-37.364017,0.0016283498,-9.895735,4.0062466,4.3981857,6.5693994,5.959518,2.6560157e-08,0.3,5.848401,89.202545,89.28265,88.973175,89.1024,0.0946277,0.4109375,5.406687259674072,39.31585420370102
58,580000,56.111111336893636,-89.776405,0.035945255,0.47554684,1.0091085,-4.220232,30.522558,25.18536,16.596182,96.350945,97.471634,96.382454,97.143875,2.6378431,0.7,-98.01894,-34.865295,0.0014854255,-8.41044,4.594459,4.6264715,5.696478,4.650096,8.074567e-08,0.3,6.307974,89.0916,89.20914,89.3685,89.27397,0.07858609,0.4640625,5.343378782272339,39.97721789677938
59,590000,56.93834403161143,-89.21339,0.03646796,-1.1066425,1.0716784,-2.9547448,25.334717,21.463997,14.04521,96.35938,96.63147,96.79517,96.77438,2.77115,0.7,-96.82614,-58.179256,0.0003254033,-8.761923,3.4995275,2.828395,3.5841877,3.79818,1.1001423e-06,0.3,5.7814302,88.63044,88.62279,89.00201,88.873184,0.09612354,0.44375,5.3825201988220215,40.63820659716924
60,600000,56.48046174177681,-89.290436,0.03520596,-1.0149869,0.72935843,-4.68268,45.208813,13.210369,18.155487,96.90318,96.992676,96.523,96.88521,1.8934244,0.7,-97.52863,-36.777176,0.00032870268,-11.561555,4.496954,4.944808,4.895055,4.9160557,4.710164e-08,0.3,5.8934817,88.67191,88.70337,88.88479,88.79344,0.08066702,0.4453125,5.514746904373169,41.3017124692599
61,610000,55.852059881405545,-88.57122,0.036595453,-0.5585473,1.0219882,-4.466553,35.699684,32.63978,13.501591,96.251274,96.30281,96.14916,96.09409,24.599237,0.7,-97.02093,-35.608345,0.0005097075,-8.015261,4.918031,4.16076,3.9691904,4.1942334,3.6714485e-07,0.3,5.4978857,87.89766,87.86477,87.83461,88.03091,0.20189357,0.41875,5.391150712966919,41.96323865652084
62,620000,56.57424949623719,-90.099915,0.036282506,0.7227248,0.73614955,-3.4583948,27.989603,20.343136,16.235373,95.45425,95.59915,96.03188,95.67233,18.095325,0.7,-96.16634,-32.907978,0.0013764403,-7.6483464,3.4641962,3.6248198,5.3358827,5.0448976,6.2654904e-06,0.3,5.9830146,89.53778,89.48344,89.653625,89.582886,0.18540987,0.44687498,5.389252185821533,42.62693767150243
63,630000,57.08526476858232,-90.5883,0.03589768,-0.31748122,1.1015108,-53.174244,26.664198,49.591785,14.280576,96.23004,96.26859,96.08457,96.195206,2.6307359,0.7,-96.809494,-35.42851,0.00024695415,-8.675699,51.632175,50.16267,55.822464,52.577827,3.1355304e-07,0.3,5.9912596,89.984344,89.94818,89.696434,89.739624,0.07191524,0.4734375,5.431817531585693,43.28407407601674
64,640000,55.8106238516711,-90.38783,0.035958916,2.1298425,1.6423962,-54.92711,41.694893,120.1566,15.850078,96.20856,95.980804,96.27425,96.52444,1.5460389,0.7,-96.57288,-25.007496,0.0029218397,-5.0600533,49.59127,49.280945,49.628086,49.194096,5.9655287e-07,0.3,6.4594893,89.76313,89.75877,89.46988,89.41222,0.104578026,0.521875,5.449735641479492,43.94631117979686
65,650000,56.20398775138654,-90.80266,0.036289874,0.68786925,0.92716455,-64.89932,44.02962,24.791265,17.940092,96.190346,96.42787,96.09678,95.631065,1.8010999,0.7,-96.99638,-44.574497,0.00013172359,-7.417331,66.326775,66.2301,66.10796,66.136284,2.1554296e-08,0.3,5.6534843,90.18876,90.16959,90.061226,90.04233,0.094516665,0.45156246,5.4080493450164795,44.61208871603012
66,660000,56.71911151177026,-89.35672,0.035771098,-0.44897756,0.7875482,-3.0586722,37.442345,14.577791,16.15512,96.98475,96.95872,97.27716,97.17505,1.9231994,0.7,-97.58173,-33.338715,0.00053506164,-7.279324,4.1345296,4.405222,4.8626494,4.6156616,1.994963e-06,0.3,5.850958,88.82286,88.79811,88.839775,88.75581,0.08161667,0.46249998,5.365366220474243,45.275967752933504
67,670000,56.81345600963916,-89.36334,0.036680393,-0.15767983,1.4661258,-6.294072,27.88826,130.40567,14.3172,95.38599,95.654045,95.58858,95.540825,14.560113,0.7,-95.99564,-36.745872,9.8749355e-05,-4.648057,7.104317,6.4339924,4.98183,5.3323245,7.2671105e-07,0.3,5.838767,88.71414,88.752014,88.84477,88.73782,0.20731677,0.490625,5.408318281173706,45.94068163235982
68,680000,55.76150666780598,-89.473785,0.036298037,0.31898907,1.0555179,-3.562451,30.146627,60.999,16.081938,96.43322,96.61797,96.837036,97.521645,3.318534,0.7,-97.41393,-40.626926,0.00021494576,-13.10525,3.2160926,4.7166767,4.8158092,4.939266,2.6494672e-06,0.3,6.095506,88.855965,88.90115,89.013275,89.07414,0.110182054,0.37656248,5.460301399230957,46.60661743879318
69,690000,55.62422793446543,-90.41724,0.036233872,-0.40406203,0.7989703,-68.10442,53.701138,48.59363,15.327078,96.27692,96.28018,96.15748,96.205025,6.8968215,0.7,-96.828735,-35.700108,0.002083323,-7.205456,69.57635,69.50618,69.951546,67.56072,3.8402095e-06,0.3,5.7966723,89.82184,89.79953,89.75952,89.81021,0.12558621,0.44375,5.400370359420776,47.27235100269318
70,700000,56.55202382016815,-89.671814,0.035435177,-0.16582787,0.93230706,-6.1203256,45.596645,36.285507,15.224955,96.47937,96.45574,96.564514,97.17525,2.545861,0.7,-97.65853,-35.722813,1.2178498e-05,-11.814384,6.513835,6.1875463,6.251516,6.856597,5.720824e-07,0.3,5.7732167,88.99053,89.04568,88.90112,89.130066,0.11301821,0.41875,5.3256120681762695,47.93117863734563
71,710000,57.08535341309797,-89.25707,0.036128286,0.38938338,0.7097765,-5.5574384,46.802597,13.663472,15.835583,97.03838,96.554504,96.458,96.96259,0.77704114,0.7,-97.24965,-41.31912,0.0007187294,-12.031176,6.291358,6.8981524,3.9986646,4.694014,2.0444393e-06,0.3,5.5639668,88.67436,88.64641,88.48253,88.43408,0.076810144,0.49531245,5.4603049755096436,48.59526904424032
72,720000,56.35619786483077,-90.01238,0.035786297,-1.3210565,0.5986609,-5.569604,33.42665,18.599058,17.653255,97.07269,96.65404,96.73849,96.69727,0.7690023,0.7,-97.31316,-38.6178,0.00016129168,-8.881128,6.318993,6.384161,6.2153177,6.081208,1.517724e-06,0.3,5.609704,89.427414,89.38613,89.36693,89.39458,0.06899315,0.5015625,5.435872316360474,49.25602610508601
73,730000,56.21608421721136,-90.00398,0.036397323,-0.0041543543,0.87270916,-5.313686,43.933052,13.693074,18.357939,96.321304,96.12559,96.4388,96.04607,1.588089,0.7,-96.648895,-34.66746,0.0012929377,-13.096927,5.258562,5.0111065,4.5381117,4.886299,8.802745e-08,0.3,6.0262938,89.348114,89.40207,89.51364,89.554504,0.07295756,0.44843748,5.020117521286011,49.908280328909555
74,740000,56.37955242875785,-90.0627,0.035534665,0.026498973,0.85727644,-49.08858,42.003086,20.743092,14.843325,96.340225,96.58383,96.354065,96.45804,1.4772005,0.7,-97.39612,-38.366955,0.0001271654,-10.609857,49.18637,50.08288,48.669468,48.21198,5.0920065e-08,0.3,5.7234855,89.466805,89.3522,89.35918,89.424164,0.08760098,0.45625,5.401630640029907,50.57190118630727
75,750000,56.42801307348023,-90.66116,0.035521407,0.43861857,0.73422015,-67.93182,28.870064,11.562419,15.29383,95.889626,95.8985,95.55155,96.12385,1.5215838,0.7,-96.12273,-35.112263,0.0005887172,-9.000781,67.200836,67.55592,66.9519,68.06131,1.7114799e-07,0.3,6.0789223,89.938225,90.0086,89.89508,89.96054,0.08184726,0.4578125,5.5076305866241455,51.23216276168823
76,760000,56.38284401976696,-89.29917,0.036445428,-0.6007587,1.1482041,-3.9123328,35.26435,50.29533,15.154478,96.294304,95.956406,96.24484,96.02842,5.498574,0.7,-96.51564,-36.874958,0.0006687895,-5.0975103,4.2905397,4.5962133,5.4311376,4.924976,1.177541e-08,0.3,5.6645865,88.697784,88.59387,88.53146,88.60181,0.13898364,0.47031248,5.565382242202759,51.89744678735733
77,770000,55.7253971366274,-89.65145,0.035311278,0.48131543,0.7078135,-9.597461,39.49127,8.628898,15.218588,96.63719,96.804,96.64071,97.306145,3.059624,0.7,-97.35024,-34.00228,0.00356699,-11.274766,9.727632,11.624317,9.373072,8.451262,3.4741126e-06,0.3,5.994197,89.00987,88.995384,89.23955,89.168,0.11142605,0.4171875,5.42105507850647,52.563008729616804
78,780000,55.87347504339226,-90.65369,0.034919553,-0.26245213,0.8673983,-66.81006,30.712038,24.467144,16.212431,97.908646,97.62068,97.83831,97.53363,12.018823,0.7,-98.35384,-43.236584,0.00013520964,-6.067027,65.76116,65.616486,65.74668,66.37866,4.9301887e-09,0.3,6.3072615,89.858345,89.85974,89.65634,89.70822,0.1389462,0.46249998,5.443075656890869,53.22191069920858
79,790000,55.969401477746835,-89.65584,0.0358481,0.047311395,0.8089084,-3.8741913,28.865412,44.104916,14.7885685,96.191635,96.16765,97.14786,96.24101,0.8828742,0.7,-96.87256,-36.04994,0.001717193,-5.9229937,4.695775,4.7656536,5.79892,4.9202023,5.0466045e-09,0.3,5.8603134,89.05454,89.05846,89.04471,89.11809,0.06550747,0.43593746,5.406642913818359,53.88667299747467
80,800000,55.77579807154919,-89.5115,0.03555891,-0.97342926,1.5434476,-3.6700869,69.34023,70.869255,17.742058,97.68588,97.24234,97.740685,97.802734,2.6958838,0.7,-97.72521,-32.7511,0.0012427187,-6.8999386,4.0413427,4.430866,5.973759,6.3578405,8.6217185e-08,0.3,5.5487456,88.8723,88.8563,88.8833,89.07178,0.10089379,0.41718748,5.572516918182373,54.54648728370667
81,810000,57.198438606323464,-89.72376,0.03564408,-0.28639463,1.1191213,-3.9447465,28.531721,59.567635,14.925501,94.99903,94.97373,95.79545,95.13858,2.2486157,0.7,-95.51778,-55.462486,0.001730823,-6.1419907,3.963144,4.0868735,4.5935807,4.5365634,1.0186341e-07,0.3,6.0459213,89.14191,89.14566,89.381996,89.25404,0.08399197,0.4671875,5.373795032501221,55.209248809019726
82,820000,56.96345917340443,-90.03577,0.035827123,0.46731836,0.71771973,-66.88368,33.08105,14.801285,16.469028,96.27363,96.49836,96.54183,96.74658,1.4202718,0.7,-97.23006,-32.254616,0.00012949464,-14.277117,65.700035,65.829414,65.114525,66.90615,1.7993327e-06,0.3,5.924341,89.31545,89.34644,89.452194,89.41459,0.074494556,0.4765625,5.398954391479492,55.87416536013286
83,830000,56.28569921173877,-89.57467,0.03582929,-1.1501535,0.89772725,-5.798143,29.715006,30.997541,16.440908,96.46869,96.4484,97.37775,96.332115,1.3208456,0.7,-96.79249,-51.666664,0.0018381188,-5.014221,6.495515,6.529524,6.3257866,6.259022,2.9703369e-08,0.3,5.7656956,88.99098,89.00736,88.77868,88.786255,0.09351789,0.46406245,5.362231969833374,56.54057751496633
84,840000,56.43602252632471,-90.146286,0.035737902,0.6531821,0.8301991,-66.49844,37.952175,11.930223,15.80049,95.28128,95.83549,96.3082,95.89734,7.79338,0.7,-96.417015,-41.404247,0.00018505874,-6.4945116,67.958755,67.132095,67.2388,66.997116,4.649442e-06,0.3,6.2194204,89.40474,89.452896,89.6644,89.66309,0.12767006,0.4609375,5.351966857910156,57.207053395112354
85,850000,56.46964454083516,-90.27467,0.036622718,-0.9510421,1.1620141,-67.027916,30.772821,94.44646,17.209164,95.87379,95.96131,96.03535,95.58776,7.9045987,0.7,-96.538506,-30.303123,0.0001881838,-13.7191725,65.96236,66.03013,66.09379,66.8431,4.4070183e-07,0.3,5.750162,89.612656,89.67102,89.82771,89.72516,0.12575002,0.46718746,5.667515516281128,57.87281564076741
86,860000,56.50232303832583,-89.86507,0.03569799,-0.5640985,0.68983495,-10.784745,35.281,15.795588,14.544673,95.379524,95.47722,96.18324,95.03183,15.305908,0.7,-96.15113,-34.089226,5.675765e-05,-7.375943,11.402674,11.359878,10.000564,9.526885,4.685554e-06,0.3,6.122672,89.20405,89.29642,89.2353,89.20111,0.15468693,0.51250005,5.8816752433776855,58.53894310792287
87,870000,55.28055193846739,-90.09925,0.035063736,0.16526037,0.8379576,-5.1436915,34.26912,13.713894,15.942463,95.38328,95.66842,95.461655,95.68154,2.9636889,0.7,-96.28284,-35.81087,0.00015549746,-4.707964,5.4771714,5.6501837,5.5187335,5.650613,2.9211108e-06,0.3,5.8411207,89.54157,89.52811,89.817154,89.69556,0.078623414,0.42187497,5.926414489746094,59.20833168427149
88,880000,56.627475603088776,-89.356186,0.035268385,0.019316003,0.8860553,-54.54464,38.77231,19.792755,13.270456,95.274216,95.057175,96.3192,95.51914,2.116268,0.7,-95.777885,-35.09986,0.00017461233,-13.222639,53.57017,53.092773,55.960037,54.033566,7.629646e-06,0.3,5.650405,88.8148,88.77043,88.939224,88.860855,0.07177207,0.4359375,5.560699462890625,59.86647856235504
89,890000,56.11677554218031,-89.839516,0.035762604,-0.43911567,0.68426573,-65.88562,29.95831,14.264195,15.14525,95.79059,95.71172,95.63125,95.67638,4.330254,0.7,-96.57497,-41.08112,0.002038144,-9.1999,66.66979,66.52333,66.83635,64.76197,2.542918e-07,0.3,5.9937563,89.213326,89.23657,89.40955,89.340576,0.12837735,0.42031246,5.9655234813690186,60.53649479150772
90,900000,56.23620641621556,-90.11037,0.03551033,-1.624141,0.51189566,-6.2804756,23.078955,8.254299,14.175363,96.847244,96.65473,96.36882,96.3658,2.957031,0.7,-97.26497,-33.625675,0.0003403789,-9.963949,6.3884406,6.859031,6.591891,6.010729,5.0466045e-09,0.3,5.432347,89.432526,89.419266,89.43269,89.41593,0.078748345,0.484375,5.735948324203491,61.20116504033407
91,910000,56.68382455406567,-89.18567,0.03520407,-0.43344927,0.7274151,-7.551052,25.48144,9.868935,14.254234,96.379265,96.22444,96.53875,96.40909,2.273144,0.7,-96.772736,-35.389713,0.0023850654,-5.9228153,7.5643377,7.6902003,6.4799614,6.3954053,5.2823456e-08,0.3,5.7599707,88.51304,88.59149,88.63775,88.5668,0.10616807,0.5046875,5.7190868854522705,61.867336718241376
92,920000,56.27944360624304,-89.80823,0.03518348,-0.11652346,0.7333743,-6.621367,34.460693,11.9146805,15.438075,97.55256,97.13002,96.99588,97.139824,1.4932938,0.7,-97.90286,-36.2678,0.0013057684,-6.0075264,6.4218235,7.0631447,5.0916486,5.7839403,1.5652738e-06,0.3,5.901782,89.19026,89.112976,89.35993,89.41191,0.07679292,0.3984375,5.6402411460876465,62.53336877028148
93,930000,55.98786064038498,-89.253105,0.0351284,-1.0277361,0.60936844,-5.7941465,42.53883,8.913097,15.793606,96.10303,96.47846,96.43418,95.69947,3.4155397,0.7,-96.67858,-35.850033,0.0002083744,-10.343456,5.7543526,6.083987,4.296256,4.5723953,2.5990886e-07,0.3,5.5848813,88.59048,88.62892,88.54954,88.33178,0.104466185,0.5171875,5.638839483261108,63.20063310066859
94,940000,56.09611852864407,-90.30829,0.03537712,0.1527535,0.82475674,-66.49954,28.626469,16.117695,14.48452,96.54793,96.22386,97.233826,96.20624,1.0977067,0.7,-96.71074,-38.715733,0.0005458804,-8.603139,63.133297,65.791885,66.71739,63.74748,8.761883e-07,0.3,6.1120353,89.75148,89.72098,89.8796,89.8693,0.068918414,0.40625,5.985915660858154,63.869982214768726
95,950000,56.1898250181287,-89.90563,0.0354687,-1.4551845,0.94445586,-5.9495525,27.589058,19.526962,14.687799,96.304794,96.24176,95.65438,95.61974,4.187001,0.7,-96.86961,-40.30659,0.00080364296,-6.708269,6.10279,6.2908597,4.683893,5.1445036,8.050836e-06,0.3,5.750701,89.310135,89.25575,89.0056,89.03981,0.11006016,0.51874995,5.816835880279541,64.53243358532588
96,955000,56.39783038003318,-89.80684,0.036281426,-0.50576496,0.73325396,-5.447343,34.368267,10.192873,15.483385,95.76531,95.78855,96.81895,96.264305,1.2172369,0.7,-96.4109,-34.952522,5.1448238e-05,-10.689175,5.7538133,5.803893,6.075811,5.9400105,1.1001423e-06,0.3,5.816387,89.09625,89.105225,89.25523,89.2683,0.07097522,0.403125,5.52712607383728,64.91063871383668
97,960000,55.90292742151593,-90.46055,0.034493662,-0.027335465,1.0705702,-68.07877,37.931973,31.997622,14.023561,95.85662,95.64545,96.02944,95.37149,1.016382,0.7,-95.91508,-39.685013,0.0017701294,-5.9816184,64.83067,66.60477,65.25533,64.72719,2.4457404e-06,0.3,6.057539,89.81059,89.84682,89.887115,89.76668,0.08884004,0.5125,5.341691493988037,65.2854833761851
98,965000,56.38244864661866,-89.970276,0.03482344,0.08752237,0.7936983,-69.230644,28.547228,29.730885,15.425133,97.476875,97.007095,97.470894,96.530945,2.2121198,0.7,-97.37367,-31.891987,0.00056671776,-15.118586,69.37948,69.152756,68.57034,69.88347,1.6298145e-10,0.3,6.0661187,89.37861,89.36665,89.296844,89.402214,0.084460065,0.4453125,5.331643581390381,65.65903712908427
99,970000,56.26929092702755,-88.39072,0.035135597,-0.7545433,0.90839183,-5.0680795,28.871588,41.178093,15.240616,95.65129,95.88903,96.529305,96.53952,2.257535,0.7,-96.103004,-40.197186,0.0032116733,-9.0756645,6.0720806,5.4403744,3.635255,4.3129935,2.7939678e-10,0.3,5.787642,87.75644,87.780075,87.76562,87.883835,0.11205183,0.4140625,5.394272804260254,66.03245709737142
100,975000,56.898894940534404,-89.6824,0.03527697,-0.57783073,1.044503,-4.2506733,39.037666,20.914402,14.789345,95.93502,95.92226,96.28342,96.00501,2.116045,0.7,-96.1962,-38.501312,0.0010598167,-8.577077,5.2632756,4.9440923,4.7493544,4.571353,1.1175871e-05,0.3,5.8262243,89.06659,89.13465,89.33997,89.239876,0.08324143,0.4421875,5.457610368728638,66.40940335591634
101,980000,56.306806107723325,-89.09005,0.033743322,-0.5031776,0.87861204,-1.7863882,35.05021,19.047846,19.228664,96.51783,96.58512,96.495636,96.406296,2.2369256,0.7,-97.59094,-35.37263,0.00086791,-8.134023,3.669852,2.6695843,5.4500136,3.8225503,1.6298145e-10,0.3,5.9548607,88.44702,88.39653,88.232704,88.21321,0.10805946,0.4890625,5.436065912246704,66.77854603528976
102,985000,56.20935237844444,-89.113434,0.035527844,-0.8966067,1.064613,-3.8709977,30.984564,16.333464,17.71891,96.55763,96.05348,96.077255,95.30885,3.0069733,0.7,-96.360664,-36.447544,0.00076530967,-7.138714,4.041043,4.458351,4.848499,5.093082,1.0058284e-08,0.3,5.539269,88.6102,88.55417,88.17552,88.18329,0.11135157,0.5046874,5.694112062454224,67.15346202452977
103,990000,56.1258168546896,-90.34015,0.036406938,0.26466817,1.0518942,-56.26707,33.14538,25.762838,14.880726,96.441864,96.24628,96.10484,96.11424,3.6908789,0.7,-97.37737,-36.691967,3.1338655e-05,-9.974283,56.204956,54.828957,52.18255,54.917286,5.1929555e-06,0.3,5.8691874,89.739174,89.66263,89.45194,89.5876,0.0909325,0.43906248,5.476624250411987,67.5242307305336
104,995000,56.47795705367737,-89.41753,0.033933252,-0.43436226,0.6829337,-3.5829031,29.998764,25.519617,14.8166065,96.00383,95.78195,96.01627,95.664505,3.8956306,0.7,-96.23833,-38.74638,0.0031059566,-6.7782316,3.6514788,4.525891,4.299817,4.866211,3.7433756e-06,0.3,5.9434013,88.80627,88.783325,88.988205,88.96518,0.09489499,0.4609375,5.130982398986816,67.89180624485016
105,1000000,56.36205795128129,-90.0968,0.032043234,-0.40108237,1.243045,-54.791756,36.425434,63.588413,18.369635,96.06488,96.1213,95.60418,95.90339,2.4367085,0.7,-97.00984,-32.340855,0.0024615808,-7.4662333,53.134678,55.047592,53.424393,54.846348,1.0693212e-06,0.3,5.7705107,89.47529,89.41783,89.49962,89.65317,0.09533147,0.421875,5.3847126960754395,68.26985603173574
