Xixo99/comfo/baselines/comfo6_perterbation_actor/20230222_actor_perterbation/halfcheetah-medium-v2/COMFO6_s2_20230222_094356_halfcheetah-medium-v2_55.41.csv
,step,reward,actor_loss,alpha,alpha_loss,critic_loss,max_actor_loss,max_alpha_loss,max_critic_loss,max_mle_prob,max_q1,max_q2,max_target_q,max_v,max_value_loss,max_weight,min_actor_loss,min_alpha_loss,min_critic_loss,min_mle_prob,min_q1,min_q2,min_target_q,min_v,min_value_loss,min_weight,mle_prob,q1,q2,target_q,v,value_loss,weight,eval_time,time
0,0,2.252700722454664,,,,,,,,,,,,,,,,,,,,,,,,,,,,,,,,,
1,10000,-2.107017366971017,-35.909946,0.094317205,-2.9793205,1.1249763,1.3520954,35.39981,27.83271,13.836622,43.742447,43.154045,43.29037,42.613678,1.89561,0.7,-46.121834,-28.50981,0.0010126245,-11.449385,-1.8993492,-1.1912373,-1.4467677,-2.0006573,3.3014658e-07,0.3,3.197628,35.246124,35.199207,35.24598,34.835495,0.1453882,0.4203125,5.538412570953369,2.1138250549634297
2,20000,-3.2917036117657874,-60.18506,0.119454175,-0.3525142,1.7749387,-1.0025085,24.112776,46.898094,12.530163,69.947815,69.44902,70.35446,69.92432,2.7221704,0.7,-71.304726,-20.960075,0.005185794,-14.538685,0.578477,0.72176564,1.0725658,0.4169307,1.12304406e-07,0.3,2.8888733,59.44422,59.455917,59.31077,59.198875,0.20893723,0.4109375,5.516944885253906,2.790413471062978
3,30000,-1.4265122977969789,-73.08992,0.108118296,-0.061656415,1.3216319,1.5310512,24.454271,40.360382,13.577414,85.280594,85.3371,84.9314,84.65297,2.249374,0.7,-85.51387,-28.311579,4.447729e-05,-8.092955,0.14278561,0.5523543,-1.8442426,-0.8111552,1.0567485e-06,0.3,3.0281892,72.36455,72.47059,72.5504,72.468475,0.13176621,0.4109375,5.522598743438721,3.467080505688985
4,40000,-0.9118440976523238,-79.77678,0.09226824,-0.11808866,1.631904,-17.987299,21.846874,37.969414,13.200336,88.669136,88.17808,88.65145,88.51949,5.2104445,0.7,-89.57366,-24.445261,0.0018168334,-15.6939535,17.956715,17.943558,15.307321,17.236069,4.821643e-06,0.3,3.1931326,79.00978,78.96876,79.343155,79.24327,0.14407274,0.440625,5.643412351608276,4.146192713578542
5,50000,1.197337009062325,-83.70721,0.07821731,0.77708954,2.637499,1.1984309,25.285284,73.94823,14.4210005,92.54354,93.23758,94.45053,93.08822,7.958736,0.7,-93.77933,-33.42131,0.002675435,-14.060429,-1.8008364,-1.1717306,-0.8477614,0.12637019,6.712508e-08,0.3,3.8585858,82.987114,83.18381,83.28812,83.29276,0.17526871,0.40937495,5.426473617553711,4.820507669448853
6,60000,1.6580089670662361,-85.879196,0.06692366,-0.47694564,1.5723951,3.1225877,22.224207,32.59884,13.271031,94.944275,94.73046,94.432465,94.1213,3.931054,0.7,-95.05798,-30.784504,2.383918e-05,-12.770305,-4.444401,-4.4190755,-4.499879,-2.9432588,1.7802504e-05,0.3,4.191002,85.185165,85.270584,85.20602,85.241135,0.112439185,0.43906248,5.473633766174316,5.495112816492717
7,70000,3.484088792262905,-87.415825,0.059655335,-0.11581653,1.6171082,3.943761,26.842575,60.403267,16.51935,94.99086,95.08829,95.12056,94.57158,7.4302344,0.7,-95.40307,-37.46529,0.00040591328,-10.375244,-3.5106764,-3.1101012,-1.6900774,-4.1360154,9.305659e-08,0.3,4.7703032,86.85692,86.899796,87.03457,86.799774,0.17530103,0.5078125,5.596032619476318,6.174964773654938
8,80000,2.783446385475175,-88.89044,0.052395813,-0.11333531,1.2533159,2.0011256,28.62569,21.336205,18.086338,96.17758,96.32249,96.12021,96.24694,1.5923784,0.7,-96.46607,-31.616758,0.0020776885,-6.265477,-2.1855774,-1.8994734,-3.5152752,-4.404566,2.2255526e-06,0.3,5.4182014,88.400116,88.45492,88.239914,88.38336,0.08944594,0.40781248,5.5376691818237305,6.853306909402211
9,90000,5.390790303886937,-88.91171,0.049190983,0.057651818,1.9041647,4.6460524,35.419132,71.91307,16.149687,96.47869,96.195526,97.5364,95.60136,3.4258344,0.7,-96.28907,-34.02586,0.000583117,-6.9544067,-4.5396395,-3.6246104,-4.388946,-4.5075636,2.9703369e-08,0.3,5.2662992,88.40776,88.45831,88.11723,88.01033,0.11765818,0.5515624,5.17622971534729,7.523093541463216
10,100000,9.907012089483699,-89.41264,0.046671104,1.0729868,1.5251901,-59.403423,36.354424,36.90577,16.079027,95.692924,95.79032,95.9235,95.72764,2.4050424,0.7,-96.492714,-29.939978,0.0024699485,-7.7001867,58.253265,59.09176,58.9166,57.41608,6.3704215e-07,0.3,5.7197933,88.91156,88.889336,89.26606,88.99795,0.09314431,0.49843752,5.643128395080566,8.198949646949767
11,110000,7.757230999085593,-89.413635,0.04498924,-0.60240567,1.0254143,0.25943893,27.627342,23.518826,14.113198,96.63024,96.94876,95.8664,96.26926,3.2147305,0.7,-96.951225,-43.212425,5.844125e-05,-6.069833,0.078617215,0.21092975,-1.0209705,-1.3451431,6.391638e-06,0.3,5.6073885,88.943954,88.95123,88.93916,88.913025,0.10241242,0.42343748,5.760143041610718,8.878229530652364
12,120000,42.561576905242326,-90.45265,0.04382896,-0.8064679,2.1789765,-48.56381,25.326347,84.194275,14.113105,96.616714,96.86565,96.519516,95.9322,2.6092453,0.7,-96.87753,-33.986694,0.0011114362,-8.242308,48.403328,46.22145,53.249367,48.193836,1.5826152e-05,0.3,5.492522,89.928116,89.94318,89.99596,89.7939,0.08072035,0.52656245,5.43291163444519,9.551382025082907
13,130000,46.19363426536231,-88.95685,0.04261325,0.69650537,1.3652189,2.6506052,30.107466,48.727005,15.5082855,96.37467,96.50575,97.113815,97.070435,1.7608744,0.7,-96.84254,-39.34091,0.0029104557,-7.589184,-1.2196432,-2.3799043,-3.0979679,-2.52689,2.1554296e-08,0.3,5.6180034,88.30002,88.40699,88.36223,88.40788,0.08648437,0.4359375,5.45907998085022,10.224437125523885
14,140000,49.37202239197292,-89.34595,0.041662782,1.8480277,1.1050477,-2.4120474,33.85177,33.620132,15.408094,96.39186,96.893425,95.69806,96.23264,1.9378657,0.7,-96.96882,-38.788326,0.0021998878,-10.790309,2.5092747,3.2392225,2.634669,2.0008678,2.1147544e-06,0.3,5.792139,88.77659,88.83269,88.948166,89.13219,0.08325583,0.425,5.38741135597229,10.896944983800251
15,150000,50.32775239304234,-89.92503,0.041842382,0.75640786,1.4501896,0.5750589,26.2887,21.72036,14.543022,97.46031,97.15933,97.99806,97.47427,1.7032733,0.7,-97.466415,-30.886274,0.001761277,-5.117963,0.20925087,0.60474366,2.6881654,2.1515129,6.265007e-07,0.3,5.911303,89.37712,89.342766,89.787964,89.70652,0.086658135,0.39374998,5.469291687011719,11.568989745775859
16,160000,52.593773978240286,-89.784454,0.040820196,0.7189772,1.6222484,0.42070562,138.33583,100.67433,15.997227,97.64257,97.69347,99.223495,98.16727,3.287401,0.7,-98.16521,-35.07957,0.00030949642,-6.3626766,0.9041301,-1.3571987,2.593078,1.0499034,2.0368026e-07,0.3,5.656331,89.247604,89.20677,89.5421,89.608215,0.13352692,0.37656248,5.384964466094971,12.239747818311056
17,170000,48.298436291926826,-90.31704,0.04082326,-0.5392288,0.69643235,-67.95913,34.46111,19.368412,14.571405,96.56058,96.38506,96.860245,96.99455,1.4673135,0.7,-97.007935,-43.027752,0.00074012997,-11.392988,67.29007,68.10903,68.20182,68.06054,6.9849196e-11,0.3,5.658858,89.80972,89.722145,89.886154,89.92171,0.07187246,0.4140625,5.422902345657349,12.90687317053477
18,180000,52.711493614062775,-89.45392,0.04124349,-0.19999768,0.9734731,0.6182794,27.018263,28.17886,15.690645,96.90487,97.18656,96.71466,96.8371,2.9500306,0.7,-97.44685,-37.226585,0.0006261387,-12.006811,-0.023536146,1.1642127,2.258593,3.093272,1.478009e-07,0.3,5.667363,88.90897,88.866425,88.78853,89.009895,0.08763222,0.45,5.479233980178833,13.580394740899404
19,190000,51.4263465694958,-89.772934,0.041175835,-1.103498,0.9213021,-1.3423543,27.755901,23.484234,15.245314,97.08594,97.11688,97.05061,97.39937,7.4818377,0.7,-97.42152,-44.276867,0.002602818,-7.9582615,1.5174606,2.4554565,2.029948,1.3826828,3.833731e-07,0.3,5.410377,89.10173,89.15953,89.2684,89.449554,0.14278522,0.4484375,5.537228345870972,14.252365704377493
20,200000,52.247850836621055,-90.347015,0.039456386,-1.9212035,1.4581208,-1.7162681,26.345228,81.0538,16.263918,96.855034,96.85381,97.62835,96.98758,1.8573002,0.7,-97.73423,-32.281025,0.0019638836,-6.3796706,2.0998058,1.5756538,2.0470982,2.461989,2.2006861e-06,0.3,5.8426347,89.81793,89.871864,89.927505,89.76843,0.1017458,0.48281246,5.532491445541382,14.927164073785146
21,210000,51.97807530489082,-89.38518,0.03952436,0.860412,1.0955534,-3.4587672,46.281246,20.33562,15.239227,96.42633,96.38935,96.49969,96.53229,1.6263376,0.7,-97.23725,-32.95233,0.0005112665,-7.8724318,-2.215077,-1.226689,-4.0086665,-0.94542086,1.5716068e-08,0.3,5.332293,88.840195,88.78663,88.543465,88.59055,0.08085385,0.48593748,5.382979393005371,15.599267955621084
22,220000,55.20731296799612,-90.03395,0.038822856,-0.5599847,1.0439187,-1.1378595,39.330444,43.26733,14.431717,95.99366,95.95009,96.00776,96.20405,1.6721344,0.7,-96.51304,-31.1496,0.0018076554,-6.1349335,1.8503993,2.735192,2.2173471,2.2880254,3.5361154e-08,0.3,5.433971,89.44812,89.51503,89.28936,89.55419,0.09604675,0.4296875,5.447936534881592,16.27270204226176
23,230000,55.455161712685275,-89.90284,0.039922405,0.5960272,1.8132358,-3.7304397,26.556368,81.798965,15.039521,96.187416,96.48817,97.26527,96.58433,3.2872646,0.7,-96.514786,-43.6785,0.0033724785,-6.582581,3.303025,4.793625,2.592835,2.8382702,1.2262899e-06,0.3,5.8717713,89.35455,89.39773,89.831665,89.78489,0.08392273,0.4359375,5.444924592971802,16.951066239674887
24,240000,54.71250292959251,-90.200485,0.039050803,-0.57849526,0.88648194,-1.2978067,26.9568,36.859283,15.987794,97.5212,97.66103,96.77043,96.92002,1.3263617,0.7,-97.967125,-33.180027,0.0010527126,-9.9365635,0.90159696,0.2129237,2.3815343,1.1093726,4.928559e-07,0.3,5.6604185,89.63883,89.62909,89.55294,89.577675,0.08911747,0.47031248,5.420094966888428,17.617659572760264
25,250000,53.963094306639015,-90.5994,0.038271908,0.38726616,0.76923156,-3.44074,34.06767,25.66446,17.595562,96.17607,96.05411,95.75645,95.656075,5.127473,0.7,-96.80169,-33.88536,0.0032853363,-6.943814,3.0111198,4.0319037,2.0938418,2.1469927,4.8409566e-07,0.3,5.9322977,90.09025,90.056244,90.032135,89.8615,0.08977093,0.5015625,5.3475120067596436,18.28801472187042
26,260000,55.36891343560883,-90.379074,0.037664197,1.3411478,1.0738351,-69.71168,34.39451,67.85445,17.469938,96.21744,96.00893,96.17597,96.30013,4.5498023,0.7,-96.70671,-32.809536,0.002302479,-8.172127,70.22764,69.521,66.856834,70.1168,1.5012588e-05,0.3,5.8945665,89.7649,89.71913,89.81468,89.82667,0.10374663,0.440625,5.415545463562012,18.961547629038492
27,270000,53.48402043737629,-89.18089,0.038100645,0.15311623,1.4530863,-2.5570598,42.632835,56.708084,15.838112,96.40042,97.240265,96.98079,96.91,2.6137877,0.7,-96.91378,-31.621914,0.0016444786,-5.4691796,4.1061754,2.8117585,0.6839242,1.6282442,1.5716069e-10,0.3,5.7777257,88.66374,88.6922,89.088745,88.82823,0.1182712,0.4859375,5.39959979057312,19.63599822918574
28,280000,54.56956377839405,-89.60166,0.038882285,0.225041,1.0262146,-3.4675872,38.805656,20.61404,18.790129,95.92861,96.11674,95.98308,96.442665,2.1570044,0.7,-98.32791,-45.713585,0.0012253786,-7.256354,3.8659358,3.8852253,3.6124215,4.5072107,2.0186418e-08,0.3,6.2279406,88.95616,89.02013,89.15319,89.11588,0.11278804,0.4984375,5.451044797897339,20.308899243672688
29,290000,54.6596158455663,-89.64615,0.038171787,0.43429548,0.71521556,-0.9639401,45.83169,15.682535,15.502295,96.33042,96.44121,96.58331,96.03114,2.7880895,0.7,-97.05038,-38.69816,0.0014478923,-10.169946,1.3959295,1.3726406,3.0611353,2.2160206,2.6418712e-07,0.3,5.633604,89.06699,89.05058,89.1243,89.045334,0.08315334,0.46406248,5.458519697189331,20.988990434010823
30,300000,54.84890270167544,-90.06612,0.038509145,0.46015,1.2399142,-5.059343,46.7844,57.210197,14.778078,97.27578,97.36559,97.02242,97.03412,1.268856,0.7,-98.00443,-39.502472,0.00036914396,-8.394263,5.2964077,5.910194,6.066357,5.8809586,2.6970347e-06,0.3,6.1241236,89.46797,89.50697,89.36248,89.44904,0.09769764,0.4515625,5.385116338729858,21.664758733908336
31,310000,54.272487586649106,-89.752,0.037543558,0.0039244704,2.121273,-2.0487256,27.568819,121.917694,14.26757,96.67397,96.55578,95.90048,96.42727,5.4090466,0.7,-97.92489,-36.471878,0.0046947068,-7.7417994,2.445061,2.3042274,4.612228,4.535765,4.1953174e-07,0.3,5.5783186,89.150024,89.095,88.82893,89.161285,0.17966725,0.4265625,5.411820650100708,22.343583472569783
32,320000,55.95839844333968,-90.0504,0.03736896,-0.9824335,0.897281,-0.84783816,25.325258,16.714485,15.502846,96.38925,96.293564,96.33248,96.2454,5.444464,0.7,-97.33522,-45.379036,0.0002924899,-5.5856876,1.0058486,1.2255195,4.0044866,2.936542,1.6458042e-06,0.3,5.923437,89.49095,89.45713,89.76067,89.64349,0.09916362,0.459375,5.5056962966918945,23.017212982972463
33,330000,53.92587806592674,-89.94612,0.03804111,0.7050667,0.85734093,-0.5388345,26.31295,17.707264,14.87355,96.9907,97.05549,97.12314,96.86563,4.046044,0.7,-97.910736,-31.406933,0.0017181751,-9.024251,1.1309747,-0.3568833,3.2680528,2.7779617,6.67572e-07,0.3,6.1209955,89.43756,89.379654,89.2036,89.238205,0.077525154,0.5203125,5.363500118255615,23.69081035455068
34,340000,53.68944481777338,-90.25788,0.03723522,1.0558097,0.6792388,-3.4899864,30.15706,10.619083,14.327365,96.042366,96.231926,96.185394,95.90772,1.8951235,0.7,-96.656685,-38.907055,0.0005592097,-6.5192127,3.516017,3.5927036,4.9752994,4.427723,4.7218055e-08,0.3,5.97041,89.73919,89.728714,89.46735,89.45622,0.08294401,0.53281254,5.5120954513549805,24.367188600699105
35,350000,55.50847169003591,-89.769165,0.03710614,-0.48631042,1.111475,-2.553052,31.734896,38.70172,17.162033,97.30192,97.437645,97.22468,97.129234,2.7993069,0.7,-97.222534,-37.48136,0.00076688174,-7.8075924,2.742249,2.8558276,7.1976333,6.2958913,3.22744e-07,0.3,5.759781,89.196014,89.16235,89.121796,89.07022,0.10149452,0.51874995,5.396817445755005,25.041815225283305
36,360000,53.53351955129456,-88.3786,0.036556263,-1.4206651,1.0127969,-3.2667773,27.454285,30.587727,15.081888,97.28945,97.153,97.064,97.143364,2.2274606,0.7,-97.0098,-40.455315,8.205662e-05,-7.993082,3.7084444,3.9074214,4.278215,3.5344074,2.739718e-07,0.3,5.33593,87.870026,87.876526,87.96533,87.99269,0.06840602,0.47031248,5.511947154998779,25.719230095545452
37,370000,55.085984581955984,-90.23117,0.036694948,-0.22577256,1.174621,-3.8822668,35.749245,53.059334,16.788101,97.78493,97.499084,97.85143,97.17349,1.592351,0.7,-97.78858,-44.93764,0.0010863061,-8.029338,4.1146765,4.0481944,4.5445604,4.5564995,2.6288444e-06,0.3,5.5909166,89.55835,89.59944,89.48269,89.44365,0.08979947,0.4609375,5.425548315048218,26.394112555185952
38,380000,53.72310588188359,-89.84684,0.03708872,-0.38854438,1.4131117,-5.134756,28.42364,21.140467,15.592806,97.15086,97.01406,96.22944,96.32621,4.427118,0.7,-97.728935,-38.54774,0.0011210848,-9.778101,5.351996,5.332556,3.2364814,3.4175117,6.519258e-10,0.3,5.7174406,89.28682,89.21772,89.12619,89.20535,0.10795317,0.49531248,5.481282711029053,27.07170227368673
39,390000,56.339039865632486,-89.85109,0.03719985,0.61436427,1.0982114,-3.144612,39.589844,52.04416,15.877669,96.689186,96.71577,96.411316,96.73374,2.0353837,0.7,-97.397446,-37.031353,0.0023872615,-12.256153,4.1452823,3.254211,4.771481,6.2285695,4.9301887e-09,0.3,6.031658,89.29784,89.26694,89.13077,89.08191,0.075717084,0.48281252,5.437195062637329,27.747042640050253
40,400000,56.503376417785624,-89.325195,0.036859356,-0.890414,1.073204,-2.2842078,58.897587,37.559986,17.249872,96.939735,96.777336,97.58549,97.173256,6.6044416,0.7,-98.200714,-36.42702,0.0006124033,-7.889085,2.4158885,2.5289528,4.0229855,4.263459,8.810166e-06,0.3,6.0682096,88.76814,88.79844,88.998375,88.940956,0.09884453,0.48437497,5.4682347774505615,28.42484074831009
41,410000,53.85630682474507,-89.73661,0.03721292,-0.3381188,1.3255262,-1.4842491,33.509426,57.47657,14.858571,97.0376,96.64191,97.024536,96.63283,3.3966243,0.7,-97.31718,-39.836277,0.00047859224,-7.2063704,1.8359852,1.6124573,3.501497,3.9934855,3.4269588e-06,0.3,5.755275,89.17099,89.131294,88.96769,89.11329,0.11259821,0.425,5.377874851226807,29.100759780406953
42,420000,54.95016491162432,-89.51528,0.03702609,-0.31842506,1.4851182,0.46346274,31.47411,98.41699,14.367329,96.13376,96.13073,96.358055,96.06554,10.444937,0.7,-96.40334,-30.337263,0.0008032868,-6.3119097,0.17569846,-0.4136746,2.3147805,1.1955918,1.0043324e-06,0.3,5.7343807,88.92499,88.93232,89.2729,89.12332,0.1074079,0.47499996,5.392056465148926,29.776574981212615
43,430000,55.50516344576909,-90.502106,0.037379183,0.00079826266,1.0056293,-18.818808,45.6121,25.29212,16.376612,95.935585,96.22285,96.34477,96.0844,36.157158,0.7,-97.214195,-35.374763,0.000117513,-6.965741,9.527993,10.785048,8.712085,24.03585,4.1413588e-07,0.3,5.802678,89.80237,89.78239,89.52722,89.775894,0.22976357,0.459375,5.9278881549835205,30.45592873096466
44,440000,54.558945313009765,-88.8513,0.036822896,-0.422504,1.1277015,-2.3083801,37.673542,19.203045,19.176102,97.15247,97.08715,96.74542,96.93574,1.3307093,0.7,-97.83463,-33.159637,0.002505677,-11.126047,3.4580963,2.2879107,1.0967653,0.11854315,1.7968705e-06,0.3,5.882082,88.28902,88.28376,87.93437,88.02014,0.08021047,0.434375,5.432103395462036,31.129651908079783
45,450000,53.59382134193249,-90.33712,0.03668976,-0.2136233,0.8570084,-70.021255,35.618153,11.386944,17.097569,97.840324,97.41431,97.39577,97.38543,9.457878,0.7,-98.21694,-35.22918,0.00035323115,-7.071513,70.19767,70.87295,69.700195,71.56217,2.9511285e-09,0.3,6.129795,89.71077,89.68733,89.89354,89.7701,0.109714836,0.446875,5.760406970977783,31.806387571493783
46,460000,55.25071452954556,-90.03434,0.036770795,0.17497343,0.8735347,-1.9847143,30.434473,15.063321,14.481181,96.41109,96.10765,96.8744,96.59257,2.7865617,0.7,-96.928314,-42.631275,0.001885002,-9.4536,2.844348,2.8142695,5.4154444,4.1735516,6.519258e-06,0.3,5.7723255,89.37661,89.43721,89.63634,89.61351,0.098586485,0.40937498,5.338742733001709,32.47528760433197
47,470000,54.93905498621565,-87.56838,0.03656042,-0.5152176,1.9172869,-1.0881386,60.330467,75.82128,14.041623,96.99416,96.63868,96.75048,96.75019,33.446644,0.7,-97.71667,-36.52875,5.8882986e-05,-7.501971,-0.31220472,0.938707,1.8645064,0.8555461,8.14129e-06,0.3,5.4648876,87.07864,86.98575,87.36167,87.297516,0.22413445,0.4046875,5.66735315322876,33.149239341417946
48,480000,54.973605402058,-90.06741,0.037249207,0.9931768,0.93217576,-68.1166,30.173145,27.241598,14.650179,95.427315,95.28001,95.842064,95.4337,13.847806,0.7,-96.419136,-39.074863,0.00040884607,-6.323849,68.18924,68.123604,68.61454,69.196365,1.4709076e-06,0.3,5.758341,89.39485,89.478546,89.62382,89.66121,0.15567622,0.41718748,5.5454864501953125,33.82265300750733
49,490000,55.135916188680234,-89.15136,0.036593992,-0.38805205,1.393528,-2.6800702,28.332,147.12979,16.30859,96.52546,96.83049,97.65866,96.4614,1.98963,0.7,-97.36836,-39.522133,1.877558e-05,-16.304388,3.5267985,2.8141966,4.835117,4.0822496,2.3009898e-06,0.3,5.6653023,88.58013,88.524734,88.66548,88.41412,0.10059599,0.503125,5.724932909011841,34.5010843873024
50,500000,56.030281193002054,-89.50299,0.036853064,-0.90095425,0.71220696,-3.8972886,36.814995,10.379329,16.714973,95.744934,95.97204,96.08041,95.89216,1.2681311,0.7,-96.43239,-36.92694,0.0003525552,-9.163965,3.89715,4.451973,3.4768598,4.309859,1.261651e-07,0.3,5.7981668,88.90863,88.8715,88.64363,88.90866,0.06820765,0.4265625,5.518976211547852,35.17549441655477
51,510000,55.154600627357496,-90.60153,0.037104983,1.6998072,0.9158083,-52.30285,27.251356,16.772617,16.265474,96.26786,96.47368,95.51127,95.71227,4.0875664,0.7,-96.799255,-35.705338,0.0019169915,-4.769291,49.075924,48.79903,49.87872,49.249313,3.6426761e-06,0.3,5.9145813,90.02182,89.99165,89.81479,89.776566,0.10267463,0.51093745,5.606725692749023,35.85098208586375
52,520000,55.544863033417904,-89.1332,0.036634743,-0.5304239,0.68551815,-4.8162556,30.694416,14.83988,15.915034,96.06413,96.1572,96.76985,96.3872,1.1679989,0.7,-96.71312,-35.81951,0.00084846915,-6.3090734,5.318757,5.080397,4.5212727,4.3409653,3.088906e-07,0.3,5.8188972,88.52202,88.52357,88.595985,88.49089,0.05353383,0.49374998,5.824193477630615,36.52683091958364
53,530000,54.91052673134811,-90.75256,0.03600388,2.3727658,0.8355922,-68.07999,44.038296,12.061449,19.819021,95.8506,96.31834,96.032,95.45818,2.0148299,0.7,-96.85708,-33.02436,0.0014917811,-4.9672394,68.69989,68.845314,69.60338,68.56553,1.0043324e-06,0.3,6.256857,90.1958,90.16026,90.1357,90.068275,0.07572623,0.4640625,5.459630966186523,37.198938783009844
54,540000,54.507604552640544,-89.96737,0.03617742,-0.36629733,0.7174878,-5.684397,40.005043,14.1040745,13.211911,96.1385,96.01439,96.08154,95.56828,6.307232,0.7,-96.45079,-33.650257,0.00047897385,-7.827199,6.148803,5.158842,5.8253293,6.377322,1.2635894e-06,0.3,5.624461,89.40234,89.40503,89.48854,89.40129,0.15032184,0.45,5.381830215454102,37.86889883677165
55,550000,55.33399424178381,-89.61784,0.03615637,0.3884049,0.860271,-6.0154214,39.62365,23.92619,17.540243,95.91656,95.93412,95.739815,96.12499,3.5920324,0.7,-96.50852,-32.537827,0.0020487267,-11.4068575,7.2042923,5.9246716,6.3533244,6.8112736,6.9849196e-11,0.3,5.905488,88.9308,88.93354,88.926544,89.00336,0.113086805,0.446875,5.4836156368255615,38.53622850577037
56,560000,56.27394006294616,-89.79637,0.035614695,-1.1079458,0.8964726,-5.5938787,28.816195,25.460905,16.016647,95.76295,95.758484,95.616104,95.462006,5.3340654,0.7,-96.03338,-35.53204,0.00080157735,-7.3550644,5.1155934,6.0732803,4.2660627,4.033767,7.885695e-06,0.3,5.572613,89.15098,89.21101,89.10521,89.0986,0.11822425,0.5140625,5.380812644958496,39.21279212236404
57,570000,55.96423007866503,-89.92311,0.036565207,1.1136678,1.2022294,-52.255566,46.74444,73.91625,16.27289,96.46381,96.42638,96.452675,96.44852,11.4763155,0.7,-96.897575,-37.76862,0.00081568776,-6.202867,49.20806,48.09767,49.127403,50.476894,1.7462299e-11,0.3,6.2111206,89.20622,89.15997,89.18369,89.17842,0.13355428,0.4484375,5.390231370925903,39.88114497661591
58,580000,54.89520800498856,-89.590355,0.03555675,0.82025397,1.033515,-3.2886088,27.02562,70.464935,17.125582,96.74042,96.59661,96.290054,96.536545,10.351582,0.7,-97.411285,-34.14449,0.0018233678,-12.238771,3.5056753,2.9369879,4.039805,4.2487507,1.4787249e-06,0.3,6.0638223,88.95143,88.932205,89.01503,89.22093,0.14800856,0.36093748,5.39337944984436,40.55178170601527
59,590000,55.465094072323254,-89.604935,0.036090847,1.2108611,0.6771381,-5.5601974,33.27608,9.936586,16.133942,96.93227,97.411995,96.91491,97.49995,1.7741653,0.7,-97.505974,-34.116096,0.00010373595,-4.452371,5.418621,5.645113,3.8038092,3.5903077,1.6298145e-08,0.3,5.894366,89.013,88.97038,89.02524,89.010284,0.08588331,0.44687498,5.313717603683472,41.22139752705892
60,600000,55.34214432227037,-89.311386,0.035907283,-0.43703145,0.8124579,-4.5275044,34.74984,30.02785,14.332379,96.34762,96.40366,96.702484,96.05348,2.12058,0.7,-96.87258,-38.277596,0.0005630108,-6.0391464,5.6218514,5.2901287,5.3988695,5.499576,1.2460298e-05,0.3,5.4683285,88.63425,88.60958,88.56872,88.55583,0.07519169,0.4515625,5.4198338985443115,41.894893848896025
61,610000,54.86432659532434,-90.060104,0.035006754,0.4611594,1.1859157,-4.10132,30.176115,72.36732,17.330582,96.0642,96.52961,96.67982,95.9288,5.5835323,0.7,-96.66214,-43.504528,0.00054766383,-7.5959015,4.258974,4.6980143,6.380208,5.9983387,4.0984436e-05,0.3,6.0580044,89.38495,89.34987,89.20669,89.19407,0.12715515,0.42031246,5.308851957321167,42.566278183460234
62,620000,55.259077834169126,-90.49732,0.03558355,-0.6258553,0.57657933,-70.21133,33.922714,7.6781654,14.108139,96.74228,96.77076,97.18299,96.86113,0.6259707,0.7,-97.294655,-31.57988,0.0007151711,-3.8914313,70.42892,69.33827,70.51436,69.400024,1.5161349e-07,0.3,6.2661676,89.91872,89.95213,90.14951,89.96933,0.060431257,0.44375,5.502150058746338,43.24195032119751
63,630000,55.36858251159702,-88.965805,0.036259398,0.88158697,0.7804696,-4.6234584,31.994349,20.672476,16.827427,95.87361,95.90383,96.02304,95.87235,2.539227,0.7,-96.267075,-40.361027,0.00013613445,-11.902399,5.3515015,5.0454316,6.9716635,6.4639235,1.05978685e-07,0.3,6.037843,88.36607,88.39422,88.420654,88.47397,0.09436062,0.4390625,5.462831020355225,43.91568989356359
64,640000,55.37545935130378,-89.71008,0.035615556,-0.41047746,1.2201123,-5.8734436,31.919554,120.58612,15.463232,97.27353,97.44192,97.39341,97.18617,2.4511938,0.7,-97.74858,-34.27899,7.133058e-06,-7.562749,5.746605,5.8206525,5.058163,4.799752,2.6153111e-06,0.3,5.74695,89.14073,89.15931,89.226944,88.99056,0.10289635,0.55781245,5.467313051223755,44.59363838036855
65,650000,54.43777602959198,-88.72223,0.035424747,-1.0274585,0.7909984,-4.639423,32.653534,14.96431,15.012526,95.59718,95.85864,96.19525,96.21149,2.88365,0.7,-96.62854,-32.765987,0.00019470794,-12.564021,4.8158083,4.7274013,4.049697,4.9300337,1.9186584e-06,0.3,5.534804,88.10632,87.98562,88.108795,88.268394,0.10844301,0.4140625,5.460260629653931,45.26749763091405
66,660000,54.79915863603261,-88.94137,0.034530666,0.9907602,0.79867,-4.307331,37.76427,17.856781,19.440924,96.92843,97.18331,97.96969,97.27817,2.3700097,0.7,-97.09698,-42.12434,0.0024418095,-8.432301,4.096216,4.336873,3.6146147,4.255128,2.861023e-07,0.3,6.1418476,88.31511,88.3744,88.44281,88.49921,0.08120565,0.41875,5.363887310028076,45.94196512699127
67,670000,54.62503670896687,-89.21192,0.034906372,-1.2603279,0.8190365,-4.530193,32.099075,12.10872,20.734947,96.11054,96.172104,95.70268,95.97015,4.810113,0.7,-96.318115,-40.091686,0.0010289857,-9.388728,4.9879637,4.827368,3.1173918,2.8455906,6.640039e-07,0.3,5.400403,88.60317,88.59726,88.6133,88.616455,0.10967229,0.43124998,5.3520731925964355,46.61254622538885
68,680000,54.98901294598626,-89.21941,0.03545048,1.2633171,0.8800497,-2.982506,30.078707,12.370865,18.248447,95.48591,95.53827,95.640076,95.31313,5.0428276,0.7,-95.90361,-33.00128,0.00019225717,-8.6679535,3.5736506,2.8939223,3.4978647,3.2418995,2.3648145e-06,0.3,6.01933,88.62488,88.61206,88.72534,88.649414,0.10240035,0.5,5.830818176269531,47.29194287459055
69,690000,54.87189026691405,-89.76483,0.03520444,-0.36905336,0.8888011,-5.4251466,29.233967,34.309387,14.786676,96.09359,96.45915,96.59571,95.67116,0.59121,0.7,-96.79439,-31.21729,0.00043976662,-14.140774,5.6146245,5.976617,5.1970286,5.2088456,4.3592883e-07,0.3,5.5592318,89.12384,89.139206,88.9516,89.00549,0.061471656,0.4328125,5.342244386672974,47.959894915421806
70,700000,55.009102161501154,-89.700714,0.035544857,0.13588226,0.77830124,-69.546394,47.05114,14.011613,21.585705,96.251686,96.21256,96.57999,96.22543,2.4574435,0.7,-96.57306,-37.458973,0.0015029187,-15.622104,67.420815,68.78861,65.547745,68.82565,7.0338996e-05,0.3,5.76129,89.07819,89.05882,89.21185,89.09056,0.099266656,0.44375,5.588287115097046,48.63398260672887
71,710000,55.00685689334682,-89.66105,0.03623478,0.29615158,1.1478895,-5.269195,39.59311,23.31675,17.761845,95.7955,95.603386,96.8804,95.61143,3.0443275,0.7,-96.05992,-33.679993,0.0027713603,-6.8260217,5.5126143,5.707787,6.1440015,5.8041253,1.0353397e-07,0.3,5.627151,88.91443,88.876755,89.06355,88.96721,0.09880827,0.4921875,5.816267728805542,49.307167780399325
72,720000,55.319758093708224,-89.49055,0.03573283,-0.33311722,1.0716646,-4.769666,32.593304,44.324142,15.331026,95.66148,95.502365,95.285126,95.42119,2.2388783,0.7,-95.92986,-41.807705,0.0006091634,-8.83719,5.436327,4.8992267,5.130712,5.4702024,3.8152325e-06,0.3,5.7305703,88.90148,88.828926,88.61572,88.814445,0.09258164,0.42343748,5.818625211715698,49.98356655041377
73,730000,54.81875494308321,-89.95081,0.035044048,-0.07046391,0.57844245,-6.0195284,30.152523,8.586401,14.777424,96.41979,96.44211,96.15875,95.9226,1.5439919,0.7,-96.560616,-49.923756,0.001033135,-6.156571,6.322997,6.282147,5.209674,4.974884,8.32444e-06,0.3,5.8612957,89.39192,89.34317,89.270325,89.21409,0.08753528,0.4359375,5.7446372509002686,50.661361308892566
74,740000,54.73625753692092,-89.18246,0.035944868,-0.72747123,1.484611,-4.889702,29.37753,95.13472,14.824194,95.560936,95.31375,95.95498,95.63897,5.1388693,0.7,-96.215126,-37.856907,0.00072423206,-10.49797,5.2835474,5.147441,4.679795,4.337248,1.4864315e-06,0.3,5.542589,88.54547,88.59199,88.6364,88.58905,0.11916005,0.4515625,5.561614274978638,51.33577310641606
75,750000,54.26148067296078,-89.79526,0.035073593,1.0970544,0.80407906,-5.1616735,34.116943,19.909023,15.091373,95.719635,95.58459,95.951965,95.979034,1.8892176,0.7,-96.06138,-32.63237,0.0038442817,-7.689932,5.4245076,5.578584,4.7117,4.304941,1.517724e-06,0.3,6.218962,89.10425,89.15015,89.23159,89.18885,0.09791014,0.4671875,5.726240634918213,52.01017647981644
76,760000,55.86818137763216,-89.31725,0.035147704,-0.18303478,0.89143056,-3.9766638,32.400665,47.85422,14.10071,95.52854,94.83791,95.333855,95.21277,13.783534,0.7,-95.6722,-44.62027,0.0012101028,-4.8977346,4.340432,4.469118,5.4400945,5.5862713,3.3738908e-07,0.3,5.6019807,88.68178,88.69112,88.68452,88.759125,0.11765736,0.425,5.573522090911865,52.68060618638992
77,770000,55.657156795114716,-89.63338,0.036051422,0.77032685,0.76225275,-4.3880167,48.75701,62.75301,17.114693,96.033226,95.97386,96.58154,95.6101,5.514422,0.7,-96.324,-33.42992,0.00052823895,-9.826883,4.807865,4.434004,5.067728,5.000183,4.928559e-07,0.3,6.355091,89.097046,89.03114,89.00356,89.01107,0.080844834,0.41875,5.847111940383911,53.358413287003835
78,780000,55.10554664122269,-89.817085,0.035594456,0.43072796,1.5378473,-7.428138,25.459803,94.96387,14.79869,96.56473,96.64957,97.08101,96.49425,6.6057305,0.7,-96.92602,-30.10216,0.003056386,-7.9224014,8.191622,7.904464,4.436372,5.7769146,6.037485e-06,0.3,6.032273,89.28547,89.21234,89.39252,89.48547,0.116900995,0.45,5.389660596847534,54.02668991088867
79,790000,55.450201348372005,-89.43709,0.03548677,0.9453579,0.8654218,-4.6762376,35.288963,41.029766,14.407578,96.09032,96.05431,96.86745,96.41463,2.193687,0.7,-96.94038,-35.08899,0.00039028248,-6.903055,5.207143,5.0335526,4.974236,4.5703583,2.124479e-05,0.3,5.8448553,88.81303,88.76424,88.72775,88.865005,0.08882743,0.41406247,5.456397294998169,54.69981969594956
80,800000,55.985945599358,-90.04129,0.03439866,0.8721491,0.6055118,-5.475557,35.831936,13.730179,17.775105,94.91262,94.83905,95.21889,94.72375,2.784044,0.7,-95.95368,-38.750607,0.0007195725,-7.93788,5.797994,5.5857487,4.483672,5.2832365,1.1445372e-07,0.3,6.3510656,89.4088,89.34288,89.40962,89.57086,0.07177879,0.3875,5.42011022567749,55.37616904179255
81,810000,55.241085821865155,-89.9523,0.035621665,1.5202075,0.8367771,-66.372734,36.23322,18.805515,15.862218,95.89049,95.531364,95.90276,95.86336,1.636019,0.7,-95.948166,-32.728607,0.0009803341,-3.9901152,65.35492,64.58893,65.97692,65.52333,8.3138005e-08,0.3,6.3764853,89.35495,89.33821,89.52257,89.562805,0.09160756,0.4203125,5.451053142547607,56.04957538843155
82,820000,55.28007328767025,-90.398224,0.035595477,0.58355576,1.3891131,-74.45584,26.980312,44.94797,14.512465,96.48771,96.500404,96.881905,97.007195,6.408489,0.7,-96.951035,-40.02193,0.00043183018,-6.669444,73.922676,74.06962,74.2601,74.209984,1.8525753e-07,0.3,6.13951,89.70243,89.67108,89.87239,89.84172,0.10265367,0.46406245,5.439481258392334,56.722008395195004
83,830000,55.07409955166192,-89.53159,0.03626616,-0.2536779,1.2389122,-6.179302,63.565575,90.37102,17.302399,95.97983,96.29178,96.27931,96.30541,10.175097,0.7,-97.34198,-43.286102,0.00022748113,-7.504204,6.5610933,6.313381,6.208158,6.1338944,7.759547e-07,0.3,5.77819,88.88405,88.84453,88.9288,89.01543,0.14959778,0.425,5.526592254638672,57.39641510248184
84,840000,54.90658127915906,-89.53731,0.03513186,-0.440677,0.8815148,-5.1481256,27.167156,47.613464,13.938036,97.524025,97.63352,96.71721,96.79428,0.9195994,0.7,-97.96044,-49.86984,0.00059092167,-9.297737,5.162926,5.335525,7.0365486,6.0211167,6.2654904e-06,0.3,5.9191446,88.88147,88.90645,88.675514,88.80501,0.07569251,0.42499998,5.427219390869141,58.06623424291611
85,850000,54.888892298200275,-89.725266,0.035012927,-0.09684415,0.95130837,-5.759254,33.959984,44.39079,17.403221,96.87002,97.37012,97.95993,95.696304,4.905345,0.7,-98.41104,-43.167675,0.0008565752,-4.91827,5.8357096,6.2489376,6.8766937,6.946327,2.2675446e-05,0.3,5.7006054,89.13267,89.07486,89.108635,89.108185,0.105260395,0.440625,5.430020570755005,58.737058353424075
86,860000,55.157734468600715,-89.4398,0.035029836,-0.6428729,0.7054583,-8.041221,29.934303,7.8371763,14.561859,96.91478,96.80039,96.73626,96.625946,4.455969,0.7,-96.77396,-42.692654,0.0002660897,-6.7427835,8.178725,8.668119,8.121692,8.104512,2.514571e-07,0.3,5.6010766,88.81425,88.788445,88.68081,88.720116,0.10548163,0.421875,5.4583868980407715,59.41222809950511
87,870000,55.0791861487266,-89.67102,0.035122372,1.7318373,1.0492799,-7.6579175,29.879105,22.36668,14.739412,96.056625,96.60251,96.004974,95.361786,6.3010836,0.7,-96.410355,-33.243286,0.000513444,-8.551472,8.692608,7.3501534,10.328188,9.211055,7.290527e-06,0.3,6.298478,89.01001,88.98266,89.2049,89.09131,0.12205941,0.4578125,5.489863157272339,60.08455934127172
88,880000,55.33214292321298,-89.444565,0.035360504,-0.049416944,0.87623173,-7.713796,31.722794,16.80687,14.699516,95.97888,96.49888,96.22703,96.09736,1.714997,0.7,-96.08937,-39.11216,6.620423e-05,-5.446334,8.104666,7.6515627,6.073265,6.525853,7.207447e-07,0.3,6.0084877,88.82497,88.80521,89.038,88.982925,0.07358962,0.4234375,5.447286605834961,60.75791244109472
89,890000,55.19805136205693,-90.01809,0.036066182,0.16909507,0.6754252,-56.537838,31.798796,19.441088,14.003903,96.349434,96.15633,96.34684,96.14419,1.2081804,0.7,-96.91633,-43.587795,0.00050634716,-4.9921856,56.289555,55.88081,55.63003,54.43767,4.0233135e-06,0.3,6.0221376,89.44795,89.48178,89.4628,89.38347,0.06031774,0.4734375,5.406994104385376,61.43100901444753
90,900000,55.134560900214616,-89.78453,0.03559361,-0.21344829,0.64677346,-5.125944,38.52516,12.623896,16.843191,96.41253,95.95758,96.07278,95.80474,2.374399,0.7,-97.037445,-35.617676,0.0003890987,-9.688183,5.142791,5.0580187,5.860135,6.643472,8.840289e-07,0.3,5.5408373,89.13789,89.100525,89.028366,89.01378,0.08950483,0.4640625,5.405735492706299,62.10419557491938
91,910000,55.10884089260928,-89.62706,0.03457002,0.081853926,0.9469861,-4.3961744,30.444387,28.746334,15.703042,95.51838,95.93471,95.87033,95.69159,9.306158,0.7,-96.06873,-45.22461,0.0007233066,-8.702964,4.6439867,4.2052,6.186942,6.1257463,1.8564606e-05,0.3,5.7485576,88.985954,88.994644,88.96762,89.06679,0.13899405,0.3734375,5.390885591506958,62.77768577734629
92,920000,55.24386417794884,-89.05989,0.035816364,-0.88015676,0.8944305,-3.3836925,37.24921,10.809187,13.995017,96.13223,95.88959,96.10429,95.82198,22.448412,0.7,-96.919334,-40.6436,0.0006404175,-6.7617908,3.664768,3.5762076,5.0300875,4.9704633,7.1960386e-07,0.3,5.515376,88.41981,88.39988,88.674774,88.567535,0.17005874,0.484375,5.502198934555054,63.45247234106064
93,930000,54.95560494254242,-89.355804,0.035985205,1.0639524,0.89296746,-5.526343,32.252117,64.188126,19.060839,96.161606,95.79215,95.86485,95.89969,0.72206604,0.7,-96.85281,-36.79078,0.0010194187,-16.714779,5.6563168,5.907952,5.238204,5.3889008,1.2730016e-08,0.3,5.7159896,88.8177,88.73829,88.81063,88.79372,0.057574686,0.49062496,5.5054919719696045,64.12326331138611
94,940000,55.34176804046108,-88.92524,0.03565944,-0.66652143,0.9418694,-4.366241,33.565346,49.906788,18.192364,95.275055,95.0891,95.580864,95.25595,2.8478513,0.7,-96.28998,-38.384026,0.00010065292,-4.354068,4.763203,4.1982603,3.4547179,3.8486447,9.077601e-07,0.3,5.6116323,88.37154,88.433914,88.22682,88.30193,0.0796537,0.49218747,5.428783655166626,64.79245971043905
95,950000,55.41712882649122,-90.03039,0.03393872,0.0238529,0.9384959,-65.790565,32.795677,31.470966,14.788885,95.490295,95.682816,95.88544,96.07379,1.6313615,0.7,-95.66399,-37.486427,0.0011244675,-3.4056606,66.35552,65.43909,66.77369,67.062584,1.4231581e-05,0.3,6.1378574,89.40368,89.41205,89.72388,89.69145,0.0933763,0.4453125,5.503988742828369,65.47084874709448
96,955000,55.67540586409076,-89.52698,0.035834067,-1.3935312,0.8844794,-3.3830128,30.322691,50.614174,17.186293,96.234604,95.85964,97.14417,96.56026,12.870965,0.7,-96.3742,-34.922665,0.0014886891,-7.306651,4.13801,3.579918,4.8903213,4.5825806,3.833731e-07,0.3,5.941445,88.9813,88.99234,89.22647,89.137726,0.10771047,0.41718748,5.430166006088257,65.85270861784618
97,960000,55.27212832228198,-90.33858,0.035318814,0.17012593,0.8281729,-67.707214,34.6761,21.602093,15.059689,96.70554,96.13321,96.98218,96.60414,7.815219,0.7,-96.75011,-46.2602,0.00029463536,-13.584761,66.37006,66.14928,65.453964,67.43841,1.9016444e-08,0.3,5.661515,89.69663,89.66724,89.73477,89.7778,0.113142565,0.434375,5.485490083694458,66.23585889339446
98,965000,55.66647201502462,-90.18393,0.036167007,2.1426,0.9032818,-50.58547,33.105526,26.263512,15.725891,95.69804,95.44939,96.01428,95.88795,1.271107,0.7,-96.152664,-30.303886,0.001118554,-3.6075802,50.890156,50.194347,48.842144,52.55112,1.9714237e-06,0.3,6.386124,89.609314,89.60451,89.59191,89.48159,0.090203196,0.48437503,5.534292459487915,66.61859157880147
99,970000,55.19312721352654,-89.724174,0.03599879,0.13207775,0.75234354,-54.38247,43.67527,25.111427,18.037098,94.79253,94.81628,95.32705,94.74101,0.81935185,0.7,-95.421425,-33.805595,0.0059584915,-13.004827,49.959267,50.646812,50.873672,51.405663,2.5566553e-07,0.3,5.9946275,89.13939,89.197464,89.32417,89.26389,0.060657892,0.421875,5.4656641483306885,67.00086098909378
100,975000,55.2030716726546,-89.57562,0.034981813,0.3618499,0.69462556,-6.4057055,30.11724,36.31732,18.637285,96.76383,96.917656,96.579,96.96758,2.070552,0.7,-97.20455,-37.530174,1.5600235e-06,-13.914604,6.377301,6.556759,6.842847,7.017944,1.4584687e-06,0.3,6.1000447,88.85937,88.89857,88.78417,88.86813,0.09105467,0.40781248,5.391769170761108,67.38102713425954
101,980000,55.609368296521374,-89.13475,0.035825305,-0.38690078,1.1310723,-5.382197,35.111828,39.95796,15.634468,96.1039,96.86449,96.596725,96.00375,1.7150408,0.7,-96.971375,-34.70913,0.000911743,-9.807634,5.34369,5.34552,4.7430625,5.049355,2.7939677e-06,0.3,5.6105175,88.49391,88.471054,88.57708,88.679535,0.08878214,0.4375,5.750466823577881,67.76353925069174
102,985000,55.175000456777845,-89.59165,0.034507688,0.39556825,0.9818741,-4.022973,33.59751,66.51318,15.349764,96.48904,96.57888,96.761185,96.415405,8.435237,0.7,-97.08902,-37.703556,0.0013490515,-7.0849643,4.215467,4.2442694,5.7795887,5.4622965,3.5204168e-06,0.3,5.9636765,88.94332,88.992096,89.076416,88.9378,0.11712377,0.4921875,5.364660739898682,68.13783901532491
103,990000,55.4228999362156,-89.121124,0.035738304,0.81637514,1.1983216,-10.528487,33.195393,44.98576,15.421827,96.15745,96.05217,97.18436,96.37381,1.4993869,0.7,-96.70698,-39.82167,0.00012489501,-10.105229,12.823649,10.834757,12.271664,11.062923,2.4457404e-06,0.3,5.7032394,88.433426,88.41005,88.89253,88.68121,0.1045745,0.465625,5.551131963729858,68.51325263977051
104,995000,55.53638197177753,-89.68418,0.0373474,-0.22200397,0.94672525,-49.753826,35.31344,56.478195,15.026066,96.57113,96.14764,95.98408,96.21821,3.113644,0.7,-97.2935,-35.918427,0.000538328,-6.0750284,50.709965,52.94025,49.940895,49.26721,2.670288e-06,0.3,5.9452157,89.06822,89.05655,88.999954,89.051895,0.10192469,0.4296875,5.538436412811279,68.89074386755625
105,1000000,55.36333482506712,-90.17532,0.036503866,-1.1816639,1.0728216,-71.26579,28.830564,49.887924,16.217613,95.83297,95.859924,95.037834,95.35127,1.3247303,0.7,-96.49084,-36.46163,0.0007867657,-5.757056,70.353386,71.174065,70.36254,70.151436,6.626174e-06,0.3,5.6423855,89.63739,89.56359,89.26257,89.372795,0.08095512,0.459375,5.498468637466431,69.27685148715973
