Xixo99/comfo/baselines/comfo7_perterbation_both_actor_and_critic/20230223_alpha1=alpha2=1/hopper-medium-v2/COMFO7_s1_20230223_192651_hopper-medium-v2_49.83.csv
,step,reward,actor_loss,alpha,alpha_loss,avg_conservative_loss,avg_smooth_loss,conservative_weight,critic_loss,max_actor_loss,max_alpha_loss,max_critic_loss,max_mle_prob,max_q1,max_q2,max_target_q,max_v,max_value_loss,max_weight,min_actor_loss,min_alpha_loss,min_critic_loss,min_mle_prob,min_q1,min_q2,min_target_q,min_v,min_value_loss,min_weight,mle_prob,q1,q2,target_q,v,value_loss,weight,eval_time,time
0,0,5.435236929379577,,,,,,,,,,,,,,,,,,,,,,,,,,,,,,,,,,,,
1,10000,45.359838238061364,-41.110172,0.0672548,-4.1658697,0.00016441141,1.2032286,1.0,0.69994545,-5.1286955,12.043218,58.52601,9.102408,57.92519,57.526497,57.923126,56.700752,3.512624,0.7,-63.822536,-16.983795,0.0004391059,-4.1663585,6.6760106,6.776905,1.3171641,7.4449854,8.034447e-07,0.3,1.5144923,39.726486,39.730164,39.64751,39.121315,0.054530438,0.43281248,3.564772129058838,2.812164378166199
2,20000,60.367787370991344,-63.865326,0.0037903409,-6.790406,0.0007635206,1.844221,1.0,1.7282544,2.3966014,31.07008,118.13936,8.51337,82.03681,82.62368,81.24158,80.83902,35.497746,0.7,-87.62379,-43.122627,0.0006818283,-4.1748776,0.85842544,0.44248837,1.279364,-0.7718133,4.2391474e-07,0.3,1.4382927,62.34459,62.103897,62.122723,61.469597,0.42217273,0.5484375,4.5161943435668945,3.820136916637421
3,30000,62.51274858104243,-77.5643,0.00020196065,-7.5661497,-0.0007328737,2.0929615,1.0,2.1656766,0.8909035,59.61255,98.19409,8.936467,95.28483,95.26072,95.33917,94.51825,10.104322,0.7,-100.93594,-96.985466,0.0001505632,-4.917591,-0.18625614,-0.41093007,0.7123395,0.5266383,6.437302e-07,0.3,1.6315708,75.984344,75.80902,75.53714,75.35231,0.23214719,0.53437495,4.839687347412109,4.831416110197703
4,40000,58.44945106124334,-85.18448,1.0819513e-05,-13.429152,-0.00073227106,2.1980176,1.0,1.4885604,0.48267305,62.07088,93.7173,9.925194,101.540215,102.16191,101.81812,101.95631,5.811046,0.7,-107.848854,-98.89398,0.001034817,-4.943649,2.0144777,3.2937703,3.0126953,3.256522,6.6174134e-06,0.3,1.6437497,83.536125,83.38639,83.451836,83.424515,0.17532262,0.4296875,4.439914703369141,5.834581927458445
5,50000,57.66735002832088,-86.53258,5.757755e-07,-12.369238,-0.0048198067,2.554429,1.0,4.009666,2.204588,175.1886,420.94458,8.775395,104.06395,102.87829,104.04778,103.89291,13.351151,0.7,-110.45169,-99.100464,7.713679e-07,-7.320353,2.564272,-0.87093645,1.3751302,2.338944,3.074987e-05,0.3,1.8393993,84.83238,84.41303,85.04534,84.854805,0.25071,0.41562498,4.254927635192871,6.837115355332693
6,60000,56.36328506547348,-89.01102,3.028901e-08,-15.159207,-0.004644415,2.2304773,1.0,1.8054602,-5.5392313,87.2514,114.53883,9.577496,105.01518,104.86961,105.78082,105.39177,7.822072,0.7,-110.94791,-127.32162,0.00097763,-4.5650086,5.625492,4.8992214,5.125915,4.0914803,7.627707e-07,0.3,1.9075348,87.10645,87.112885,87.21681,87.04706,0.18260553,0.5109375,4.4153289794921875,7.841797804832458
7,70000,55.13134840819649,-89.6266,1.5929152e-09,-15.982557,6.397944e-05,2.2629323,1.0,1.0080345,-1.1348188,202.32605,20.91509,8.641655,106.09218,105.20156,106.019196,105.620026,3.5277143,0.7,-112.529785,-192.59357,0.002900504,-3.6543365,1.6394331,1.7473594,1.3528482,1.8739084,6.712508e-08,0.3,1.8120897,87.758286,87.60649,87.470276,87.70195,0.107361786,0.43125,4.157832384109497,8.837423634529113
8,80000,45.03952212245278,-88.37518,8.441192e-11,-22.646332,-0.00048254337,2.5475235,1.0,1.9238791,1.1508036,266.2594,84.23735,14.326221,104.76429,104.7224,104.198425,103.78652,4.9559526,0.7,-117.49399,-172.58076,0.00201101,-6.8784795,1.4854871,1.5120921,1.3084615,0.6398343,3.2287792e-06,0.3,1.740623,86.91086,86.25318,86.12543,86.168976,0.1870232,0.578125,3.4079434871673584,9.825107820828755
9,90000,52.75225867208332,-87.153435,4.453788e-12,-31.665264,0.00034122803,2.2146003,1.0,0.80614316,-0.6322355,144.76456,13.456903,11.002791,104.27911,104.53014,104.21855,104.283966,3.42017,0.7,-110.408356,-195.32376,0.0010194818,-3.3275886,2.7827725,2.5566652,2.3170364,2.4277763,2.6077032e-07,0.3,1.5061295,85.52489,85.54535,85.61373,85.66609,0.14097771,0.44062498,4.10623574256897,10.821974277496338
10,100000,52.86852234393227,-86.329346,2.3542163e-13,-25.4159,-0.0017640658,2.0566292,1.0,2.7060118,-0.40964055,198.528,82.416504,10.403016,106.183754,105.29113,106.16838,105.97378,2.67408,0.7,-112.08113,-221.4104,0.0075461324,-4.835405,1.5483141,2.2258365,1.3755122,2.21874,1.1533674e-06,0.3,1.8756434,85.09767,84.374756,84.70851,84.876526,0.12985806,0.38437498,4.0617592334747314,11.817833205064138
11,110000,49.3617612388816,-87.41014,1.2484674e-14,-25.885254,-0.0036861885,2.3580418,1.0,1.374643,2.5455334,272.33688,20.481833,9.706822,104.70266,104.791435,104.97364,104.809364,5.6238437,0.7,-111.40787,-206.15842,0.0021738133,-5.781649,3.4908893,0.3874324,1.2386161,2.166915,2.3093891e-07,0.3,2.0113144,85.53206,85.39044,85.541504,85.450775,0.12305448,0.546875,3.8292160034179688,12.815781052907308
12,120000,54.771041173456055,-89.73205,6.580162e-16,-26.328278,-5.320404e-05,1.9316872,1.0,1.0698692,-4.021198,231.59473,44.64667,10.271091,105.91327,105.46026,105.061455,105.98918,17.121958,0.7,-111.72869,-268.6172,0.012272662,-5.3723984,4.738522,4.279094,4.243656,4.967102,4.5182123e-06,0.3,2.0173397,87.841194,87.438614,87.642746,87.95917,0.23331758,0.371875,4.63663649559021,13.822119971116384
13,130000,48.14442699297511,-88.10016,3.4828248e-17,-35.069107,0.00015816018,1.9386421,1.0,0.8352532,2.1294827,310.0395,11.333115,8.911385,105.912224,104.88053,105.583855,105.39421,3.9576259,0.7,-110.75262,-266.36014,0.0013772529,-3.9464664,1.0439935,-0.07897362,1.333024,0.07367149,3.0367112e-06,0.3,1.8536432,86.527374,85.98141,86.241585,86.16273,0.08729448,0.43906248,3.7664856910705566,14.812789360682169
14,140000,49.95043561421198,-92.92578,1.8436973e-18,-24.634014,-0.0020815344,2.1236908,1.0,1.1847876,-4.6235743,697.1598,40.48835,9.617325,105.318924,106.62384,105.426735,105.73579,9.076203,0.7,-112.13748,-287.53387,0.008255329,-3.7910326,2.3184469,3.4404109,1.6056329,3.2278085,4.9301887e-09,0.3,2.0826368,90.66558,90.84459,90.33359,90.434616,0.15499228,0.4546875,4.007000923156738,15.805979764461517
15,150000,54.944452690709376,-88.56353,9.712558e-20,-40.50499,0.0010393836,1.7221024,1.0,0.98556924,2.8631496,256.10605,42.701096,8.504947,104.566376,104.59527,103.91367,104.065796,2.066599,0.7,-110.63973,-389.54285,1.4894758e-06,-4.8619833,1.1328381,2.1382787,1.5729991,1.8871803,1.1265977e-06,0.3,1.7340994,86.88672,86.7717,86.70402,86.78143,0.074623,0.4890625,4.2561399936676025,16.805376227696737
16,160000,50.72928085417324,-85.784836,5.170059e-21,-42.733185,-0.0029184946,2.348291,1.0,1.4220917,-2.7814856,540.8313,73.418,14.925803,104.66031,104.828964,105.2191,105.108154,18.062675,0.7,-112.42074,-337.18704,0.0032462114,-5.120869,3.2122114,2.73846,4.1735845,4.031766,1.1227792e-06,0.3,1.6672199,83.91786,83.97508,84.14858,84.10649,0.22673132,0.45937496,4.055840730667114,17.798922407627106
17,170000,53.08409085798156,-90.333,2.7345905e-22,-29.616653,-0.0044931914,1.8683399,1.0,0.9574108,2.8207664,496.6631,17.67355,9.653708,105.19424,104.59582,105.41003,104.89717,4.8707547,0.7,-111.510086,-346.15503,0.0031422013,-8.305059,-1.2063941,-0.15696761,1.2910808,-1.1965834,5.8743172e-08,0.3,1.8462193,88.45265,88.42706,88.573944,88.49109,0.14215904,0.45625,4.557413339614868,18.802289752165475
18,180000,45.07779018953485,-90.28739,1.4561626e-23,-64.06246,-0.006611833,1.9092896,1.0,0.89768916,-0.7679055,372.72128,11.9877,9.6053705,104.83436,104.91075,105.19638,104.34296,5.8903103,0.7,-113.00726,-449.18018,0.0006998976,-5.3923836,0.22814026,0.5564596,1.2971458,-0.22353774,5.186739e-06,0.3,1.8747528,88.221725,88.39866,88.078415,88.282394,0.10763809,0.471875,3.9662561416625977,19.792637650171915
19,190000,55.69242529832401,-88.907524,7.7545624e-25,-48.345192,-0.0023978916,2.416536,1.0,0.9547991,1.187779,470.7158,25.600075,10.558132,105.329735,104.75798,105.59086,105.30933,7.0359144,0.7,-113.399536,-477.38608,0.0024400065,-5.8364606,0.5638711,1.7962819,1.2255653,0.99077916,1.1227792e-06,0.3,2.159836,86.60614,86.785904,86.835205,86.68498,0.17432739,0.4734375,4.319896221160889,20.79366851647695
20,200000,51.10171094314675,-89.50441,4.1238228e-26,-49.3067,-0.0033361127,1.8870766,1.0,1.4617882,-8.517474,600.9931,105.440544,9.340768,105.83773,105.549255,106.20182,105.50566,3.8334408,0.7,-110.819214,-437.52533,8.764863e-05,-5.5788975,9.079935,8.99064,9.278064,8.8350935,1.2919307e-06,0.3,2.0148053,87.406136,87.40599,87.47575,87.482864,0.101025015,0.434375,3.9275975227355957,21.788526686032615
21,210000,52.617595196242625,-90.34067,2.1997822e-27,-37.20964,-0.00021742638,1.7668867,1.0,1.4863076,-0.6485405,572.84784,23.686619,8.934389,105.18906,105.50906,105.338326,105.98523,3.32502,0.7,-114.23251,-415.24945,0.0026133996,-5.865829,4.4084234,2.9284163,4.9210443,4.520045,3.6917325e-05,0.3,2.1446157,88.69247,88.18086,88.61302,88.64725,0.12836325,0.3890625,3.9926259517669678,22.782947115103404
22,220000,59.64788788558473,-89.78125,1.177139e-28,-37.68808,-0.00043250807,2.5157068,1.0,1.3975028,-10.824814,874.69977,35.308655,8.059266,104.925255,104.90698,105.82252,105.55871,5.3964195,0.7,-111.673836,-413.36603,0.0014493099,-5.729929,10.407803,10.559114,10.579558,10.466082,5.347829e-07,0.3,1.7913735,87.801926,87.48012,87.593506,87.712234,0.14391434,0.4328125,4.515086650848389,23.786057420571645
23,230000,52.19273236062523,-89.368286,6.2978124e-30,-57.533916,-0.0029827878,2.4507387,1.0,0.84419924,0.5399406,1166.0834,12.369604,10.371685,105.03878,105.095764,105.61153,105.103226,7.2437224,0.7,-110.6913,-580.18384,0.0007372481,-5.4320903,0.64461493,1.0246768,1.3492463,1.0190041,5.657785e-09,0.3,1.9845262,87.36673,87.281715,87.427826,87.28775,0.16775742,0.521875,3.8689212799072266,24.78204714457194
24,240000,51.01460951807668,-90.74596,3.3870995e-31,-54.83866,-0.0042599286,1.9921585,1.0,0.84605247,-3.8097792,803.2579,29.500675,7.803282,105.567406,106.106804,106.127594,105.65496,13.55262,0.7,-111.25989,-483.56796,0.0014605825,-10.496934,4.6545506,4.7733254,4.4702363,4.820253,1.8167776e-07,0.3,1.9544592,88.69757,88.867615,88.75566,88.68475,0.2043134,0.4609375,3.9053795337677,25.77596889336904
25,250000,51.170206441139534,-84.799164,1.8212802e-32,-57.046726,0.001121823,1.9818627,1.0,1.342767,1.4373446,1200.2302,25.972683,11.31966,104.9953,105.072395,104.30647,104.73065,2.1954079,0.7,-109.91343,-455.6377,0.0015257862,-5.4752893,0.21726602,1.5366853,1.2569342,1.260628,1.1265977e-06,0.3,1.5880638,82.99053,83.133644,83.064575,83.01463,0.10385247,0.4640625,4.2365031242370605,26.77582769393921
26,260000,51.42362202311196,-88.98732,9.762337e-34,-72.234436,-0.0032066852,1.4591277,1.0,0.7268851,2.553022,502.75885,18.321987,8.721917,104.9663,103.99409,105.032265,104.70642,2.3331454,0.7,-110.1776,-408.62543,0.0014816201,-6.1042643,1.3090818,0.0011419654,1.3086839,0.84777987,6.437302e-07,0.3,1.8581102,87.07147,87.22997,86.99975,86.92926,0.07126008,0.53749996,4.3223748207092285,27.774810111522676
27,270000,44.74868039044807,-89.0379,5.266966e-35,-57.539764,-0.0048202034,1.9842342,1.0,1.195588,-2.0344357,836.5664,17.48523,8.958372,105.717735,104.9131,105.089935,104.98933,2.0254993,0.7,-113.04749,-583.3395,0.00012055301,-6.888218,3.6511846,2.7077348,2.830992,2.8088996,1.440104e-06,0.3,1.7395651,87.36787,87.06546,86.86082,86.77781,0.13150519,0.5359375,3.388157844543457,28.762822592258452
28,280000,52.2231387893313,-88.51825,2.8504653e-36,-67.04293,-0.0011010178,1.8862313,1.0,1.2351325,-3.5473337,835.7226,23.489738,8.766112,104.90275,105.63348,105.35451,105.38066,4.027707,0.7,-110.53575,-711.9049,0.0012917842,-5.5613513,4.2836933,4.388723,4.104186,4.352595,3.081368e-06,0.3,1.7354264,86.5302,86.66835,86.911674,86.84823,0.114321336,0.434375,3.9013640880584717,29.758242424329122
29,290000,46.852064805615434,-90.05441,1.5340716e-37,-67.999214,-0.0010423942,1.5714725,1.0,0.742894,-2.6960318,887.7009,15.662645,7.9466877,105.703255,105.25174,105.75559,105.78947,7.8355737,0.7,-112.046875,-616.7768,0.002713623,-4.4183264,5.5508246,3.7498727,4.8115563,5.296816,4.9874075e-07,0.3,1.8214879,88.39122,88.18881,88.121796,88.17727,0.11449242,0.51093745,3.5908963680267334,30.747343595822652
30,300000,52.21926457167307,-88.30424,8.34292e-39,-64.61067,0.00087450485,2.279576,1.0,1.1100874,-0.08280301,2212.3408,10.226368,10.9801445,105.323135,105.49642,105.02547,105.053955,1.7069238,0.7,-114.80788,-543.1263,0.0012693428,-4.7266154,0.5927668,1.958796,1.4099382,1.2085705,3.6426761e-06,0.3,1.9807154,86.14433,86.578674,86.45946,86.4735,0.112200916,0.4515625,3.9594902992248535,31.74164358774821
31,310000,53.32420245321532,-91.08028,4.51772e-40,-70.57814,-0.0022726448,2.2914746,1.0,1.4508426,-0.43167353,709.86237,25.052696,11.269262,105.743996,104.16152,104.74302,104.65084,2.1726701,0.7,-109.92918,-748.18036,0.005407581,-2.9620974,2.586347,2.4753678,2.6590133,2.6743546,1.261651e-07,0.3,2.2920225,89.372955,88.71207,89.02695,88.969536,0.089297354,0.46249998,4.06251072883606,32.74107343355815
32,320000,51.86400650541271,-90.570564,2.4429e-41,-69.01347,0.002798114,1.8910738,1.0,0.9310361,-2.0364485,645.6142,30.882015,9.466061,104.93404,105.79794,105.686,105.381454,16.487936,0.7,-110.95033,-730.5143,0.0007778246,-3.9428222,3.6904497,4.1511397,3.7384648,4.363896,3.5361154e-08,0.3,2.1087613,88.20915,88.26046,88.29818,88.276955,0.16421568,0.43906248,3.953885078430176,33.73623046875
33,330000,40.56841205544983,-90.89703,1.321e-42,-71.25203,-0.0051333434,1.8050019,1.0,0.85026705,-0.23750567,1576.6411,8.242987,8.240637,105.565094,106.04841,104.818184,104.98013,4.1637077,0.7,-111.090744,-909.26697,0.0005397956,-4.6261597,2.4356372,2.861639,2.6542952,2.727899,1.2915116e-07,0.3,2.1960177,88.6033,88.77925,88.39737,88.61515,0.10069254,0.49531248,3.1737148761749268,34.71599932511648
34,340000,50.67330853608548,-89.31691,7.1e-44,-93.9457,-0.002606256,1.9403851,1.0,1.0071439,-6.7336464,800.80347,43.423508,8.9383335,104.839096,105.00784,105.16752,104.65059,2.743676,0.7,-110.96507,-1088.3508,0.004616106,-4.803019,6.8430977,7.4309716,7.8203545,7.8792295,2.6696537e-06,0.3,1.7756355,87.411224,87.64493,87.68205,87.72471,0.10043092,0.39062497,3.8349833488464355,35.70559418598811
35,350000,49.00904458672116,-87.507996,4e-45,-44.77716,-0.009016884,2.2315614,1.0,3.6246822,1.6280699,2600.9617,603.349,9.159353,103.98244,103.78206,103.82673,103.75389,7.5128922,0.7,-109.814064,-891.11005,0.0005888287,-5.329421,0.2390356,0.70887536,1.3731195,0.94959414,4.0065675e-06,0.3,2.248847,85.16315,85.121216,84.97449,85.28282,0.18933237,0.396875,3.9005753993988037,36.692253561814624
36,360000,54.20921787030931,-87.270004,0.0,-94.74086,0.0009908144,2.134031,1.0,0.9786412,-4.6192513,1574.4437,20.220264,8.4523,104.59128,105.879005,104.70242,104.86859,2.932023,0.7,-109.68099,-843.9419,0.00012564496,-5.3647356,6.8283114,6.4235353,7.015375,6.995591,2.7862595e-06,0.3,1.6798086,85.315186,85.57791,85.33887,85.43994,0.09430437,0.4109375,4.449288368225098,37.690533288319905
37,370000,45.219262514607045,-88.72772,0.0,-112.46503,-0.0021115046,1.6562535,1.0,0.81767803,-0.87504864,1608.1072,18.974806,14.6329155,105.28582,104.570564,105.43326,104.36149,12.567148,0.7,-114.04509,-934.3897,0.0013113127,-3.2138867,2.5882947,3.1260097,2.869063,1.9858162,8.260759e-09,0.3,1.7827483,86.93074,87.0504,86.80805,86.67348,0.14451537,0.5875,3.563779592514038,38.67405203183492
38,380000,51.15543180512485,-86.046936,0.0,-61.632442,0.0015678424,2.395982,1.0,1.5323943,-3.8202596,841.9189,27.12475,8.991114,105.94608,105.05106,105.88903,105.89745,4.966794,0.7,-111.555595,-878.0545,0.0015221906,-5.71046,6.3123436,5.1783686,5.718521,5.6115,9.00065e-08,0.3,1.9897652,84.32155,83.49165,83.688324,83.7869,0.13102451,0.5,4.283228874206543,39.67212357521057
39,390000,48.61465516874874,-87.92325,0.0,-92.12396,0.0027480354,2.1512494,1.0,1.3341908,0.58608675,1576.9321,39.425045,10.29044,103.959435,104.26937,104.05203,103.97375,5.045344,0.7,-110.05715,-1438.7638,0.0028366414,-5.8224754,3.558519,3.598871,3.7925482,3.6679711,3.7550925e-07,0.3,2.082189,85.58716,85.948586,85.44818,85.40798,0.11336128,0.5640625,3.9183082580566406,40.66455057462056
40,400000,46.62487147212863,-90.254906,0.0,-86.841446,-0.0011025615,1.9452486,1.0,1.4172091,-6.656469,2269.1,56.651463,8.9000635,105.3064,104.82848,105.14254,105.28267,4.813853,0.7,-111.68888,-798.1892,0.00583034,-6.729963,8.52122,9.141592,8.495424,8.4364,3.0803495e-08,0.3,1.9672925,87.87489,88.4051,88.1819,88.22367,0.14255306,0.409375,4.008217096328735,41.656775228182475
41,410000,52.95392238761411,-90.9588,0.0,-62.605778,-0.002543165,1.8573475,1.0,0.8064369,0.46650726,1480.293,13.765436,8.163954,104.3363,104.82251,104.754555,104.777855,2.0452564,0.7,-112.18628,-982.0818,0.0014709726,-3.614334,2.595751,0.678554,1.237114,2.0310016,4.69666e-07,0.3,2.1582735,88.66109,88.59241,88.63849,88.6491,0.08921397,0.396875,4.021297931671143,42.656110457579295
42,420000,44.793453814881026,-88.12091,0.0,-53.073673,-0.005078172,2.3585677,1.0,0.8216418,-1.0840373,2500.0193,16.232393,9.011827,104.91144,104.84881,105.006454,105.18669,3.0714672,0.7,-112.27802,-888.30945,0.0011302074,-6.2852044,1.9266992,2.1315196,1.3955044,2.2304652,1.0815606e-05,0.3,1.8860426,85.96875,85.796585,85.897766,85.95213,0.1282263,0.40625,3.5497689247131348,43.644095468521115
43,430000,56.251768519329346,-90.76276,0.0,-71.70027,0.004523982,2.1302967,1.0,0.9222034,0.96014595,1096.0128,22.287395,13.397758,105.81825,106.16896,106.57374,105.4738,7.710821,0.7,-115.72501,-938.7448,8.712022e-05,-7.977536,0.93985575,1.0726788,1.1782575,0.9385272,1.4709076e-08,0.3,2.2740977,88.48403,88.575226,88.56655,88.41004,0.15158784,0.490625,4.227312088012695,44.64602931340536
44,440000,51.07600689043004,-86.56636,0.0,-69.89188,-0.0042339438,2.051461,1.0,1.12555,-1.8902379,2339.5095,117.87209,9.284706,103.69078,103.904526,104.39298,104.388626,3.740655,0.7,-110.039024,-822.1439,0.0011000838,-6.2004457,2.2138655,1.6682832,1.3186605,2.3487074,9.29035e-07,0.3,2.0027413,84.432755,84.27171,84.49989,84.48746,0.109916195,0.3953125,3.9276955127716064,45.64393901824951
45,450000,46.89931801604967,-90.01387,0.0,-70.59464,-0.0038106379,1.7205769,1.0,0.94910425,-3.922275,3079.5269,23.317741,10.043326,105.94058,105.27133,106.040054,105.99284,2.6177242,0.7,-113.061485,-990.5991,0.016593184,-3.7181218,3.779296,5.4286623,5.1298423,5.057141,6.519258e-10,0.3,2.4201846,87.49834,87.733116,87.85936,87.85071,0.07784844,0.3671875,3.6064953804016113,46.63487410545349
46,460000,58.83007978281935,-90.45134,0.0,-109.69917,0.0024489078,2.3873546,1.0,1.0266907,-2.1874428,3248.4966,13.658631,9.453218,104.708984,105.29556,104.81036,104.84747,7.624302,0.7,-111.65931,-899.51056,0.0011578798,-6.1696663,5.92776,4.6969037,5.389297,5.4193916,3.5458652e-06,0.3,1.9793463,88.36975,88.48581,88.23024,88.456604,0.17457616,0.35156247,4.528431415557861,47.63905764420827
47,470000,42.579400026621336,-89.794235,0.0,-83.147804,-0.005890028,1.9563143,1.0,1.0788949,-0.7040696,1760.0969,23.19041,9.889339,105.03368,104.2823,105.164734,104.96046,2.281216,0.7,-113.30558,-1055.4794,0.0008043382,-6.396058,1.4463475,1.0907393,2.2255619,2.4680567,2.2757042e-06,0.3,1.9797282,87.706726,87.86009,87.89639,87.92099,0.098404646,0.421875,3.290814161300659,48.61958621342977
48,480000,49.289098233637674,-90.68142,0.0,-95.161964,-0.004866956,1.8715641,1.0,0.86317146,-5.1378026,2534.0078,23.06755,9.276449,104.56271,105.537094,104.89974,104.7942,8.028832,0.7,-111.49689,-1200.4282,0.0022229534,-5.326909,7.3477144,7.455632,7.357318,7.0669208,2.4157924e-07,0.3,1.9870825,88.38629,88.57422,88.43933,88.32499,0.17709945,0.5453125,3.7424325942993164,49.60922106107076
49,490000,44.18914207608035,-91.17781,0.0,-101.02658,-0.0035049417,1.5222241,1.0,0.76973236,3.8933785,2878.2104,10.212915,9.453988,104.75256,104.530815,104.59911,104.63835,0.9018911,0.7,-112.526474,-947.97626,0.0035181132,-3.6114082,-0.24162954,-1.0367973,1.5852832,0.15667158,3.168988e-06,0.3,2.0411577,89.385826,89.29297,89.56897,89.46979,0.05730434,0.3796875,3.3818039894104004,50.594459029038745
50,500000,54.78396470804303,-89.200424,0.0,-106.86788,0.0008785855,1.6620892,1.0,0.9302788,0.28260374,1055.0774,32.06681,8.057461,104.5458,105.424416,104.91725,104.78561,1.3551447,0.7,-110.72805,-1212.5853,0.00079851993,-10.073037,2.2440464,2.4742713,1.318165,1.8308672,2.9438525e-07,0.3,2.0079424,87.0172,87.56477,87.18056,87.21054,0.059922323,0.38906246,4.208766460418701,51.59339145819346
51,510000,51.767011806307906,-88.38116,0.0,-142.99521,0.00036055074,1.9100908,1.0,0.9148191,0.42191052,951.5924,17.358828,9.760946,105.06698,105.051506,105.81517,105.4759,3.3880258,0.7,-114.3828,-1141.1306,0.00017036643,-3.7568302,3.2106066,4.595275,3.8279433,3.3255868,1.0058284e-08,0.3,1.8159977,86.526764,86.32193,86.41559,86.32681,0.11363109,0.50625,3.9907522201538086,52.58503841559092
52,520000,44.02113828403569,-88.25552,0.0,-158.6256,-0.0001899844,2.386055,1.0,1.2229564,-1.0830562,2051.6492,18.81727,8.400542,104.99799,105.16537,105.35276,105.46957,3.2752898,0.7,-111.306526,-1179.5599,0.0031877598,-3.1763697,2.5346832,3.9770398,1.2519473,2.4241843,1.0186341e-09,0.3,1.7272749,86.11081,86.84848,86.33559,86.53082,0.11427945,0.36874998,3.378415107727051,53.570019618670145
53,530000,51.265028439173086,-91.27709,0.0,-155.30429,-0.0019167875,1.897448,1.0,0.89695925,-5.237016,2107.5269,65.057976,8.628139,104.888016,104.62689,104.43814,104.4901,1.0272989,0.7,-112.61046,-904.5767,0.00085247506,-2.7815962,5.1420603,6.084902,4.947288,5.5054464,1.6770792e-07,0.3,2.017829,89.23125,89.51851,89.32356,89.41055,0.059279416,0.396875,3.94480562210083,54.559529606501265
54,540000,47.81827863451129,-88.67023,0.0,-129.87689,0.001823546,1.8620274,1.0,0.8033732,-1.5837865,881.60004,23.421213,9.630591,104.360504,104.766525,104.66254,104.460884,2.451041,0.7,-113.949905,-1415.5278,0.0018323059,-3.1681132,2.6623461,0.8570676,1.2571125,1.8741524,2.514571e-09,0.3,1.9724628,86.60564,86.50537,86.637115,86.51121,0.083831996,0.4921875,3.5945591926574707,55.544264829158784
55,550000,47.38245253105362,-89.82196,0.0,-171.06201,-0.0019385618,1.957645,1.0,1.0927796,-2.4125419,1462.3308,51.856316,8.390679,103.53856,104.22941,104.283356,103.64658,1.7180138,0.7,-110.953766,-1194.9966,2.6978669e-05,-4.8944855,3.6315203,2.9275446,2.423286,2.7551923,4.2441943e-06,0.3,1.9096231,87.989204,87.7806,87.65799,87.793564,0.07661362,0.4640625,3.6748201847076416,56.53643811941147
56,560000,54.60195799030822,-89.60042,0.0,-132.72763,-0.004421898,1.8507309,1.0,1.4341345,0.026747227,1179.0979,160.09183,8.666448,104.94519,104.71171,105.23672,105.22527,3.7878273,0.7,-110.05392,-1164.6287,0.0032769367,-4.1400657,1.5817637,3.2289615,3.423253,3.3072958,2.0186418e-08,0.3,2.238337,87.25773,87.270805,87.44815,87.37448,0.105279654,0.4734375,4.155514478683472,57.53679956197739
57,570000,48.17108713238085,-88.223785,0.0,-144.42047,-0.0006618464,1.5532793,1.0,1.1745241,-1.9847364,3586.9438,24.941235,9.469049,104.74366,104.758606,104.61523,104.216576,2.143877,0.7,-111.388855,-1127.4425,0.0011314536,-4.203084,3.5674908,2.6068692,1.3901812,2.5511003,1.9965228e-07,0.3,1.9402416,86.41591,86.020645,85.88717,86.0056,0.07174813,0.50625,3.7674667835235596,58.52997584342957
58,580000,49.624242457943346,-90.14354,0.0,-135.39148,0.0020906567,2.0085628,1.0,1.107297,-1.1858916,1190.9789,20.87552,8.374151,104.674385,105.87637,105.09385,105.1638,6.534662,0.7,-111.2577,-1165.1472,0.030023713,-4.775226,2.535927,3.3081803,1.9074955,2.0397446,7.4103014e-07,0.3,2.2360225,87.674126,88.41238,88.02341,88.17966,0.08643812,0.38437498,3.8360047340393066,59.5204616467158
59,590000,55.249859787149006,-87.74359,0.0,-152.65111,-0.0022843995,1.7709572,1.0,0.8404719,1.0740732,895.1329,11.787975,8.376435,104.64152,104.036995,104.32611,104.5844,8.284367,0.7,-111.292,-1401.1979,0.00042412692,-8.386887,1.9106779,1.420767,1.2132351,2.5241115,1.418346e-07,0.3,1.957586,85.671875,85.75882,85.6853,85.8304,0.124726444,0.4171875,4.16981840133667,60.517609473069506
60,600000,45.09167047981728,-86.328,0.0,-159.7981,-0.0021874632,1.5753294,1.0,0.9253198,-0.66360515,3165.8838,27.346354,12.498793,104.86071,104.56815,105.05506,104.56776,2.9056616,0.7,-117.333534,-1241.4515,0.0028651215,-4.253169,0.14388102,1.4809453,1.3802152,1.5762479,1.3201498e-08,0.3,1.8375236,84.22131,84.33157,84.40195,84.38946,0.10088222,0.46406248,3.5425772666931152,61.50529117186864
61,610000,46.83767256200998,-88.68276,0.0,-121.66396,-0.0030112863,1.8264887,1.0,1.004184,0.047196865,1992.2865,22.936031,8.392222,103.25274,103.54304,103.69834,103.424576,24.908897,0.7,-109.45813,-1784.5275,0.0030858547,-5.6763153,2.8370197,1.8869572,2.6728148,3.0026777,7.3385314e-07,0.3,2.0581284,86.6532,86.58757,86.84204,86.79926,0.16481349,0.403125,3.8770132064819336,62.49940410057704
62,620000,54.90692611486345,-91.8533,0.0,-127.9769,-0.006773156,1.9486119,1.0,1.0159129,-5.061266,1714.784,12.83707,11.361988,104.4593,105.66706,104.88977,104.87382,18.160715,0.7,-111.49315,-1394.153,0.0022479633,-3.259274,7.159721,6.028074,6.41717,6.6803265,2.6018126e-06,0.3,2.2678246,89.327866,89.771225,89.536476,89.667,0.15714625,0.35625,4.493520975112915,63.50073392391205
63,630000,46.36104415567308,-91.117905,0.0,-147.0036,0.0030835848,2.0237253,1.0,0.89506155,-0.15964913,2953.9282,26.619654,8.934384,105.424194,104.89576,105.166885,104.740814,4.854288,0.7,-110.84065,-1172.5269,6.36187e-05,-5.621126,4.1928244,2.8083644,3.0683303,3.2009501,4.192698e-08,0.3,2.1945195,88.901924,88.81022,88.94408,88.85713,0.092884876,0.49374998,3.500840902328491,64.48612804412842
64,640000,55.31849962728976,-88.474335,0.0,-98.27565,0.005628534,1.7779903,1.0,1.0796897,-1.3809102,2806.7375,45.793938,8.708949,104.89929,104.96558,104.6002,104.48495,4.826661,0.7,-111.699326,-1365.2435,0.0011177437,-4.9386826,3.6610434,3.0839531,3.290072,3.5583115,2.5725268e-07,0.3,2.1892962,86.09924,86.043564,85.961754,86.03962,0.09945203,0.45,4.1199188232421875,65.48220690488816
65,650000,47.542891743860295,-91.31366,0.0,-40.11561,-0.0048432387,1.8714443,1.0,0.9052831,-6.562568,2860.9172,14.316428,11.018294,104.939445,105.332726,105.25783,105.400604,2.6006398,0.7,-115.21264,-1202.1012,0.00040081982,-4.6324267,9.203467,7.8201027,8.782089,8.435356,4.6824975e-06,0.3,2.5992074,88.804596,88.529144,88.65113,88.58453,0.08922112,0.5015625,3.8297369480133057,66.46961195468903
66,660000,46.04886771067265,-86.568375,0.0,-165.51724,-0.006015376,2.0298822,1.0,0.7677429,-0.06479049,1816.2168,22.595325,8.531748,105.63411,104.4908,104.71885,104.785065,4.2955623,0.7,-110.694,-1349.7084,0.00059204,-6.4097915,1.5223291,0.25932598,1.279664,0.94556344,2.4858339e-06,0.3,1.8565798,84.66371,84.56032,84.72543,84.68131,0.1240551,0.41875,3.5576119422912598,67.44934091965358
67,670000,49.75078197212529,-88.68367,0.0,-160.89145,-0.0016196441,1.8234738,1.0,1.1889964,-1.8233302,2953.3665,33.353065,10.158304,104.71248,104.637985,105.62915,105.14471,7.2425814,0.7,-112.40303,-1352.551,0.01520823,-8.089145,6.371103,1.9499314,4.160944,3.9057465,1.0142278e-06,0.3,1.8252232,87.035614,86.44234,86.94901,86.91341,0.15402919,0.3859375,3.8338983058929443,68.4389844139417
68,680000,48.702859888431895,-89.32474,0.0,-140.88176,0.0008842962,1.882665,1.0,0.75584936,0.5881593,2314.6106,33.69285,10.350645,105.40729,104.782555,105.141525,105.30485,5.8256016,0.7,-113.15563,-1230.8351,0.00018007797,-3.5068202,3.4358306,2.0509598,3.0693302,2.720065,1.5973811e-06,0.3,1.8449466,87.29935,87.21524,87.23086,87.292984,0.10449286,0.4203125,3.694218158721924,69.42299905220668
69,690000,47.62903815292701,-88.73646,0.0,-179.69077,-0.000733966,1.7635803,1.0,0.6750665,-2.4944248,2961.036,9.839687,9.319866,105.81254,105.252144,105.19422,104.87694,5.8350983,0.7,-112.73239,-1435.2822,0.00018161937,-4.480816,1.4835962,3.1319785,1.3524222,1.6665211,1.1895493e-06,0.3,1.9403858,86.64365,86.74132,86.81163,86.69737,0.1049688,0.4640625,3.801974296569824,70.41057571967443
70,700000,54.044172453541016,-88.2828,0.0,-99.2386,0.004959234,1.8933038,1.0,1.0937638,0.3215444,1723.9421,28.058002,9.185669,105.90589,103.94482,105.19805,104.878,3.1916726,0.7,-112.91269,-1590.9443,0.0010522904,-6.2607794,1.6529884,1.0771382,1.0019659,1.2665255,1.2170524e-06,0.3,1.8846242,86.72463,86.055115,86.48893,86.46445,0.11732431,0.4265625,4.189598083496094,71.38049751520157
71,710000,47.15329858238001,-88.04979,0.0,-123.28824,0.00026909282,2.0686662,1.0,0.6567606,1.9798312,5553.8906,14.572604,8.758879,104.05532,104.29456,104.55767,104.7357,2.73685,0.7,-110.49698,-1374.6155,0.00038977643,-4.171113,0.49369574,0.92385155,1.3198193,1.6270809,1.7797981e-06,0.3,2.094976,85.810844,85.71432,85.72854,85.793,0.08935777,0.39374998,4.001286745071411,72.34651572306952
72,720000,48.770817246370456,-87.24989,0.0,-140.42554,-0.0016617682,1.7860336,1.0,1.23856,-0.422899,1336.7468,120.5679,9.861291,104.379486,105.00917,105.413414,105.27093,4.730745,0.7,-111.214874,-1644.9609,0.00093780144,-5.054656,1.9660103,2.6296794,0.8920521,1.8021152,1.2730016e-08,0.3,2.0852847,85.05921,84.912315,85.03904,85.20012,0.12012903,0.37656248,3.8209950923919678,73.33791399796804
73,730000,48.92103656941762,-89.674194,0.0,-149.11458,0.00087148714,2.0406451,1.0,0.8603251,-3.969306,1401.2059,15.03751,12.327913,104.98836,104.250824,104.8677,104.38823,3.1161337,0.7,-113.6577,-1389.5759,0.0002588572,-5.348859,5.0761666,6.0228796,5.388543,5.5289025,4.4703485e-09,0.3,2.0514717,87.810745,87.69932,87.81059,87.73468,0.0769988,0.45625,4.077161550521851,74.33729488452276
74,740000,49.19693026384855,-88.11023,0.0,-176.1113,0.0031903815,1.7118415,1.0,1.0378585,-7.2344337,1456.7806,24.897396,10.111824,104.742645,105.34915,105.363914,104.96531,13.147938,0.7,-112.941986,-1622.9772,0.00041890034,-6.6476784,7.604376,8.358304,7.3932424,7.5924,1.4144462e-09,0.3,2.1714847,85.8539,85.71843,85.73464,85.68486,0.1297706,0.47968745,3.801910877227783,75.32951492468516
75,750000,52.437041121203706,-90.640465,0.0,-141.59158,-0.0029214353,2.0995138,1.0,0.88297504,-4.228039,4564.664,30.06712,10.498551,104.30144,104.29957,104.825035,104.477684,2.3953114,0.7,-114.009964,-1419.5369,0.00022899319,-3.9510527,1.1430573,0.73953986,1.24264,0.86950624,5.2952674e-07,0.3,2.205246,88.187775,88.36504,88.25653,88.18298,0.0954365,0.4625,3.9630064964294434,76.32587543725967
76,760000,47.64889996768615,-89.29695,0.0,-141.50124,0.0008417189,1.9152106,1.0,0.7936519,-14.182858,1401.7666,13.207153,9.075916,104.04035,104.47442,104.837074,104.19717,7.4630613,0.7,-112.11625,-1542.8516,0.010494869,-4.084216,15.796836,16.111467,16.422796,16.204596,1.1423787e-05,0.3,2.0575461,86.92044,87.25664,86.90166,86.86213,0.11715746,0.528125,3.676765203475952,77.31643201907475
77,770000,49.17803984307326,-90.75475,0.0,-105.68361,-0.0023602068,1.5566373,1.0,0.63057405,-3.1113217,2389.246,14.449361,10.186266,104.363945,103.92603,104.22281,103.684456,2.1472936,0.7,-111.66258,-1729.812,0.0015370981,-4.759019,3.3243785,4.619584,4.443532,4.198561,1.695659e-06,0.3,2.1300106,88.54813,88.4091,88.53159,88.478516,0.08297205,0.48125,3.768749237060547,78.30449016491572
78,780000,45.049901665255746,-88.15563,0.0,-260.93033,-0.0022074783,1.8122536,1.0,0.65891266,-2.91029,1495.2297,14.400467,8.946769,105.24007,105.14275,105.02779,104.84126,2.676185,0.7,-113.128426,-2294.6963,0.0013292555,-6.8976765,5.1759596,4.35947,4.2473197,3.9638782,1.0142278e-06,0.3,1.6839404,86.40283,86.17782,86.32148,86.20524,0.099629454,0.5078125,3.491187572479248,79.29225313266119
79,790000,49.273819713364304,-91.16319,0.0,-149.14334,-3.8604252e-05,1.4248966,1.0,0.7481184,-1.7483959,2297.2424,21.289288,9.782326,103.84435,104.29043,104.09956,103.96794,2.4010541,0.7,-114.70819,-1518.254,0.0022478262,-5.2011795,3.349308,3.8682346,3.5796518,3.9111125,9.97464e-07,0.3,2.2700872,88.59093,88.99669,88.82572,88.81555,0.06631825,0.43124998,3.8147923946380615,80.28064700365067
80,800000,50.886541264028885,-89.996796,0.0,-172.63416,-0.0027173713,1.7651047,1.0,0.63463306,-8.327594,2342.2214,22.341776,8.29843,103.90418,104.430176,104.28617,104.98724,2.0594716,0.7,-110.44361,-1489.6567,0.0015113873,-8.207445,9.231481,9.530993,8.869509,8.709482,1.9252185e-07,0.3,1.928337,87.83253,87.87259,87.83818,87.77165,0.086074814,0.4984375,3.9312057495117188,81.27251172463099
81,810000,47.423269778050006,-90.276566,0.0,-93.01146,-0.00012973846,1.868089,1.0,0.76071346,-3.9295754,2302.7732,24.530907,10.086371,105.294586,104.120155,104.99281,104.69816,19.358126,0.7,-110.02776,-1637.3815,0.0017567431,-7.134441,7.902999,7.422617,8.347976,8.072161,3.277499e-07,0.3,2.1049106,88.029396,87.92244,88.09652,88.199036,0.16381496,0.35,3.5501883029937744,82.26115427414577
82,820000,45.74026745742834,-87.29625,0.0,-166.8535,0.0011333898,2.1515088,1.0,0.81118494,-0.68462217,3041.3926,40.531258,9.953434,104.970345,104.78522,105.30674,105.00915,5.1208262,0.7,-112.62727,-2428.8765,0.0019403074,-6.0797606,1.9893334,1.2037463,1.2256883,1.333674,2.0255027e-05,0.3,1.8053181,85.34157,85.28175,85.36774,85.493866,0.12997004,0.38125,3.5296719074249268,83.24995694160461
83,830000,50.47002492831142,-90.07631,0.0,-105.35991,0.005675083,1.840091,1.0,0.96457064,-7.8697257,3557.5261,26.061234,10.308839,104.300735,104.617256,104.717,104.104,4.4832587,0.7,-110.70593,-2275.7053,0.0005988349,-5.1803875,7.2643204,10.18121,8.915097,8.981625,1.1986821e-06,0.3,1.942766,87.729355,88.06704,87.72629,87.79689,0.0967239,0.48593748,4.160653591156006,84.25044828653336
84,840000,52.46124674918485,-87.97362,0.0,-182.34302,0.0013708906,1.7429249,1.0,0.828825,0.3695929,3468.7676,20.025612,7.541779,104.95878,104.50502,104.926216,104.709526,2.6117823,0.7,-110.8921,-2038.2308,6.550393e-05,-4.9490337,1.6187187,0.78499544,1.3181534,1.3208085,9.915791e-07,0.3,1.7153282,85.96115,85.82306,85.990425,85.9046,0.1066753,0.4453125,3.9768660068511963,85.2432988166809
85,850000,51.283905645054716,-87.57446,0.0,-165.3972,-0.0036702063,2.3709068,1.0,1.2683904,1.4218765,1735.9896,42.320263,8.378682,104.714874,104.97813,104.93168,104.67282,4.6079597,0.7,-112.58081,-1648.606,0.0023395014,-4.6754365,1.945381,1.8252317,2.815289,3.265852,7.700874e-09,0.3,1.7762735,85.515045,85.9049,85.729256,85.63385,0.09439035,0.48593748,3.893601179122925,86.23756995598475
86,860000,50.024019595740945,-89.45708,0.0,-199.89264,0.004936512,1.9840726,1.0,0.5864941,-0.8791144,3368.6792,8.80041,8.400313,104.78903,104.44764,104.56702,104.330696,1.927794,0.7,-110.5632,-1884.7882,0.0024396859,-4.2330027,2.477487,1.2598001,1.4677297,1.7265,1.0086224e-07,0.3,2.0654275,87.34349,87.14775,87.04465,87.18963,0.07791428,0.471875,3.790130615234375,87.23179878791173
87,870000,51.13805988266261,-89.427475,0.0,-195.5592,0.0017030158,1.8771908,1.0,0.6429834,-2.025144,1964.1136,9.893122,8.884085,103.53559,103.33482,104.34358,103.542946,4.890907,0.7,-110.82915,-2370.9863,0.0055783386,-6.6136427,2.9559536,2.7198114,3.216145,3.328465,7.533817e-08,0.3,1.9234195,87.38878,87.3403,87.44789,87.395874,0.104279414,0.4421875,3.8867383003234863,88.22687923113504
88,880000,51.592626064894276,-89.805374,0.0,-213.36621,-0.0035114628,1.7364823,1.0,0.9492164,-10.479822,3479.114,15.393566,8.447677,103.79169,104.83727,104.56008,104.03574,3.738643,0.7,-110.37498,-1575.3679,0.006197315,-7.1963196,12.749429,14.117114,13.158004,13.042692,2.1269254e-06,0.3,1.8455081,87.88058,88.415924,88.11372,88.14299,0.07476342,0.428125,3.9591424465179443,89.22110232114792
89,890000,47.43701208069493,-89.28749,0.0,-185.6456,0.0034323004,1.7028744,1.0,0.71601677,-3.70915,3320.2688,54.010735,8.4796505,104.65436,104.49715,104.20824,104.24177,4.9056845,0.7,-111.88999,-2011.8755,1.6744365e-05,-5.4256673,4.4286594,4.4545493,1.6303785,4.4419594,3.545938e-09,0.3,2.1376777,87.22147,87.07233,87.130394,87.12578,0.079598024,0.4578125,3.629401445388794,90.20523730913798
90,900000,45.70850161172273,-89.38591,0.0,-195.56607,-0.0012412133,1.9418856,1.0,1.0369229,-3.9488764,2324.7646,56.640327,9.965478,104.3152,103.92202,104.397224,104.18775,7.8443685,0.7,-111.91229,-1984.1312,0.0030216516,-5.172944,7.637871,5.986001,7.6784716,7.849162,7.759547e-07,0.3,2.3369508,87.005844,86.88516,86.789825,86.972,0.09789706,0.3875,3.5713729858398438,91.1906781633695
91,910000,52.13280201902612,-88.335144,0.0,-190.4119,0.00012465344,1.9861325,1.0,0.95312965,-2.806533,2422.3499,16.27463,9.69289,102.745285,104.32665,104.39564,104.29661,2.4856532,0.7,-110.117004,-2283.2698,0.011435687,-3.8219404,3.4511273,4.0360875,5.2389655,4.9643626,1.2915116e-07,0.3,1.9464779,86.02118,86.29814,86.2861,86.37779,0.104249075,0.38593748,3.996091604232788,92.1840485572815
92,920000,47.315367114865836,-87.699905,0.0,-194.57619,-0.004928808,2.167902,1.0,1.0309259,0.3196386,3076.375,17.804495,7.7987623,104.53444,104.6125,104.39268,104.8878,3.2482412,0.7,-111.706726,-1751.182,0.00087815366,-4.550794,2.769671,1.5324403,1.3153982,1.6855981,0.0,0.3,2.0090485,85.42671,86.08446,85.607834,85.72808,0.07588611,0.44062495,3.6042068004608154,93.1691974401474
93,930000,48.791446341534204,-88.49895,0.0,-92.132126,-0.0014793938,1.4801757,1.0,0.9679266,-0.937644,5488.829,22.877691,13.609381,104.36441,106.33595,105.276344,104.43168,1.0325491,0.7,-116.87714,-2271.6812,0.0005272122,-6.380845,2.6866794,3.8093042,3.126687,3.0511737,4.34813e-06,0.3,2.0976562,86.03093,86.597336,86.297485,86.241486,0.05244516,0.44687498,3.757918357849121,94.15943139394125
94,940000,53.286877339642494,-86.5845,0.0,-250.30841,-0.005513813,1.6341206,1.0,0.7593712,-1.5063502,2193.378,6.572016,12.133117,105.70553,104.47694,105.06699,105.14339,5.2768435,0.7,-111.523544,-2194.2656,0.0023111647,-5.4676237,4.2748275,3.0731559,3.9574142,3.8104196,6.202888e-06,0.3,1.8375268,84.9776,84.34001,84.65753,84.7212,0.10622871,0.40781248,4.033861875534058,95.15377258062362
95,950000,49.936313188864695,-91.72522,0.0,-211.4595,-0.002448185,1.9151233,1.0,0.8860922,-2.0379639,4376.571,59.46704,8.521757,104.39541,104.17665,104.832085,104.638145,9.623367,0.7,-109.522095,-1930.8224,0.0005810422,-5.822159,4.042826,2.9485607,3.2347085,2.8689423,3.4226106e-09,0.3,2.143134,89.38923,89.29837,89.30136,89.28151,0.1521894,0.46718746,3.824589967727661,96.14521293640136
96,955000,49.274687493407384,-86.53763,0.0,-214.95023,-0.0025463,1.9839691,1.0,0.6263813,-0.36482573,2167.932,13.514086,10.27371,105.45218,104.63056,105.04159,104.88231,5.627477,0.7,-114.344505,-2075.7146,0.0005738482,-7.0087547,0.78654313,1.2377634,1.3706737,1.6158412,6.3704215e-07,0.3,2.0926397,84.62598,84.41707,84.61507,84.51051,0.08141962,0.41875,3.7489588260650635,96.67123692830404
97,960000,53.38229896473641,-89.78427,0.0,-279.51593,0.00030373558,1.8411945,1.0,0.8342323,0.18535066,3421.1108,30.021639,10.150557,104.66723,105.06951,105.05475,104.52089,4.2333584,0.7,-112.33576,-2551.792,0.005363391,-3.0414176,1.1946653,-0.44871593,1.1723245,0.67793334,2.0481919e-05,0.3,2.09088,87.645035,87.79524,87.85817,87.89198,0.10478661,0.36874998,4.000970840454102,97.20189602772395
98,965000,51.035091797818225,-86.700134,0.0,-189.676,-0.00089808664,1.8956089,1.0,0.9977083,-1.2921627,5109.944,47.6689,9.342211,103.329384,103.85621,103.57819,103.35142,2.616933,0.7,-110.29514,-1833.8379,0.001167041,-4.428278,4.4361916,3.196279,3.7710676,3.2502613,8.071948e-07,0.3,1.8544877,84.49566,84.728806,84.52829,84.52159,0.097231396,0.49374998,3.8924527168273926,97.7320614695549
99,970000,50.965574690833016,-87.44188,0.0,-194.58658,-0.003931982,1.6590881,1.0,1.1311948,0.83648944,2385.6626,23.70798,10.020114,105.755135,103.92054,105.23534,104.45314,9.782602,0.7,-110.970825,-2532.1514,0.00741418,-3.917131,2.1984687,0.53094697,1.198824,2.340487,5.2823452e-06,0.3,2.4045973,85.281784,84.84967,85.31935,85.157036,0.13914263,0.409375,3.958381175994873,98.25981767177582
100,975000,47.43624152245629,-88.74076,0.0,-130.06538,-0.0050118254,1.677652,1.0,1.204368,-0.43374884,2502.8757,85.21174,9.134265,104.78645,104.11936,105.06424,104.85849,1.4265788,0.7,-113.02694,-1701.8428,0.0064903153,-2.9928145,0.6354681,1.1308883,1.2495114,1.1449021,9.045878e-07,0.3,2.0535693,86.72703,86.52753,86.85979,86.844444,0.06338285,0.37812498,3.7244951725006104,98.78521856069565
101,980000,51.68149662003484,-88.02545,0.0,-147.05692,-0.0014633037,1.6206009,1.0,2.4662125,-2.5356958,3754.3794,482.7433,9.609004,104.0925,104.19239,104.0524,104.357155,2.8489556,0.7,-111.33721,-1785.2952,0.0033174667,-5.3684783,4.715889,4.0642824,1.3521993,3.8227026,2.0995678e-06,0.3,2.1614835,85.86258,85.69887,85.64221,85.8161,0.07845862,0.4109375,3.9406278133392334,99.31593567530314
102,985000,49.601611856010216,-86.50174,0.0,-191.94856,0.0021669322,2.0257347,1.0,0.93008316,-1.4055898,2145.8057,23.557793,9.744992,104.50506,105.095024,104.76437,104.76145,5.6863384,0.7,-112.05619,-1846.9017,0.00085946155,-3.7486727,2.9837012,4.1871734,3.5050879,3.4463277,1.6031962e-06,0.3,2.1106925,84.066414,84.25725,84.21749,84.18427,0.10662398,0.471875,3.760909080505371,99.84700739383698
103,990000,46.86951041899742,-90.771,0.0,-220.1478,-0.0025988768,1.9662354,1.0,0.98279786,-7.4471745,3427.706,28.200514,9.143211,104.31574,104.57073,104.7171,104.46921,17.886473,0.7,-110.772,-2267.348,0.00041467568,-5.3116093,7.972739,8.436577,7.8642235,8.0276785,1.3217215e-07,0.3,1.8397835,88.617424,89.101036,88.7746,88.684525,0.17428407,0.4875,3.556356430053711,100.37052940130233
104,995000,50.659112973261855,-89.00316,0.0,-222.25182,-0.0023648154,1.6150029,1.0,0.7400751,-2.824132,1737.064,15.10925,8.84294,104.2906,104.08493,104.247955,103.99542,2.1790726,0.7,-111.9206,-2635.0432,0.0010092123,-5.5527277,4.401903,4.2237425,4.304509,4.4616265,1.7462299e-11,0.3,2.1069806,87.08299,86.79637,86.89328,86.885735,0.0760246,0.4890625,3.8449928760528564,100.89981926679611
105,1000000,47.44338417035337,-90.79553,0.0,-148.41135,-0.002655074,1.5956746,1.0,0.42654133,-3.1480505,2084.8918,5.4509435,10.286498,104.33966,104.07995,105.128006,103.738785,4.96906,0.7,-109.94507,-2042.0251,0.00036726717,-4.8368416,5.5783596,5.892524,6.31634,6.000764,5.0772387e-06,0.3,2.2193809,88.36272,88.61592,88.53223,88.44256,0.0682452,0.465625,3.6010963916778564,101.42273196776708
