Xixo99/comfo/baselines/comfo7_copy/20230223_cw0/hopper-medium-v2/COMFO7_s1_20230224_052425_hopper-medium-v2_50.27.csv
,step,reward,actor_loss,alpha,alpha_loss,avg_conservative_loss,avg_smooth_loss,conservative_weight,critic_loss,max_actor_loss,max_alpha_loss,max_critic_loss,max_mle_prob,max_q1,max_q2,max_target_q,max_v,max_value_loss,max_weight,min_actor_loss,min_alpha_loss,min_critic_loss,min_mle_prob,min_q1,min_q2,min_target_q,min_v,min_value_loss,min_weight,mle_prob,q1,q2,target_q,v,value_loss,weight,eval_time,time
0,0,4.945120242792231,,,,,,,,,,,,,,,,,,,,,,,,,,,,,,,,,,,,
1,10000,57.31798699941717,-40.246346,0.0672546,-3.9831927,0.0016875819,1.1788882,0.0,0.9746084,-1.8298011,14.451429,143.07681,9.217204,58.900757,58.414974,58.529633,57.848,3.34153,0.7,-59.06469,-22.695751,0.00048542046,-5.121216,3.9768343,3.672216,2.8832343,2.200323,3.2815544e-06,0.3,1.5831752,39.00585,38.735603,39.042084,38.384354,0.046720304,0.45624998,4.397966623306274,2.7876123785972595
2,20000,56.07474019033416,-63.65777,0.0037650072,-7.317446,0.0008443758,1.7584898,0.0,1.5192889,-0.57912457,35.976257,121.08039,9.049297,79.169266,79.35924,79.23759,78.61529,6.7104077,0.7,-86.961655,-52.579857,7.119076e-05,-8.040336,2.3713818,2.719548,1.2945305,3.5403924,9.8225435e-08,0.3,1.5989676,62.036606,62.096947,62.11097,61.793133,0.13571489,0.45156246,4.315493822097778,3.7624586542447407
3,30000,61.07975188112237,-77.575584,0.00020123256,-8.063976,-0.0022072305,2.0930233,0.0,2.0778563,-2.623548,48.605747,195.95587,8.967144,96.37091,95.06705,94.63864,94.66534,7.1928735,0.7,-102.07396,-84.47393,0.0010162697,-7.811648,4.6420555,4.7066307,1.767861,5.5587664,1.8672262e-06,0.3,1.573776,75.64644,75.51241,75.35054,75.433,0.15494433,0.42499998,4.629995107650757,4.741143425305684
4,40000,55.362176668338805,-84.82124,1.0782e-05,-8.249895,0.00038402155,2.4598973,0.0,1.4702739,7.1537147,131.31693,30.670996,12.650498,103.100716,102.58985,102.94162,103.11392,7.1771207,0.7,-114.058945,-84.60649,0.0026006645,-6.8769107,-2.0627296,-6.562454,-2.1153438,-5.878887,5.760416e-06,0.3,1.8522863,82.934006,82.61987,83.02016,83.01841,0.23212841,0.39999998,4.1058433055877686,5.709310813744863
5,50000,53.87004200660345,-85.77906,5.743179e-07,-14.680008,-0.0020458328,2.2422652,0.0,1.0109106,-2.4188538,101.861046,9.464965,13.849215,105.44416,105.39486,105.824455,105.78937,3.0369241,0.7,-118.33616,-95.0829,0.0031229183,-7.270898,1.6572179,1.842954,1.4142786,0.65640885,6.391638e-06,0.3,1.8307033,83.926765,83.891174,83.99559,83.93872,0.091776386,0.41875,4.132666826248169,6.680580564339956
6,60000,47.64509036911399,-88.68621,3.032155e-08,-14.920396,-0.0019487679,2.5254848,0.0,2.4536796,-3.6395864,151.603,86.26729,9.519338,104.48435,105.1351,105.278984,104.89616,23.170708,0.7,-112.39625,-163.89983,0.0021769472,-8.582567,3.7275753,4.7081447,5.936515,4.887122,1.6223214e-05,0.3,1.9586864,86.44389,87.013504,87.13798,86.92496,0.27325618,0.42343748,3.674356460571289,7.648388131459554
7,70000,47.45211627154595,-89.95447,1.598729e-09,-21.144302,0.00069250923,2.148271,0.0,0.9682301,-1.4452716,186.00601,22.711712,11.840162,105.19917,104.426094,105.25768,104.986855,5.660967,0.7,-112.42891,-156.5534,0.004995926,-5.769963,3.199463,3.4844537,1.2561555,3.1833746,2.5990886e-07,0.3,1.6230193,88.203674,88.051254,88.24075,88.168884,0.12923267,0.428125,3.7225711345672607,8.614840948581696
8,80000,47.82336599680746,-89.36933,8.529006e-11,-26.470818,-0.0036132156,2.4169304,0.0,1.3442161,-3.6754975,233.4955,37.674175,10.992362,104.35528,104.85943,104.96646,104.587296,11.681616,0.7,-110.4055,-162.25024,0.0023979512,-6.4226837,3.45896,3.725831,4.545434,4.0960913,3.940932e-06,0.3,1.8273095,87.32647,87.615585,87.68854,87.71684,0.18692046,0.3953125,3.730093479156494,9.5774795571963
9,90000,46.96915298184204,-89.00051,4.5741536e-12,-24.646503,-0.0035167076,2.2736936,0.0,1.4035716,0.610384,467.9054,24.32054,9.665318,104.673164,104.17129,105.370575,104.36547,6.1833305,0.7,-112.2225,-209.08206,0.00018819497,-5.316565,3.0708373,2.7371762,4.136773,3.7274392,1.774868e-07,0.3,1.6890243,87.29961,87.48187,87.62191,87.45401,0.16227716,0.45,3.6458702087402344,10.539618293444315
10,100000,38.400980874802926,-90.328964,2.4624728e-13,-22.26967,-0.0002887491,2.0641115,0.0,0.86026365,-3.560122,477.89758,12.049707,8.209044,105.01306,105.14467,105.35832,105.11313,1.808751,0.7,-110.40555,-244.43402,0.002967477,-5.7354174,4.7779455,5.612721,6.200413,6.1383123,7.888302e-08,0.3,2.0268974,87.981995,88.48414,88.28595,88.34299,0.087799005,0.4265625,3.3174097537994385,11.496599507331847
11,110000,46.45122027704596,-89.49741,1.3251999e-14,-22.348162,-0.004762477,2.0364265,0.0,1.1035826,0.93939066,225.21797,15.203018,8.634914,104.65882,104.482,104.95321,104.91323,11.793399,0.7,-110.87636,-218.3653,0.00054083264,-7.782387,4.358689,7.4712563,5.470909,5.078024,3.4963452e-07,0.3,1.723283,87.762146,87.60539,87.70024,87.816345,0.16949788,0.4359375,3.5758917331695557,12.45794201294581
12,120000,49.15091365186759,-90.28308,7.1611686e-16,-34.693745,-0.0017243322,2.208903,0.0,1.4301162,-2.0806398,503.0981,74.39433,9.5960045,105.432655,105.22983,105.09578,104.66073,2.7462049,0.7,-110.90823,-223.45627,0.0010127455,-6.6289372,3.2760544,3.504309,1.5290287,3.100117,1.913187e-06,0.3,1.628237,88.3105,88.62662,88.37531,88.37095,0.12376864,0.5109375,3.7412819862365723,13.42045640150706
13,130000,50.45183805855864,-90.78802,3.9424047e-17,-39.376984,0.0016871594,2.2572172,0.0,1.0062406,-13.571869,516.34186,19.058846,9.875499,105.51478,105.6592,105.49619,105.13695,2.0529249,0.7,-112.879295,-273.33963,0.0020016397,-4.1312885,15.407929,15.690278,16.285076,16.457296,6.780436e-07,0.3,1.8419924,88.733284,89.01622,88.95503,88.97146,0.1030413,0.41718748,3.858259677886963,14.383603465557098
14,140000,48.83475213695705,-91.00368,2.154473e-18,-31.512732,-0.00039304068,2.1294937,0.0,1.0916457,-1.0595062,603.18884,22.701117,10.082219,104.17612,104.801704,105.28545,104.13686,4.3166895,0.7,-112.7097,-324.6227,0.0008256064,-3.306982,2.4841514,1.8372986,1.6763403,1.3668799,2.9354124e-08,0.3,1.9852028,88.82846,88.87798,88.811005,88.71622,0.10973521,0.521875,3.836730480194092,15.347082006931306
15,150000,49.901202608895446,-89.423096,1.1762423e-19,-24.480606,-0.0052325963,1.8745888,0.0,0.807365,-1.533519,967.7024,14.151413,8.663947,105.21565,105.27869,105.11009,105.144104,5.903045,0.7,-112.10156,-296.0548,0.0013716442,-5.513282,2.797394,3.1253052,3.489571,3.7822034,8.556526e-08,0.3,1.9704239,87.13765,87.618095,87.421906,87.585526,0.110341445,0.36874998,3.8083019256591797,16.312696941693623
16,160000,47.8632177613425,-88.26207,6.401241e-21,-26.184788,0.0022031546,1.8724711,0.0,1.0052737,2.1276276,1151.8405,28.924545,9.055063,104.22996,105.08661,105.24946,104.81438,6.9320865,0.7,-111.02274,-318.9731,0.004245624,-8.021573,0.7233761,0.52741545,0.759721,0.5981617,1.7326967e-08,0.3,1.6549842,86.173904,86.37406,86.4745,86.364914,0.1166244,0.4828125,3.691991090774536,17.279181444644927
17,170000,45.697825959324504,-89.97987,3.5317025e-22,-41.08538,0.00014658217,1.9508215,0.0,0.766742,-2.5223827,1570.7041,16.361801,9.052197,104.11005,104.6912,105.10117,105.24599,15.366229,0.7,-111.60513,-332.93393,0.0017112943,-5.6292486,4.435609,4.2991877,4.6730695,4.2696867,1.15988954e-07,0.3,1.5234524,88.20417,88.28017,88.27964,88.48457,0.14808166,0.41562498,3.5407352447509766,18.240969288349152
18,180000,49.420601941607885,-88.55777,1.9234368e-23,-62.699055,0.002295094,2.0130854,0.0,0.81470346,-7.056718,592.55865,17.298584,9.178703,104.88142,105.206985,105.31365,105.46057,5.1024694,0.7,-111.50093,-487.63553,0.0023196626,-6.1318054,6.8083897,7.4169903,6.734273,7.072873,1.1804514e-06,0.3,1.5799289,86.58169,86.65689,86.654274,86.7048,0.103076674,0.4375,4.325637340545654,19.213216733932494
19,190000,52.93809617639988,-89.96895,1.0552955e-24,-47.51347,-0.003048253,1.7724047,0.0,0.8762339,-4.336953,582.6188,16.796501,8.885462,105.44042,106.09073,105.677765,105.71929,4.2285404,0.7,-112.4205,-328.56378,0.0004122539,-6.526801,8.225069,8.13749,8.495792,9.08909,2.8149618e-06,0.3,1.8085042,87.78367,87.86456,87.95392,87.94902,0.12216631,0.41718748,4.262197256088257,20.1835878888766
20,200000,47.368172649203416,-88.854706,5.8410904e-26,-54.33059,0.0026904654,2.3418672,0.0,1.1216595,-1.867207,1629.3639,20.297821,9.824313,104.21063,105.806335,104.96368,104.85115,6.575221,0.7,-111.99884,-446.2406,0.0013073543,-4.9553566,3.3416808,3.8376288,3.855219,3.8747451,0.0,0.3,1.7878525,86.93161,87.11569,87.002335,87.05471,0.10890353,0.421875,3.630734920501709,21.141262245178222
21,210000,47.924576001984406,-87.22453,3.2219918e-27,-66.96576,0.002204421,2.206771,0.0,0.9078828,-2.0292056,915.778,44.801186,10.610468,105.41943,105.468094,105.79348,105.224075,8.10614,0.7,-112.82515,-450.3446,0.0022699283,-5.5602264,4.9038205,4.6632786,5.143787,4.938829,5.867332e-07,0.3,1.645915,85.32875,85.26821,85.37332,85.290855,0.16294473,0.39843747,4.082443475723267,22.10545974969864
22,220000,48.509575719576624,-88.93387,1.7734429e-28,-43.312965,-0.0043606507,2.343231,0.0,1.8699393,-2.9591613,1513.7162,158.19246,10.987704,105.43515,104.535675,105.615486,105.335655,4.1424685,0.7,-112.50659,-573.60126,9.182404e-05,-4.625507,3.5923126,2.7786918,2.6790273,3.1771119,4.1953174e-07,0.3,1.8901716,86.97291,86.89647,86.88332,86.97484,0.13022265,0.42187497,3.9566664695739746,23.07193026940028
23,230000,51.998311791506424,-90.1254,9.763177e-30,-59.828743,0.0028197572,1.8112421,0.0,1.5832939,-1.1263714,496.26465,104.874435,8.950118,105.22601,105.315155,104.60676,105.084854,2.4132495,0.7,-110.97573,-515.543,0.0031678379,-4.2530103,4.0756617,2.1467094,1.5143211,2.9084816,3.7222637e-07,0.3,2.0026724,88.20474,87.84299,87.6085,87.86867,0.10294922,0.4140625,4.130277633666992,24.040562029679617
24,240000,51.80719093800875,-89.459076,5.4153374e-31,-43.956734,-0.0034172253,2.0947387,0.0,1.0257317,-0.6811371,1487.099,29.030561,9.525581,105.219666,104.44353,105.38401,105.06137,4.04378,0.7,-111.89708,-573.6273,0.00070734613,-5.815541,2.9601922,2.1434524,2.2316031,1.91765,1.9992586e-07,0.3,1.9076812,87.57302,87.293816,87.46284,87.37958,0.09229516,0.49375,4.38321328163147,25.010058403015137
25,250000,48.472764377068934,-88.864456,3.0119845e-32,-53.84719,-0.000737128,1.6710719,0.0,3.2105997,-0.95894074,1281.622,146.873,9.418446,104.723946,105.15894,105.20614,105.06661,1.8085433,0.7,-110.993256,-492.08014,0.00041010324,-3.8315177,2.0432925,1.3087872,1.1361967,0.9615142,9.8225435e-08,0.3,1.802982,87.29827,86.79172,86.766785,86.68941,0.09307712,0.5359375,3.716705560684204,25.970946947733562
26,260000,44.21590377347561,-89.05263,1.6709876e-33,-32.084568,-0.0023847886,2.4767053,0.0,1.2311046,-0.06890297,2138.09,22.344635,9.291219,105.03973,105.21516,105.269325,105.08164,4.6113696,0.7,-109.7762,-519.5378,0.0015439475,-5.099593,0.706011,0.5923948,1.3424191,1.6330671,3.229827e-07,0.3,2.2535832,86.90314,86.64839,86.88811,86.79843,0.10967655,0.47031248,3.532402276992798,26.932970468203226
27,270000,47.6340092059717,-91.35131,9.3600574e-35,-37.835983,-0.0015621051,1.855991,0.0,0.8047694,-0.883306,1242.0573,14.265325,11.587475,104.70352,104.98045,105.308136,105.31844,4.3595395,0.7,-110.576126,-602.37573,0.0037387735,-5.3793173,2.2439227,2.093923,1.2534634,1.9196455,2.6911905e-06,0.3,2.0651567,89.01221,89.0918,89.10462,89.071625,0.11509828,0.43593746,3.624788284301758,27.89450312455495
28,280000,52.888623217279495,-89.19213,5.2740207e-36,-77.20123,-0.0008923732,1.6352847,0.0,1.000211,-0.70183825,2857.3198,38.518654,10.255435,103.88994,105.51777,104.521545,104.523254,2.0673203,0.7,-109.43273,-474.29288,0.0019838735,-4.0957546,2.4057355,4.0914927,3.1540432,3.165357,7.4460813e-06,0.3,1.6270938,87.299515,87.91858,87.61888,87.4617,0.07742782,0.56093746,4.007782697677612,28.856256179014842
29,290000,47.216862466026775,-87.482544,2.927326e-37,-85.10213,0.0068782195,2.4470103,0.0,1.2371684,-2.3164725,1107.0288,37.1968,7.7106037,104.46572,104.0715,103.905235,103.958595,12.453679,0.7,-108.64397,-533.597,0.0008256175,-6.3597727,4.5910163,3.6074395,1.3699461,4.4313073,5.57804e-08,0.3,1.4814901,85.74129,85.41078,85.63326,85.62601,0.15587546,0.46249998,3.583164930343628,29.81580712000529
30,300000,53.380212696855764,-89.9927,1.6406838e-38,-48.139683,-0.00042846744,1.8835198,0.0,0.807979,-4.1922054,2294.741,15.125195,10.693145,105.57063,104.89377,105.41249,105.231606,5.1219044,0.7,-110.58005,-741.3591,0.0004928794,-2.8808656,5.3473625,4.743938,5.2999487,5.250955,9.8225435e-08,0.3,2.0011425,87.86135,87.70474,87.68999,87.7487,0.08577796,0.4578125,3.997431755065918,30.78386347293854
31,310000,51.444488452262426,-88.881325,9.14604e-40,-35.84136,0.00043742917,2.1801193,0.0,1.3054726,-0.92155623,2684.3337,53.54561,8.306612,105.87944,105.15626,104.78521,104.74601,10.151424,0.7,-112.12993,-804.08856,0.00041362323,-7.0006275,1.4861882,2.3105412,1.2904736,2.0109282,1.2309218e-06,0.3,1.8796809,86.8044,86.68028,86.456696,86.633446,0.16121227,0.465625,3.8831989765167236,31.74381961027781
32,320000,53.42483326790553,-87.065765,5.0524e-41,-98.577934,-0.0031402402,2.1943433,0.0,1.0504,1.6094112,625.70667,22.550709,8.033062,105.4998,105.24452,105.25734,105.4511,3.6939702,0.7,-110.860214,-669.34546,0.0011895308,-3.3514266,1.792597,0.27190828,1.1732153,1.5090332,8.6838264e-07,0.3,1.9993773,85.20961,84.985886,84.95816,85.0846,0.10331465,0.396875,4.109586477279663,32.71332397858302
33,330000,49.03498272878774,-90.31814,2.791e-42,-60.100113,-0.0040407553,2.035511,0.0,1.6168163,-3.1118133,2038.2922,46.950325,16.725567,104.22965,104.5212,105.070984,104.77279,2.059032,0.7,-112.96631,-946.6304,0.0027552908,-4.924988,2.2656386,4.4602065,3.8408425,3.153997,1.6625737e-06,0.3,2.237663,87.76237,88.44731,88.03707,88.01912,0.08482587,0.48125002,3.7256088256835938,33.66888816754023
34,340000,54.51236128360387,-90.185814,1.56e-43,-58.541836,-0.003955778,1.9245964,0.0,0.82524645,-9.535467,955.5817,19.230703,10.4028635,105.5446,104.86997,105.24458,105.55832,10.965993,0.7,-113.77713,-779.6194,0.00025205547,-3.683762,11.236158,10.721961,11.138234,10.958413,5.657785e-09,0.3,1.8765023,87.99809,87.94196,87.99841,87.82773,0.1540597,0.47187498,4.291046142578125,34.62307577530543
35,350000,48.48116294347787,-89.83206,8e-45,-68.75245,-0.002142638,1.7152729,0.0,1.2641176,0.3699417,1353.852,28.680187,10.127224,105.12243,105.21505,105.046364,105.037834,1.8746911,0.7,-114.73752,-711.5593,0.0005249784,-3.902544,1.0134021,3.3017688,2.680192,3.1530564,1.2635894e-06,0.3,1.932442,87.52997,88.30218,87.921196,87.926834,0.07457325,0.40781248,3.75679087638855,35.55811496178309
36,360000,48.81049137515937,-90.95741,0.0,-55.348385,0.0029542006,1.5389055,0.0,0.8180486,-2.2001212,1840.04,13.494987,9.226614,104.097176,105.21712,105.07926,104.56122,1.7683016,0.7,-109.772995,-704.23,0.00021753472,-3.5281055,3.5147057,3.8427386,3.3586159,3.9240487,1.0058284e-08,0.3,1.9936459,88.55339,89.18845,88.81378,88.871216,0.064099476,0.43124998,4.3525049686431885,36.518109917640686
37,370000,53.44265153386867,-86.86337,0.0,-65.71116,-0.0028079033,2.010983,0.0,1.608695,1.1495632,2023.9814,42.294678,9.098836,104.37291,104.18369,104.97127,105.18498,11.97417,0.7,-111.70544,-799.4147,0.0029390256,-5.2493715,0.64367616,5.700035,3.0798883,3.2460597,6.0297866e-06,0.3,2.0813184,84.599144,85.0046,84.94656,84.797424,0.18423143,0.4546875,4.086926698684692,37.49022557338079
38,380000,52.398059139372464,-86.8928,0.0,-107.45216,-0.0073635117,2.106658,0.0,0.74385595,-0.16323173,2105.8848,13.110085,7.722912,105.36393,104.24021,104.83189,104.796394,3.8870656,0.7,-109.52642,-1178.6176,0.0010223729,-5.9379764,1.1940701,0.832754,1.1403737,0.2557247,2.1713204e-07,0.3,1.7294841,85.078606,84.84,84.84424,84.83375,0.07718095,0.51875,3.826827049255371,38.46152490774791
39,390000,45.46203514845743,-89.52965,0.0,-102.900604,-0.0011275654,1.8696073,0.0,0.76977885,-0.34462285,2971.8,15.891495,10.3903475,105.45874,104.95568,105.14849,104.92067,3.104516,0.7,-113.67779,-1044.9229,0.0027627717,-5.1138268,3.6206465,2.7808862,1.410398,2.9510832,4.5726483e-06,0.3,2.0124893,87.50427,87.37286,87.42352,87.32277,0.08002877,0.43593752,3.328320264816284,39.4201088865598
40,400000,43.10784436851618,-89.717636,0.0,-46.25497,-0.0042829905,2.0311906,0.0,1.1793903,-0.16166091,1935.595,46.94202,8.594688,104.948875,103.28266,104.41442,104.23419,4.2699394,0.7,-110.281105,-974.84454,0.00091625424,-4.795572,0.9486923,-0.36103702,1.2393383,0.9045465,4.930189e-07,0.3,2.1971364,87.668365,86.966545,87.335205,87.35815,0.12512743,0.48749995,3.247833251953125,40.38030359347661
41,410000,50.88125888089906,-89.92314,0.0,-85.33998,-0.004564006,1.8549938,0.0,0.9150626,-1.6347531,2198.9778,32.799232,9.245859,103.79527,104.44729,104.691086,104.652756,4.131708,0.7,-110.52693,-683.0383,0.0020507898,-3.6646202,1.9407837,2.3829553,1.3720961,2.4585512,1.678127e-06,0.3,2.0990164,87.56293,87.900635,87.88366,87.94456,0.09359777,0.3640625,3.8366899490356445,41.349765972296396
42,420000,50.97412241960886,-89.00461,0.0,-88.62563,-0.003009653,1.911755,0.0,0.99312496,0.22915256,2227.9592,12.486751,7.8546166,105.10838,104.20192,104.6381,104.28174,3.6218004,0.7,-111.08142,-832.4373,0.0029437486,-4.382718,2.0393846,1.3430992,1.312037,1.160237,2.514571e-07,0.3,2.0838928,87.21445,86.602135,86.79664,86.62121,0.12492913,0.5640625,4.18656849861145,42.32161436478297
43,430000,49.82096561158894,-88.74831,0.0,-75.15045,-0.001505735,2.1321867,0.0,0.9514016,-0.02832383,1020.08887,36.75892,8.807902,102.93477,103.0341,103.023285,102.587906,6.1748195,0.7,-109.09099,-887.1852,0.00756949,-6.6969194,0.53552145,0.710669,1.3172386,1.250299,7.1874815e-08,0.3,2.020315,86.46141,86.546135,86.50366,86.537415,0.11709028,0.440625,3.96968936920166,43.29293666680654
44,440000,50.79206820008968,-89.04892,0.0,-81.29414,-0.0012278609,1.7777861,0.0,0.9182086,-8.487764,1200.7523,22.044937,8.159674,103.54557,103.269196,103.5955,103.34547,3.4494135,0.7,-109.511734,-989.695,0.0008664825,-4.7615933,9.275682,9.946943,9.885247,9.750708,1.5662518e-07,0.3,2.0858192,86.74205,86.92146,86.77881,86.79874,0.09736697,0.48593748,4.175999164581299,44.2646228035291
45,450000,52.80172627615318,-89.342125,0.0,-113.48731,0.0018456032,1.9033022,0.0,0.84485644,-0.7038417,1099.6555,19.60595,9.117477,104.67243,104.80291,104.5079,104.60676,4.633273,0.7,-111.17252,-797.08044,0.015447284,-6.3159237,2.6460102,2.731331,1.7482196,2.1197577,3.3500373e-06,0.3,1.7691373,87.42776,87.5123,87.261116,87.33883,0.13774352,0.4890625,4.007622957229614,45.232299931844075
46,460000,49.63876749321185,-87.8219,0.0,-78.91935,0.00049066695,2.4262006,0.0,0.75216645,-3.2861812,2918.377,11.196942,8.953206,104.44237,104.25398,104.81053,104.56569,6.281508,0.7,-111.99083,-733.6935,0.00069798727,-6.711156,4.120456,4.449211,3.6812387,4.1067057,1.8290594e-07,0.3,1.8803512,85.5836,85.843094,85.7372,85.70887,0.11490303,0.46249998,3.782031536102295,46.19617557525635
47,470000,60.03995381567589,-87.57146,0.0,-110.04591,0.002850606,2.3142903,0.0,0.87076133,-0.8783748,771.7581,10.980119,8.898966,104.77955,103.96055,104.09799,103.8828,3.3282297,0.7,-108.9895,-1188.3602,0.00044732384,-6.6190777,3.0856955,2.1542974,3.179654,3.3361485,2.3905887e-08,0.3,1.9483953,85.713806,85.48027,85.77368,85.698784,0.10199625,0.4453125,4.568261623382568,47.17552533149719
48,480000,52.37169596045036,-89.08085,0.0,-60.04502,0.0020795339,1.7523117,0.0,0.7385932,-3.2131712,996.19556,11.99035,10.453374,104.72561,104.98711,104.916885,104.75623,1.162793,0.7,-112.19212,-996.2896,5.7661964e-05,-6.2315903,4.083042,4.9043746,4.6961694,5.0561585,4.040095e-06,0.3,2.2159257,87.0148,86.75688,86.851006,86.85855,0.06291856,0.39999998,4.176747560501099,48.146861883004505
49,490000,53.41323581300965,-89.63317,0.0,-104.70358,-0.0077609825,1.8663416,0.0,0.7816072,1.8554232,1874.5249,20.723314,9.469774,104.93007,104.78709,104.538086,104.72713,5.2390523,0.7,-112.10999,-919.9609,0.0032966703,-4.551628,-0.24372554,0.82750833,1.0398402,1.6568811,1.3788406e-06,0.3,1.8633081,87.37178,87.53131,87.3436,87.45203,0.12594299,0.4453125,3.9472851753234863,49.11641129255295
50,500000,53.483948024508784,-88.002075,0.0,-110.28001,-0.00063134584,1.651727,0.0,2.0290198,-1.8351,3572.925,218.97556,11.6552105,103.45067,104.66695,104.607,104.26564,1.1922295,0.7,-110.99948,-1249.4689,0.024589006,-9.476652,3.8955395,2.3332496,3.714625,3.6809492,1.4787249e-06,0.3,1.9120061,85.96997,86.515755,86.39815,86.27604,0.09109036,0.4484375,3.9244956970214844,50.08614908059438
51,510000,55.23916524741861,-89.65013,0.0,-98.11015,0.0030057994,1.8889335,0.0,1.3320608,-0.7335627,1930.542,21.532356,9.115759,104.35159,103.87259,104.90348,104.50632,3.4194899,0.7,-111.19402,-797.99493,0.0009880532,-4.529981,2.838975,2.3891118,1.9580536,1.8283801,1.9965227e-09,0.3,2.032618,87.54303,87.23979,87.65143,87.62259,0.11967604,0.41562498,3.9996488094329834,51.05724426110586
52,520000,49.97807233139767,-86.19191,0.0,-121.5755,0.00015476606,1.7735264,0.0,0.8938579,0.1363318,2187.978,22.797857,7.98538,104.28689,103.56933,104.37003,104.396835,4.4140615,0.7,-109.475815,-1024.661,0.00063877983,-5.281275,2.25812,2.0586603,2.1532354,2.4489179,5.2220885e-06,0.3,1.7372768,84.29367,84.05632,84.27348,84.23803,0.081086636,0.475,3.729454755783081,52.0238310734431
53,530000,60.28941261407835,-89.04321,0.0,-117.04883,-0.004991392,1.831364,0.0,1.0597208,-2.9205632,1755.4443,20.194906,9.669949,103.49194,104.834045,104.31351,104.436485,7.113707,0.7,-112.01822,-1207.59,0.0029732557,-6.3117523,3.7008543,3.9624069,4.2775474,4.336746,4.6649365e-07,0.3,1.926463,87.01131,87.04248,86.94657,87.00127,0.11371641,0.3984375,4.453746557235718,53.002763613065085
54,540000,54.321384260916275,-87.402245,0.0,-155.2482,-0.004193058,1.8132216,0.0,1.1381841,0.29223394,1881.0352,31.026157,9.342518,104.54321,105.33094,105.39961,105.5067,1.2975605,0.7,-111.15918,-1149.7896,0.00022725883,-5.595669,1.8383859,2.786855,1.4591593,2.2038393,2.9354124e-08,0.3,1.9578712,85.31434,85.92557,85.64625,85.69258,0.06550432,0.4109375,4.023422479629517,53.970779716968536
55,550000,53.60464431296938,-89.12432,0.0,-85.249084,0.0003133081,1.8750378,0.0,0.7621243,-2.6544664,3012.88,35.802322,7.788385,104.36806,104.73533,104.94653,104.32931,5.6725655,0.7,-111.124435,-1018.348,0.004262872,-4.7377224,3.308293,3.9183,3.5200253,3.8258271,7.4103014e-07,0.3,1.9975123,86.42177,86.488144,86.60453,86.68543,0.13030007,0.43124998,3.995382070541382,54.93943043152491
56,560000,50.571811120402856,-90.47575,0.0,-83.914185,-0.004806657,1.8350277,0.0,0.98244476,-0.008198261,2165.4382,38.19788,8.249691,104.18443,103.96772,104.6519,104.56155,1.0367061,0.7,-109.731895,-1085.3136,0.004462174,-3.022222,0.57095426,1.6064878,1.3470991,1.0038717,1.745898e-06,0.3,2.1805124,88.16504,88.37326,88.28941,88.26868,0.08347203,0.50312495,3.778151512145996,55.9058136622111
57,570000,50.148767848597586,-87.79657,0.0,-128.0729,0.0003578391,2.2358031,0.0,1.0902363,-0.84432495,1052.5297,16.265139,8.876499,104.22791,104.266846,104.51494,104.61321,2.1308033,0.7,-109.78179,-1109.3325,0.002491844,-2.6455898,1.8365369,2.9100783,1.4313265,2.5122106,1.5093713e-06,0.3,2.303521,85.28642,85.78143,85.249535,85.502075,0.07446266,0.48125,3.733171224594116,56.871674195925394
58,580000,53.66551878865341,-86.75432,0.0,-188.9132,-0.0065712705,1.8166916,0.0,0.9404584,-0.37593102,2288.949,21.5752,9.056905,104.741455,103.82331,104.23983,104.20936,10.736593,0.7,-111.526985,-1127.804,1.8220046e-05,-8.592705,0.60550714,1.1387662,1.3170466,0.51473147,5.720824e-07,0.3,1.8562243,84.620415,84.88578,84.50199,84.59864,0.13540557,0.46875,3.9780995845794678,57.8421880920728
59,590000,58.72564284479782,-85.4686,0.0,-124.69002,0.004254968,2.2337325,0.0,1.0661381,-4.1480365,1960.7483,49.956165,8.967001,104.864525,104.85716,105.23886,104.53993,2.0670555,0.7,-112.09887,-1372.5746,0.0033934985,-4.2425103,4.96852,5.94672,4.5919137,5.0486894,4.710164e-06,0.3,1.9629067,83.45883,83.245346,83.41794,83.46913,0.1012019,0.4453125,4.351189136505127,58.81855858564377
60,600000,50.09573665637046,-88.15112,0.0,-138.12613,-0.001511522,2.0854905,0.0,1.0420227,2.0707967,3928.0452,50.13135,9.245127,104.457985,104.11686,104.66144,103.91611,2.8217106,0.7,-111.537025,-1424.111,0.00011739333,-6.12562,2.1155858,1.9642136,1.4478207,1.4686909,9.643554e-07,0.3,1.9640464,86.17553,86.07901,86.09432,86.04216,0.09817758,0.45937496,3.722607135772705,59.78561472098033
61,610000,53.267776051047186,-88.95711,0.0,-119.203964,0.0024278318,1.9109277,0.0,0.990837,-0.35872793,2542.807,16.395279,7.749651,104.994965,103.70956,104.1093,104.29692,14.777279,0.7,-109.444756,-1418.7251,0.0036272416,-7.720256,2.9407248,2.524753,1.3012445,2.6476665,2.766098e-06,0.3,1.8869294,87.31071,86.843216,87.06711,87.1392,0.14044458,0.4234375,3.9982316493988037,60.75631584326426
62,620000,50.53213851803833,-87.54619,0.0,-138.27065,-0.001540814,1.9059743,0.0,1.101975,0.42296886,3522.1992,21.363798,11.03014,104.614075,104.80769,104.881516,105.1883,3.3641114,0.7,-113.5117,-1604.3273,0.0037190504,-4.630762,1.9693897,0.092616975,1.2725681,1.4478191,1.8840656e-07,0.3,1.8506908,85.80533,85.76139,85.87709,85.801384,0.09397277,0.45937496,3.80570387840271,61.72277307113011
63,630000,52.4660305701598,-86.26589,0.0,-173.46323,0.00065400935,1.7609978,0.0,1.3756837,-1.6155899,1454.2444,52.561165,9.68465,104.172676,104.86549,104.063995,103.992775,18.6553,0.7,-112.105225,-1009.5593,0.0023142912,-5.5939236,3.3027673,4.4324174,3.7948537,3.4438784,3.4269588e-06,0.3,1.5763559,84.420074,84.7187,84.25943,84.39364,0.1752356,0.4421875,3.8841404914855957,62.69244022369385
64,640000,50.321940175866075,-86.88716,0.0,-195.60587,0.00057066215,1.6577113,0.0,1.1796442,1.0346423,1701.9042,67.01456,10.974054,103.81576,104.51119,104.91492,104.430824,3.5399177,0.7,-114.49887,-1423.6699,0.0006191447,-4.381684,-0.37409997,0.430273,1.4453424,1.2328757,1.3690443e-08,0.3,2.0057547,84.67814,84.89621,84.853386,84.8858,0.066609606,0.43437502,3.768087387084961,63.66176420847575
65,650000,52.588094454033026,-88.48442,0.0,-110.35594,0.0023830645,2.0890818,0.0,0.8768915,0.80235744,3139.8352,28.645847,8.368481,104.15199,103.90858,104.65545,103.993935,4.5296354,0.7,-110.05425,-1275.5515,0.001579388,-3.7936335,2.6815443,2.274897,2.5132647,2.599378,1.3238169e-07,0.3,1.9444904,86.33401,86.43652,86.35542,86.358696,0.09591417,0.4515625,3.9247727394104004,64.63533198833466
66,660000,49.446272170767735,-87.60419,0.0,-159.7082,-0.0017763987,1.8873185,0.0,1.447113,-2.419649,1954.5359,188.4888,8.353875,103.52248,104.345764,103.964584,104.09334,3.1503694,0.7,-110.72096,-1257.4314,0.00015663076,-3.9271984,3.0345743,3.553063,1.4723048,2.407462,2.4295123e-06,0.3,1.9102205,85.50093,85.757935,85.55908,85.57123,0.09014951,0.4734375,3.7334561347961426,65.60271764198939
67,670000,46.25435932486442,-85.953705,0.0,-153.46298,-0.004276352,2.3781981,0.0,0.99962896,-2.938821,2958.701,33.2779,11.9437275,104.96439,104.764786,105.06937,104.74507,5.430175,0.7,-114.03227,-1617.8008,0.0009513449,-4.7237234,4.2370586,4.374591,4.1146073,3.9078538,1.0624063e-07,0.3,1.834307,83.84708,84.08377,83.938354,83.66992,0.13743982,0.603125,3.4564154148101807,66.5651866197586
68,680000,46.67737586353716,-89.394005,0.0,-155.97476,-0.003255748,1.5084897,0.0,0.7826674,-2.4966319,1814.4727,26.07985,8.421048,104.8309,104.38795,104.656204,104.20935,6.4182253,0.7,-111.51057,-1388.673,0.0007578224,-6.302162,3.1104445,2.588059,2.6249444,2.8411713,4.9301887e-09,0.3,1.8961148,87.24815,87.37742,87.05929,87.11212,0.095666856,0.48125,3.5186448097229004,67.52847290039062
69,690000,48.659403130540284,-87.76845,0.0,-189.87988,-9.585731e-05,2.129704,0.0,0.89497006,-6.8702755,2520.1084,19.715815,8.803566,104.61891,104.2334,104.893684,104.74284,4.7248573,0.7,-110.01878,-1723.2538,0.0020130766,-4.2961817,7.322,7.484144,7.611208,7.3766136,5.2823456e-08,0.3,1.9875172,85.70334,85.73791,85.69568,85.55475,0.1125396,0.4734375,3.7193479537963867,68.49350039164226
70,700000,50.83329687296683,-89.59504,0.0,-106.0918,-0.0006333463,2.1081996,0.0,0.9795292,1.9383144,2341.511,11.1984825,8.33437,103.77204,104.37519,105.14791,104.715996,9.427847,0.7,-111.54406,-1301.2657,0.005743252,-4.08881,2.067099,1.5762099,1.1406853,1.2772658,1.1895493e-06,0.3,2.1452422,87.37024,87.27955,87.55318,87.48923,0.15929112,0.4359375,3.798673629760742,69.4596382856369
71,710000,49.131393694438316,-88.95474,0.0,-164.88947,-0.004828227,1.9307123,0.0,0.6323312,3.7844296,3387.3623,12.986874,9.641207,104.53425,104.246765,104.68708,104.73271,0.68441564,0.7,-109.85384,-1702.776,0.0023392886,-4.8996825,0.4903906,0.4232778,1.2959756,1.1332991,8.5565266e-10,0.3,1.7879006,86.93915,87.23296,87.09185,87.102554,0.054684997,0.48593748,3.6881794929504395,70.42667055924734
72,720000,57.0102149707187,-86.8434,0.0,-161.53107,-0.005245728,2.440325,0.0,0.8925847,-2.186039,2515.9036,15.082886,9.707906,104.044556,103.21659,104.05231,104.11386,28.233366,0.7,-110.854675,-1469.7407,0.00021552166,-5.4390182,2.6153002,1.8621037,1.5175668,2.4111733,3.426685e-08,0.3,2.0170155,84.61331,84.61783,84.51814,84.5512,0.21276563,0.45625,4.299131393432617,71.39857529401779
73,730000,51.32214513838691,-89.19379,0.0,-174.81229,0.0025289285,2.0935516,0.0,0.97461915,0.27472162,1251.0118,16.820572,9.162327,104.50009,103.79927,104.52726,104.27449,1.2386208,0.7,-110.230484,-1411.1003,0.0039009517,-4.5549436,1.3746877,1.3520603,1.2075984,1.2509336,2.0444393e-06,0.3,1.981322,87.50505,86.958374,87.57683,87.4851,0.07107128,0.375,4.308918476104736,72.37063850959142
74,740000,54.46024610618537,-89.16067,0.0,-194.65308,-0.0072113792,1.6423393,0.0,1.2786858,-4.8682475,2915.9956,35.079475,8.937344,104.44571,104.29737,104.40888,104.40886,6.2259827,0.7,-109.756905,-1780.9714,0.0046757003,-5.6584287,6.855354,5.945005,5.7094927,6.5692863,1.5660347e-05,0.3,2.0354028,87.829575,86.92553,87.44479,87.499695,0.07625396,0.371875,4.1233069896698,73.34099680980047
75,750000,53.35376113739855,-85.57669,0.0,-192.98538,-0.00077856856,1.9894543,0.0,0.9393731,-2.0484552,1629.0363,23.724758,8.263999,104.910614,103.95859,103.86506,103.97176,3.7409344,0.7,-110.68215,-1574.133,0.0005193335,-4.507824,2.9860697,3.0118527,3.1311142,2.8261971,4.4703485e-09,0.3,1.9428115,83.60572,83.35358,83.35503,83.46747,0.10997503,0.41718748,4.000053882598877,74.30745668013891
76,760000,50.89399672203542,-87.37839,0.0,-168.33447,-0.0016966006,2.0567358,0.0,0.88037246,-1.8900595,1434.7,21.59312,13.020457,104.00464,103.68792,104.469505,103.45062,2.6959152,0.7,-110.432396,-1544.674,0.00067036744,-4.881342,1.1616633,0.90817016,1.4019481,1.7344419,4.43717e-08,0.3,1.9896135,85.69837,85.26335,85.28702,85.392456,0.07899241,0.43281248,4.017017126083374,75.2758729616801
77,770000,52.67118785674143,-89.86195,0.0,-220.1512,0.0014529005,1.5156244,0.0,0.8878704,-2.3908772,2558.9604,16.178083,8.760693,104.42858,104.312454,104.60135,103.812546,3.2562945,0.7,-112.480576,-1539.5839,0.0007691263,-4.859569,6.703666,5.9747863,6.441621,6.356203,5.163904e-06,0.3,1.9246545,88.21531,87.67319,87.792305,87.893654,0.09427963,0.446875,4.13831901550293,76.2464366833369
78,780000,47.75611500307354,-85.515396,0.0,-163.18187,0.0017895446,2.0754516,0.0,0.74688303,0.22759807,3132.302,49.69236,8.9868,104.18197,104.045944,104.16011,104.53356,2.2724526,0.7,-111.18933,-2391.711,0.0007418383,-5.2040167,0.6801504,0.41655982,1.3530192,0.8474282,1.0353397e-07,0.3,2.0750952,83.312874,83.09683,83.1619,83.288155,0.07118223,0.4546875,3.9704062938690186,77.21433999538422
79,790000,47.26274723418866,-90.899796,0.0,-144.87306,-0.007642157,2.038372,0.0,0.63069344,-4.296356,1359.5535,8.138586,9.29352,104.23469,103.4021,103.579704,103.406006,5.5973535,0.7,-109.27959,-1620.5707,0.0008364241,-7.503723,4.198932,4.5795326,4.298027,3.789905,1.7993327e-06,0.3,1.9578285,88.99924,88.79494,88.94408,88.87617,0.11531772,0.4859375,3.544273614883423,78.17504873673121
80,800000,48.47222773254256,-88.578285,0.0,-94.01081,-0.0056479606,2.1713579,0.0,0.94749606,1.6340973,4874.676,13.365455,9.733669,104.77502,103.72392,104.6031,103.92997,3.6309168,0.7,-112.075554,-1657.1973,0.00086434046,-5.390108,2.206197,-0.08317733,1.2321967,0.92231447,5.5776326e-07,0.3,2.2248497,86.623566,86.10103,86.42247,86.33489,0.10562834,0.484375,3.5981814861297607,79.14211134910583
81,810000,50.339941338734626,-88.2038,0.0,-157.71754,-0.00013646558,1.874411,0.0,0.9424075,-0.10464978,3492.6738,10.30414,9.566645,103.67539,103.59734,103.60946,103.33247,7.800906,0.7,-110.56543,-1680.4122,0.005786541,-5.480868,2.6370904,3.9603636,2.9720447,3.0092413,2.806948e-07,0.3,2.0553396,85.760414,86.48789,86.0097,86.11017,0.12620628,0.46718746,3.794862747192383,80.10992228984833
82,820000,51.63695872794243,-89.40175,0.0,-127.01977,0.00088852126,1.609717,0.0,0.7163841,-1.2716297,2173.6367,10.70517,8.6789465,103.85959,103.83501,103.62077,103.9579,2.0905166,0.7,-111.40918,-1810.1476,0.00083122996,-5.256201,2.1285014,2.58192,2.3023105,3.0720363,2.6077032e-09,0.3,2.3194835,86.83441,86.92569,86.79548,86.834984,0.090345085,0.41406247,3.8656086921691895,81.07714706261953
83,830000,55.65109301085444,-86.19455,0.0,-126.73414,0.002180249,1.9176613,0.0,0.9770145,1.9815972,4903.386,21.22944,9.189007,104.49719,104.15909,104.54061,104.17445,1.5383714,0.7,-112.59427,-1474.1586,0.0006358669,-5.890969,1.3493645,-0.56128913,1.1033207,-0.35867947,1.6942359e-07,0.3,2.149074,84.21774,83.84133,84.20558,83.94384,0.073838465,0.54218745,4.1496100425720215,82.05043003161748
84,840000,52.55540687644731,-87.26484,0.0,-119.2109,0.0021530488,1.7629654,0.0,0.7707474,-1.593066,6467.6455,29.29337,8.87876,104.82636,104.03096,104.26172,104.29133,2.5649927,0.7,-110.639465,-2285.568,5.9607497e-05,-3.583212,2.5474758,3.265483,2.491943,2.796918,3.228779e-08,0.3,2.119506,84.92336,84.85187,84.834946,85.01575,0.08186026,0.39999998,3.930065870285034,83.02197682857513
85,850000,49.4519579242812,-86.35499,0.0,-123.77908,0.00064562727,2.3624215,0.0,0.6667624,-3.4455652,7479.4863,7.7045107,9.222647,104.14233,103.74881,104.0052,103.75385,18.203176,0.7,-109.14452,-1880.9045,0.0032562548,-4.0269356,2.976325,2.8328485,2.5123773,2.5453522,2.1269254e-06,0.3,2.0754004,83.939995,83.80804,83.71532,83.64677,0.1473412,0.49218747,3.701047897338867,83.98812030156454
86,860000,53.28024398770334,-85.650925,0.0,-140.86005,-0.0002477102,2.0439906,0.0,0.8664571,1.3539857,3865.4927,21.159084,9.424513,103.75989,104.81416,104.673294,104.40839,3.9206617,0.7,-111.310165,-2213.5725,0.0018052398,-4.049835,-0.268937,0.12921786,1.2928767,-0.10190916,4.577637e-06,0.3,1.8925977,83.2779,83.410355,83.43178,83.32582,0.11548889,0.453125,3.9807660579681396,84.95714731216431
87,870000,49.08324950636782,-90.245705,0.0,-85.974594,-0.0027004657,1.9201908,0.0,1.1194336,-1.0332373,2541.8613,13.979104,9.218282,103.647675,103.252144,104.3127,103.84292,1.0127059,0.7,-111.31966,-2097.6157,0.0024439844,-4.3696613,1.5055003,1.1420859,1.3923453,0.54722357,6.9498956e-06,0.3,2.3700762,87.77043,87.682785,88.112946,87.97992,0.0844363,0.36093748,3.6962807178497314,85.92496766249339
88,880000,47.375593770647555,-88.99138,0.0,-189.07477,-0.0025983867,1.88246,0.0,0.7619007,-3.349629,2160.6228,18.787096,12.33186,103.957375,104.12703,104.281746,104.22845,13.790888,0.7,-116.244415,-1633.584,0.00034435728,-8.736364,5.965524,3.6426904,3.7737794,4.221558,7.377821e-08,0.3,2.4156594,86.44848,86.680756,86.5446,86.499405,0.14789832,0.47031248,3.5602941513061523,86.8891055226326
89,890000,50.322388836246986,-84.89785,0.0,-204.765,0.0007689061,2.0644674,0.0,0.61911726,-3.7293813,2471.6975,19.154972,10.304627,104.94208,104.78644,104.602066,104.53807,3.1318386,0.7,-113.09888,-1797.627,0.00024280052,-6.1686764,5.3504343,4.5434394,5.1797237,6.293724,1.9252185e-07,0.3,2.0247476,82.89601,82.72325,82.88964,82.91467,0.09134233,0.3984375,3.7996890544891357,87.85784996747971
90,900000,53.738245503237245,-89.93846,0.0,-218.22597,0.00097424764,1.4862688,0.0,0.74895185,-9.006683,4114.1484,51.098785,9.612094,104.578255,104.96847,104.62229,104.486,2.585419,0.7,-112.402954,-2221.218,0.0006182141,-6.166405,8.778727,8.546885,8.49775,8.997212,5.9764716e-07,0.3,2.0715756,87.85685,87.784164,87.747406,87.72424,0.08460943,0.5203125,4.005065679550171,88.8295957883199
91,910000,48.504296583938576,-89.14316,0.0,-182.95856,0.0004341215,1.6476202,0.0,1.0004462,-4.4288464,1963.6555,13.737267,8.565451,102.9948,104.09536,103.70606,103.38906,1.8383142,0.7,-110.21668,-1777.6152,0.008431563,-5.2391815,4.475938,8.752316,6.711286,6.4200125,3.929017e-09,0.3,2.3125749,86.683655,87.423706,87.13421,87.049286,0.052705195,0.44843748,3.6182823181152344,89.79586310784022
92,920000,53.277014044443824,-88.50546,0.0,-147.8617,0.009378036,1.9939129,0.0,1.2852411,1.5722082,1952.5603,25.721523,9.544841,103.923134,104.75369,104.52514,103.977715,1.7523308,0.7,-112.2973,-2021.1249,0.004402488,-4.4834247,1.0812091,-0.5314119,1.166473,0.7289879,1.0112784e-05,0.3,2.14673,86.17322,86.696075,86.45447,86.26835,0.083449796,0.57500005,3.9276041984558105,90.76634995142619
93,930000,51.78763158024742,-88.08008,0.0,-141.2586,-0.003952039,2.079815,0.0,1.1142241,-0.7448932,6906.6514,29.082096,8.849064,104.046394,103.82383,104.11085,103.94936,3.6604989,0.7,-111.96895,-2101.2422,1.0089134e-05,-4.280514,1.6395507,1.6593264,1.2153143,1.0908351,1.2919307e-06,0.3,2.0392833,85.81734,85.73336,85.85621,85.70659,0.13147019,0.48749995,3.870434522628784,91.73366166353226
94,940000,53.47950502646829,-85.75847,0.0,-233.82639,0.0015373979,2.0367062,0.0,0.8286578,-0.6912488,4882.8633,20.383259,13.78463,104.07523,103.57277,104.14162,104.357574,16.26524,0.7,-111.25506,-2272.7131,0.00016235962,-4.483276,3.025126,1.8834009,1.173831,1.5504515,6.7769435e-07,0.3,1.837435,83.986115,83.620476,83.84769,84.00718,0.18188468,0.40468746,3.933326005935669,92.70471139748891
95,950000,49.987778608202355,-86.03012,0.0,-272.03888,0.001923237,1.7407597,0.0,1.163737,-6.2331133,1739.8486,12.514003,8.944289,103.81104,105.2258,104.772736,104.500435,41.19208,0.7,-111.08973,-1652.1895,0.0028856148,-4.970094,6.3402596,7.920257,7.884656,7.3351083,2.8164942e-07,0.3,2.0699031,83.870575,84.59921,84.33674,84.2992,0.23476887,0.45624998,3.761467218399048,93.67308613856633
96,955000,52.90009369615187,-88.597466,0.0,-221.17651,-0.0046531768,2.0252202,0.0,0.87463015,-3.1711376,4215.3477,19.691877,9.062465,104.05782,104.37134,104.31923,104.29063,6.7137203,0.7,-110.431145,-2167.6418,0.0024920243,-6.2168155,3.0505958,2.8178406,1.4328783,3.4536242,5.5327547e-07,0.3,1.9249187,86.39529,86.64491,86.61966,86.650925,0.13346311,0.41562498,3.9292945861816406,94.19162546396255
97,960000,49.188965737369145,-89.8051,0.0,-219.06882,0.0011360273,2.0981934,0.0,1.2491052,0.23453557,2533.5796,103.41753,13.542272,104.1833,104.33897,104.30134,104.383194,12.095685,0.7,-111.58311,-2394.7485,0.0074440073,-5.557032,1.2043756,2.0270092,1.175284,1.8269255,1.5662518e-07,0.3,2.0107398,87.488495,87.47174,87.64933,87.55608,0.18252552,0.45937502,3.7408735752105713,94.70484679142633
98,965000,50.19277831735891,-86.723236,0.0,-241.14583,-0.0012384087,2.4288394,0.0,1.0515797,-0.20172524,2299.5283,19.838366,13.244623,105.57509,103.07528,104.712105,104.65027,6.7693157,0.7,-113.39827,-2105.2913,0.016205199,-4.275908,1.6030211,2.1515663,1.4771569,2.2893543,1.7462299e-09,0.3,1.7471577,85.26805,84.61163,84.97691,84.86865,0.12806483,0.484375,3.7942957878112793,95.21968049605688
99,970000,47.96583953050687,-89.05688,0.0,-221.22922,-0.0053301253,1.9147023,0.0,0.5815372,-2.5522466,2733.7847,15.282274,9.01162,103.75922,104.16961,104.243935,103.58039,2.4512389,0.7,-110.72427,-2190.3774,0.00094001397,-5.621529,4.0228457,3.9090152,4.5543485,4.6702147,0.0,0.3,2.1265893,87.08233,86.90558,87.10234,86.78896,0.0877122,0.5609375,3.5915944576263428,95.72950857480367
100,975000,52.43316497690683,-88.23472,0.0,-166.88927,-0.0018096328,2.2355475,0.0,0.9585844,-5.9944224,2429.226,27.655767,8.539387,104.351974,104.00998,103.92206,103.875565,14.509052,0.7,-110.21232,-2402.491,0.00072905124,-8.623375,6.7697134,7.663764,7.814732,7.6555,1.9016444e-06,0.3,2.038732,85.87195,86.11441,85.931206,86.11403,0.19934623,0.3953125,3.893003463745117,96.24735746383666
101,980000,50.68329113352675,-87.94279,0.0,-181.26811,-0.006853333,1.8896723,0.0,0.73755395,-0.7553569,3493.8132,11.153156,9.505807,104.374435,104.090935,104.326996,103.94602,2.9630413,0.7,-110.93286,-2681.0176,0.001808353,-4.288841,1.1839945,0.64825475,1.0834466,0.9563197,2.5820733e-05,0.3,2.0008125,85.72094,85.66675,85.76768,85.826614,0.1350815,0.41718748,3.7840073108673096,96.76361408631007
102,985000,49.38674002192225,-87.013954,0.0,-193.41278,0.00088208355,1.7165745,0.0,0.8324131,-5.413328,1756.9934,19.368496,9.329757,104.21384,104.296364,104.458115,104.44059,5.1382904,0.7,-108.76048,-2292.325,0.00072893366,-5.7345147,6.2053885,6.08193,6.201695,7.030923,1.579292e-05,0.3,2.050312,85.114426,84.78289,84.82338,85.06902,0.15875906,0.36249998,3.710352659225464,97.27961592674255
103,990000,49.527995840136604,-89.99339,0.0,-177.2184,-0.0017120487,1.7826948,0.0,0.6289404,-0.4789374,8276.377,11.159838,8.5493555,103.975174,102.87953,103.19632,103.20317,2.0619638,0.7,-108.67222,-2587.1606,9.650976e-05,-6.8400617,2.309761,1.1345282,1.1972973,1.4014593,1.0430813e-08,0.3,2.0943532,88.106064,87.70566,87.91967,87.82643,0.053172518,0.4734375,3.7197229862213135,97.7946696360906
104,995000,51.202342425155166,-90.63582,0.0,-167.53967,-9.969845e-05,1.7754891,0.0,1.1780434,-5.782854,7809.5674,32.009453,8.919149,103.84354,104.26329,104.96214,104.06341,11.101647,0.7,-109.63639,-2365.1025,0.009132127,-5.219941,6.2443657,6.484751,6.6948786,7.1739993,1.3495563e-06,0.3,2.1636922,88.27925,88.43393,88.653885,88.596344,0.13372207,0.3640625,3.7815887928009033,98.31078450282415
105,1000000,49.17061998473227,-88.44481,0.0,-115.75151,0.002254763,1.7491343,0.0,0.7459203,0.27669716,4818.718,14.95234,9.463293,104.139854,103.98617,104.12955,104.12946,29.425945,0.7,-110.57417,-2144.5852,0.00013755081,-3.8482432,0.673625,1.7334937,1.1483861,1.7645674,7.0900865e-07,0.3,2.1091452,86.131134,86.10635,86.12748,86.23128,0.26228034,0.4125,3.6637258529663086,98.82564546664555
