Xixo99/comfo/baselines/comfo7_copy/20230223_cw0/hopper-medium-v2/COMFO7_s0_20230223_185752_hopper-medium-v2_54.36.csv
,step,reward,actor_loss,alpha,alpha_loss,avg_conservative_loss,avg_smooth_loss,conservative_weight,critic_loss,max_actor_loss,max_alpha_loss,max_critic_loss,max_mle_prob,max_q1,max_q2,max_target_q,max_v,max_value_loss,max_weight,min_actor_loss,min_alpha_loss,min_critic_loss,min_mle_prob,min_q1,min_q2,min_target_q,min_v,min_value_loss,min_weight,mle_prob,q1,q2,target_q,v,value_loss,weight,eval_time,time
0,0,4.524848941769615,,,,,,,,,,,,,,,,,,,,,,,,,,,,,,,,,,,,
1,10000,49.857305536513415,-41.61522,0.06730406,-3.6736917,0.00093753653,1.2155991,0.0,0.40734923,-1.3422947,32.311054,7.414097,15.183604,57.563694,58.238834,58.29094,56.840656,2.7040124,0.7,-63.72946,-23.199345,4.6264904e-05,-4.9797964,2.9412837,2.7427158,1.3673065,2.604344,2.5060028e-06,0.3,1.7142732,40.008717,40.153957,40.22537,39.51706,0.06566365,0.4578125,3.822326421737671,2.7789467334747315
2,20000,49.915642687427535,-64.501625,0.0037621988,-6.4344196,0.0014073495,1.6736244,0.0,0.87505543,1.5134447,30.39772,45.502953,8.11211,82.14867,82.635735,82.67539,82.19189,4.195095,0.7,-88.43794,-38.848537,0.0037462953,-6.1002336,-1.4511629,0.19769414,1.2132351,-0.11179905,2.2694003e-07,0.3,1.6184751,62.768326,63.28946,63.19256,62.804085,0.110660985,0.41562498,3.813333034515381,3.7498629808425905
3,30000,57.674317437805776,-79.667656,0.00020143532,-9.765484,-0.0024001976,2.005982,0.0,2.5846927,-0.22881436,116.40073,241.6802,9.015619,96.87243,95.75909,98.31245,96.665344,3.449173,0.7,-103.13564,-75.09913,0.0032555358,-5.759698,1.2871419,1.3355368,2.1809552,1.7979075,3.6461716e-07,0.3,1.8659143,77.53653,77.66899,77.98277,77.57205,0.12455405,0.4515625,4.360066890716553,4.734422810872396
4,40000,56.30776628341035,-86.881935,1.0794396e-05,-11.872423,-0.0021884104,2.3763852,0.0,1.5896026,1.1787215,58.892258,50.96527,7.698664,102.69523,103.6174,103.11848,103.00229,5.605376,0.7,-107.77839,-93.48559,0.00064048154,-4.0671825,1.0814539,0.69838333,1.3718523,1.7247944,6.4977216e-06,0.3,1.7615898,85.019745,84.82428,84.72693,84.65752,0.1462412,0.4609375,4.10658597946167,5.707035223642985
5,50000,59.561678553462215,-87.34803,5.7141415e-07,-14.382231,-0.003994197,2.4745984,0.0,1.5394385,-0.71459526,141.9485,94.11685,8.569266,104.13896,104.94006,104.46456,104.4338,17.079275,0.7,-109.348015,-145.41933,0.0006530958,-5.932169,0.6765909,1.9430952,2.7133207,3.128803,7.4258423e-07,0.3,1.5944284,85.34401,85.74945,85.82356,85.8341,0.21158731,0.4359375,4.339761972427368,6.686576322714488
6,60000,59.36293165430867,-90.653625,2.992226e-08,-17.151318,0.0014655119,2.405726,0.0,1.4596362,-0.7142534,143.79214,36.726345,8.632734,105.66735,104.45078,105.06553,104.79204,4.237477,0.7,-109.69476,-156.3329,0.011564911,-4.866478,-2.6395733,-6.4359336,-5.728612,-6.1488166,1.466833e-09,0.3,1.7124679,89.30622,88.87273,89.22032,89.03252,0.12975308,0.5078125,4.294384241104126,7.665329078833262
7,70000,63.04467442733929,-88.70795,1.5843523e-09,-24.984673,0.0054967324,2.3056743,0.0,1.4732584,-1.6420507,214.37799,26.786594,9.661798,104.91779,105.800606,105.08016,105.21421,8.124724,0.7,-113.58806,-140.29253,0.0015302057,-4.3744392,3.0492697,3.4921587,1.3105049,3.235586,2.6833268e-06,0.3,1.7747846,86.95799,87.09106,87.25555,87.223755,0.11501072,0.3828125,4.527838945388794,8.648513209819793
8,80000,63.40150526464042,-89.0468,8.316841e-11,-25.629547,-0.0009834241,1.9712852,0.0,0.87471825,-4.0738935,124.78047,27.086468,8.094441,104.68394,105.47224,104.708115,104.89815,4.29986,0.7,-110.09855,-187.4756,0.00086229,-4.8004694,6.1949015,4.2714,4.7085648,5.5142665,2.7543864e-08,0.3,1.8888178,87.05747,87.30699,87.19011,87.132706,0.09807575,0.5375,4.5140540599823,9.634208802382151
9,90000,57.73729685095793,-91.77259,4.3858424e-12,-19.675152,0.0079220785,1.9438221,0.0,0.7412809,-2.5322118,183.07108,11.015627,8.837387,104.23729,104.54847,104.00766,104.38928,8.572241,0.7,-110.745224,-161.90675,0.0013273829,-5.3319387,5.6433,6.400349,6.807784,6.760397,3.3807012e-08,0.3,1.9046649,89.95548,89.75156,89.71647,89.85742,0.12438036,0.44375,4.227382659912109,10.613356018066407
10,100000,57.78952298835488,-89.2783,2.3175586e-13,-25.93182,-0.0036039369,2.3256161,0.0,2.0109997,0.66735387,173.61272,70.81828,8.059121,105.720184,103.93385,105.50804,105.30996,9.772525,0.7,-110.5677,-306.44702,0.0098234,-4.400968,0.6740051,-0.05667749,1.2804605,0.91264755,2.231216e-07,0.3,1.9039497,87.662735,86.82769,87.686905,87.65349,0.2204571,0.3953125,4.38068699836731,11.591288256645203
11,110000,55.161064076751764,-91.414635,1.23120466e-14,-26.393166,0.0010580877,1.7752075,0.0,0.8339175,-2.6645076,392.69608,12.061071,15.11406,105.734665,105.16575,105.4642,105.4879,2.6160274,0.7,-115.928795,-209.72275,0.0025123847,-5.442795,5.476705,4.2941647,4.8202615,4.6239724,2.514571e-09,0.3,1.8724221,89.493095,89.54375,89.5015,89.43944,0.10626115,0.47031248,4.08636474609375,12.565786731243133
12,120000,48.39454019806022,-91.05101,6.5205173e-16,-30.017189,-0.003446553,2.031707,0.0,0.9651293,-6.4927735,333.03668,16.406702,9.832958,105.60178,104.51403,104.8958,104.71322,4.438972,0.7,-110.357796,-344.7081,0.00048690924,-6.0242386,6.9833307,7.1647468,6.831996,7.4432907,1.3201498e-08,0.3,2.0932877,88.95532,88.76282,88.911026,88.75866,0.14256343,0.5140625,3.634826183319092,13.534230117003123
13,130000,53.85474011689709,-89.57527,3.46216e-17,-19.815208,-0.001950389,2.3207738,0.0,0.86907864,0.069327176,232.65576,9.130064,9.899372,105.23502,105.09988,105.69316,105.72522,6.978658,0.7,-113.03296,-303.36295,0.0021627024,-7.3798056,1.6318914,1.3484225,1.3953062,1.5266182,4.8866673e-06,0.3,2.079424,87.450714,87.43533,87.59617,87.799904,0.14629292,0.39687496,4.247517347335815,14.51042952934901
14,140000,59.197883091035195,-90.14074,1.8304944e-18,-46.7979,0.0033628277,1.9745159,0.0,0.79924726,-1.3251288,212.6698,16.241697,7.904857,104.54112,104.796104,105.265945,105.2164,2.929945,0.7,-111.29789,-304.27246,0.0015575346,-7.523647,2.9766684,2.8418355,1.3460205,2.324524,3.3003744e-07,0.3,1.7717196,88.17647,88.500595,88.47887,88.35281,0.07733791,0.43124998,4.44059419631958,15.486720677216848
15,150000,58.622114184764186,-90.90488,9.7188584e-20,-24.716728,-0.002192812,1.9333042,0.0,0.73278874,-6.594364,509.204,20.125622,9.280607,105.09891,104.577,104.999954,104.14395,2.0688627,0.7,-110.385605,-331.18927,0.0009983438,-6.7641926,8.223038,8.413522,8.426098,8.461457,2.799886e-07,0.3,1.9720476,88.79822,88.879486,88.85325,88.900665,0.108444765,0.40937498,4.389442682266235,16.466598947842915
16,160000,59.267788134741,-87.03027,5.1616838e-21,-45.96417,-0.0008976557,2.0831363,0.0,1.2576059,-0.5491071,317.5765,24.872915,10.021883,103.79218,105.98875,105.72297,105.35912,4.7940288,0.7,-111.7834,-426.02014,0.0014109332,-4.957383,2.117867,3.3496144,2.7020216,2.11591,3.4226106e-09,0.3,1.7824445,84.942665,85.80378,85.30185,85.33293,0.1107479,0.5078125,4.476919174194336,17.44633614619573
17,170000,55.84252640685817,-89.356285,2.7440997e-22,-42.76709,-0.0019858035,2.0771244,0.0,1.138274,-7.3330574,503.57062,20.213524,9.883085,105.62079,106.07956,106.06948,105.66596,10.348002,0.7,-112.18402,-309.62234,6.563612e-05,-4.07956,7.029146,7.3089743,7.957834,7.2479324,2.3905887e-08,0.3,1.7361336,87.606705,87.405334,87.888275,87.61714,0.16549301,0.4796875,4.169861078262329,18.420082998275756
18,180000,52.14027355126767,-89.31987,1.458353e-23,-42.173717,0.0028124496,1.9405909,0.0,1.3085918,-0.8768981,365.02405,115.918785,15.615689,106.4536,105.870865,106.32882,105.79561,2.079824,0.7,-116.43254,-459.19583,0.003367641,-3.4943986,2.1038618,0.52297,1.3564771,1.5182619,4.400569e-06,0.3,1.9692885,87.64269,87.21347,87.43616,87.52108,0.08569091,0.3671875,3.7661707401275635,19.38386917511622
19,190000,52.11306056358016,-89.71273,7.7154363e-25,-39.912388,-0.0027926161,2.1500823,0.0,1.7406254,-3.3225133,486.28333,61.39969,10.727756,105.24403,105.66246,106.11409,105.64016,6.777317,0.7,-112.91027,-539.885,0.0007365328,-3.9965506,5.463521,5.09205,5.388382,5.3820934,6.5045316e-07,0.3,1.9571407,87.450455,88.02537,87.80442,87.76233,0.14403191,0.465625,3.8357298374176025,20.353688152631126
20,200000,51.5561218029874,-90.85498,4.0597805e-26,-40.148582,0.0045979084,1.8486073,0.0,1.3403559,0.6966245,324.5708,25.118889,8.599063,104.50796,105.38363,105.45378,105.000565,3.4072454,0.7,-112.09768,-466.45193,0.001377322,-6.6332607,1.0138404,1.126625,1.2891719,1.5440284,2.4258159e-06,0.3,1.8836626,88.98827,88.76143,89.067215,88.98488,0.09811269,0.434375,3.748843193054199,21.322865517934165
21,210000,56.428874834427404,-86.663895,2.1549644e-27,-48.63345,0.002062982,2.3521988,0.0,1.8333554,-1.7791965,461.30524,49.511806,8.075502,105.25798,105.00827,105.63543,105.4739,19.772343,0.7,-110.33265,-404.6562,0.0018469007,-6.362999,3.5202801,3.987896,4.40224,4.4737406,1.4144462e-09,0.3,1.6520684,85.386505,84.68826,85.3371,85.35228,0.19857219,0.378125,4.13812518119812,22.296914382775626
22,220000,58.409885047009645,-91.79016,1.1394348e-28,-34.62074,-0.0022618573,1.81681,0.0,0.97279066,-9.700946,358.6247,23.773115,8.715253,104.32411,104.024994,103.967224,104.09107,5.0257816,0.7,-110.56976,-493.3978,3.6646437e-05,-4.7020206,8.410753,8.327244,11.42934,11.836383,1.6770792e-07,0.3,2.0380752,89.67771,89.49171,89.45645,89.569496,0.13310929,0.45468748,4.279683351516724,23.27385884920756
23,230000,51.15993385782682,-93.36154,6.0260347e-30,-39.096157,-0.00038548262,1.7304789,0.0,1.1192684,0.18691492,354.4152,80.48567,10.636119,104.556984,105.00765,104.88358,104.693825,3.4679878,0.7,-110.93553,-402.80862,0.0024859062,-4.1679287,4.2429214,3.112089,1.3286448,3.4559693,9.077601e-07,0.3,2.201538,91.054825,91.27396,90.968636,91.25627,0.13219734,0.34375,3.7605481147766113,24.242153187592823
24,240000,52.023007664107666,-87.63868,3.1866474e-31,-60.91313,-0.0033103295,1.852608,0.0,0.883445,1.6553595,422.1609,11.721724,8.319909,104.64952,103.55122,104.620834,104.44698,2.193239,0.7,-111.18867,-528.42535,0.007523602,-6.211142,0.96269804,0.4400708,1.4133776,1.5101058,1.774868e-07,0.3,1.8418214,85.86185,85.79564,86.25261,86.09415,0.08619752,0.47968748,3.742018222808838,25.209877049922945
25,250000,52.58452288673774,-90.14345,1.6895185e-32,-54.550636,0.005779551,2.1353655,0.0,0.6602249,-2.2777119,773.198,10.225857,9.21351,105.03134,105.29956,105.38196,104.4056,4.227903,0.7,-110.98122,-567.30927,5.5106182e-05,-5.1954827,3.0968633,4.352666,3.3913498,3.4793334,3.3003744e-07,0.3,1.895959,88.090324,88.23642,88.24948,88.19176,0.11904541,0.43124998,3.8185081481933594,26.18035862048467
26,260000,56.552287048559705,-88.11037,8.941422e-34,-53.646,-0.0060441555,2.0886393,0.0,0.8116124,-2.4725657,588.87646,10.878751,10.607846,105.21264,105.03458,104.77495,104.54282,2.1356006,0.7,-111.050964,-834.1853,0.0008875199,-5.300039,5.4640102,5.015812,4.9244328,4.917378,1.1175871e-09,0.3,2.017384,86.07271,85.8492,85.67969,85.68488,0.07404277,0.49843746,4.151125907897949,27.155102066198985
27,270000,52.5572170946611,-89.63919,4.7031942e-35,-76.53826,0.0037025434,1.9796413,0.0,0.84363544,-5.257596,757.76465,16.537848,11.850855,106.11619,104.972206,105.29911,105.004555,10.162071,0.7,-114.449356,-457.54337,0.00028885622,-2.9256551,6.9685316,6.268212,6.941412,6.266623,9.00065e-08,0.3,1.9854934,87.90425,87.595375,87.78389,87.48912,0.14173341,0.52187496,3.816232681274414,28.126742351055146
28,280000,55.819235504955145,-87.282326,2.4989045e-36,-74.95238,0.00071620086,2.350092,0.0,1.2613761,-0.31136364,737.86487,29.447021,12.419657,104.998405,103.60463,104.294586,104.6728,3.0990212,0.7,-109.84671,-660.0073,0.000760032,-5.1839886,1.213563,4.435018,1.3624698,1.9075778,1.0430813e-08,0.3,1.7939482,85.548676,85.433914,85.247665,85.26524,0.11496417,0.48125,4.153432369232178,29.09893488883972
29,290000,52.19565430694891,-89.48839,1.3271016e-37,-76.186646,-0.0015412398,1.7301925,0.0,0.8140914,-1.0664017,990.2707,24.94474,9.544859,104.61687,104.56483,105.11066,104.607666,7.794687,0.7,-111.08808,-741.03,0.0067515094,-3.0533226,4.827475,2.9535286,4.151107,4.1542907,4.9794794e-06,0.3,1.9254003,87.35268,87.73749,87.67201,87.72676,0.08820686,0.3875,3.788760185241699,30.04104628165563
30,300000,56.996965626345556,-87.794014,7.01789e-39,-82.27001,2.4652481e-05,1.6032375,0.0,0.8008956,-0.43652225,616.5976,10.090761,9.446831,106.08265,104.36749,105.221245,105.300644,2.5443752,0.7,-111.515564,-897.2068,0.010797171,-5.799461,3.0508416,1.9171077,2.2668755,2.7565525,1.5196566e-06,0.3,1.9795907,86.17383,85.65273,85.84717,85.84653,0.07601373,0.4875,4.19302773475647,30.993875920772552
31,310000,52.03269505598824,-89.3806,3.72801e-40,-87.205345,0.0028958414,1.8473679,0.0,1.1783538,0.8894744,573.1771,81.803696,8.586873,105.008354,104.844345,104.828255,105.24722,17.322584,0.7,-110.867455,-769.455,0.00010546483,-4.4545965,1.2940674,1.1376102,1.1582923,2.0394425,4.6395581e-07,0.3,1.9658146,87.28894,87.58145,87.571335,87.588036,0.16247489,0.4140625,3.70212721824646,31.962735748291017
32,320000,55.647993479322146,-89.282326,1.9737e-41,-74.47388,-0.0019902883,1.7530994,0.0,1.0165236,-1.6708552,496.62296,33.265564,8.750178,103.83663,104.475365,104.36763,103.69697,12.617936,0.7,-109.35406,-686.5863,0.003303233,-3.3930128,3.2383,2.6192234,1.9713011,2.1477432,9.74412e-06,0.3,2.1818027,87.104256,87.092026,86.83034,86.77357,0.16018027,0.60625,4.0226616859436035,32.93593821525574
33,330000,45.88367401493396,-88.06166,1.05e-42,-68.74181,0.0012025156,1.91512,0.0,0.8552641,-1.2316849,1798.3756,15.181023,14.903968,105.67805,104.766075,104.98518,104.49009,2.73133,0.7,-111.77901,-515.97186,0.0060456125,-3.6658409,2.647853,3.9897134,2.8272634,3.0632637,5.286886e-07,0.3,2.1473098,86.041336,85.95708,85.74727,85.80724,0.06970291,0.43124998,3.368809700012207,33.89531014362971
34,340000,45.79503161760493,-89.7204,5.6e-44,-65.87887,-0.0076085567,2.2225094,0.0,0.85357356,-1.6916795,668.473,21.951962,8.445158,104.89395,104.78769,104.450386,103.94133,1.9285561,0.7,-110.623535,-656.9967,0.0018590749,-8.041913,2.7763684,4.206791,3.0043533,2.6546454,5.784212e-07,0.3,2.1776853,87.49533,87.26465,87.455414,87.26721,0.09165816,0.47968748,3.2739500999450684,34.85576579968134
35,350000,49.35604611351852,-87.35748,3e-45,-90.81574,-0.00219124,1.803996,0.0,0.651085,-7.509797,697.232,7.718256,8.813769,104.05781,104.0098,104.482895,103.89498,2.5079432,0.7,-109.549576,-649.6511,0.0011738609,-4.6912713,7.675176,7.0222764,7.0909204,7.199242,1.5973811e-06,0.3,1.8923051,85.454834,85.30036,85.46569,85.32347,0.09732469,0.48125,3.5883665084838867,35.822821243604025
36,360000,60.02402299539496,-87.00226,0.0,-90.723755,0.004262795,1.7576245,0.0,1.2404224,0.91349375,850.2591,25.648933,10.408508,104.13235,104.09534,104.54401,104.756386,2.8621693,0.7,-109.91232,-684.2381,0.0007605935,-5.6563473,1.0340356,1.6966152,1.4084358,0.9683434,1.6770792e-07,0.3,1.7540373,85.159935,85.55432,85.60091,85.40405,0.114013255,0.46875,4.293445348739624,36.797751887639365
37,370000,47.11377403876627,-89.99991,0.0,-84.71823,-0.0036814597,1.8318936,0.0,1.2536031,-4.331566,664.2407,56.36811,9.285498,103.67201,103.498474,104.352936,103.33751,2.7668278,0.7,-111.487206,-797.4362,0.0010643599,-8.03858,5.001754,4.933211,4.2656083,4.221136,3.1553208e-07,0.3,2.1962848,87.78964,87.76898,87.557175,87.61666,0.119536445,0.52656245,3.498116970062256,37.76252154111862
38,380000,52.25126048025053,-89.7281,0.0,-80.51011,-0.004676527,1.9192208,0.0,1.7043272,0.5263783,641.4018,27.794163,7.920308,104.39989,104.539246,104.55309,104.20098,1.2856581,0.7,-109.372475,-926.8707,0.0017679255,-6.0592585,1.5089089,0.93154186,1.282063,0.98221755,1.2448698e-06,0.3,2.0218701,87.71333,87.64175,87.16246,87.30731,0.08273064,0.52812505,3.765699625015259,38.73530792395274
39,390000,52.18342611061956,-88.147934,0.0,-96.19949,-0.001897539,1.8021412,0.0,1.0126278,-1.8341718,661.2945,28.528378,9.438243,102.871544,102.79058,104.35322,103.31224,5.099932,0.7,-109.298004,-1104.6362,0.00060973794,-4.078985,2.106235,3.1609507,1.4571117,3.5374846,1.1175871e-09,0.3,1.9141288,86.2286,86.164,86.38681,86.43479,0.116237395,0.36874998,3.8175151348114014,39.70848154624303
40,400000,53.7521466534251,-86.84923,0.0,-96.24533,-0.001027833,1.7010247,0.0,0.9797208,-1.8456078,806.2435,80.58197,8.759616,104.15287,104.58409,104.63127,104.41301,3.980179,0.7,-110.937614,-846.5269,0.0020873512,-6.556121,3.625603,2.5612562,2.5388842,2.6920352,5.657785e-09,0.3,1.9408138,85.09735,84.72814,84.84621,84.94026,0.07677007,0.44374996,3.8728463649749756,40.68080806334813
41,410000,53.02310741053646,-87.15574,0.0,-133.5065,-0.004128245,2.0919945,0.0,0.8333802,0.24318814,716.01953,15.922706,10.567965,103.62801,104.12699,104.2282,104.534966,4.2887325,0.7,-111.99791,-910.8286,4.4805056e-05,-4.097115,1.0877676,0.032788396,1.0406848,0.072518826,6.9849193e-07,0.3,1.8420432,85.19319,85.48448,85.304,85.40092,0.12676294,0.4484375,3.87919282913208,41.65344562927882
42,420000,52.686819947958504,-88.24965,0.0,-120.549034,-0.0052420623,2.2502744,0.0,1.2179902,-2.891732,794.09595,15.449093,10.75112,105.12758,103.857895,105.06266,104.18089,3.2990758,0.7,-109.64516,-1041.3329,0.0047185835,-3.8384266,4.8714485,3.603906,4.7838073,4.3195925,6.078626e-08,0.3,1.8967042,86.74549,85.995865,86.58203,86.254364,0.12340912,0.5140625,4.282302141189575,42.633701014518735
43,430000,50.686116164561426,-89.57541,0.0,-84.6066,0.0045446013,1.5449276,0.0,0.9366716,-2.9485672,834.1189,63.798553,10.609703,104.187996,105.00413,104.25264,104.414604,1.8986225,0.7,-112.5572,-1031.1775,0.00032803306,-4.993202,5.623675,4.154758,3.928071,3.7237144,7.1874815e-08,0.3,2.1615968,87.31175,87.40776,87.30996,87.29106,0.08790314,0.5046875,3.8019957542419434,43.60685223340988
44,440000,56.10154158735568,-88.12999,0.0,-91.62085,0.0045272415,1.9658066,0.0,1.2856706,1.0461676,816.1998,27.114496,10.2509165,105.15957,104.671265,104.391,104.48939,6.6179066,0.7,-110.1428,-893.82074,0.0016776067,-4.226022,4.6943297,3.2188346,2.8761795,2.946121,2.6077032e-07,0.3,1.9592363,86.61564,85.91734,86.40887,86.39531,0.12694582,0.41875,4.267642259597778,44.58414647976557
45,450000,54.724378075741484,-88.27641,0.0,-95.36673,-0.00029247292,2.0111966,0.0,1.4188522,-5.319963,1555.7515,25.926577,14.593734,104.56025,103.6042,104.24518,104.02651,4.740496,0.7,-110.81403,-859.19543,0.010056516,-5.908948,6.980858,6.404628,6.3797455,6.247698,2.0368026e-07,0.3,1.8821002,86.806656,86.29742,86.209694,86.35136,0.11554907,0.47187498,4.499256372451782,45.5670858780543
46,460000,48.58437884145518,-86.70857,0.0,-120.19019,0.00012512766,2.1497865,0.0,0.7656537,0.042315364,1477.154,15.872467,8.972847,103.58233,103.47443,104.071175,103.61422,15.42757,0.7,-109.886925,-1094.1552,1.4344696e-06,-8.391135,0.69271445,0.78342474,1.3122947,0.75710136,9.808399e-07,0.3,1.9317871,84.63223,84.46687,84.79101,84.6987,0.14507276,0.44374996,3.667480945587158,46.5375005086263
47,470000,55.9794625148789,-88.34212,0.0,-104.8675,-0.0055104964,1.8821703,0.0,1.2173635,1.889679,1082.249,98.73993,9.615422,103.581726,103.95752,104.01773,103.93443,11.823464,0.7,-110.48849,-1130.9487,0.00023563864,-7.008214,3.2530432,3.846496,4.5489407,3.9855423,2.0664186e-06,0.3,2.0863175,86.130356,85.74761,86.091866,86.063934,0.18505111,0.35468748,4.262774705886841,47.51291187206904
48,480000,52.535625873640925,-89.52911,0.0,-41.591305,-0.0032922036,2.1823108,0.0,0.992494,-1.3400726,919.878,20.132057,8.645469,104.44742,103.68282,103.36363,103.74978,5.6460423,0.7,-110.0791,-1080.3413,0.00044630386,-3.7555056,5.2181473,4.3959994,2.9439092,3.504233,2.6077032e-09,0.3,2.3529637,87.15036,87.03162,86.79881,86.82286,0.122540474,0.48281252,4.27320671081543,48.48627752860387
49,490000,50.15923346171234,-87.46698,0.0,-144.65775,-0.002910177,1.4967643,0.0,0.8934757,-0.57008886,735.52344,24.545471,8.974228,104.215836,104.45632,104.33045,104.06279,4.421299,0.7,-112.76135,-1287.4906,0.0030359544,-4.205613,2.599534,2.7279096,3.2053432,2.8780646,8.214306e-06,0.3,1.9752121,85.64128,85.595856,85.69612,85.502426,0.07710251,0.490625,3.662724256515503,49.45336037476857
50,500000,49.96896149840362,-86.86308,0.0,-146.70917,-0.0028393571,1.9435179,0.0,0.5404091,-9.006709,863.7539,10.275434,9.260709,103.568954,104.36154,104.40432,104.205376,3.7938178,0.7,-112.82735,-991.9633,0.0004960988,-4.079415,8.793327,9.406459,9.268314,8.9346285,2.0136724e-05,0.3,1.7849405,85.16948,85.10096,85.062386,85.13348,0.08660266,0.375,3.6872613430023193,50.42229529619217
51,510000,52.72768036790304,-88.44072,0.0,-129.67108,-0.0019915446,1.9813515,0.0,1.0066377,1.8235345,1288.7792,46.935562,9.945659,104.42679,103.79279,103.85413,103.7887,3.3582032,0.7,-110.94468,-1123.5371,0.0002669547,-4.4381094,-1.2272081,-1.0257311,1.2600541,-0.49041164,6.164366e-07,0.3,2.070315,86.328674,86.14163,86.21679,86.22609,0.08853687,0.475,4.0472517013549805,51.397707895437875
52,520000,47.95738990279474,-87.32324,0.0,-127.43841,-0.0061282,2.0959725,0.0,1.3700411,-0.27466583,1404.7113,79.15772,10.052406,102.6267,103.2332,103.479095,102.72208,18.925053,0.7,-113.08783,-1125.4678,0.0025906626,-6.223656,2.2950227,1.5355375,1.3646091,1.7476021,9.562355e-08,0.3,1.8748479,85.59918,85.17114,85.71197,85.70407,0.29898453,0.39375,3.5504345893859863,52.36241370042165
53,530000,52.72887413894056,-88.17555,0.0,-118.81816,-0.0038169406,1.8962307,0.0,1.2496598,-5.550322,942.5454,39.749992,12.063778,103.13199,104.60385,103.76996,103.6911,2.3674936,0.7,-111.41464,-850.0691,0.0063426383,-8.667446,6.3405633,8.254866,7.100575,7.5016265,7.1874815e-08,0.3,1.9912004,85.848564,86.634415,86.04958,86.15508,0.095001005,0.465625,3.8781917095184326,53.336982027689615
54,540000,53.30936727808773,-88.716125,0.0,-162.39095,-0.00045936182,1.9197518,0.0,0.76937103,0.24391258,975.1282,21.296108,8.527862,104.53908,102.785484,103.98833,103.83259,1.1208478,0.7,-109.6945,-1154.1982,0.00010422082,-4.02851,1.4405056,0.3457855,1.3899044,2.2402074,1.2542122e-06,0.3,2.0314722,86.9254,86.72009,86.8534,86.86557,0.05926125,0.40468746,3.863163948059082,54.31018038590749
55,550000,50.36048827568389,-88.38602,0.0,-125.74039,-0.005260472,2.1518018,0.0,1.0084407,2.469878,1218.0303,37.62913,10.280142,102.894806,103.25229,103.82853,103.47651,7.912398,0.7,-109.49199,-1089.6588,0.0006086626,-3.2390177,0.65801257,1.0801713,1.2194321,0.014255881,6.885966e-09,0.3,2.210515,86.39929,85.92056,86.132675,86.10244,0.12180347,0.5,3.6634817123413086,55.27754811048508
56,560000,59.39504315360775,-86.18668,0.0,-166.72278,0.0031534915,1.7283833,0.0,1.0988553,-2.923011,1480.7004,13.666513,8.828781,103.565865,104.707726,103.85876,103.95929,2.422509,0.7,-110.72833,-1134.263,0.010369151,-3.289984,3.88594,3.631483,3.9504876,3.6263556,1.466833e-09,0.3,1.8966477,84.03306,84.98216,84.59615,84.50238,0.06720041,0.49687502,4.337808132171631,56.25801403919856
57,570000,48.093286382465024,-87.99598,0.0,-137.58269,-0.00029012357,2.1929433,0.0,0.93976223,0.856169,1165.3468,25.09394,9.681121,103.729324,104.28639,104.15709,104.17103,23.475822,0.7,-111.75394,-1472.8917,0.0025389183,-5.451928,3.015902,2.378117,2.9174,2.926108,5.2823456e-08,0.3,1.7974598,85.9987,86.02721,86.17612,86.15534,0.20143867,0.475,3.5786845684051514,57.229574938615166
58,580000,51.45736677137576,-87.216675,0.0,-133.57903,0.009385247,2.167041,0.0,1.3660961,-3.3172765,1087.9762,66.59986,8.864284,104.30513,103.65735,103.80126,104.323616,11.095146,0.7,-110.48676,-1003.5073,0.00042849605,-4.9135895,6.6644387,6.764852,6.4392653,6.7949123,4.5063907e-06,0.3,1.916548,85.42764,85.09874,85.23695,85.53471,0.16804674,0.34375,3.7887256145477295,58.20490537881851
59,590000,52.60103975435592,-86.50362,0.0,-157.2754,-0.0032346898,1.9036112,0.0,0.83972085,-0.3778677,1357.5084,14.446376,8.878439,104.09447,103.58709,103.87128,103.69216,3.4756832,0.7,-109.99527,-1491.7513,3.797107e-05,-5.0257874,2.4032097,2.7369537,2.5663009,2.53296,6.357295e-08,0.3,1.7652512,84.69575,84.85445,84.69866,84.74414,0.083701745,0.45,3.8700215816497803,59.17808004617691
60,600000,50.296323214386305,-87.45096,0.0,-153.14195,0.0023428954,1.9306277,0.0,0.7741257,-0.19066668,1116.14,31.274298,9.866112,104.216515,104.04173,104.19364,103.75051,3.4534662,0.7,-113.21623,-1544.6152,0.0015245893,-4.498893,4.1518383,3.2951388,4.062977,4.05925,7.77439e-07,0.3,1.7827101,85.53575,85.53377,85.64975,85.62616,0.07676007,0.43124998,3.6936445236206055,60.1477656006813
61,610000,54.08441454050005,-87.4509,0.0,-147.86044,0.0003121894,2.3038137,0.0,1.1113238,-2.125877,1349.1951,35.482117,9.155603,104.22653,103.78442,104.624344,104.68137,4.884451,0.7,-110.77654,-1482.5023,0.0027521728,-5.222873,3.0399053,2.7622378,2.5504804,2.8928118,7.700874e-09,0.3,1.778815,85.46985,85.58417,85.63672,85.70417,0.16324668,0.39999998,3.9426698684692383,61.1227085351944
62,620000,55.82962578194515,-88.354385,0.0,-51.460144,0.00022025743,2.0456226,0.0,0.88708925,1.6693044,2273.8909,16.03516,13.7992525,104.56016,104.09488,104.10339,103.57514,7.3912435,0.7,-112.239914,-1161.3956,0.0014094473,-4.7270255,0.76996803,0.9894952,1.3027017,0.90913063,3.929017e-09,0.3,2.174952,85.94979,85.99486,85.87944,85.81373,0.1707428,0.471875,4.131936073303223,62.09898682037989
63,630000,49.34083223403671,-86.90645,0.0,-179.49475,0.0021851268,1.7557453,0.0,0.6802145,-4.327668,1248.9818,15.173893,8.622769,103.91591,104.23821,104.190216,104.29266,1.23671,0.7,-109.43843,-1326.4514,0.0023751531,-4.728089,6.3615103,4.9108534,4.9572344,5.236828,1.5821017e-06,0.3,1.9253845,84.96689,84.888824,84.71227,84.85228,0.06099197,0.434375,3.6254422664642334,63.06358760197957
64,640000,51.77492301832678,-88.51715,0.0,-121.037674,-0.0068108314,2.1764145,0.0,1.118071,-1.6580447,1374.4247,13.898796,13.165588,104.41426,103.1222,103.97832,103.7302,3.076697,0.7,-110.52082,-1122.4385,0.0016837986,-6.856236,4.862985,3.1425307,4.274088,3.8779378,1.290976e-06,0.3,2.2317846,86.77643,86.00367,86.653625,86.445724,0.08366743,0.4453125,3.920121908187866,64.0305593252182
65,650000,53.62051165161481,-87.28934,0.0,-128.43929,-0.0023396078,1.8028605,0.0,0.6875851,0.64838374,1296.4512,17.880207,10.564025,103.18912,103.84275,103.44189,103.671844,6.9073844,0.7,-110.943405,-1374.1185,0.0001827961,-4.6986628,0.65376794,0.708166,1.2239118,1.5905876,6.5718194e-07,0.3,2.1811075,84.993004,85.18674,84.99984,84.94093,0.10001992,0.465625,3.960810422897339,64.99739489952724
66,660000,55.38294530641195,-87.67082,0.0,-208.64314,0.0030387957,1.9111184,0.0,1.455966,-2.942969,1263.4459,64.78529,8.301887,103.77413,104.82892,103.93053,103.90458,2.9687555,0.7,-111.57118,-1526.8733,0.0020560299,-11.3554735,6.3044806,4.876208,5.0558867,5.1425653,3.277499e-07,0.3,1.5807735,85.99662,86.37292,86.063286,86.06337,0.121102065,0.46406248,4.297584533691406,65.97134504318237
67,670000,50.31138044046182,-89.83612,0.0,-145.90424,0.001217898,1.8558699,0.0,1.124878,-10.670772,2170.7185,36.357407,9.805547,103.56146,104.815254,104.084175,103.38281,4.375639,0.7,-109.826126,-1588.3562,0.00051703793,-5.0618057,12.456242,12.527695,13.273448,12.774094,2.0539737e-07,0.3,1.8972888,87.60469,87.807396,87.69696,87.56822,0.11918961,0.5234375,4.125592947006226,66.94024925231933
68,680000,49.5625535795747,-87.93788,0.0,-203.53674,-0.0023809855,1.8027451,0.0,0.8031041,-3.5807934,1363.475,13.220954,8.493791,104.28908,103.35146,103.601,103.66558,3.880486,0.7,-110.696,-1863.1327,0.00026298512,-4.465082,4.0546646,2.720363,3.4466176,3.0846999,4.7218055e-08,0.3,1.8860803,86.21965,85.7917,85.912674,85.95253,0.103642024,0.4765625,3.845449924468994,67.9087540547053
69,690000,52.70551719259006,-88.20115,0.0,-136.4502,0.0025205058,1.6745892,0.0,0.74160844,-0.2247088,1306.7389,10.293856,8.946938,104.543175,104.15741,104.496445,104.24852,15.392629,0.7,-113.22298,-1644.8654,0.0026735887,-6.580548,3.296691,1.9346657,3.0685189,3.4796023,5.673384e-07,0.3,1.9350315,86.60869,86.18916,86.36046,86.41643,0.1341058,0.40156248,3.916828155517578,68.88080874681472
70,700000,49.61264335916604,-87.08595,0.0,-203.46577,-0.00039039142,1.6346419,0.0,0.59180003,0.27551478,1309.1986,8.976158,8.371437,103.26494,103.848495,103.97991,103.805855,4.0219626,0.7,-109.42491,-1456.103,0.0014790383,-3.1512952,0.63642925,-0.21129352,1.1361967,0.64134884,2.6833268e-06,0.3,1.9376895,85.0491,85.20322,85.33198,85.27098,0.08194533,0.4265625,3.8019814491271973,69.84918458461762
71,710000,48.5323158569434,-88.50104,0.0,-153.7988,-0.004360309,1.9903669,0.0,1.0108808,0.49207163,2007.0448,11.890078,8.633618,104.70926,104.69218,104.37867,104.39016,1.3760941,0.7,-111.05648,-1412.7488,0.0009987243,-4.285454,6.062286,3.0983818,3.4983654,3.651509,5.340128e-06,0.3,2.0384417,86.753845,86.37742,86.37424,86.43221,0.07737917,0.46249998,3.6876790523529053,70.8147611896197
72,720000,48.44359727003666,-85.0673,0.0,-125.46108,0.0025420007,2.3101437,0.0,1.3767674,-4.215328,1327.2517,34.677956,10.166555,103.670525,104.67647,104.260574,104.24773,19.357334,0.7,-111.19188,-1420.4569,0.015061719,-4.8422623,1.7894032,3.5413074,2.156497,2.9023108,3.929017e-09,0.3,2.1542292,82.587845,83.573135,83.17547,83.241875,0.20000795,0.403125,3.6676223278045654,71.7845424413681
73,730000,51.96285914608705,-90.08516,0.0,-182.12274,0.0013136037,2.0188186,0.0,0.9478471,-2.47797,1484.3661,25.834084,9.628996,103.126816,104.01438,104.03042,103.48967,10.370776,0.7,-108.969765,-1839.7792,0.0014809526,-7.3248987,4.1587462,5.3291917,4.679901,4.320554,4.960847e-06,0.3,2.2455213,87.606476,88.019806,87.74313,87.879105,0.13337418,0.428125,3.8107564449310303,72.75805519421895
74,740000,52.81716044903043,-86.3723,0.0,-192.42175,-2.7499535e-05,1.7140816,0.0,0.62973,1.839813,1574.2742,26.793951,9.3384905,104.22521,104.4602,103.99859,104.085625,3.4110684,0.7,-112.66283,-1844.9656,0.00010657322,-5.2977095,1.323694,0.95341045,1.3299023,0.7918431,2.7939678e-10,0.3,1.8192196,84.37778,84.542114,84.33803,84.41649,0.08428806,0.4375,3.8856873512268066,73.72950230439504
75,750000,55.83387656681741,-87.18016,0.0,-230.071,-0.0030903218,1.9143727,0.0,0.657125,-3.6723256,1425.8889,48.016987,9.559736,103.185196,103.18308,102.86143,102.719185,8.075684,0.7,-109.77777,-1202.7001,6.7225716e-05,-4.316835,6.1453276,6.1189284,5.95131,5.7834992,6.5045316e-07,0.3,2.0153751,85.116165,85.105644,85.22118,85.26808,0.12007688,0.4140625,4.102583169937134,74.70670421918233
76,760000,55.453463840935015,-91.51492,0.0,-176.95262,-0.005280403,1.800126,0.0,1.1482286,-3.5072086,1644.8726,14.4295435,14.820658,103.526405,104.50233,104.178665,104.27907,3.5169804,0.7,-112.22841,-1568.0376,0.0031796708,-3.5230043,3.1442392,4.3882556,3.7467403,3.7617188,3.6670825e-10,0.3,2.2255101,89.06342,89.9015,89.47363,89.49258,0.080564365,0.4578125,4.118813753128052,75.67965218226115
77,770000,49.56824113779938,-89.347664,0.0,-140.6345,-0.0066826977,1.8206586,0.0,0.5074594,-0.10034561,1547.6893,8.507194,8.870523,103.469086,103.454895,103.38174,103.49386,2.4772465,0.7,-109.84289,-1814.3988,0.0007410387,-5.499252,1.9503493,2.1650157,1.3249569,2.3908885,5.3788244e-06,0.3,2.1411638,87.13808,87.09004,87.051125,86.97371,0.0784727,0.53125,3.6284122467041016,76.64687142372131
78,780000,51.069611885062216,-89.60651,0.0,-186.18655,0.0009360578,1.6565644,0.0,1.1128216,1.0079038,1878.9291,112.35073,9.956055,104.12819,103.996056,104.4576,104.19662,1.3450556,0.7,-112.30267,-1496.2383,0.0030415505,-3.4888701,0.54609084,1.4967616,1.3053716,1.2244232,1.18813475e-07,0.3,2.253807,87.41974,87.45078,87.50115,87.43376,0.05547426,0.425,3.669902801513672,77.61434460481009
79,790000,50.993653030300536,-87.24066,0.0,-184.24132,-0.002181809,1.7596674,0.0,0.7096022,-4.582861,1681.7343,33.18293,9.032564,104.00448,103.494774,104.16453,103.599365,3.2205846,0.7,-111.0792,-2127.9836,0.00053229276,-4.0448,6.0208564,6.0654845,5.84332,5.963453,3.6670826e-08,0.3,2.081862,84.94052,85.201645,85.10095,85.16832,0.081943974,0.48125002,3.6749870777130127,78.58237241506576
80,800000,56.225166809260266,-88.29817,0.0,-172.59595,-0.002148067,1.8412762,0.0,0.8996929,-0.9646132,1600.3387,21.059547,7.2262974,104.590904,103.72769,103.827545,103.64279,6.1531463,0.7,-109.90726,-1492.7134,0.0010512143,-3.321688,0.79100436,0.6123569,1.4578377,1.5449972,2.514571e-09,0.3,2.0114403,86.083565,86.32547,86.27217,86.331024,0.12157421,0.4140625,4.13019585609436,79.55741274754206
81,810000,49.772705986639735,-87.844894,0.0,-163.81746,1.3055093e-05,2.1778219,0.0,0.8028105,0.31682038,1556.7057,38.19842,9.151245,103.25741,103.20299,103.91495,103.02837,2.1949315,0.7,-110.772415,-1464.7924,0.0003225659,-6.3172092,1.1881185,1.4727335,1.4184593,1.4445267,4.0344895e-07,0.3,1.9496772,85.777855,85.956245,85.917755,85.782814,0.062411137,0.49531248,3.7204906940460205,80.52434985637665
82,820000,52.896113224960416,-87.92426,0.0,-178.07356,-0.0048520206,1.8738571,0.0,0.91717374,-0.7757193,1954.5521,27.295053,8.319557,104.18118,103.89495,104.34551,104.08994,6.744745,0.7,-110.70053,-1677.0068,0.0037178549,-5.9694357,2.022679,1.409687,2.1580043,1.5024128,6.1973694e-08,0.3,2.0516815,85.779236,85.85357,85.96964,85.89073,0.1469979,0.459375,3.853821039199829,81.49220544099808
83,830000,53.05721122076776,-88.18507,0.0,-182.55246,-0.001304014,1.7755787,0.0,0.7396779,-5.429719,1612.3354,13.416196,9.347129,103.66548,103.680824,103.97106,103.67068,4.8404717,0.7,-109.038086,-1776.3596,0.00076154724,-5.5905676,5.303893,5.176827,5.33348,4.768024,1.5161349e-07,0.3,2.0177097,86.0564,86.06851,86.11934,85.764175,0.13636784,0.63124996,3.900380849838257,82.45805199146271
84,840000,50.12451245680629,-88.42224,0.0,-213.04219,0.0072094323,1.9265423,0.0,0.93099445,-0.68970096,1838.3782,33.86543,9.5204315,103.276276,104.1052,103.6072,103.72211,1.4094336,0.7,-108.685776,-1762.1912,0.0015557674,-3.3993597,1.7863121,3.528036,1.6938831,2.2438817,1.1175871e-09,0.3,1.9824183,86.12381,86.60912,86.348175,86.37494,0.055966455,0.4296875,3.6704869270324707,83.42745071252187
85,850000,50.46103581643157,-89.10062,0.0,-175.96175,0.0026000233,2.1420436,0.0,1.3191961,1.4578737,1474.3958,77.38063,8.514785,104.486465,103.63993,104.67692,103.906975,7.9125433,0.7,-111.80691,-1774.5569,0.001169126,-4.671877,2.4193897,0.81763256,1.364353,2.1134663,4.5063907e-06,0.3,1.9998558,86.98513,86.91463,87.109344,86.98436,0.15700412,0.41562498,3.7182087898254395,84.3933990518252
86,860000,49.87544356025742,-90.13436,0.0,-162.20131,-0.00077095965,1.6166575,0.0,0.7314434,-0.27899575,2754.2522,24.094547,8.862686,104.034645,103.82195,104.46776,104.04249,3.0778732,0.7,-112.50538,-2603.8284,0.0011551242,-4.4039993,1.4533613,1.380811,1.3734434,1.1767669,2.9641205e-06,0.3,2.2930398,87.7884,88.016815,87.88463,87.910736,0.06498732,0.41562498,3.703639268875122,85.35610769987106
87,870000,49.62784724491633,-88.76651,0.0,-164.96677,-0.0039071026,1.8699627,0.0,0.83576787,-2.6581342,1515.3646,18.482477,8.666025,104.67883,104.08419,103.89788,103.965645,5.2368617,0.7,-109.88424,-1976.8601,0.0022232835,-5.300224,2.5056508,2.6778736,2.487047,3.166661,1.4991209e-06,0.3,1.8545266,87.06875,86.672516,86.705215,86.89495,0.10311778,0.40937495,3.6712512969970703,86.32407690684
88,880000,51.41722480515819,-88.08438,0.0,-204.38316,-0.0069353143,2.1432812,0.0,0.9018816,-7.818146,1762.7137,23.546803,10.284272,103.39151,103.91707,103.84533,103.76401,5.042058,0.7,-111.22109,-1673.1157,0.0002163878,-5.2002954,9.317965,8.537212,9.061513,9.291543,4.752539e-07,0.3,2.1426585,85.85606,85.770615,85.80832,85.94935,0.11436896,0.3984375,3.7867231369018555,87.29455853303274
89,890000,59.03612549510879,-85.880005,0.0,-196.76767,0.00073063,1.788665,0.0,1.0752968,1.1439369,1780.6509,18.1086,13.029472,104.448586,103.87329,104.90926,104.65087,2.592425,0.7,-110.81543,-1752.4316,0.0004473899,-3.8240297,-0.017523289,-0.08198118,1.4505475,0.28522015,9.167707e-09,0.3,2.1577592,83.790726,83.60691,83.925446,83.820984,0.089685224,0.43125,4.257574796676636,88.27363391717275
90,900000,52.27669554188946,-89.117645,0.0,-201.75409,-0.005985584,1.6720494,0.0,1.0493441,-7.7844577,2394.3438,53.073757,11.442473,103.94747,103.47904,103.95413,103.63917,14.5376835,0.7,-110.952934,-2435.7676,0.0019382436,-5.2870383,8.603483,9.266662,8.454609,8.384615,6.9307866e-08,0.3,1.7638847,87.30902,87.320076,87.43794,87.48642,0.15687135,0.425,3.9151065349578857,89.24330518245696
91,910000,49.880459959457234,-89.888824,0.0,-178.85593,-0.0009164622,1.751223,0.0,0.68593436,-1.0735593,1399.9629,18.54577,9.388374,104.67504,104.56011,104.8483,104.72549,5.0007067,0.7,-113.82445,-2380.1628,0.0013842221,-3.917286,2.3561616,2.3717957,2.5489173,2.483507,2.1391315e-06,0.3,2.1086235,87.572174,87.71817,87.557755,87.65978,0.107297145,0.403125,3.733945369720459,90.21269427537918
92,920000,51.46586255195411,-85.863846,0.0,-204.4618,-0.000862984,1.966197,0.0,0.9347396,-3.49646,2402.9258,22.155815,8.3334875,104.026665,102.95255,103.5981,103.596565,4.724582,0.7,-109.38307,-2083.2524,0.001057067,-4.1726274,4.353889,4.9257083,4.7655187,4.9003825,2.263114e-08,0.3,1.8752171,83.896736,83.83302,83.68989,83.91665,0.10929028,0.39218748,3.7795372009277344,91.17688866058985
93,930000,48.783279960021616,-88.51164,0.0,-157.42902,-0.00045314975,2.03917,0.0,1.2522156,-1.2800372,1893.1918,94.742584,9.105175,104.244415,103.99638,103.61892,103.76437,23.041418,0.7,-110.83516,-1900.9065,0.0020671312,-3.5809746,2.0133295,3.0764918,0.08256483,2.184256,1.4709076e-06,0.3,2.3057764,86.25676,86.217094,85.91686,86.09425,0.2012232,0.496875,3.638378381729126,92.14258534510931
94,940000,53.44689698737292,-88.15021,0.0,-203.04639,0.00020165966,1.6764168,0.0,0.78807604,-3.5094237,1997.3147,30.196049,9.9745,104.44493,104.63815,104.24585,104.28393,2.259556,0.7,-113.09804,-1611.3711,0.0006650673,-3.9958959,4.918643,4.5338845,4.492863,4.732382,1.08982206e-07,0.3,2.0818753,86.11774,86.05144,85.884766,85.94765,0.08852139,0.4875,3.895249128341675,93.11134097178777
95,950000,55.50233321563266,-89.494,0.0,-179.09488,-0.001303331,1.7889656,0.0,0.7010878,-5.2247186,1972.0415,12.210591,9.363556,105.1104,104.030815,104.37722,104.18029,3.2657979,0.7,-111.364914,-1974.6852,0.0011639595,-8.161104,7.5488205,7.188454,7.095416,7.119993,1.1804514e-08,0.3,2.0711076,87.4149,87.407814,87.33866,87.29118,0.09550324,0.49374998,4.085505962371826,94.08410193125407
96,955000,54.59615105768918,-90.46601,0.0,-196.46469,0.0007480338,1.619428,0.0,0.7748083,-2.000302,2884.6045,13.603348,8.606874,104.457375,103.40404,104.62428,104.25177,5.4794316,0.7,-108.795975,-1937.9215,0.0029198292,-3.7195468,2.5055616,2.5299594,3.216777,2.8648736,8.5565266e-10,0.3,2.1756716,88.27254,88.259964,88.36978,88.22885,0.06860036,0.4546875,4.034849643707275,94.60279935598373
97,960000,56.419102180589555,-87.53912,0.0,-170.35971,0.00263183,1.98137,0.0,0.9171026,-1.9635637,1816.3186,19.235302,9.465289,104.070305,104.2246,104.281944,104.13921,2.7593892,0.7,-111.69207,-1852.6677,0.00044897018,-5.8641043,3.8734279,4.267761,3.4683583,3.0389981,1.0481745e-06,0.3,2.1758766,85.49468,85.23294,85.370605,85.18041,0.08729792,0.5390625,4.027165412902832,95.1223533153534
98,965000,52.34750737217819,-89.74048,0.0,-157.77853,-0.0035590236,1.9296917,0.0,0.6501722,-0.8621644,3090.456,13.205454,10.47119,103.94337,104.19151,103.44025,103.66496,3.5724182,0.7,-112.5832,-2224.4932,0.0019120632,-5.7752876,2.3215573,2.2739234,2.1873283,1.9707143,6.325147e-06,0.3,2.0893245,87.56021,87.71979,87.6897,87.67608,0.07048774,0.45937496,4.090026617050171,95.64186021486918
99,970000,58.01896319062648,-88.51486,0.0,-253.53659,0.001632072,2.1332707,0.0,0.6814446,1.8755935,5126.0327,9.044152,9.632444,104.5398,104.835754,104.85677,104.794334,7.6200533,0.7,-112.093796,-2017.5707,0.0013351454,-3.8596303,0.78006685,0.640283,1.266979,0.2708267,1.6244304e-06,0.3,2.206013,86.34313,86.33498,86.28314,86.229645,0.08530745,0.490625,4.443422794342041,96.16900455156961
100,975000,54.294385280086175,-89.35768,0.0,-254.06235,-0.00047771164,2.159764,0.0,0.8404838,-1.4448926,3495.0813,16.478199,9.204634,104.25984,103.62506,104.39759,103.979164,1.6252867,0.7,-112.147804,-2055.454,0.0007138835,-4.8632727,1.9916385,3.5576973,2.6200738,2.4124851,3.4226106e-09,0.3,1.8098421,87.602715,87.63215,87.56144,87.53094,0.07625459,0.45625,4.1845691204071045,96.69031709829966
101,980000,52.721486657974005,-84.34022,0.0,-296.66364,-0.00030462854,1.7381772,0.0,0.75562036,-0.7020993,2127.5261,10.869411,10.523969,103.1907,102.47409,102.903656,102.72694,2.6141348,0.7,-111.68006,-2379.0837,0.0015877341,-4.7022877,1.2053736,3.5712798,2.3943796,2.4898105,1.4685794e-06,0.3,1.8667834,82.54133,82.417816,82.45944,82.5112,0.07551436,0.42968747,3.8679773807525635,97.20952701965967
102,985000,56.816715063198664,-85.37572,0.0,-248.46413,-0.0012462194,1.8209587,0.0,0.96961164,1.2231519,3110.896,16.437225,10.963993,104.036964,104.07433,104.57228,104.03141,4.492315,0.7,-111.25136,-1986.8235,0.0021902889,-9.413271,2.2322946,-0.1684804,1.3559525,1.0855839,1.517724e-06,0.3,1.7973363,83.63663,83.3468,83.5793,83.646866,0.11324749,0.41249996,4.124992370605469,97.7309156537056
103,990000,54.65108050452372,-87.67961,0.0,-221.78653,-0.0011902355,1.7590293,0.0,0.90281165,-3.66389,1399.9773,27.498117,8.334427,103.77159,103.13647,103.84541,103.736824,24.034792,0.7,-109.6096,-2795.2402,0.003359252,-4.7191596,4.3901634,5.1517873,4.863112,4.8920302,1.0186341e-07,0.3,2.093945,85.901474,85.46452,85.998314,85.93437,0.15240426,0.421875,4.266262054443359,98.256609861056
104,995000,54.529562882888804,-88.928055,0.0,-206.6296,0.0008070953,1.7307357,0.0,0.78793365,-1.7049505,1641.7075,35.34576,9.401812,103.7738,103.87506,104.23871,104.21606,1.7542579,0.7,-109.10541,-2250.4675,0.0023708125,-3.2401702,2.8607001,3.5584536,1.4076407,3.1062133,5.2631544e-06,0.3,2.1686244,86.71799,86.69867,86.69873,86.818726,0.07018624,0.36718747,4.123293876647949,98.77851767142614
105,1000000,49.216499072096695,-89.2999,0.0,-269.72427,-0.00023063346,2.17395,0.0,0.7755321,-4.7690115,1756.6372,10.824101,9.880308,105.49751,103.589,104.047455,104.189804,5.2510395,0.7,-112.91375,-2896.9368,0.00041968795,-2.7622912,5.28184,5.6986394,6.2729964,6.1716623,6.3704215e-07,0.3,2.228787,87.036095,87.10939,86.90265,87.02176,0.10946709,0.434375,3.7660329341888428,99.29664324124654
