Xixo99/comfo/baselines/comfo7_copy/20230223_cw0/hopper-medium-replay-v2/COMFO7_s0_20230224_001144_hopper-medium-replay-v2_48.06.csv
,step,reward,actor_loss,alpha,alpha_loss,avg_conservative_loss,avg_smooth_loss,conservative_weight,critic_loss,max_actor_loss,max_alpha_loss,max_critic_loss,max_mle_prob,max_q1,max_q2,max_target_q,max_v,max_value_loss,max_weight,min_actor_loss,min_alpha_loss,min_critic_loss,min_mle_prob,min_q1,min_q2,min_target_q,min_v,min_value_loss,min_weight,mle_prob,q1,q2,target_q,v,value_loss,weight,eval_time,time
0,0,4.566101858800963,,,,,,,,,,,,,,,,,,,,,,,,,,,,,,,,,,,,
1,10000,6.600298060094313,-30.00355,0.058209643,-8.688219,-0.0004273328,1.425408,0.0,0.9692162,2.7997012,10.401486,20.695704,7.956358,56.853523,56.354725,56.16277,56.016838,2.6727922,0.7,-57.056282,-21.52124,0.0007769008,-5.469195,-1.7935992,-2.466287,-2.5213637,-2.1419995,3.8124138e-06,0.3,-0.4809454,29.745234,29.789597,29.944107,29.449545,0.11819807,0.42343748,0.7518937587738037,2.7185542543729144
2,20000,14.141618279229803,-46.91149,0.0038280264,-5.162491,-0.0005707542,2.4397268,0.0,2.082223,4.7073574,69.55667,90.07103,6.635039,72.68869,73.07761,72.09453,71.72119,7.88228,0.7,-73.158264,-44.191326,0.004017526,-9.252371,-4.2517085,-1.2966461,-2.9848487,-4.061185,1.0637687e-05,0.3,-1.360757,46.10913,46.374226,46.14591,45.854565,0.38597727,0.45468748,1.3095450401306152,3.668645966053009
3,30000,12.915514182022214,-54.077133,0.00026029462,-7.2663484,-0.0047263247,2.6898215,0.0,2.237677,-2.3023882,214.99144,55.61441,6.768224,84.46908,83.91154,85.620575,83.77168,6.739731,0.7,-84.20942,-65.78682,0.0015079186,-8.632641,0.19898897,-0.34336185,0.9043451,-0.064098194,2.7723146e-07,0.3,-1.5257688,53.43203,53.138226,53.363,53.226715,0.4413401,0.45,1.2835369110107422,4.61431519985199
4,40000,11.927881045719653,-59.85878,1.8129353e-05,-5.957483,-0.00431417,3.1551902,0.0,13.688806,-1.213876,217.38194,2707.4946,6.4980803,90.32041,90.42668,91.53685,91.289635,14.7029915,0.7,-90.798,-95.115074,0.0012943943,-12.884598,1.2301285,1.6733158,0.13998008,2.2409887,1.5926315e-06,0.3,-1.3233037,59.34189,58.87799,59.075718,59.23302,0.68933356,0.43125,1.307227373123169,5.564857983589173
5,50000,11.7709585273441,-66.96988,1.3238019e-06,-3.3947568,-0.0019546263,3.40621,0.0,2.73961,-5.0663996,282.93967,75.81531,6.8887863,90.60105,91.53113,91.15166,91.246216,30.604748,0.7,-92.068436,-139.67238,0.001763741,-13.073191,-1.0601653,-0.5755569,-0.2640531,-1.4218374,1.0393775e-05,0.3,-1.3132423,65.79534,66.12327,65.95409,66.094635,0.69540805,0.453125,1.2250666618347168,6.511706141630809
6,60000,28.057843526633135,-65.24754,8.787398e-08,-14.610229,-0.0057059815,3.1469514,0.0,3.6345854,5.2067604,510.04633,107.656876,6.657707,91.86407,92.262474,90.6771,91.03718,20.09464,0.7,-92.877075,-157.14095,0.012050497,-12.323266,-2.8851984,-2.6751797,1.8582125,-6.7939644,3.4226106e-09,0.3,-1.3970664,64.39366,64.8853,64.62129,64.53822,0.71929526,0.5109375,2.286273241043091,7.476241175333659
7,70000,28.984691930720203,-63.995445,5.5161014e-09,-0.86632156,-0.004022757,3.6581738,0.0,3.7672882,-0.33279765,588.4899,133.4816,18.413702,92.94997,93.30902,93.472626,93.41028,40.32924,0.7,-93.62892,-152.29987,0.0073932647,-11.885267,0.54627573,0.36570483,-1.6708986,1.2584779,4.4703486e-07,0.3,-1.3722322,62.85018,62.864464,63.220093,63.189938,0.9776177,0.43125,2.3061540126800537,8.442042366663616
8,80000,47.35394883446585,-64.65169,3.6007283e-10,-20.377151,-0.008133202,3.0888476,0.0,2.541553,1.7055895,724.22675,47.417,8.857046,93.03006,93.55525,93.227776,93.23898,81.73721,0.7,-93.78473,-176.67749,0.00046305364,-9.666819,-3.0180864,-2.4568825,-5.894273,-3.1584985,1.440104e-06,0.3,-1.829815,63.587738,64.12583,63.745117,64.180084,0.80551964,0.36874998,3.6715989112854004,9.43181664943695
9,90000,43.151498236306765,-65.56392,2.2734896e-11,-10.060577,-0.0058753486,3.68452,0.0,3.2863584,-4.7141113,548.6843,102.873856,5.612422,93.27909,92.58624,93.623375,92.99106,16.540766,0.7,-93.59201,-193.26273,0.0143191265,-11.77075,-1.6626034,-2.8812623,-2.1885564,-4.612693,2.0861318e-05,0.3,-1.416574,64.70811,64.61866,65.0403,64.88562,0.6785234,0.42343748,3.388378858566284,10.416171570618948
10,100000,41.463602276407656,-66.611855,1.4673006e-12,3.4253635,-0.00023893976,3.488889,0.0,4.8885193,-1.1687528,1623.0507,294.1778,22.56823,93.71114,93.45488,94.42792,93.27623,118.85372,0.7,-93.80237,-231.97636,0.0003310194,-9.323402,1.1911786,1.4322025,1.1378349,1.971182,1.7217128e-06,0.3,-1.0591166,65.58755,65.32044,65.51201,65.73634,1.2031809,0.4375,3.1289334297180176,11.392855401833852
11,110000,77.63964216330332,-63.536484,9.570456e-14,-19.035412,-0.01031048,3.3656023,0.0,3.0328681,-2.2853293,785.01056,43.096252,13.043536,92.14113,92.75134,93.057434,92.73557,69.302956,0.7,-92.92538,-270.67514,0.00056055334,-12.191726,0.45561022,2.3099833,-2.192778,1.8768756,8.810166e-06,0.3,-1.3025247,62.34214,62.53874,63.04208,63.124462,1.076146,0.4140625,6.046850204467773,12.420853428045909
12,120000,66.33881511123627,-63.661766,6.2395365e-15,-17.341255,-0.0044605783,3.41318,0.0,3.0279033,2.2726092,670.63196,79.98849,6.8790116,94.32653,93.91257,93.97742,94.12017,179.21007,0.7,-95.608154,-279.30322,0.0034355943,-11.17935,-3.819204,-7.0849595,-2.4162958,-3.2880332,1.983176e-06,0.3,-1.4792941,62.10533,62.17935,61.971325,62.279102,1.8696668,0.42499998,5.0404887199401855,13.4314395348231
13,130000,75.7268969535619,-63.125065,4.1846165e-16,-18.078388,-0.005908002,3.496636,0.0,6.9728312,2.2608585,769.6453,686.4289,6.927961,94.82992,94.061844,94.01578,94.17054,58.427002,0.7,-94.422714,-298.18356,0.003009419,-9.734654,-0.9256763,-1.2380565,1.0055054,-0.9467749,2.3274158e-06,0.3,-1.1314021,62.279495,62.218445,61.872993,62.28833,1.2326374,0.39999998,5.56632661819458,14.451106421152751
14,140000,46.41242573676501,-65.38999,2.847602e-17,-31.871138,-0.01115084,3.6328206,0.0,7.0277796,1.3321558,723.2506,670.75574,6.4982967,92.70308,92.830376,93.033,92.28923,32.866825,0.7,-93.34644,-343.11603,0.0044627395,-10.232762,-0.8674216,-1.2507764,-2.652182,-3.2441177,3.4569224e-05,0.3,-1.271004,64.33424,64.561844,64.76654,64.74667,0.9123038,0.47812498,3.469111919403076,15.431449580192567
15,150000,78.70147352160133,-64.48452,2.0170032e-18,-39.71824,-0.003666261,3.3984306,0.0,8.217891,1.4271622,1138.4355,1151.8969,6.361354,93.56773,92.88412,93.784805,93.8108,67.26479,0.7,-93.05625,-422.7802,0.0054538082,-11.418793,-1.1326139,-2.9261446,0.5676867,-1.8172884,5.6892605e-07,0.3,-1.0980499,63.750275,63.414177,64.08561,64.17665,0.9396607,0.41718748,5.877388000488281,16.456783171494802
16,160000,76.01139405620471,-62.49903,1.4812142e-19,10.96391,-0.006982308,4.0633116,0.0,3.8274512,-1.219205,1236.9407,99.41008,7.7477913,93.76666,94.42709,93.75821,93.60328,39.756878,0.7,-94.45742,-431.94568,0.0008229414,-13.406771,-5.3508954,-0.09544909,-5.8467727,-2.4710083,3.873854e-06,0.3,-1.7325333,60.87154,60.901337,60.743927,60.957893,1.132151,0.434375,5.6607983112335205,17.476012007395425
17,170000,93.48388783025878,-65.045074,1.1013157e-20,-26.585283,-0.006380414,3.3839135,0.0,3.2665641,6.029466,1203.8363,144.0969,6.899807,95.63883,93.11399,93.781784,93.96067,20.647549,0.7,-93.31502,-441.5599,0.00034959242,-12.061062,-3.3866494,-7.72853,-8.08661,-7.529958,4.9706094e-05,0.3,-1.4540329,64.299835,64.05404,63.9026,64.24022,0.80063546,0.4359375,7.091963529586792,18.517683911323548
18,180000,81.99854583927136,-62.87309,8.484695e-22,14.331957,-0.012449536,4.3299823,0.0,5.888272,13.882977,1578.1282,300.1966,11.586218,94.32657,93.9915,93.50934,93.35207,151.26389,0.7,-95.274765,-427.8641,0.00057586265,-12.592806,-12.277558,-12.029088,-11.957737,-23.86828,4.4921762e-07,0.3,-1.2736335,61.22653,61.319878,61.19191,61.14639,2.3379881,0.50625,6.42352032661438,19.5437641898791
19,190000,75.94628777836813,-64.79514,6.887461e-23,-21.993494,-0.0077517973,3.9035146,0.0,3.9796321,0.96553063,1192.8503,263.58344,6.824978,93.60013,93.1065,93.985405,94.10962,36.94955,0.7,-94.34812,-364.9495,0.00020982587,-16.099966,-4.235984,-2.7426338,-2.17654,-2.4012468,1.0288459e-05,0.3,-1.4141448,63.27491,63.245827,63.18833,63.35877,0.8553779,0.44375,5.918988466262817,20.56494877735774
20,200000,73.36681616931818,-64.52644,5.4854027e-24,-32.21847,0.0005800269,3.5015829,0.0,5.62594,2.7402654,1815.5098,346.7554,7.287058,95.44045,94.63999,94.885864,94.93933,30.831392,0.7,-95.95921,-545.33563,8.1690756e-05,-10.630979,-2.0453997,-1.1151941,-0.35904402,-1.9300624,1.6898568e-05,0.3,-1.0221524,63.638474,63.335354,63.179184,63.580307,0.6643371,0.4359375,5.428355932235718,21.57949438492457
21,210000,57.34738630959912,-65.15791,4.6638946e-25,-16.48592,-0.00290838,3.4811656,0.0,3.7206416,2.3408716,1962.9623,198.31056,7.6187587,94.93993,94.60211,94.92638,94.973015,106.32525,0.7,-95.35009,-462.61078,0.00049052824,-12.728775,-2.4169388,-1.0912741,-2.6403394,-2.592479,5.726395e-05,0.3,-1.3630921,63.690742,63.64615,64.048965,64.353714,1.4575562,0.42499998,4.424691677093506,22.577575914065044
22,220000,68.10921375712572,-66.990005,4.2882608e-26,-20.798456,0.0027339763,3.05969,0.0,2.8504887,-2.183941,2695.5366,80.81769,13.8873,95.5725,94.011406,94.870674,94.53817,36.76491,0.7,-97.46846,-622.3647,0.0031157036,-12.8755455,2.118589,1.8303173,-0.41341063,3.4993703,5.339435e-06,0.3,-1.2103837,66.408394,65.92368,66.004456,66.02513,0.9314975,0.5,5.387397527694702,23.5849786957105
23,230000,79.661660678095,-64.40267,4.0017804e-27,-19.17517,-0.0075197364,4.0184,0.0,7.4732127,-0.77378434,2436.632,1033.3218,8.167523,93.26131,94.28256,94.28254,93.08244,124.67964,0.7,-94.512886,-496.5871,0.004055178,-19.286041,-3.969965,-1.4004831,-0.513592,-2.9574966,8.250646e-05,0.3,-1.3674213,62.767265,63.200764,62.97885,62.974274,1.1274902,0.48906246,6.33296537399292,24.58896085421244
24,240000,60.77746963347539,-65.03343,3.632198e-28,-48.649628,-0.0020839924,3.1524534,0.0,3.3988671,1.9245834,1220.716,78.766,11.318915,93.97104,93.10581,93.37481,92.94536,101.756676,0.7,-93.99825,-458.32925,0.007621972,-12.0501,-3.1486394,-2.728853,-3.313838,-2.7122695,6.366463e-07,0.3,-1.4821901,64.34613,64.01883,63.678158,64.0166,0.79819983,0.49843746,4.5125792026519775,25.565343991915384
25,250000,65.7955613798119,-62.156364,3.6652948e-29,-9.146896,-0.0019550687,3.6150117,0.0,5.6877985,7.2207003,2313.9717,505.86786,15.402821,93.74795,92.95489,93.40563,93.26846,46.427464,0.7,-93.941025,-485.5459,0.0015501296,-12.605972,-2.7386436,-4.262636,-0.90444976,-10.798435,2.328744e-05,0.3,-1.4324427,61.271313,60.77572,61.270454,61.55033,0.97719234,0.4203125,5.368403196334839,26.559842546780903
26,260000,95.35266826031126,-65.22749,4.1238144e-30,-42.971386,-0.0031061072,3.7941246,0.0,3.5508425,-1.3397977,1985.612,71.24347,8.978875,94.39983,94.68141,93.84384,93.899796,46.917812,0.7,-95.08173,-662.89655,0.0002754262,-29.98472,0.5717974,-0.6721856,-0.23336332,0.537971,2.263114e-08,0.3,-0.9944143,64.00456,64.20227,64.076324,64.27545,1.0208144,0.4015625,7.52135443687439,27.589450283845267
27,270000,84.458207034942,-65.61431,5.056592e-31,-5.7574167,-0.0058048205,3.7613945,0.0,15.144919,-5.7564073,1656.5891,3327.6182,12.017416,93.93194,93.76411,94.29574,94.14518,15.740254,0.7,-94.46811,-659.06256,0.0016552471,-11.88572,4.5460873,6.3518624,0.8667454,3.0584311,4.172325e-08,0.3,-1.190291,64.53542,64.69484,64.400345,64.67101,0.663038,0.49531248,6.52180814743042,28.600818570454916
28,280000,63.581911285607276,-64.96852,5.860222e-32,10.890963,0.0038074597,3.6547334,0.0,3.3611026,-3.3063307,4319.6113,88.069214,11.991052,93.99297,94.88889,94.25985,95.228745,128.04605,0.7,-95.93161,-582.3273,0.0038204698,-9.396852,-0.059277177,2.0954707,-1.025386,2.7902477,2.0462431e-07,0.3,-1.6360853,63.24969,63.43357,63.199547,63.838238,2.3346195,0.4171875,4.903420925140381,29.58351267973582
29,290000,91.92861912752807,-62.06417,6.949711e-33,18.385141,-0.0030210356,3.246622,0.0,2.174801,-7.302419,3984.3772,59.40692,17.814068,94.116066,93.19695,94.46977,94.78054,10.608664,0.7,-94.63912,-700.96515,0.0007802812,-12.498325,-0.56136554,-1.8807849,-1.3392938,-0.817636,1.8785282e-05,0.3,-1.2791255,60.977127,60.53964,60.62506,60.876694,0.53126746,0.42343748,7.525339603424072,30.605504206816356
30,300000,66.87043135658658,-65.86447,8.279881e-34,-67.29865,-0.008104252,3.633239,0.0,2.932933,-1.4876964,1670.3469,49.401978,5.186595,93.73245,94.01543,93.870316,93.77033,17.676737,0.7,-94.373215,-706.5493,0.00024441752,-22.266174,-0.7601234,-2.176748,-4.5276847,-3.3702376,5.224877e-06,0.3,-1.588806,65.15287,64.88725,65.11427,65.10327,0.6813692,0.465625,4.648695707321167,31.578449952602387
31,310000,84.6143365162142,-64.07684,1.1103392e-34,-14.270277,-0.009849436,4.2685237,0.0,4.900381,-4.106963,2600.5479,401.95035,13.199144,93.7874,92.79001,94.240776,94.23106,143.44884,0.7,-93.68209,-834.3639,0.015293892,-12.638571,0.1431402,1.6126788,0.15180267,-0.29620174,2.3264147e-06,0.3,-1.1940204,62.725784,62.193047,62.725452,62.972786,1.7625928,0.440625,6.9471728801727295,32.61691803137462
32,320000,57.29304014758879,-64.780075,1.753598e-35,-25.706036,-0.007224561,3.4648895,0.0,3.4444885,0.7742644,2804.6763,112.572556,7.401713,94.60548,95.0251,95.66342,95.22424,78.50177,0.7,-95.476746,-770.7101,0.026485601,-11.879622,-0.535698,-0.38607913,1.3246071,-0.5554048,2.673303e-07,0.3,-1.6083033,63.52934,64.10743,64.16049,64.22502,1.5742228,0.390625,4.784088850021362,33.61964254379272
33,330000,51.168596560519305,-63.91464,2.7618386e-36,-38.59278,-0.000546639,3.4906235,0.0,2.7128086,1.1293657,2667.3723,109.452545,6.448743,94.78672,94.38224,94.92938,94.49252,74.559944,0.7,-96.02933,-763.08093,0.005965316,-13.036815,1.0527703,-1.0000482,0.28856498,0.092368305,3.4813231e-06,0.3,-1.3264492,62.63836,62.366264,62.405437,62.568436,1.5846431,0.46718746,4.000763416290283,34.60887899796168
34,340000,91.64543079059716,-64.53635,3.6824056e-37,-6.871016,-0.005370375,3.5934007,0.0,3.8164434,-2.987854,2273.5527,177.6726,6.282118,93.9689,93.625824,93.84796,93.92161,38.485817,0.7,-94.80344,-925.74927,0.014833386,-10.133707,-1.4163196,0.5571433,-1.1806767,-1.1775386,1.51844515e-05,0.3,-1.1643062,63.17835,63.56016,63.42318,63.42045,0.75114346,0.40625,7.846751689910889,35.66590706110001
35,350000,53.75159369451947,-65.920074,5.933581e-38,-13.7402115,-0.009542989,3.6009393,0.0,3.0164323,-2.2079446,3440.6475,110.45047,13.294944,92.867004,93.585754,93.33942,93.561775,24.116827,0.7,-93.90739,-707.10046,0.0032799416,-12.6598835,-2.1985664,-7.236274,-4.130261,-6.728243,5.8743176e-06,0.3,-0.88520795,64.43369,65.039154,64.90562,65.204056,0.6281687,0.3875,4.260253667831421,36.6658380150795
36,360000,72.20984278198613,-64.703896,1.004377e-38,34.473385,-0.0038102441,3.5840745,0.0,15.392478,-2.2417476,3240.6343,3170.5874,8.665997,93.79139,94.04973,93.02894,93.4308,34.851166,0.7,-94.661224,-695.5718,0.0041396385,-13.937324,-3.8274007,-5.367096,-4.679531,-5.6765647,2.166861e-05,0.3,-1.3299246,63.34851,63.714096,63.303963,63.573013,0.85951203,0.49999997,5.7175867557525635,37.6907457113266
37,370000,88.21893020532879,-66.72095,1.635015e-39,-53.729805,-0.016865281,3.3132546,0.0,4.930833,0.32977104,2833.7107,243.07704,10.545788,94.41068,94.19894,93.96289,93.529175,202.1628,0.7,-95.531525,-865.437,0.0018019237,-9.19518,-0.21481323,-0.41584915,1.428808,0.9989811,1.4913821e-05,0.3,-1.1801491,65.59216,65.3886,65.30781,65.446884,1.5215888,0.45937496,6.199968338012695,38.7194454352061
38,380000,66.15687314129258,-64.927444,2.62793e-40,49.62368,-0.009888651,3.9172013,0.0,3.528241,-3.7741911,4271.2637,168.85425,8.060818,95.45364,92.6828,94.165565,94.093414,61.00994,0.7,-94.91018,-873.8358,0.013989809,-10.149983,-4.7176547,-5.0480814,-0.13171732,-0.81932926,2.054422e-06,0.3,-1.3499564,63.523933,63.199852,63.696796,63.797546,0.9233585,0.4484375,5.204068422317505,39.73491527636846
39,390000,53.37982973655495,-65.654236,4.0081e-41,-41.868706,-0.0003463801,3.712486,0.0,4.506855,-3.5339556,3470.7266,100.57745,5.995929,94.347244,95.43424,93.50905,93.45446,47.990955,0.7,-94.88584,-848.6622,0.0039652465,-10.652108,3.1043968,3.483236,1.0018226,3.7521036,6.181489e-06,0.3,-1.2633505,63.99778,64.95876,63.988724,64.25232,0.8713285,0.47499996,4.265981197357178,40.73543147643407
40,400000,65.04440216966303,-63.629818,7.447e-42,11.668675,0.006969785,3.455982,0.0,3.878789,9.504749,2427.9404,199.28142,8.747187,93.55446,93.775055,93.71838,93.40381,55.888016,0.7,-94.794334,-821.2519,0.0014954805,-10.387299,-7.6936083,-11.96666,-10.94489,-8.768733,2.2380382e-06,0.3,-1.198245,62.25604,62.184692,62.205208,62.114582,0.9030355,0.46249998,5.155908584594727,41.75081491072972
41,410000,64.80451787245207,-64.216515,1.509e-42,-49.718235,-0.00398389,3.1973991,0.0,3.4583163,2.7864008,2176.1245,56.20903,9.188793,94.40475,94.75558,94.35686,93.87956,133.62863,0.7,-95.57606,-846.31464,0.016399259,-9.363804,-2.6805332,-3.631295,-4.125822,-2.1527112,1.135486e-06,0.3,-1.42312,62.8797,62.818558,62.868332,62.976917,1.1299057,0.45312497,5.2997825145721436,42.76390311717987
42,420000,61.484918567713024,-62.7629,2.56e-43,-16.45908,-0.0010047694,3.5197358,0.0,3.9925036,-2.465818,2261.2986,215.68677,10.061583,94.88247,93.6462,94.17614,93.637146,55.792183,0.7,-94.1534,-772.8152,0.0045559686,-12.510494,-7.6146636,-6.298959,-6.1320605,-2.767139,2.673303e-07,0.3,-1.4254923,61.212215,61.30371,60.860794,61.20362,1.1039939,0.453125,4.932260751724243,43.77316824992498
43,430000,74.34522586367473,-64.97066,4.6e-44,-15.098251,-0.0032818986,3.6041315,0.0,3.619286,-3.52068,2821.3865,312.3476,6.823452,93.22534,94.44921,94.14451,94.069275,42.535686,0.7,-94.775955,-903.19116,0.00089263107,-10.861934,-1.2547259,0.96721107,0.21879794,0.7675017,0.00012518733,0.3,-1.5882149,63.679142,63.62396,63.3649,63.677025,0.9507222,0.4734375,6.072960376739502,44.80326976378759
44,440000,57.54792828875187,-67.866,8e-45,-32.82648,-0.0055374256,4.010251,0.0,3.5026321,-7.688477,3052.014,130.54526,5.8240285,93.93806,93.16226,94.83804,94.50768,384.73227,0.7,-93.839,-860.1053,0.001487643,-9.65362,-0.34319508,3.0715241,0.6316222,1.7461467,9.66317e-07,0.3,-1.0489014,66.77565,66.17744,66.78524,66.63141,2.6039557,0.4640625,4.457098960876465,45.80475564002991
45,450000,74.18914898699829,-64.12361,1e-45,-3.7110338,-0.008526302,3.4321842,0.0,3.2242022,11.699877,4421.0825,110.27765,7.757042,93.4446,93.84917,93.09181,92.94031,26.5511,0.7,-94.23675,-896.25964,0.00089522457,-10.868364,-7.5052414,-11.307723,-15.705685,-14.40633,2.0022311e-05,0.3,-0.9361742,63.21182,63.2491,62.932735,63.117096,0.56880933,0.48281252,6.086135625839233,46.831574587027234
46,460000,45.76645517771779,-65.50435,0.0,-23.383633,-0.017174771,3.8747354,0.0,3.4019399,0.49681205,3697.0295,141.93056,8.305771,94.718414,94.14394,94.60698,93.47854,41.896107,0.7,-95.23483,-795.7381,0.0023079575,-10.121229,-1.1600913,0.14371115,-0.06949637,-0.4480706,1.252761e-05,0.3,-1.1902299,64.49953,64.502625,64.71672,64.58942,0.9370647,0.4609375,3.5699267387390137,47.81992046435674
47,470000,61.81828421325819,-61.1688,0.0,34.927597,-0.009108639,3.7325628,0.0,3.8847463,0.53925943,3278.275,75.784256,9.746671,92.75617,93.444725,93.1087,92.93106,107.83198,0.7,-94.11072,-814.3533,0.0068825623,-11.251129,-0.43468928,1.4791682,-0.3445055,-0.6933106,1.9189713e-06,0.3,-1.0950558,59.522972,60.07048,59.75076,59.603912,1.3673368,0.50312495,4.537559747695923,48.82543278535207
48,480000,55.5117847205213,-64.47536,0.0,-9.510824,0.0019406747,3.4014957,0.0,3.4238331,-0.82753056,3470.0576,122.38616,7.3890157,93.74927,93.72745,93.81896,93.806145,395.35513,0.7,-94.33896,-1041.8898,0.0034430104,-14.018597,-7.380221,0.19354254,-2.0103285,0.06807923,5.7298166e-06,0.3,-1.5409609,62.52448,62.50817,62.81659,63.196514,4.2835116,0.3875,4.342304944992065,49.82475626866023
49,490000,91.8519700235079,-64.08104,0.0,5.3527336,-0.0038859725,3.9695232,0.0,3.6010976,-0.9695567,3817.8184,81.52151,9.525799,93.51418,93.79373,93.64463,93.92711,155.0195,0.7,-93.85801,-996.8017,0.0040366594,-8.847378,0.95827997,0.73041266,-0.39544427,-0.725191,9.125558e-06,0.3,-0.8584102,62.80867,63.095825,63.2193,63.215515,1.2224894,0.46249998,8.01706600189209,50.88384219408035
50,500000,58.48696868413506,-64.10557,0.0,1.3400545,-0.0046764896,3.3205457,0.0,3.1972878,1.1310662,4027.1992,47.70512,6.9831405,93.516136,93.14795,94.41854,94.327835,9.549914,0.7,-93.85972,-984.83936,0.0026703423,-8.93601,-0.8827895,-1.1493456,-0.2871819,-1.6429601,2.8926124e-06,0.3,-1.0784597,63.131737,62.781372,63.346024,63.10218,0.46628702,0.48281246,5.002101421356201,51.889722883701324
51,510000,48.443425923361374,-63.19825,0.0,-88.24017,-0.0074119493,3.0778792,0.0,3.6344774,-3.8649263,1864.3655,222.173,15.07131,94.1228,94.00222,93.59036,93.90389,18.125854,0.7,-96.21535,-855.50867,0.01638223,-10.706252,3.613121,3.3751943,1.7252566,3.6899567,7.2549426e-07,0.3,-1.3163356,62.218613,62.090954,62.073334,62.207756,0.5718224,0.48749998,3.9005825519561768,52.87298918962479
52,520000,50.45172389819464,-64.49682,0.0,-41.980534,0.0015497467,3.2027352,0.0,4.4132633,-3.4143322,3921.139,130.66885,6.602576,93.95619,94.38831,94.432785,94.266014,68.28344,0.7,-94.792595,-813.69934,0.0011471991,-9.084225,-4.248607,-2.9481487,-4.222047,-4.6357713,3.8197748e-05,0.3,-1.1461519,63.202057,63.478603,63.63509,63.663826,0.883425,0.45,3.867356538772583,53.8537538766861
53,530000,49.19476770634195,-64.713326,0.0,-55.43138,-0.0052905567,3.2713406,0.0,2.4021842,-3.2384734,2674.5483,48.409904,6.9370213,93.67377,93.6481,94.61124,94.57928,356.42322,0.7,-94.282715,-1005.57935,0.0017885524,-15.212962,-7.6073346,2.2181983,-2.430602,-2.6648192,4.3234944e-05,0.3,-1.2636547,63.10837,63.656403,63.7008,63.79529,2.0092287,0.4296875,3.936570167541504,54.83811161518097
54,540000,46.89548135268717,-64.408775,0.0,18.98317,-0.004946768,4.1164017,0.0,3.662396,1.0416763,8309.498,238.34714,7.481665,95.05503,94.590996,94.496475,94.476166,18.048847,0.7,-95.525566,-1231.0905,0.017318895,-9.962268,-9.176908,-11.407174,-1.7324263,-8.416738,0.000109052075,0.3,-0.698776,62.636467,62.334496,62.158745,62.234016,0.75061953,0.46718746,3.73992657661438,55.82254327138265
55,550000,53.96091514151114,-66.74278,0.0,-75.134315,-0.0115830405,3.3084774,0.0,2.9003558,-3.6753385,3778.8457,77.25467,9.010517,94.996574,93.76165,94.37448,94.254135,31.242247,0.7,-95.4293,-953.2443,0.0006804956,-9.834125,-3.2689402,-3.0101385,-3.6341112,-4.501512,1.18852775e-07,0.3,-0.9522706,65.7431,65.80998,65.47001,65.500824,0.6140611,0.465625,4.457275867462158,56.81799175739288
56,560000,44.78945592228878,-65.8053,0.0,-69.63642,-0.009937587,3.214447,0.0,3.7667298,-6.7079263,3856.078,266.11923,6.908009,94.38811,94.0167,93.89642,93.920235,168.30595,0.7,-95.27133,-978.5234,0.00046041305,-12.492319,-5.23941,-10.201021,-7.443015,-7.204158,1.1036609e-05,0.3,-1.1832637,64.42005,64.470825,64.3586,64.76111,1.2822866,0.4109375,3.5377731323242188,57.79857584635417
57,570000,57.20718208960399,-65.92267,0.0,-13.480646,0.0014092494,3.4343941,0.0,4.305664,-6.412305,3907.146,198.00143,13.275116,93.99888,93.54522,94.090935,93.957375,200.14476,0.7,-95.88096,-1036.2633,0.006920861,-9.830696,-2.9978092,-1.3487554,2.165659,1.9991332,1.177541e-06,0.3,-1.1361549,65.018974,64.48548,64.620285,64.80611,1.4176595,0.47499996,4.463660717010498,58.79940311511358
58,580000,74.19831483987144,-64.02196,0.0,-37.67752,-0.004142451,3.529841,0.0,3.073072,-1.3476176,3016.2344,81.30823,9.32185,94.18712,93.975876,94.059654,93.99322,30.807005,0.7,-94.43371,-1127.7236,0.0002729898,-13.915638,-1.9595948,0.6416026,-1.7573334,0.84606516,9.00065e-08,0.3,-1.3382629,62.982437,62.736958,63.070293,63.186783,0.98652416,0.40937498,6.072889089584351,59.82605463663737
59,590000,76.10989473982269,-61.469658,0.0,-70.04521,-0.0077030845,3.3463228,0.0,4.078806,-3.2123845,3430.0771,145.17215,7.902771,92.8259,92.86849,94.51457,94.549965,24.261324,0.7,-93.47479,-1513.0469,0.009193741,-10.535508,4.505095,2.912448,1.0825619,3.523153,8.196022e-06,0.3,-1.3832166,60.476105,60.482635,60.80764,60.814125,0.5244543,0.459375,6.040390253067017,60.847996616363524
60,600000,53.26861670644302,-64.66693,0.0,-34.460365,-0.0046900036,3.6004655,0.0,23.859802,0.77892053,4908.8438,5382.271,9.217831,93.51528,92.61088,93.09843,92.83714,55.692345,0.7,-94.301216,-1152.4373,0.0002802034,-11.918553,-0.041053653,-2.9220173,-1.4287653,-0.99072766,2.07845e-06,0.3,-1.1483272,63.65618,63.682533,63.629467,63.836826,1.1084929,0.46875,4.196961402893066,61.84043597777684
61,610000,54.755258739843796,-63.800148,0.0,-71.93178,-0.0073302956,3.3395054,0.0,3.3776045,-3.9222424,5762.066,51.658386,22.990942,93.862816,95.29049,93.92195,93.714035,214.77307,0.7,-95.35959,-1363.4747,0.0036594162,-10.014519,0.64647794,0.5755677,-1.0078021,-1.178678,3.940932e-06,0.3,-1.1726756,62.21689,62.84648,62.241837,62.42804,1.516827,0.515625,4.3344879150390625,62.83401843706767
62,620000,57.12106423880776,-62.127155,0.0,-47.288948,-0.0045372755,3.1865468,0.0,3.0070186,0.47263014,3187.699,64.262505,6.640368,93.832214,93.95562,93.89474,93.560326,73.51596,0.7,-94.19952,-1046.5424,0.008083508,-15.755268,-0.24493343,-0.4971521,-2.0831125,-4.8527656,1.0925829e-05,0.3,-1.2919856,60.834938,61.51345,61.262882,61.241917,1.0801783,0.496875,4.566891193389893,63.83508823315302
63,630000,54.18282446223549,-63.00347,0.0,-58.027557,-0.0071912752,3.3376453,0.0,2.7709284,-2.5837965,4582.2334,51.74836,7.2000084,94.16846,94.254776,94.30823,94.061264,45.009327,0.7,-95.083046,-1015.3663,0.0023378762,-11.581223,1.0197363,-0.06641489,-1.8109031,-1.1431826,1.8843959e-06,0.3,-1.0627632,62.032814,62.005344,61.727486,61.757526,0.78007984,0.46875,4.065016746520996,64.82493969599406
64,640000,52.19191507694948,-62.619766,0.0,-27.911116,0.0004622035,3.5547187,0.0,3.458008,-3.9025612,6607.239,112.547356,9.195896,93.3744,93.656006,93.63825,93.550255,31.177908,0.7,-94.727936,-957.56757,0.00076356065,-12.067482,-5.0219216,-8.426696,-3.474195,-2.189604,1.7993327e-06,0.3,-1.0149877,61.198868,61.29624,61.242462,61.595512,0.6278622,0.3828125,4.064115047454834,65.82073220411937
65,650000,50.26526284709645,-64.129,0.0,21.092747,-0.013295146,3.7592103,0.0,7.623254,-3.4419537,7076.167,967.5874,17.161251,94.47096,95.20777,94.02204,93.97328,13.823962,0.7,-95.6805,-1008.4686,0.0011205701,-10.347372,-0.879089,-2.947956,-4.184714,-2.5142212,1.383226e-06,0.3,-0.8719536,62.694366,62.610245,62.00493,62.24988,0.62691593,0.46406248,3.8592514991760254,66.81181615193685
66,660000,78.97868471723537,-65.54904,0.0,-34.930798,-0.015127945,3.8207016,0.0,2.9866173,1.5758604,4525.8257,42.345184,6.203193,92.91872,93.08481,93.50398,93.70647,42.827614,0.7,-93.97475,-1180.1333,0.006291721,-9.587744,-3.0301235,-1.260762,-1.8250494,-1.1731031,1.3831887e-07,0.3,-1.0709915,64.108574,64.270035,64.8439,64.75278,0.8471471,0.41562498,6.317128419876099,67.84611787796021
67,670000,53.55690422447199,-63.794144,0.0,-62.717117,-0.00048099348,3.2165437,0.0,2.7867882,-1.6878426,3444.9133,104.31046,7.4746647,92.27971,93.157005,93.09249,93.18708,51.588947,0.7,-93.60529,-1205.2393,0.012795259,-14.815132,0.63158673,-1.5065014,-0.32243493,-0.15816867,7.1021714e-06,0.3,-1.1247004,62.648956,62.979347,62.988537,63.16831,0.96849144,0.453125,4.279344081878662,68.84212268988291
68,680000,50.007529464416436,-63.251587,0.0,-56.5542,-0.0042514736,3.3487422,0.0,2.8977103,3.3359053,4340.689,88.782166,7.136118,93.4703,94.160904,93.78931,93.337265,78.25519,0.7,-94.33473,-1097.4019,0.011771394,-12.519128,-0.4833051,-1.8756588,-1.7779531,-2.50868,4.6674804e-06,0.3,-1.5175457,62.072426,62.36739,62.20904,62.0723,0.99874806,0.4921875,3.8991458415985107,69.830497499307
69,690000,68.84258826129445,-62.630417,0.0,32.24396,0.0010208298,3.5244,0.0,3.7091198,1.4575176,3805.6123,95.67303,9.393712,94.514084,94.38892,95.05026,94.385155,6.878081,0.7,-95.266235,-1330.0203,0.00806576,-9.897983,-2.597394,-5.1182766,-2.1795163,-4.219923,8.924864e-07,0.3,-1.4837366,61.475693,60.96015,60.959183,60.925144,0.51502657,0.4859375,5.262540817260742,70.84339843591054
70,700000,50.08866734794309,-66.24656,0.0,14.120476,-0.008617676,3.1590126,0.0,3.5006337,0.94846153,6770.136,106.14976,8.78364,94.36696,93.75647,94.32363,93.95057,63.688416,0.7,-95.43696,-1151.8986,0.010214394,-12.771789,-1.5500603,-2.8156729,-4.820205,-5.564111,4.4580152e-05,0.3,-1.3053634,65.12755,65.09586,64.6164,64.62816,1.1238585,0.521875,3.820690870285034,71.83095366160074
71,710000,49.30974126150996,-64.24673,0.0,27.004528,0.00044296012,3.374253,0.0,9.349082,-4.1268244,4276.988,1817.5162,7.3524857,93.42325,93.34845,93.811714,93.42397,34.709507,0.7,-94.219536,-1209.8542,0.0012074385,-12.5541935,5.0507097,3.9392033,0.2781171,4.533741,2.212025e-06,0.3,-1.4036529,62.985886,63.02455,62.969135,63.174007,0.7090416,0.46249998,3.9100139141082764,72.82204615275064
72,720000,55.24012648674608,-63.108593,0.0,-24.884525,-0.008372825,3.4249856,0.0,3.8700285,0.673143,3930.3547,134.53937,11.591328,93.34315,93.04126,93.54907,93.1384,80.75271,0.7,-93.788445,-1175.7808,0.0009828985,-11.566549,-4.167127,-5.7665815,-4.296574,-1.7635968,2.2396381e-07,0.3,-1.0264027,61.818874,62.034653,61.973442,62.220894,1.0026944,0.47031248,4.338544845581055,73.82143210967382
73,730000,52.700630457353704,-64.34493,0.0,10.529171,-0.0009045264,3.7832801,0.0,2.7518055,-1.722796,3632.701,106.4726,27.785273,93.97141,93.93129,94.78711,93.67824,55.506947,0.7,-94.66984,-1386.7141,0.0032672775,-16.175991,-2.3352075,-0.30905432,0.31938702,-2.3923292,8.250936e-10,0.3,-1.4465287,63.245647,62.927902,62.993484,63.010704,1.1437383,0.4828125,3.9667675495147705,74.81428847710292
74,740000,43.84693828672551,-64.32478,0.0,-14.2872925,-0.00068630755,3.5002255,0.0,2.8722644,1.5391575,4152.085,41.64424,7.4783297,93.31576,92.50535,93.7626,93.403725,201.11174,0.7,-94.41034,-1167.0463,0.010570574,-10.29207,3.0335126,1.0692666,1.1360883,1.1768965,0.00010008056,0.3,-1.0797704,63.413113,63.043575,63.505486,63.51044,1.3567959,0.46875,3.243495464324951,75.79478735923767
75,750000,45.77077154197395,-63.764603,0.0,-92.87771,-0.0051822434,3.471424,0.0,24.219511,-1.7624996,4625.533,5256.0176,9.803499,92.59362,93.06648,93.10158,92.90268,230.86058,0.7,-93.75938,-1240.2462,0.008421119,-10.779771,2.4426844,1.8260359,0.324893,0.29748136,2.2405977e-06,0.3,-1.3415787,62.54573,63.131287,62.264095,62.683136,1.7467787,0.4890625,3.3689796924591064,76.78037676413854
76,760000,48.27518382765441,-64.09192,0.0,-38.22175,-0.0051298733,3.2837312,0.0,3.449891,2.7390437,6408.4976,96.032875,8.303148,93.55838,93.787544,94.19634,93.500565,281.2607,0.7,-94.82062,-1074.5648,0.00035536115,-10.897505,-3.4603462,-3.6967034,0.28651223,4.914159,9.643554e-09,0.3,-1.5782988,63.03753,62.83358,62.757713,62.894554,1.9219394,0.453125,3.5639772415161133,77.7682077050209
77,770000,44.37568224281897,-62.716614,0.0,-4.983675,-0.004547349,3.55808,0.0,3.3263428,10.022135,4340.975,154.94952,8.709276,93.71905,93.73004,94.08798,93.587746,1151.9857,0.7,-94.16593,-1214.6082,0.008362945,-11.1189,-6.0969105,-3.325128,-0.31894976,-1.0955269,2.062734e-06,0.3,-1.2232914,61.04826,61.189365,61.408012,61.48954,5.989647,0.4265625,3.2417798042297363,78.7501368244489
78,780000,44.834634440052604,-60.469208,0.0,-38.804855,-0.0010093356,3.5177097,0.0,3.7755976,1.4424074,4621.4224,121.05481,6.942595,93.39971,93.845024,93.64554,94.403,28.13991,0.7,-94.42017,-1050.7694,0.0020462703,-12.24666,-1.1499152,-1.5707277,-0.5606187,-1.2507458,6.996951e-06,0.3,-1.2984467,58.930054,59.06069,59.21444,59.061707,0.66745174,0.4671875,3.2624824047088623,79.72848409811655
79,790000,48.23699017168889,-64.2489,0.0,-56.275555,0.00429625,3.7143338,0.0,3.9670808,2.5188556,3704.3672,80.38197,7.9665403,92.83908,93.12662,93.11591,93.95555,401.5343,0.7,-93.84594,-1414.5046,0.005778747,-14.761425,-5.3094625,-3.4280214,-5.275459,-5.359208,2.4789477e-07,0.3,-1.2653997,62.818527,62.85927,62.595345,62.885063,2.1822596,0.459375,3.556925058364868,80.71637275616328
80,800000,49.065051181087135,-63.5505,0.0,-72.04112,-0.004292682,3.664608,0.0,3.6625977,-0.2727977,3271.146,49.71598,7.447307,93.67105,93.71518,93.05765,92.9641,43.33203,0.7,-93.90292,-1238.6115,0.00061696506,-12.870404,0.057585597,-0.15302944,-2.0084536,-0.7016722,2.5946809e-05,0.3,-1.2716448,62.243454,62.44632,62.019608,62.223316,0.84575796,0.47031248,3.92954158782959,81.70903472105663
81,810000,40.89987213484934,-65.20372,0.0,-93.42947,0.010142028,3.1892643,0.0,3.5015712,-2.1544223,3532.7173,183.4076,6.747934,93.032646,94.337395,93.75871,93.058876,179.29225,0.7,-94.646095,-1236.1349,0.006479032,-9.895359,2.5958533,2.567734,0.4235643,1.2128903,7.3098754e-06,0.3,-0.82859945,64.33234,64.00328,64.24711,64.348656,1.4345437,0.4828125,3.027282238006592,82.6852474808693
82,820000,47.33175749596623,-61.915672,0.0,-101.76758,-0.008729526,3.2732365,0.0,4.3056335,-3.5660443,4290.6763,170.22346,7.111166,93.12389,93.08246,93.8973,93.66172,264.4819,0.7,-93.96771,-1271.8442,0.0031358455,-10.261788,-1.9952474,-1.7374386,-4.8961415,-4.290231,1.8399078e-08,0.3,-1.5720967,60.31612,60.311447,60.226612,60.45279,1.757206,0.4515625,3.5451252460479736,83.66600977579752
83,830000,42.21795798780775,-63.688244,0.0,9.944757,-0.001181158,3.0045078,0.0,3.1335573,-6.6294236,8790.18,153.24489,7.5081997,93.14238,93.5552,93.86322,94.02562,16.716091,0.7,-94.33054,-1422.587,0.0024295284,-9.902032,1.1602728,1.3249985,0.45829245,-0.72091126,9.623892e-06,0.3,-1.2214113,62.5746,62.50834,62.605957,62.613224,0.7283001,0.453125,3.160413980484009,84.64420394102733
84,840000,44.26951828761895,-65.111496,0.0,21.417313,-0.0130735785,3.5384624,0.0,2.5304527,0.94597137,5592.994,42.605804,7.447686,93.957275,94.035675,93.630104,93.21899,59.02754,0.7,-94.56874,-1629.8241,0.0006059221,-13.432598,-1.5993023,-1.533175,-2.8191776,-2.7743328,1.1359155e-05,0.3,-1.141019,63.69706,63.819458,63.61387,63.74156,0.98760825,0.4578125,3.254079580307007,85.62429471413294
85,850000,50.47042969010196,-66.37229,0.0,28.868055,-0.013389579,3.4613512,0.0,3.6584103,-3.5242305,4205.1665,47.205807,7.051745,93.548935,93.190796,93.38297,93.2079,79.21425,0.7,-94.43587,-1613.5371,8.7964e-05,-10.665524,1.3239319,1.6553329,0.46859694,-0.5954356,2.3497269e-07,0.3,-0.9551035,65.19088,65.32727,65.25774,65.16818,0.96513104,0.475,3.902053117752075,86.61748171250025
86,860000,42.5604509333314,-64.7977,0.0,-96.56615,-0.0040557766,3.375342,0.0,2.786271,3.6636956,5032.9814,45.835865,10.784522,93.21145,92.78455,94.08453,92.932106,20.553303,0.7,-94.06201,-1345.57,0.0034782118,-12.90062,-7.413369,-6.9785576,-3.723168,-8.081931,1.9252185e-07,0.3,-0.9756048,63.87896,63.696346,64.36039,64.22441,0.6107258,0.46718746,3.1288249492645264,87.59860872824987
87,870000,51.268239548986436,-65.92872,0.0,-24.795362,-0.006285896,3.0392225,0.0,3.56618,-2.3014479,7601.177,67.99499,7.4043384,92.86985,92.14505,93.10731,92.90347,43.102386,0.7,-93.97055,-1234.484,0.013693757,-11.533106,1.3286048,0.4525497,1.0017589,1.3608236,1.04612445e-05,0.3,-1.1019211,65.07823,64.90028,65.65747,65.56456,0.6315826,0.4171875,3.89530873298645,88.59064129193624
88,880000,45.21616385002159,-63.04212,0.0,27.254972,-0.004152806,3.47813,0.0,2.7307484,0.09745753,5573.8525,87.39032,8.075567,93.278725,93.63693,94.138054,93.3821,82.209724,0.7,-94.61683,-1582.9207,0.01831733,-9.870455,-5.2525454,0.6973506,-1.5499074,-2.7760642,6.604678e-08,0.3,-1.4602726,61.546944,61.865208,61.853382,62.053066,1.0490938,0.4734375,3.573615312576294,89.57803405125937
89,890000,48.48544658133834,-63.320805,0.0,143.97183,-0.009310267,3.3598402,0.0,3.8096762,3.75594,8237.308,95.75321,9.118528,94.4091,94.243805,93.92876,94.41551,22.111683,0.7,-95.00676,-1669.1533,0.004977711,-11.289315,-2.0173206,-5.343163,0.24575612,-2.586972,2.0784501e-08,0.3,-1.295064,61.87539,61.9857,62.254314,62.15785,0.8995094,0.44374996,3.910029172897339,90.56694626410803
90,900000,51.44700321368511,-61.557915,0.0,-104.87037,-0.013078704,3.4583282,0.0,4.798638,-0.26816362,5034.469,105.35754,9.601559,93.66524,92.938675,93.81404,93.936386,64.4461,0.7,-95.20701,-1225.251,0.0023570613,-11.106491,-2.0070963,-1.7384449,-1.1879287,-1.6818063,1.7290702e-06,0.3,-1.0110618,60.333088,60.0877,59.744858,59.939598,1.1433932,0.49062496,3.872457981109619,91.55568497180938
91,910000,50.377984834979515,-62.994026,0.0,-109.14317,-0.004847691,3.2869453,0.0,2.2940888,-0.1801883,3381.7659,32.796795,7.208247,93.34216,93.907524,94.01872,93.42722,358.34518,0.7,-94.44524,-1349.745,0.0033647758,-11.547903,-3.7609744,-3.6243405,-5.691553,-3.6571183,4.048499e-06,0.3,-1.4783268,61.614754,61.60647,61.591072,61.722076,2.3428464,0.4453125,3.8681228160858154,92.54706649382909
92,920000,44.12613831999968,-64.00037,0.0,-54.991024,-0.010277904,2.9808156,0.0,2.7783794,-1.1001873,5412.7285,56.71585,6.376894,92.87817,93.36164,93.40217,93.01829,124.45681,0.7,-93.90459,-1592.7161,0.004639267,-10.718919,-1.2505755,-2.433917,-0.84519094,-0.8941186,1.5360838e-05,0.3,-1.4904382,62.497074,63.104855,62.89715,62.84079,1.104643,0.44375,3.5621604919433594,93.53402436971665
93,930000,47.98242616372803,-64.59427,0.0,27.575699,-0.007191396,3.9261882,0.0,3.5912395,-2.158728,5604.529,154.80096,6.1158037,93.51223,94.2655,94.467445,94.61471,473.07315,0.7,-94.21629,-1532.3284,0.0043211197,-15.512377,1.1937616,2.2826052,1.0167443,-2.238061,2.9703369e-08,0.3,-1.365917,63.170166,62.63845,63.007526,62.695244,3.4069474,0.47812498,3.7756643295288086,94.5196440577507
94,940000,46.177481571433766,-63.605797,0.0,-20.099258,-0.013463027,3.4605062,0.0,3.3097825,6.078891,7309.476,67.80626,6.7398024,93.164024,93.28548,93.84446,93.75744,65.59786,0.7,-94.79652,-1629.2871,0.0028652055,-11.625549,-3.104516,-6.0910244,-5.4145107,-4.582331,4.541944e-08,0.3,-1.1311448,62.218437,61.969612,62.24099,62.328087,1.139337,0.4734375,3.592780351638794,95.50143626530965
95,950000,49.22295909493239,-64.613014,0.0,-37.142662,-0.0032562527,3.2194097,0.0,2.7926607,1.4645336,4863.723,50.53222,8.603145,92.57643,93.97652,93.12395,92.648575,16.956608,0.7,-94.185875,-1832.001,0.002278188,-16.210749,0.66120994,1.0312103,-2.521101,-1.6227336,3.0074445e-06,0.3,-1.3557258,63.39701,63.728,63.647156,63.665573,0.51151204,0.42812496,3.6839802265167236,96.48690631786982
96,955000,50.64413112379725,-63.98017,0.0,-24.33931,-0.0030716665,3.3966851,0.0,2.4542823,-3.868155,5423.885,52.175346,6.8249884,95.43759,93.78695,95.350494,94.6087,54.04989,0.7,-94.570114,-1189.4321,0.005670402,-8.982796,-1.8596134,-2.3006825,-2.4188285,-2.0428321,2.49366e-07,0.3,-1.000327,62.93454,62.759476,62.997395,63.14647,0.91628903,0.4484375,3.735903263092041,97.01557113726933
97,960000,44.20489351465633,-63.668583,0.0,-19.191658,0.001635155,3.2337024,0.0,4.6887283,1.8375461,7747.8267,232.73552,18.642206,94.67403,93.80374,93.54499,93.85058,14.579743,0.7,-95.99661,-1630.8145,0.0008366097,-11.456543,-5.232906,-6.070177,-0.85234475,-1.9815239,6.604678e-06,0.3,-1.4339252,62.0179,61.771065,61.505882,61.779835,0.74809843,0.49374998,3.2584447860717773,97.53072373072307
98,965000,45.8404098748643,-65.37912,0.0,-60.375896,-0.0069710375,3.348028,0.0,3.4357743,3.5787604,4825.087,185.24542,6.974173,93.57589,94.01091,94.05234,93.94317,26.492327,0.7,-94.57052,-1563.912,0.0012023505,-8.942321,-4.000285,-3.1427002,0.63774425,-7.054537,6.5045316e-07,0.3,-0.7190696,64.42903,64.17609,64.62044,64.53093,0.6826134,0.49218747,3.374415636062622,98.05218566656113
99,970000,50.680414018848076,-63.7288,0.0,-67.975464,-0.004369282,3.5694573,0.0,3.1856608,5.7196674,5657.4976,200.38187,7.584298,93.21819,93.09434,93.693275,93.747734,107.51176,0.7,-94.28678,-1519.7644,0.0038978825,-15.335403,-5.101455,-2.4244843,-6.1523976,-5.756803,1.11758716e-07,0.3,-1.229427,61.89504,62.36199,62.28565,62.564415,1.6660705,0.4328125,3.753580331802368,98.57416977882386
100,975000,46.82908520295376,-63.47448,0.0,-0.5993862,-0.0034929558,3.2179754,0.0,2.0791306,-3.2617416,8886.237,30.093372,8.877649,95.98891,95.18579,95.83856,95.649925,17.566862,0.7,-96.11365,-1587.8529,3.5084275e-05,-11.473373,0.43073428,1.5967426,0.51419795,0.6512512,1.6585154e-05,0.3,-1.4659355,62.403763,62.382954,62.27263,62.289993,0.5750514,0.41562498,3.4562911987304688,99.09794732729594
101,980000,50.199767231084365,-62.72023,0.0,51.942314,-0.0035906509,3.4392319,0.0,3.8217044,-5.5435095,6005.4077,132.92413,6.1530957,94.93211,93.39089,95.31332,96.04066,28.657557,0.7,-94.060135,-2026.6465,0.004010555,-10.839767,-1.3067781,2.3621716,-2.0367231,-2.4435723,2.7459744e-05,0.3,-1.5268422,60.974125,61.376682,60.810677,61.139133,0.9744034,0.4453125,3.7502365112304688,99.62138525644939
102,985000,50.29192627725205,-62.309612,0.0,-2.8110104,0.001587394,3.541104,0.0,4.1952887,0.8240929,6197.0493,319.3816,8.341156,94.40816,94.13873,95.127945,94.259125,394.48764,0.7,-95.222534,-1683.4803,0.016476255,-16.11892,-0.62074053,-2.9181662,-2.9470477,-3.385528,2.0424604e-06,0.3,-1.0148368,60.486874,60.26156,60.31432,60.899757,3.1350214,0.4421875,3.6673552989959717,100.14841225544612
103,990000,45.7526004719693,-64.104866,0.0,-9.754131,0.0031645757,3.6865754,0.0,3.0348463,-2.9435203,7839.0376,127.09299,15.924385,93.300995,93.32141,93.78751,93.15341,52.70309,0.7,-93.7967,-1649.6292,0.0061991704,-10.593771,-3.5057926,-1.6306491,-1.5914322,-1.0710089,2.0067395e-05,0.3,-1.1410437,62.90417,62.926933,63.136242,63.14762,0.99234504,0.4359375,3.3891243934631348,100.66871176163356
104,995000,48.428810235690385,-62.7576,0.0,-44.153286,-0.016814128,3.5949,0.0,3.7558203,-2.7123272,3878.2197,110.02524,6.6488495,94.09648,94.051384,94.81265,95.18888,50.53413,0.7,-95.56212,-1316.2821,0.0013403109,-12.866854,1.0899884,0.094661474,0.9493789,2.0406685,2.4165029e-06,0.3,-1.2903576,61.649544,61.455616,61.766174,61.90137,0.9331857,0.403125,3.642683506011963,101.19442324241002
105,1000000,47.682616093994504,-63.07967,0.0,-22.80262,-0.0024748107,3.8223073,0.0,3.850357,5.5211163,5076.9526,125.66912,10.881412,93.3492,94.72893,94.23077,93.97499,86.66754,0.7,-94.80345,-1568.1617,0.00292852,-10.682587,-5.663379,-2.4590254,-3.5054357,-2.670877,1.5759724e-07,0.3,-1.317415,61.071426,61.73552,61.691727,61.94304,1.1474347,0.4375,3.525240182876587,101.71367048025131
